; G-Code generated by Simplify3D(R) Version 3.0.0
; Dez 15, 2017 at 1:28:11 
; Settings Summary
;   processName,Process1
;   applyToModels,Lock_verfeinerung
;   profileName,Renkforce (modified)
;   profileVersion,2017-10-17 11:10:50
;   baseProfile,German RepRap NEO (modified)
;   printMaterial,
;   printQuality,
;   printExtruders,
;   extruderName,Primary Extruder
;   extruderToolheadNumber,0
;   extruderDiameter,0.5
;   extruderAutoWidth,0
;   extruderWidth,0.49
;   extrusionMultiplier,0.94
;   extruderUseRetract,1
;   extruderRetractionDistance,6.5
;   extruderExtraRestartDistance,0
;   extruderRetractionZLift,0
;   extruderRetractionSpeed,4998
;   extruderUseCoasting,0
;   extruderCoastingDistance,0.2
;   extruderUseWipe,0
;   extruderWipeDistance,5
;   primaryExtruder,0
;   layerHeight,0.1
;   topSolidLayers,4
;   bottomSolidLayers,3
;   perimeterOutlines,3
;   printPerimetersInsideOut,1
;   startPointOption,2
;   startPointOriginX,0
;   startPointOriginY,0
;   startPointOriginZ,300
;   sequentialIslands,0
;   spiralVaseMode,0
;   firstLayerHeightPercentage,200
;   firstLayerWidthPercentage,100
;   firstLayerUnderspeed,0.28
;   useRaft,0
;   raftExtruder,0
;   raftLayers,3
;   raftOffset,3
;   raftSeparationDistance,0.1
;   raftInfill,85
;   disableRaftBaseLayers,0
;   useSkirt,1
;   skirtExtruder,0
;   skirtLayers,1
;   skirtOutlines,4
;   skirtOffset,2
;   usePrimePillar,0
;   primePillarExtruder,999
;   primePillarWidth,12
;   primePillarLocation,7
;   primePillarSpeedMultiplier,1
;   useOozeShield,0
;   oozeShieldExtruder,999
;   oozeShieldOffset,2
;   oozeShieldOutlines,1
;   oozeShieldSidewallShape,1
;   oozeShieldSidewallAngle,30
;   oozeShieldSpeedMultiplier,1
;   infillExtruder,0
;   internalInfillPattern,Full Honeycomb
;   externalInfillPattern,Rectilinear
;   infillPercentage,10
;   outlineOverlapPercentage,15
;   infillExtrusionWidthPercentage,100
;   minInfillLength,3
;   infillLayerInterval,1
;   infillAngles,0,120,-120
;   overlapInfillAngles,0
;   generateSupport,1
;   supportExtruder,0
;   supportInfillPercentage,30
;   supportExtraInflation,0
;   denseSupportLayers,0
;   denseSupportInfillPercentage,75
;   supportLayerInterval,1
;   supportHorizontalPartOffset,1.5
;   supportUpperSeparationLayers,2
;   supportLowerSeparationLayers,2
;   supportType,0
;   supportGridSpacing,5
;   maxOverhangAngle,45
;   supportAngles,45
;   temperatureName,Primary Extruder
;   temperatureNumber,0
;   temperatureSetpointCount,3
;   temperatureSetpointLayers,1,2,3
;   temperatureSetpointTemperatures,197,193,189
;   temperatureStabilizeAtStartup,1
;   temperatureHeatedBed,0
;   temperatureRelayBetweenLayers,0
;   temperatureRelayBetweenLoops,0
;   fanLayers,1,3
;   fanSpeeds,0,80
;   blipFanToFullPower,0
;   adjustSpeedForCooling,1
;   minSpeedLayerTime,15
;   minCoolingSpeedSlowdown,20
;   increaseFanForCooling,0
;   minFanLayerTime,45
;   maxCoolingFanSpeed,100
;   increaseFanForBridging,0
;   bridgingFanSpeed,100
;   use5D,1
;   relativeEdistances,0
;   allowEaxisZeroing,1
;   independentExtruderAxes,0
;   includeM10123,0
;   stickySupport,1
;   applyToolheadOffsets,0
;   gcodeXoffset,0
;   gcodeYoffset,0
;   gcodeZoffset,0
;   overrideMachineDefinition,1
;   machineTypeOverride,0
;   strokeXoverride,150
;   strokeYoverride,150
;   strokeZoverride,150
;   originOffsetXoverride,0
;   originOffsetYoverride,0
;   originOffsetZoverride,0
;   homeXdirOverride,-1
;   homeYdirOverride,-1
;   homeZdirOverride,-1
;   flipXoverride,1
;   flipYoverride,-1
;   flipZoverride,1
;   toolheadOffsets,0,0|0,0|0,0|0,0|0,0|0,0
;   overrideFirmwareConfiguration,0
;   firmwareTypeOverride,RepRap (Marlin/Repetier/Sprinter)
;   GPXconfigOverride,r2
;   baudRateOverride,115200
;   overridePrinterModels,0
;   printerModelsOverride
;   startingGcode,G28 ; home all axes
;   layerChangeGcode,
;   retractionGcode,
;   toolChangeGcode,
;   endingGcode,M104 S0 ; turn off extruder,M140 S0 ; turn off bed,G28 X0  ; home X axis,G28 Y0  ; home Y axis,M84 ; disable motors,M107
;   createX3G,0
;   celebration,0
;   celebrationSong,Random Song
;   createMB5G,0
;   postProcessing,
;   defaultSpeed,2400
;   outlineUnderspeed,0.5
;   solidInfillUnderspeed,0.8
;   supportUnderspeed,0.8
;   rapidXYspeed,3498
;   rapidZspeed,1002
;   minBridgingArea,50
;   bridgingExtraInflation,0
;   bridgingExtrusionMultiplier,1
;   bridgingSpeedMultiplier,1
;   filamentDiameter,1.75
;   filamentPricePerKg,46
;   filamentDensity,1.25
;   useMinPrintHeight,0
;   minPrintHeight,0
;   useMaxPrintHeight,0
;   maxPrintHeight,0
;   useDiaphragm,0
;   diaphragmLayerInterval,20
;   robustSlicing,1
;   mergeAllIntoSolid,0
;   onlyRetractWhenCrossingOutline,1
;   retractBetweenLayers,1
;   useRetractionMinTravel,0
;   retractionMinTravel,3
;   retractWhileWiping,0
;   onlyWipeOutlines,1
;   avoidCrossingOutline,0
;   maxMovementDetourFactor,10
;   toolChangeRetractionDistance,0
;   toolChangeExtraRestartDistance,0
;   toolChangeRetractionSpeed,360
;   allowThinWallGapFill,1
;   thinWallAllowedOverlapPercentage,10
;   horizontalSizeCompensation,0
G90
M82
M106 S0
M104 S197 T0
M109 S197 T0
G28 ; home all axes
G92 E0
G1 E-6.5000 F4998
G1 Z0.200 F1002
; layer 1, Z = 0.2
T0
; tool H0.200 W0.490
; skirt
G1 X67.726 Y62.428 F3498
G1 E0.0000 F1499
G92 E0
G1 X68.150 Y62.107 E0.0204 F672
G1 X69.452 Y61.648 E0.0733
G1 X69.537 Y61.623 E0.0766
G1 X69.824 Y61.554 E0.0879
G1 X69.911 Y61.538 E0.0913
G1 X70.418 Y61.470 E0.1109
G1 X70.475 Y61.464 E0.1131
G1 X70.664 Y61.452 E0.1204
G1 X70.721 Y61.450 E0.1226
G1 X79.472 Y61.450 E0.4577
G1 X79.539 Y61.452 E0.4603
G1 X79.760 Y61.470 E0.4688
G1 X79.826 Y61.477 E0.4713
G1 X80.324 Y61.555 E0.4906
G1 X80.419 Y61.576 E0.4944
G1 X80.732 Y61.662 E0.5068
G1 X80.824 Y61.693 E0.5105
G1 X82.054 Y62.188 E0.5613
G1 X82.454 Y62.511 E0.5810
G1 X83.427 Y63.951 E0.6475
G1 X83.577 Y64.441 E0.6672
G1 X83.577 Y87.815 E1.5624
G1 X83.316 Y88.446 E1.5885
G1 X81.662 Y90.100 E1.6781
G1 X81.032 Y90.361 E1.7042
G1 X69.067 Y90.361 E2.1624
G1 X68.437 Y90.100 E2.1886
G1 X66.783 Y88.446 E2.2782
G1 X66.522 Y87.815 E2.3043
G1 X66.522 Y64.408 E3.2008
G1 X66.683 Y63.901 E3.2211
G1 X67.726 Y62.428 E3.2903
G1 X68.082 Y62.773 F3498
G92 E0
G1 X68.385 Y62.544 E0.0146 F672
G1 X69.603 Y62.114 E0.0640
G1 X69.664 Y62.096 E0.0665
G1 X69.926 Y62.033 E0.0768
G1 X69.988 Y62.022 E0.0792
G1 X70.475 Y61.957 E0.0980
G1 X70.515 Y61.953 E0.0996
G1 X70.688 Y61.941 E0.1062
G1 X70.729 Y61.940 E0.1078
G1 X79.463 Y61.940 E0.4422
G1 X79.510 Y61.942 E0.4441
G1 X79.713 Y61.957 E0.4519
G1 X79.760 Y61.963 E0.4537
G1 X80.234 Y62.037 E0.4721
G1 X80.302 Y62.052 E0.4747
G1 X80.588 Y62.131 E0.4861
G1 X80.654 Y62.153 E0.4888
G1 X81.804 Y62.615 E0.5362
G1 X82.089 Y62.846 E0.5502
G1 X82.980 Y64.164 E0.6112
G1 X83.087 Y64.515 E0.6252
G1 X83.087 Y87.718 E1.5139
G1 X82.901 Y88.168 E1.5326
G1 X81.384 Y89.684 E1.6147
G1 X80.934 Y89.871 E1.6333
G1 X69.165 Y89.871 E2.0841
G1 X68.715 Y89.684 E2.1028
G1 X67.198 Y88.168 E2.1849
G1 X67.012 Y87.718 E2.2035
G1 X67.012 Y64.484 E3.0934
G1 X67.127 Y64.122 E3.1079
G1 X68.082 Y62.773 E3.1712
G1 X68.438 Y63.118 F3498
G92 E0
G1 X68.620 Y62.981 E0.0087 F672
G1 X69.754 Y62.581 E0.0548
G1 X69.791 Y62.570 E0.0563
G1 X70.028 Y62.513 E0.0656
G1 X70.065 Y62.506 E0.0671
G1 X70.532 Y62.444 E0.0851
G1 X70.556 Y62.441 E0.0860
G1 X70.713 Y62.431 E0.0920
G1 X70.737 Y62.430 E0.0930
G1 X79.453 Y62.430 E0.4268
G1 X79.482 Y62.431 E0.4279
G1 X79.665 Y62.445 E0.4349
G1 X79.693 Y62.449 E0.4360
G1 X80.145 Y62.519 E0.4535
G1 X80.186 Y62.528 E0.4551
G1 X80.445 Y62.600 E0.4654
G1 X80.484 Y62.613 E0.4670
G1 X81.553 Y63.042 E0.5111
G1 X81.724 Y63.181 E0.5195
G1 X82.533 Y64.378 E0.5749
G1 X82.597 Y64.588 E0.5833
G1 X82.597 Y87.620 E1.4654
G1 X82.485 Y87.891 E1.4766
G1 X81.107 Y89.269 E1.5513
G1 X80.837 Y89.381 E1.5625
G1 X69.262 Y89.381 E2.0058
G1 X68.992 Y89.269 E2.0170
G1 X67.614 Y87.891 E2.0916
G1 X67.502 Y87.620 E2.1028
G1 X67.502 Y64.560 E2.9860
G1 X67.571 Y64.343 E2.9947
G1 X68.438 Y63.118 E3.0522
G1 X68.794 Y63.463 F3498
G92 E0
G1 X68.854 Y63.418 E0.0029 F672
G1 X69.905 Y63.047 E0.0456
G1 X69.917 Y63.043 E0.0461
G1 X70.130 Y62.992 E0.0545
G1 X70.143 Y62.990 E0.0549
G1 X70.588 Y62.930 E0.0722
G1 X70.596 Y62.929 E0.0725
G1 X70.737 Y62.920 E0.0779
G1 X70.745 Y62.920 E0.0782
G1 X79.443 Y62.920 E0.4113
G1 X79.453 Y62.920 E0.4117
G1 X79.617 Y62.933 E0.4180
G1 X79.627 Y62.934 E0.4184
G1 X80.055 Y63.001 E0.4350
G1 X80.069 Y63.004 E0.4355
G1 X80.301 Y63.068 E0.4447
G1 X80.314 Y63.073 E0.4453
G1 X81.302 Y63.470 E0.4860
G1 X81.359 Y63.516 E0.4888
G1 X82.086 Y64.591 E0.5386
G1 X82.107 Y64.661 E0.5414
G1 X82.107 Y87.523 E1.4169
G1 X82.070 Y87.613 E1.4207
G1 X80.829 Y88.854 E1.4879
G1 X80.739 Y88.891 E1.4916
G1 X69.360 Y88.891 E1.9274
G1 X69.270 Y88.854 E1.9311
G1 X68.029 Y87.613 E1.9983
G1 X67.992 Y87.523 E2.0021
G1 X67.992 Y64.636 E2.8786
G1 X68.015 Y64.564 E2.8815
G1 X68.794 Y63.463 E2.9331
G92 E0
G1 E-6.5000 F4998
; inner perimeter
G1 X71.462 Y66.390 F3498
G1 E0.0000 F4998
G92 E0
G1 X78.637 Y66.390 E0.2748 F560
G1 X78.637 Y85.421 E1.0037
G1 X76.770 Y85.421 E1.0752
G1 X76.948 Y85.124 E1.0884
G1 X77.081 Y84.787 E1.1023
G1 X77.157 Y84.450 E1.1155
G1 X77.182 Y84.114 E1.1285
G1 X77.157 Y83.777 E1.1414
G1 X77.081 Y83.441 E1.1546
G1 X76.948 Y83.103 E1.1685
G1 X76.745 Y82.765 E1.1836
G1 X76.444 Y82.423 E1.2010
G1 X75.873 Y82.010 E1.2280
G1 X75.090 Y81.898 E1.2583
G1 X74.745 Y81.898 E1.2715
G1 X74.007 Y82.017 E1.3002
G1 X73.446 Y82.430 E1.3268
G1 X73.149 Y82.773 E1.3442
G1 X72.950 Y83.110 E1.3592
G1 X72.820 Y83.446 E1.3730
G1 X72.745 Y83.780 E1.3861
G1 X72.722 Y84.103 E1.3985
G1 X72.744 Y84.444 E1.4116
G1 X72.820 Y84.782 E1.4249
G1 X72.950 Y85.117 E1.4386
G1 X73.129 Y85.421 E1.4521
G1 X71.462 Y85.421 E1.5160
G1 X71.462 Y66.390 E2.2448
; inner perimeter
G1 X70.972 Y65.900 F3498
G92 E0
G1 X79.127 Y65.900 E0.3123 F448
G1 X79.127 Y85.911 E1.0787
G1 X75.461 Y85.911 E1.2191
G1 X76.112 Y85.440 E1.2499
G1 X76.348 Y85.172 E1.2636
G1 X76.507 Y84.907 E1.2754
G1 X76.611 Y84.642 E1.2863
G1 X76.671 Y84.378 E1.2967
G1 X76.690 Y84.114 E1.3068
G1 X76.671 Y83.850 E1.3170
G1 X76.611 Y83.585 E1.3273
G1 X76.507 Y83.321 E1.3382
G1 X76.348 Y83.056 E1.3501
G1 X76.112 Y82.788 E1.3637
G1 X75.683 Y82.478 E1.3840
G1 X75.055 Y82.388 E1.4083
G1 X74.785 Y82.388 E1.4187
G1 X74.202 Y82.482 E1.4413
G1 X73.781 Y82.792 E1.4613
G1 X73.548 Y83.060 E1.4749
G1 X73.392 Y83.325 E1.4867
G1 X73.290 Y83.588 E1.4975
G1 X73.231 Y83.851 E1.5078
G1 X73.213 Y84.104 E1.5175
G1 X73.231 Y84.374 E1.5279
G1 X73.290 Y84.639 E1.5383
G1 X73.392 Y84.903 E1.5491
G1 X73.548 Y85.168 E1.5609
G1 X73.781 Y85.436 E1.5745
G1 X74.427 Y85.911 E1.6052
G1 X70.972 Y85.911 E1.7375
G1 X70.972 Y65.900 E2.5039
; outer perimeter
G1 X70.482 Y65.484 F3498
G92 E0
G1 X70.606 Y65.440 E0.0051 F336
G1 X70.832 Y65.410 E0.0138
G1 X79.342 Y65.410 E0.3397
G1 X79.523 Y65.438 E0.3467
G1 X79.617 Y65.476 E0.3506
G1 X79.617 Y86.401 E1.1520
G1 X70.482 Y86.401 E1.5019
G1 X70.482 Y65.484 E2.3030
; inner perimeter
; inner perimeter
; outer perimeter
G1 X74.397 Y82.947 F3498
G92 E0
G1 X74.115 Y83.154 E0.0134 F336
G1 X73.948 Y83.347 E0.0232
G1 X73.835 Y83.539 E0.0317
G1 X73.760 Y83.731 E0.0396
G1 X73.718 Y83.922 E0.0471
G1 X73.704 Y84.106 E0.0541
G1 X73.717 Y84.304 E0.0618
G1 X73.760 Y84.497 E0.0693
G1 X73.835 Y84.688 E0.0772
G1 X73.948 Y84.880 E0.0857
G1 X74.115 Y85.073 E0.0955
G1 X74.394 Y85.278 E0.1087
G1 X74.821 Y85.359 E0.1254
G1 X75.020 Y85.359 E0.1330
G1 X75.497 Y85.280 E0.1515
G1 X75.781 Y85.075 E0.1649
G1 X75.951 Y84.882 E0.1748
G1 X76.066 Y84.690 E0.1834
G1 X76.141 Y84.498 E0.1913
G1 X76.185 Y84.306 E0.1988
G1 X76.199 Y84.114 E0.2062
G1 X76.185 Y83.922 E0.2135
G1 X76.141 Y83.730 E0.2211
G1 X76.066 Y83.538 E0.2290
G1 X75.951 Y83.346 E0.2376
G1 X75.780 Y83.153 E0.2474
G1 X75.494 Y82.946 E0.2609
G1 X75.021 Y82.878 E0.2793
G1 X74.824 Y82.878 E0.2868
G1 X74.397 Y82.947 E0.3034
; solid layer
G1 X73.937 Y81.607 F3498
G92 E0
G1 X78.221 Y77.323 E0.2320 F538
G1 X78.221 Y78.016 E0.2586
G1 X74.755 Y81.482 E0.4463
G1 X75.119 Y81.482 E0.4602
G1 X75.407 Y81.523 E0.4714
G1 X78.221 Y78.709 E0.6237
G1 X78.221 Y79.402 E0.6503
G1 X76.014 Y81.609 E0.7698
G1 X76.033 Y81.612 E0.7706
G1 X76.422 Y81.893 E0.7890
G1 X78.221 Y80.095 E0.8864
G1 X78.221 Y80.788 E0.9129
G1 X76.805 Y82.203 E0.9896
G1 X77.083 Y82.519 E1.0057
G1 X77.120 Y82.581 E1.0085
G1 X78.221 Y81.481 E1.0681
G1 X78.221 Y82.174 E1.0946
G1 X77.366 Y83.029 E1.1409
G1 X77.480 Y83.318 E1.1528
G1 X77.533 Y83.554 E1.1621
G1 X78.221 Y82.867 E1.1993
G1 X78.221 Y83.560 E1.2258
G1 X77.594 Y84.187 E1.2598
G1 X77.570 Y84.512 E1.2723
G1 X77.480 Y84.910 E1.2879
G1 X77.443 Y85.004 E1.2918
G1 X77.469 Y85.004 E1.2928
G1 X78.221 Y84.253 E1.3335
G1 X78.221 Y84.946 E1.3600
G1 X78.162 Y85.004 E1.3632
G92 E0
G1 E-6.5000 F4998
G1 X72.348 Y84.581 F3498
G1 E0.0000 F4998
G92 E0
G1 X71.925 Y85.004 E0.0229 F538
G1 X71.878 Y85.004 E0.0247
G1 X71.878 Y84.358 E0.0495
G1 X72.318 Y83.919 E0.0732
G1 X72.332 Y83.720 E0.0809
G1 X72.420 Y83.325 E0.0964
G1 X72.547 Y82.996 E0.1099
G1 X71.878 Y83.665 E0.1461
G1 X71.878 Y82.972 E0.1726
G1 X78.221 Y76.630 E0.5162
G1 X78.221 Y75.937 E0.5427
G1 X71.878 Y82.279 E0.8862
G1 X71.878 Y81.586 E0.9127
G1 X78.221 Y75.244 E1.2562
G1 X78.221 Y74.551 E1.2828
G1 X71.878 Y80.893 E1.6263
G1 X71.878 Y80.200 E1.6528
G1 X78.221 Y73.858 E1.9963
G1 X78.221 Y73.165 E2.0229
G1 X71.878 Y79.507 E2.3664
G1 X71.878 Y78.815 E2.3929
G1 X78.221 Y72.472 E2.7364
G1 X78.221 Y71.779 E2.7630
G1 X71.878 Y78.122 E3.1065
G1 X71.878 Y77.429 E3.1330
G1 X78.221 Y71.086 E3.4765
G1 X78.221 Y70.393 E3.5031
G1 X71.878 Y76.736 E3.8466
G1 X71.878 Y76.043 E3.8731
G1 X78.221 Y69.701 E4.2166
G1 X78.221 Y69.008 E4.2432
G1 X71.878 Y75.350 E4.5867
G1 X71.878 Y74.657 E4.6132
G1 X78.221 Y68.315 E4.9567
G1 X78.221 Y67.622 E4.9833
G1 X71.878 Y73.964 E5.3268
G1 X71.878 Y73.271 E5.3533
G1 X78.221 Y66.929 E5.6968
G1 X78.221 Y66.806 E5.7015
G1 X77.650 Y66.806 E5.7234
G1 X71.878 Y72.578 E6.0360
G1 X71.878 Y71.885 E6.0625
G1 X76.957 Y66.806 E6.3376
G1 X76.264 Y66.806 E6.3641
G1 X71.878 Y71.192 E6.6016
G1 X71.878 Y70.499 E6.6282
G1 X75.571 Y66.806 E6.8282
G1 X74.878 Y66.806 E6.8547
G1 X71.878 Y69.806 E7.0172
G1 X71.878 Y69.113 E7.0437
G1 X74.185 Y66.806 E7.1687
G1 X73.492 Y66.806 E7.1952
G1 X71.878 Y68.420 E7.2826
G1 X71.878 Y67.727 E7.3092
G1 X72.799 Y66.806 E7.3590
G1 X72.106 Y66.806 E7.3856
G1 X71.878 Y67.034 E7.3979
G92 E0
G1 E-6.5000 F4998
; layer 2, Z = 0.3
M104 S193 T0
; tool H0.100 W0.490
; inner perimeter
G1 X71.220 Y66.171 F3498
G1 Z0.300 F1002
G1 E0.0000 F4998
G92 E0
G1 X78.840 Y66.171 E0.1459 F2000
G1 X78.840 Y85.421 E0.5145
G1 X76.770 Y85.421 E0.5542
G1 X76.948 Y85.124 E0.5608
G1 X77.081 Y84.787 E0.5677
G1 X77.157 Y84.450 E0.5744
G1 X77.182 Y84.114 E0.5808
G1 X77.157 Y83.777 E0.5873
G1 X77.081 Y83.441 E0.5939
G1 X76.948 Y83.103 E0.6008
G1 X76.745 Y82.765 E0.6084
G1 X76.444 Y82.423 E0.6171
G1 X75.873 Y82.010 E0.6306
G1 X75.090 Y81.898 E0.6457
G1 X74.745 Y81.898 E0.6523
G1 X74.007 Y82.017 E0.6667
G1 X73.446 Y82.430 E0.6800
G1 X73.149 Y82.773 E0.6887
G1 X72.950 Y83.110 E0.6962
G1 X72.820 Y83.446 E0.7031
G1 X72.745 Y83.780 E0.7096
G1 X72.721 Y84.114 E0.7160
G1 X72.745 Y84.448 E0.7225
G1 X72.820 Y84.782 E0.7290
G1 X72.950 Y85.117 E0.7359
G1 X73.129 Y85.421 E0.7427
G1 X71.220 Y85.421 E0.7792
G1 X71.220 Y66.171 E1.1478
; inner perimeter
G1 X71.015 Y65.681 F3498
G92 E0
G1 X79.330 Y65.681 E0.1592 F1600
G1 X79.330 Y85.911 E0.5466
G1 X75.461 Y85.911 E0.6207
G1 X76.112 Y85.440 E0.6361
G1 X76.348 Y85.172 E0.6429
G1 X76.507 Y84.907 E0.6488
G1 X76.611 Y84.642 E0.6543
G1 X76.671 Y84.378 E0.6595
G1 X76.690 Y84.114 E0.6645
G1 X76.671 Y83.850 E0.6696
G1 X76.611 Y83.585 E0.6748
G1 X76.507 Y83.321 E0.6802
G1 X76.348 Y83.056 E0.6862
G1 X76.112 Y82.788 E0.6930
G1 X75.683 Y82.478 E0.7031
G1 X75.055 Y82.388 E0.7153
G1 X74.785 Y82.388 E0.7205
G1 X74.202 Y82.482 E0.7318
G1 X73.781 Y82.792 E0.7418
G1 X73.548 Y83.060 E0.7486
G1 X73.392 Y83.325 E0.7545
G1 X73.290 Y83.588 E0.7599
G1 X73.231 Y83.851 E0.7650
G1 X73.212 Y84.114 E0.7701
G1 X73.231 Y84.376 E0.7751
G1 X73.290 Y84.639 E0.7803
G1 X73.392 Y84.903 E0.7857
