; G-Code generated by Simplify3D(R) Version 3.0.0
; Dez 3, 2017 at 12:00:51 
; Settings Summary
;   processName,Process1
;   applyToModels,board_ritzel02
;   profileName,Renkforce (modified)
;   profileVersion,2017-10-17 11:10:50
;   baseProfile,German RepRap NEO (modified)
;   printMaterial,
;   printQuality,
;   printExtruders,
;   extruderName,Primary Extruder
;   extruderToolheadNumber,0
;   extruderDiameter,0.5
;   extruderAutoWidth,0
;   extruderWidth,0.49
;   extrusionMultiplier,0.94
;   extruderUseRetract,1
;   extruderRetractionDistance,6.5
;   extruderExtraRestartDistance,0
;   extruderRetractionZLift,0
;   extruderRetractionSpeed,4998
;   extruderUseCoasting,0
;   extruderCoastingDistance,0.2
;   extruderUseWipe,0
;   extruderWipeDistance,5
;   primaryExtruder,0
;   layerHeight,0.15
;   topSolidLayers,4
;   bottomSolidLayers,3
;   perimeterOutlines,3
;   printPerimetersInsideOut,1
;   startPointOption,2
;   startPointOriginX,0
;   startPointOriginY,0
;   startPointOriginZ,300
;   sequentialIslands,0
;   spiralVaseMode,0
;   firstLayerHeightPercentage,150
;   firstLayerWidthPercentage,100
;   firstLayerUnderspeed,0.28
;   useRaft,0
;   raftExtruder,0
;   raftLayers,3
;   raftOffset,3
;   raftSeparationDistance,0.1
;   raftInfill,85
;   disableRaftBaseLayers,0
;   useSkirt,1
;   skirtExtruder,0
;   skirtLayers,1
;   skirtOutlines,2
;   skirtOffset,2
;   usePrimePillar,0
;   primePillarExtruder,999
;   primePillarWidth,12
;   primePillarLocation,7
;   primePillarSpeedMultiplier,1
;   useOozeShield,0
;   oozeShieldExtruder,999
;   oozeShieldOffset,2
;   oozeShieldOutlines,1
;   oozeShieldSidewallShape,1
;   oozeShieldSidewallAngle,30
;   oozeShieldSpeedMultiplier,1
;   infillExtruder,0
;   internalInfillPattern,Full Honeycomb
;   externalInfillPattern,Rectilinear
;   infillPercentage,15
;   outlineOverlapPercentage,15
;   infillExtrusionWidthPercentage,100
;   minInfillLength,3
;   infillLayerInterval,1
;   infillAngles,0,120,-120
;   overlapInfillAngles,0
;   generateSupport,0
;   supportExtruder,0
;   supportInfillPercentage,30
;   supportExtraInflation,0
;   denseSupportLayers,0
;   denseSupportInfillPercentage,75
;   supportLayerInterval,1
;   supportHorizontalPartOffset,1.5
;   supportUpperSeparationLayers,2
;   supportLowerSeparationLayers,2
;   supportType,0
;   supportGridSpacing,5
;   maxOverhangAngle,45
;   supportAngles,45
;   temperatureName,Primary Extruder
;   temperatureNumber,0
;   temperatureSetpointCount,3
;   temperatureSetpointLayers,1,2,3
;   temperatureSetpointTemperatures,197,193,189
;   temperatureStabilizeAtStartup,1
;   temperatureHeatedBed,0
;   temperatureRelayBetweenLayers,0
;   temperatureRelayBetweenLoops,0
;   fanLayers,1,3
;   fanSpeeds,0,80
;   blipFanToFullPower,0
;   adjustSpeedForCooling,1
;   minSpeedLayerTime,15
;   minCoolingSpeedSlowdown,20
;   increaseFanForCooling,0
;   minFanLayerTime,45
;   maxCoolingFanSpeed,100
;   increaseFanForBridging,0
;   bridgingFanSpeed,100
;   use5D,1
;   relativeEdistances,0
;   allowEaxisZeroing,1
;   independentExtruderAxes,0
;   includeM10123,0
;   stickySupport,1
;   applyToolheadOffsets,0
;   gcodeXoffset,0
;   gcodeYoffset,0
;   gcodeZoffset,0
;   overrideMachineDefinition,1
;   machineTypeOverride,0
;   strokeXoverride,150
;   strokeYoverride,150
;   strokeZoverride,150
;   originOffsetXoverride,0
;   originOffsetYoverride,0
;   originOffsetZoverride,0
;   homeXdirOverride,-1
;   homeYdirOverride,-1
;   homeZdirOverride,-1
;   flipXoverride,1
;   flipYoverride,-1
;   flipZoverride,1
;   toolheadOffsets,0,0|0,0|0,0|0,0|0,0|0,0
;   overrideFirmwareConfiguration,0
;   firmwareTypeOverride,RepRap (Marlin/Repetier/Sprinter)
;   GPXconfigOverride,r2
;   baudRateOverride,115200
;   overridePrinterModels,0
;   printerModelsOverride
;   startingGcode,G28 ; home all axes
;   layerChangeGcode,
;   retractionGcode,
;   toolChangeGcode,
;   endingGcode,M104 S0 ; turn off extruder,M140 S0 ; turn off bed,G28 X0  ; home X axis,G28 Y0  ; home Y axis,M84 ; disable motors,M107
;   createX3G,0
;   celebration,0
;   celebrationSong,Random Song
;   createMB5G,0
;   postProcessing,
;   defaultSpeed,2400
;   outlineUnderspeed,0.5
;   solidInfillUnderspeed,0.8
;   supportUnderspeed,0.8
;   rapidXYspeed,3498
;   rapidZspeed,1002
;   minBridgingArea,50
;   bridgingExtraInflation,0
;   bridgingExtrusionMultiplier,1
;   bridgingSpeedMultiplier,1
;   filamentDiameter,1.75
;   filamentPricePerKg,46
;   filamentDensity,1.25
;   useMinPrintHeight,0
;   minPrintHeight,0
;   useMaxPrintHeight,0
;   maxPrintHeight,0
;   useDiaphragm,0
;   diaphragmLayerInterval,20
;   robustSlicing,1
;   mergeAllIntoSolid,0
;   onlyRetractWhenCrossingOutline,1
;   retractBetweenLayers,1
;   useRetractionMinTravel,0
;   retractionMinTravel,3
;   retractWhileWiping,0
;   onlyWipeOutlines,1
;   avoidCrossingOutline,0
;   maxMovementDetourFactor,10
;   toolChangeRetractionDistance,0
;   toolChangeExtraRestartDistance,0
;   toolChangeRetractionSpeed,360
;   allowThinWallGapFill,1
;   thinWallAllowedOverlapPercentage,10
;   horizontalSizeCompensation,0
G90
M82
M106 S0
M104 S197 T0
M109 S197 T0
G28 ; home all axes
G92 E0
G1 E-6.5000 F4998
G1 Z0.225 F1002
; layer 1, Z = 0.225
T0
; tool H0.225 W0.490
; skirt
G1 X12.395 Y10.787 F3498
G1 E0.0000 F1499
G92 E0
G1 X12.530 Y10.585 E0.0104 F672
G1 X13.798 Y9.614 E0.0793
G1 X14.028 Y9.536 E0.0897
G1 X16.643 Y9.536 E0.2024
G1 X16.873 Y9.614 E0.2129
G1 X16.929 Y9.657 E0.2159
G1 X16.954 Y9.637 E0.2173
G1 X17.177 Y9.557 E0.2275
G1 X18.486 Y9.523 E0.2839
G1 X18.496 Y9.523 E0.2843
G1 X18.555 Y9.523 E0.2869
G1 X18.564 Y9.523 E0.2873
G1 X19.896 Y9.556 E0.3447
G1 X20.119 Y9.636 E0.3549
G1 X20.138 Y9.651 E0.3559
G1 X20.156 Y9.637 E0.3569
G1 X20.379 Y9.557 E0.3671
G1 X21.688 Y9.523 E0.4236
G1 X21.698 Y9.523 E0.4240
G1 X21.757 Y9.523 E0.4265
G1 X21.766 Y9.523 E0.4269
G1 X23.098 Y9.556 E0.4843
G1 X23.321 Y9.636 E0.4945
G1 X23.340 Y9.651 E0.4956
G1 X23.358 Y9.637 E0.4965
G1 X23.581 Y9.557 E0.5068
G1 X24.890 Y9.523 E0.5632
G1 X24.900 Y9.523 E0.5636
G1 X24.959 Y9.523 E0.5661
G1 X24.968 Y9.523 E0.5665
G1 X26.300 Y9.556 E0.6239
G1 X26.523 Y9.636 E0.6342
G1 X26.542 Y9.651 E0.6352
G1 X26.560 Y9.637 E0.6362
G1 X26.783 Y9.557 E0.6464
G1 X28.092 Y9.523 E0.7028
G1 X28.102 Y9.523 E0.7032
G1 X28.161 Y9.523 E0.7058
G1 X28.170 Y9.523 E0.7062
G1 X29.502 Y9.556 E0.7636
G1 X29.725 Y9.636 E0.7738
G1 X29.744 Y9.651 E0.7748
G1 X29.762 Y9.637 E0.7758
G1 X29.985 Y9.557 E0.7860
G1 X31.294 Y9.523 E0.8425
G1 X31.304 Y9.523 E0.8429
G1 X31.363 Y9.523 E0.8454
G1 X31.372 Y9.523 E0.8458
G1 X32.704 Y9.556 E0.9032
G1 X32.927 Y9.636 E0.9134
G1 X32.946 Y9.651 E0.9145
G1 X32.964 Y9.637 E0.9154
G1 X33.187 Y9.557 E0.9257
G1 X34.496 Y9.523 E0.9821
G1 X34.506 Y9.523 E0.9825
G1 X34.565 Y9.523 E0.9850
G1 X34.574 Y9.523 E0.9854
G1 X35.906 Y9.556 E1.0428
G1 X36.129 Y9.636 E1.0531
G1 X36.148 Y9.651 E1.0541
G1 X36.166 Y9.637 E1.0551
G1 X36.389 Y9.557 E1.0653
G1 X37.698 Y9.523 E1.1217
G1 X37.708 Y9.523 E1.1221
G1 X37.767 Y9.523 E1.1247
G1 X37.776 Y9.523 E1.1251
G1 X39.108 Y9.556 E1.1825
G1 X39.331 Y9.636 E1.1927
G1 X39.350 Y9.651 E1.1937
G1 X39.368 Y9.637 E1.1947
G1 X39.591 Y9.557 E1.2049
G1 X40.900 Y9.523 E1.2614
G1 X40.910 Y9.523 E1.2617
G1 X40.969 Y9.523 E1.2643
G1 X40.978 Y9.523 E1.2647
G1 X42.310 Y9.556 E1.3221
G1 X42.533 Y9.636 E1.3323
G1 X42.552 Y9.651 E1.3334
G1 X42.570 Y9.637 E1.3343
G1 X42.793 Y9.557 E1.3446
G1 X44.102 Y9.523 E1.4010
G1 X44.112 Y9.523 E1.4014
G1 X44.171 Y9.523 E1.4039
G1 X44.180 Y9.523 E1.4043
G1 X45.512 Y9.556 E1.4617
G1 X45.735 Y9.636 E1.4720
G1 X45.754 Y9.651 E1.4730
G1 X45.772 Y9.637 E1.4740
G1 X45.995 Y9.557 E1.4842
G1 X47.304 Y9.523 E1.5406
G1 X47.314 Y9.523 E1.5410
G1 X47.373 Y9.523 E1.5436
G1 X47.382 Y9.523 E1.5439
G1 X48.714 Y9.556 E1.6014
G1 X48.937 Y9.636 E1.6116
G1 X48.956 Y9.651 E1.6126
G1 X48.974 Y9.637 E1.6136
G1 X49.197 Y9.557 E1.6238
G1 X50.506 Y9.523 E1.6802
G1 X50.516 Y9.523 E1.6806
G1 X50.575 Y9.523 E1.6832
G1 X50.584 Y9.523 E1.6836
G1 X51.916 Y9.556 E1.7410
G1 X52.139 Y9.636 E1.7512
G1 X52.158 Y9.651 E1.7523
G1 X52.176 Y9.637 E1.7532
G1 X52.399 Y9.557 E1.7634
G1 X53.708 Y9.523 E1.8199
G1 X53.718 Y9.523 E1.8203
G1 X53.777 Y9.523 E1.8228
G1 X53.786 Y9.523 E1.8232
G1 X55.118 Y9.556 E1.8806
G1 X55.341 Y9.636 E1.8909
G1 X55.360 Y9.651 E1.8919
G1 X55.378 Y9.637 E1.8928
G1 X55.601 Y9.557 E1.9031
G1 X56.910 Y9.523 E1.9595
G1 X56.920 Y9.523 E1.9599
G1 X56.979 Y9.523 E1.9624
G1 X56.988 Y9.523 E1.9628
G1 X58.320 Y9.556 E2.0203
G1 X58.543 Y9.636 E2.0305
G1 X58.562 Y9.651 E2.0315
G1 X58.580 Y9.637 E2.0325
G1 X58.803 Y9.557 E2.0427
G1 X60.112 Y9.523 E2.0991
G1 X60.122 Y9.523 E2.0995
G1 X60.181 Y9.523 E2.1021
G1 X60.190 Y9.523 E2.1025
G1 X61.522 Y9.556 E2.1599
G1 X61.745 Y9.636 E2.1701
G1 X61.764 Y9.651 E2.1712
G1 X61.782 Y9.637 E2.1721
G1 X62.005 Y9.557 E2.1823
G1 X63.314 Y9.523 E2.2388
G1 X63.324 Y9.523 E2.2392
G1 X63.383 Y9.523 E2.2417
G1 X63.392 Y9.523 E2.2421
G1 X64.724 Y9.556 E2.2995
G1 X64.947 Y9.636 E2.3098
G1 X64.966 Y9.651 E2.3108
G1 X64.984 Y9.637 E2.3117
G1 X65.207 Y9.557 E2.3220
G1 X66.516 Y9.523 E2.3784
G1 X66.526 Y9.523 E2.3788
G1 X66.585 Y9.523 E2.3813
G1 X66.594 Y9.523 E2.3817
G1 X67.926 Y9.556 E2.4391
G1 X68.149 Y9.636 E2.4494
G1 X68.168 Y9.651 E2.4504
G1 X68.186 Y9.637 E2.4514
G1 X68.409 Y9.557 E2.4616
G1 X69.718 Y9.523 E2.5180
G1 X69.728 Y9.523 E2.5184
G1 X69.787 Y9.523 E2.5210
G1 X69.796 Y9.523 E2.5214
G1 X71.128 Y9.556 E2.5788
G1 X71.351 Y9.636 E2.5890
G1 X71.370 Y9.651 E2.5900
G1 X71.388 Y9.637 E2.5910
G1 X71.611 Y9.557 E2.6012
G1 X72.920 Y9.523 E2.6577
G1 X72.930 Y9.523 E2.6581
G1 X72.989 Y9.523 E2.6606
G1 X72.998 Y9.523 E2.6610
G1 X74.330 Y9.556 E2.7184
G1 X74.553 Y9.636 E2.7286
G1 X74.572 Y9.651 E2.7297
G1 X74.590 Y9.637 E2.7306
G1 X74.813 Y9.557 E2.7409
G1 X76.122 Y9.523 E2.7973
G1 X76.132 Y9.523 E2.7977
G1 X76.191 Y9.523 E2.8002
G1 X76.200 Y9.523 E2.8006
G1 X77.532 Y9.556 E2.8580
G1 X77.755 Y9.636 E2.8683
G1 X77.774 Y9.651 E2.8693
G1 X77.792 Y9.637 E2.8703
G1 X78.015 Y9.557 E2.8805
G1 X79.324 Y9.523 E2.9369
G1 X79.334 Y9.523 E2.9373
G1 X79.393 Y9.523 E2.9399
G1 X79.402 Y9.523 E2.9403
G1 X80.734 Y9.556 E2.9977
G1 X80.957 Y9.636 E3.0079
G1 X80.976 Y9.651 E3.0089
G1 X80.994 Y9.637 E3.0099
G1 X81.217 Y9.557 E3.0201
G1 X82.526 Y9.523 E3.0766
G1 X82.536 Y9.523 E3.0770
G1 X82.595 Y9.523 E3.0795
G1 X82.604 Y9.523 E3.0799
G1 X83.936 Y9.556 E3.1373
G1 X84.159 Y9.636 E3.1475
G1 X84.178 Y9.651 E3.1486
G1 X84.196 Y9.637 E3.1495
G1 X84.419 Y9.557 E3.1598
G1 X85.728 Y9.523 E3.2162
G1 X85.738 Y9.523 E3.2166
G1 X85.797 Y9.523 E3.2191
G1 X85.806 Y9.523 E3.2195
G1 X87.138 Y9.556 E3.2769
G1 X87.361 Y9.636 E3.2872
G1 X87.380 Y9.651 E3.2882
G1 X87.398 Y9.637 E3.2892
G1 X87.621 Y9.557 E3.2994
G1 X88.930 Y9.523 E3.3558
G1 X88.940 Y9.523 E3.3562
G1 X88.999 Y9.523 E3.3588
G1 X89.008 Y9.523 E3.3592
G1 X90.340 Y9.556 E3.4166
G1 X90.563 Y9.636 E3.4268
G1 X90.582 Y9.651 E3.4278
G1 X90.600 Y9.637 E3.4288
G1 X90.823 Y9.557 E3.4390
G1 X92.132 Y9.523 E3.4955
G1 X92.142 Y9.523 E3.4959
G1 X92.201 Y9.523 E3.4984
G1 X92.210 Y9.523 E3.4988
G1 X93.542 Y9.556 E3.5562
G1 X93.765 Y9.636 E3.5664
G1 X93.784 Y9.651 E3.5675
G1 X93.802 Y9.637 E3.5684
G1 X94.025 Y9.557 E3.5787
G1 X95.334 Y9.523 E3.6351
G1 X95.344 Y9.523 E3.6355
G1 X95.403 Y9.523 E3.6380
G1 X95.412 Y9.523 E3.6384
G1 X96.744 Y9.556 E3.6958
G1 X96.967 Y9.636 E3.7061
G1 X96.986 Y9.651 E3.7071
G1 X97.004 Y9.637 E3.7081
G1 X97.227 Y9.557 E3.7183
G1 X98.536 Y9.523 E3.7747
G1 X98.546 Y9.523 E3.7751
G1 X98.605 Y9.523 E3.7777
G1 X98.614 Y9.523 E3.7780
G1 X99.946 Y9.556 E3.8355
G1 X100.169 Y9.636 E3.8457
G1 X100.188 Y9.651 E3.8467
G1 X100.206 Y9.637 E3.8477
G1 X100.429 Y9.557 E3.8579
G1 X101.738 Y9.523 E3.9143
G1 X101.748 Y9.523 E3.9147
G1 X101.807 Y9.523 E3.9173
G1 X101.816 Y9.523 E3.9177
G1 X103.148 Y9.556 E3.9751
G1 X103.371 Y9.636 E3.9853
G1 X103.390 Y9.651 E3.9864
G1 X103.408 Y9.637 E3.9873
G1 X103.631 Y9.557 E3.9976
G1 X104.940 Y9.523 E4.0540
G1 X104.950 Y9.523 E4.0544
G1 X105.009 Y9.523 E4.0569
G1 X105.018 Y9.523 E4.0573
G1 X106.350 Y9.556 E4.1147
G1 X106.573 Y9.636 E4.1250
G1 X106.592 Y9.651 E4.1260
G1 X106.610 Y9.637 E4.1269
G1 X106.833 Y9.557 E4.1372
G1 X108.142 Y9.523 E4.1936
G1 X108.152 Y9.523 E4.1940
G1 X108.211 Y9.523 E4.1966
G1 X108.220 Y9.523 E4.1969
G1 X109.552 Y9.556 E4.2544
G1 X109.775 Y9.636 E4.2646
G1 X109.794 Y9.651 E4.2656
G1 X109.812 Y9.637 E4.2666
G1 X110.035 Y9.557 E4.2768
G1 X111.344 Y9.523 E4.3332
G1 X111.354 Y9.523 E4.3336
G1 X111.413 Y9.523 E4.3362
G1 X111.422 Y9.523 E4.3366
G1 X112.754 Y9.556 E4.3940
G1 X112.977 Y9.636 E4.4042
G1 X114.209 Y10.604 E4.4717
G1 X114.340 Y10.802 E4.4820
G1 X114.738 Y12.273 E4.5476
G1 X115.558 Y13.092 E4.5976
G1 X115.671 Y13.362 E4.6102
G1 X115.680 Y26.645 E5.1825
G1 X115.569 Y26.915 E5.1951
G1 X114.191 Y28.295 E5.2791
G1 X113.921 Y28.407 E5.2917
G1 X109.972 Y28.409 E5.4619
G1 X109.701 Y28.297 E5.4745
G1 X108.322 Y26.920 E5.5584
G1 X108.210 Y26.650 E5.5710
G1 X108.208 Y23.177 E5.7207
G1 X11.860 Y23.177 E9.8720
G1 X11.589 Y23.065 E9.8846
G1 X10.211 Y21.687 E9.9686
G1 X10.099 Y21.417 E9.9812
G1 X10.099 Y13.366 E10.3281
G1 X10.211 Y13.096 E10.3407
G1 X11.589 Y11.718 E10.4246
G1 X11.860 Y11.606 E10.4372
G1 X12.174 Y11.606 E10.4508
G1 X12.395 Y10.787 E10.4873
G1 X12.847 Y10.992 F3498
G92 E0
G1 X12.892 Y10.925 E0.0035 F672
G1 X14.032 Y10.052 E0.0654
G1 X14.109 Y10.026 E0.0689
G1 X16.562 Y10.026 E0.1746
G1 X16.639 Y10.052 E0.1781
G1 X16.933 Y10.277 E0.1940
G1 X17.194 Y10.071 E0.2083
G1 X17.269 Y10.045 E0.2117
G1 X18.496 Y10.013 E0.2646
G1 X18.499 Y10.013 E0.2648
G1 X18.552 Y10.013 E0.2670
G1 X18.555 Y10.013 E0.2672
G1 X19.805 Y10.044 E0.3210
G1 X19.879 Y10.071 E0.3245
G1 X20.138 Y10.274 E0.3387
G1 X20.396 Y10.071 E0.3528
G1 X20.471 Y10.045 E0.3562
G1 X21.698 Y10.013 E0.4091
G1 X21.701 Y10.013 E0.4092
G1 X21.754 Y10.013 E0.4115
G1 X21.757 Y10.013 E0.4116
G1 X23.007 Y10.044 E0.4655
G1 X23.081 Y10.071 E0.4689
G1 X23.340 Y10.274 E0.4831
G1 X23.598 Y10.071 E0.4972
G1 X23.673 Y10.045 E0.5007
G1 X24.900 Y10.013 E0.5535
G1 X24.903 Y10.013 E0.5537
G1 X24.956 Y10.013 E0.5560
G1 X24.959 Y10.013 E0.5561
G1 X26.209 Y10.044 E0.6099
G1 X26.283 Y10.071 E0.6134
G1 X26.542 Y10.274 E0.6276
G1 X26.800 Y10.071 E0.6417
G1 X26.875 Y10.045 E0.6451
G1 X28.102 Y10.013 E0.6980
G1 X28.105 Y10.013 E0.6981
G1 X28.158 Y10.013 E0.7004
G1 X28.161 Y10.013 E0.7005
G1 X29.411 Y10.044 E0.7544
G1 X29.485 Y10.071 E0.7578
G1 X29.744 Y10.274 E0.7720
G1 X30.002 Y10.071 E0.7861
G1 X30.077 Y10.045 E0.7896
G1 X31.304 Y10.013 E0.8424
G1 X31.307 Y10.013 E0.8426
G1 X31.360 Y10.013 E0.8449
G1 X31.363 Y10.013 E0.8450
G1 X32.613 Y10.044 E0.8989
G1 X32.687 Y10.071 E0.9023
G1 X32.946 Y10.274 E0.9165
G1 X33.204 Y10.071 E0.9306
G1 X33.279 Y10.045 E0.9340
G1 X34.506 Y10.013 E0.9869
G1 X34.509 Y10.013 E0.9870
G1 X34.562 Y10.013 E0.9893
G1 X34.565 Y10.013 E0.9894
G1 X35.815 Y10.044 E1.0433
G1 X35.889 Y10.071 E1.0467
G1 X36.148 Y10.274 E1.0609
G1 X36.406 Y10.071 E1.0751
G1 X36.481 Y10.045 E1.0785
G1 X37.708 Y10.013 E1.1314
G1 X37.711 Y10.013 E1.1315
G1 X37.764 Y10.013 E1.1338
G1 X37.767 Y10.013 E1.1339
G1 X39.017 Y10.044 E1.1878
G1 X39.091 Y10.071 E1.1912
G1 X39.350 Y10.274 E1.2054
G1 X39.608 Y10.071 E1.2195
G1 X39.683 Y10.045 E1.2229
G1 X40.910 Y10.013 E1.2758
G1 X40.913 Y10.013 E1.2759
G1 X40.966 Y10.013 E1.2782
G1 X40.969 Y10.013 E1.2784
G1 X42.219 Y10.044 E1.3322
G1 X42.293 Y10.071 E1.3356
G1 X42.552 Y10.274 E1.3498
G1 X42.810 Y10.071 E1.3640
G1 X42.885 Y10.045 E1.3674
G1 X44.112 Y10.013 E1.4203
G1 X44.115 Y10.013 E1.4204
G1 X44.168 Y10.013 E1.4227
G1 X44.171 Y10.013 E1.4228
G1 X45.421 Y10.044 E1.4767
G1 X45.495 Y10.071 E1.4801
G1 X45.754 Y10.274 E1.4943
G1 X46.012 Y10.071 E1.5084
G1 X46.087 Y10.045 E1.5118
G1 X47.314 Y10.013 E1.5647
G1 X47.317 Y10.013 E1.5649
G1 X47.370 Y10.013 E1.5671
G1 X47.373 Y10.013 E1.5673
G1 X48.623 Y10.044 E1.6211
G1 X48.697 Y10.071 E1.6245
G1 X48.956 Y10.274 E1.6387
G1 X49.214 Y10.071 E1.6529
G1 X49.289 Y10.045 E1.6563
G1 X50.516 Y10.013 E1.7092
G1 X50.519 Y10.013 E1.7093
G1 X50.572 Y10.013 E1.7116
G1 X50.575 Y10.013 E1.7117
G1 X51.825 Y10.044 E1.7656
G1 X51.899 Y10.071 E1.7690
