; G-Code generated by Simplify3D(R) Version 3.0.0
; Nov 30, 2017 at 8:59:30 
; Settings Summary
;   processName,Process1
;   applyToModels,board01_full
;   profileName,Renkforce (modified)
;   profileVersion,2017-10-17 11:10:50
;   baseProfile,German RepRap NEO (modified)
;   printMaterial,
;   printQuality,
;   printExtruders,
;   extruderName,Primary Extruder
;   extruderToolheadNumber,0
;   extruderDiameter,0.5
;   extruderAutoWidth,0
;   extruderWidth,0.49
;   extrusionMultiplier,0.94
;   extruderUseRetract,1
;   extruderRetractionDistance,6.5
;   extruderExtraRestartDistance,0
;   extruderRetractionZLift,0
;   extruderRetractionSpeed,4998
;   extruderUseCoasting,0
;   extruderCoastingDistance,0.2
;   extruderUseWipe,0
;   extruderWipeDistance,5
;   primaryExtruder,0
;   layerHeight,0.15
;   topSolidLayers,4
;   bottomSolidLayers,3
;   perimeterOutlines,3
;   printPerimetersInsideOut,1
;   startPointOption,2
;   startPointOriginX,0
;   startPointOriginY,0
;   startPointOriginZ,300
;   sequentialIslands,0
;   spiralVaseMode,0
;   firstLayerHeightPercentage,150
;   firstLayerWidthPercentage,100
;   firstLayerUnderspeed,0.28
;   useRaft,0
;   raftExtruder,0
;   raftLayers,3
;   raftOffset,3
;   raftSeparationDistance,0.1
;   raftInfill,85
;   disableRaftBaseLayers,0
;   useSkirt,1
;   skirtExtruder,0
;   skirtLayers,1
;   skirtOutlines,4
;   skirtOffset,2
;   usePrimePillar,0
;   primePillarExtruder,999
;   primePillarWidth,12
;   primePillarLocation,7
;   primePillarSpeedMultiplier,1
;   useOozeShield,0
;   oozeShieldExtruder,999
;   oozeShieldOffset,2
;   oozeShieldOutlines,1
;   oozeShieldSidewallShape,1
;   oozeShieldSidewallAngle,30
;   oozeShieldSpeedMultiplier,1
;   infillExtruder,0
;   internalInfillPattern,Full Honeycomb
;   externalInfillPattern,Rectilinear
;   infillPercentage,10
;   outlineOverlapPercentage,15
;   infillExtrusionWidthPercentage,100
;   minInfillLength,3
;   infillLayerInterval,1
;   infillAngles,0,120,-120
;   overlapInfillAngles,0
;   generateSupport,1
;   supportExtruder,0
;   supportInfillPercentage,30
;   supportExtraInflation,0
;   denseSupportLayers,0
;   denseSupportInfillPercentage,75
;   supportLayerInterval,1
;   supportHorizontalPartOffset,1.5
;   supportUpperSeparationLayers,2
;   supportLowerSeparationLayers,2
;   supportType,0
;   supportGridSpacing,5
;   maxOverhangAngle,45
;   supportAngles,45
;   temperatureName,Primary Extruder
;   temperatureNumber,0
;   temperatureSetpointCount,3
;   temperatureSetpointLayers,1,2,3
;   temperatureSetpointTemperatures,197,193,189
;   temperatureStabilizeAtStartup,1
;   temperatureHeatedBed,0
;   temperatureRelayBetweenLayers,0
;   temperatureRelayBetweenLoops,0
;   fanLayers,1,3
;   fanSpeeds,0,80
;   blipFanToFullPower,0
;   adjustSpeedForCooling,1
;   minSpeedLayerTime,15
;   minCoolingSpeedSlowdown,20
;   increaseFanForCooling,0
;   minFanLayerTime,45
;   maxCoolingFanSpeed,100
;   increaseFanForBridging,0
;   bridgingFanSpeed,100
;   use5D,1
;   relativeEdistances,0
;   allowEaxisZeroing,1
;   independentExtruderAxes,0
;   includeM10123,0
;   stickySupport,1
;   applyToolheadOffsets,0
;   gcodeXoffset,0
;   gcodeYoffset,0
;   gcodeZoffset,0
;   overrideMachineDefinition,1
;   machineTypeOverride,0
;   strokeXoverride,150
;   strokeYoverride,150
;   strokeZoverride,150
;   originOffsetXoverride,0
;   originOffsetYoverride,0
;   originOffsetZoverride,0
;   homeXdirOverride,-1
;   homeYdirOverride,-1
;   homeZdirOverride,-1
;   flipXoverride,1
;   flipYoverride,-1
;   flipZoverride,1
;   toolheadOffsets,0,0|0,0|0,0|0,0|0,0|0,0
;   overrideFirmwareConfiguration,0
;   firmwareTypeOverride,RepRap (Marlin/Repetier/Sprinter)
;   GPXconfigOverride,r2
;   baudRateOverride,115200
;   overridePrinterModels,0
;   printerModelsOverride
;   startingGcode,G28 ; home all axes
;   layerChangeGcode,
;   retractionGcode,
;   toolChangeGcode,
;   endingGcode,M104 S0 ; turn off extruder,M140 S0 ; turn off bed,G28 X0  ; home X axis,G28 Y0  ; home Y axis,M84 ; disable motors,M107
;   createX3G,0
;   celebration,0
;   celebrationSong,Random Song
;   createMB5G,0
;   postProcessing,
;   defaultSpeed,2400
;   outlineUnderspeed,0.5
;   solidInfillUnderspeed,0.8
;   supportUnderspeed,0.8
;   rapidXYspeed,3498
;   rapidZspeed,1002
;   minBridgingArea,50
;   bridgingExtraInflation,0
;   bridgingExtrusionMultiplier,1
;   bridgingSpeedMultiplier,1
;   filamentDiameter,1.75
;   filamentPricePerKg,46
;   filamentDensity,1.25
;   useMinPrintHeight,0
;   minPrintHeight,0
;   useMaxPrintHeight,0
;   maxPrintHeight,0
;   useDiaphragm,0
;   diaphragmLayerInterval,20
;   robustSlicing,1
;   mergeAllIntoSolid,0
;   onlyRetractWhenCrossingOutline,1
;   retractBetweenLayers,1
;   useRetractionMinTravel,0
;   retractionMinTravel,3
;   retractWhileWiping,0
;   onlyWipeOutlines,1
;   avoidCrossingOutline,0
;   maxMovementDetourFactor,10
;   toolChangeRetractionDistance,0
;   toolChangeExtraRestartDistance,0
;   toolChangeRetractionSpeed,360
;   allowThinWallGapFill,1
;   thinWallAllowedOverlapPercentage,10
;   horizontalSizeCompensation,0
G90
M82
M106 S0
M104 S197 T0
M109 S197 T0
G28 ; home all axes
G92 E0
G1 E-6.5000 F4998
G1 Z0.225 F1002
; layer 1, Z = 0.225
T0
; tool H0.225 W0.490
; skirt
G1 X4.146 Y9.440 F3498
G1 E0.0000 F1499
G92 E0
G1 X7.985 Y9.440 E0.1654 F672
G1 X8.615 Y9.701 E0.1948
G1 X9.854 Y10.940 E0.2703
G1 X133.485 Y10.940 E5.5971
G1 X134.115 Y11.201 E5.6265
G1 X135.769 Y12.855 E5.7273
G1 X136.030 Y13.486 E5.7567
G1 X136.030 Y18.338 E5.9658
G1 X135.769 Y18.969 E5.9952
G1 X134.539 Y20.199 E6.0701
G1 X135.769 Y21.428 E6.1451
G1 X136.030 Y22.059 E6.1745
G1 X136.030 Y35.361 E6.7476
G1 X135.769 Y35.992 E6.7770
G1 X134.590 Y37.171 E6.8489
G1 X135.769 Y38.351 E6.9207
G1 X136.030 Y38.981 E6.9501
G1 X136.030 Y43.825 E7.1588
G1 X135.769 Y44.455 E7.1882
G1 X134.115 Y46.109 E7.2890
G1 X133.485 Y46.370 E7.3184
G1 X9.854 Y46.370 E12.6452
G1 X8.615 Y47.609 E12.7207
G1 X7.985 Y47.870 E12.7501
G1 X4.146 Y47.870 E12.9155
G1 X3.515 Y47.609 E12.9449
G1 X1.861 Y45.955 E13.0457
G1 X1.600 Y45.325 E13.0751
G1 X1.600 Y37.886 E13.3956
G1 X1.861 Y37.255 E13.4250
G1 X3.515 Y35.601 E13.5258
G1 X4.146 Y35.340 E13.5552
G1 X30.600 Y35.340 E14.6950
G1 X30.600 Y22.270 E15.2582
G1 X4.146 Y22.270 E16.3980
G1 X3.515 Y22.009 E16.4274
G1 X1.861 Y20.355 E16.5282
G1 X1.600 Y19.725 E16.5576
G1 X1.600 Y11.986 E16.8910
G1 X1.861 Y11.355 E16.9204
G1 X3.515 Y9.701 E17.0212
G1 X4.146 Y9.440 E17.0506
G1 X4.243 Y9.930 F3498
G92 E0
G1 X7.887 Y9.930 E0.1570 F672
G1 X8.338 Y10.117 E0.1780
G1 X9.651 Y11.430 E0.2580
G1 X133.387 Y11.430 E5.5894
G1 X133.838 Y11.617 E5.6104
G1 X135.354 Y13.133 E5.7028
G1 X135.540 Y13.583 E5.7238
G1 X135.540 Y18.241 E5.9245
G1 X135.354 Y18.691 E5.9455
G1 X133.846 Y20.199 E6.0373
G1 X135.354 Y21.706 E6.1292
G1 X135.540 Y22.156 E6.1502
G1 X135.540 Y35.264 E6.7149
G1 X135.354 Y35.714 E6.7359
G1 X133.897 Y37.171 E6.8247
G1 X135.354 Y38.628 E6.9135
G1 X135.540 Y39.078 E6.9345
G1 X135.540 Y43.727 E7.1348
G1 X135.354 Y44.178 E7.1558
G1 X133.838 Y45.694 E7.2482
G1 X133.387 Y45.880 E7.2692
G1 X9.651 Y45.880 E12.6005
G1 X8.338 Y47.194 E12.6806
G1 X7.887 Y47.380 E12.7016
G1 X4.243 Y47.380 E12.8586
G1 X3.793 Y47.194 E12.8796
G1 X2.277 Y45.678 E12.9720
G1 X2.090 Y45.227 E12.9930
G1 X2.090 Y37.983 E13.3051
G1 X2.277 Y37.533 E13.3261
G1 X3.793 Y36.017 E13.4185
G1 X4.243 Y35.830 E13.4395
G1 X31.090 Y35.830 E14.5962
G1 X31.090 Y21.780 E15.2016
G1 X4.243 Y21.780 E16.3583
G1 X3.793 Y21.594 E16.3793
G1 X2.277 Y20.078 E16.4717
G1 X2.090 Y19.627 E16.4927
G1 X2.090 Y12.083 E16.8178
G1 X2.277 Y11.633 E16.8388
G1 X3.793 Y10.117 E16.9311
G1 X4.243 Y9.930 E16.9521
G1 X4.341 Y10.420 F3498
G92 E0
G1 X7.790 Y10.420 E0.1486 F672
G1 X8.060 Y10.532 E0.1612
G1 X9.438 Y11.910 E0.2452
G1 X9.443 Y11.920 E0.2457
G1 X133.290 Y11.920 E5.5818
G1 X133.560 Y12.032 E5.5944
G1 X134.938 Y13.410 E5.6784
G1 X135.050 Y13.681 E5.6910
G1 X135.050 Y18.143 E5.8833
G1 X134.938 Y18.413 E5.8959
G1 X133.560 Y19.792 E5.9799
G1 X133.290 Y19.904 E5.9924
G1 X127.419 Y19.904 E6.2454
G1 X127.419 Y20.493 E6.2708
G1 X133.290 Y20.493 E6.5238
G1 X133.560 Y20.605 E6.5363
G1 X134.938 Y21.984 E6.6203
G1 X135.050 Y22.254 E6.6329
G1 X135.050 Y35.167 E7.1893
G1 X134.938 Y35.437 E7.2019
G1 X133.560 Y36.815 E7.2859
G1 X133.290 Y36.927 E7.2985
G1 X127.397 Y36.927 E7.5524
G1 X127.397 Y37.415 E7.5734
G1 X133.290 Y37.415 E7.8273
G1 X133.560 Y37.527 E7.8399
G1 X134.938 Y38.906 E7.9239
G1 X135.050 Y39.176 E7.9365
G1 X135.050 Y43.630 E8.1284
G1 X134.938 Y43.900 E8.1410
G1 X133.560 Y45.278 E8.2250
G1 X133.290 Y45.390 E8.2376
G1 X9.443 Y45.390 E13.5737
G1 X9.438 Y45.400 E13.5742
G1 X8.060 Y46.778 E13.6582
G1 X7.790 Y46.890 E13.6708
G1 X4.341 Y46.890 E13.8194
G1 X4.071 Y46.778 E13.8320
G1 X2.692 Y45.400 E13.9160
G1 X2.580 Y45.130 E13.9286
G1 X2.580 Y38.081 E14.2323
G1 X2.692 Y37.810 E14.2449
G1 X4.071 Y36.432 E14.3289
G1 X4.341 Y36.320 E14.3415
G1 X31.580 Y36.320 E15.5152
G1 X31.580 Y21.290 E16.1627
G1 X4.341 Y21.290 E17.3364
G1 X4.071 Y21.178 E17.3490
G1 X2.692 Y19.800 E17.4330
G1 X2.580 Y19.530 E17.4456
G1 X2.580 Y12.181 E17.7622
G1 X2.692 Y11.910 E17.7748
G1 X4.071 Y10.532 E17.8588
G1 X4.341 Y10.420 E17.8714
G1 X4.438 Y10.910 F3498
G92 E0
G1 X7.693 Y10.910 E0.1402 F672
G1 X7.783 Y10.948 E0.1444
G1 X9.023 Y12.188 E0.2200
G1 X9.060 Y12.278 E0.2242
G1 X9.060 Y12.410 E0.2299
G1 X133.193 Y12.410 E5.5783
G1 X133.283 Y12.448 E5.5825
G1 X134.523 Y13.688 E5.6581
G1 X134.560 Y13.778 E5.6623
G1 X134.560 Y18.046 E5.8462
G1 X134.523 Y18.136 E5.8504
G1 X133.283 Y19.376 E5.9260
G1 X133.193 Y19.414 E5.9302
G1 X126.929 Y19.414 E6.2000
G1 X126.929 Y20.983 E6.2677
G1 X133.193 Y20.983 E6.5375
G1 X133.283 Y21.021 E6.5417
G1 X134.523 Y22.261 E6.6173
G1 X134.560 Y22.351 E6.6215
G1 X134.560 Y35.069 E7.1695
G1 X134.523 Y35.159 E7.1737
G1 X133.283 Y36.400 E7.2493
G1 X133.193 Y36.437 E7.2535
G1 X126.907 Y36.437 E7.5243
G1 X126.907 Y37.905 E7.5875
G1 X133.193 Y37.905 E7.8583
G1 X133.283 Y37.943 E7.8625
G1 X134.523 Y39.183 E7.9381
G1 X134.560 Y39.273 E7.9423
G1 X134.560 Y43.532 E8.1258
G1 X134.523 Y43.622 E8.1300
G1 X133.283 Y44.863 E8.2056
G1 X133.193 Y44.900 E8.2098
G1 X9.060 Y44.900 E13.5582
G1 X9.060 Y45.032 E13.5639
G1 X9.023 Y45.122 E13.5681
G1 X7.783 Y46.363 E13.6437
G1 X7.693 Y46.400 E13.6479
G1 X4.438 Y46.400 E13.7881
G1 X4.348 Y46.363 E13.7923
G1 X3.108 Y45.122 E13.8679
G1 X3.070 Y45.032 E13.8721
G1 X3.070 Y38.178 E14.1674
G1 X3.108 Y38.088 E14.1716
G1 X4.348 Y36.848 E14.2472
G1 X4.438 Y36.810 E14.2514
G1 X32.070 Y36.810 E15.4420
G1 X32.070 Y20.800 E16.1318
G1 X4.438 Y20.800 E17.3224
G1 X4.348 Y20.763 E17.3266
G1 X3.108 Y19.522 E17.4022
G1 X3.070 Y19.432 E17.4064
G1 X3.070 Y12.278 E17.7146
G1 X3.108 Y12.188 E17.7188
G1 X4.348 Y10.948 E17.7944
G1 X4.438 Y10.910 E17.7986
G92 E0
G1 E-6.5000 F4998
; inner perimeter
G1 X6.540 Y15.880 F3498
G1 E0.0000 F4998
G92 E0
G1 X123.459 Y15.880 E5.0376 F560
G1 X123.459 Y24.453 E5.4070
G1 X131.090 Y24.453 E5.7358
G1 X131.090 Y32.967 E6.1026
G1 X123.437 Y32.967 E6.4324
G1 X123.437 Y41.430 E6.7970
G1 X6.540 Y41.430 E11.8337
G1 X6.540 Y40.280 E11.8832
G1 X35.540 Y40.280 E13.1327
G1 X35.540 Y17.330 E14.1216
G1 X6.540 Y17.330 E15.3711
G1 X6.540 Y15.880 E15.4336
; inner perimeter
G1 X6.050 Y15.390 F3498
G92 E0
G1 X131.580 Y15.390 E5.4086 F448
G1 X131.580 Y16.434 E5.4536
G1 X123.949 Y16.434 E5.7824
G1 X123.949 Y23.963 E6.1068
G1 X131.580 Y23.963 E6.4356
G1 X131.580 Y33.457 E6.8447
G1 X123.927 Y33.457 E7.1744
G1 X123.927 Y40.885 E7.4945
G1 X131.580 Y40.885 E7.8242
G1 X131.580 Y41.920 E7.8688
G1 X6.050 Y41.920 E13.2774
G1 X6.050 Y39.790 E13.3692
G1 X35.050 Y39.790 E14.6187
G1 X35.050 Y17.820 E15.5653
G1 X6.050 Y17.820 E16.8148
G1 X6.050 Y15.390 E16.9195
; outer perimeter
G1 X5.560 Y13.400 F3498
G92 E0
G1 X6.570 Y13.400 E0.0435 F336
G1 X6.570 Y14.900 E0.1081
G1 X132.070 Y14.900 E5.5155
G1 X132.070 Y16.924 E5.6027
G1 X124.439 Y16.924 E5.9315
G1 X124.439 Y23.473 E6.2137
G1 X132.070 Y23.473 E6.5425
G1 X132.070 Y33.947 E6.9937
G1 X124.417 Y33.947 E7.3235
G1 X124.417 Y40.395 E7.6013
G1 X132.070 Y40.395 E7.9311
G1 X132.070 Y42.410 E8.0179
G1 X6.570 Y42.410 E13.4252
G1 X6.570 Y43.910 E13.4898
G1 X5.560 Y43.910 E13.5334
G1 X5.560 Y39.300 E13.7320
G1 X34.560 Y39.300 E14.9815
G1 X34.560 Y18.310 E15.8859
G1 X5.560 Y18.310 E17.1354
G1 X5.560 Y13.400 E17.3469
G92 E0
G1 E-6.5000 F4998
; inner perimeter
G1 X72.084 Y28.121 F3498
G1 E0.0000 F4998
G92 E0
G1 X72.084 Y29.190 E0.0461 F560
G1 X72.350 Y30.225 E0.0921
G1 X72.865 Y31.162 E0.1382
G1 X73.598 Y31.942 E0.1843
G1 X74.508 Y32.518 E0.2307
G1 X75.501 Y32.841 E0.2757
G1 X76.558 Y32.912 E0.3213
G1 X77.618 Y32.716 E0.3678
G1 X78.599 Y32.257 E0.4145
G1 X79.424 Y31.575 E0.4606
G1 X80.053 Y30.710 E0.5066
G1 X80.446 Y29.716 E0.5527
G1 X80.580 Y28.655 E0.5988
G1 X80.446 Y27.595 E0.6448
G1 X80.053 Y26.601 E0.6909
G1 X79.424 Y25.736 E0.7369
G1 X78.601 Y25.055 E0.7830
G1 X77.638 Y24.601 E0.8289
G1 X76.605 Y24.402 E0.8742
G1 X75.520 Y24.465 E0.9210
G1 X74.518 Y24.789 E0.9664
G1 X73.599 Y25.367 E1.0132
G1 X72.865 Y26.148 E1.0593
G1 X72.350 Y27.085 E1.1054
G1 X72.084 Y28.121 E1.1515
; inner perimeter
G1 X72.574 Y28.183 F3498
G92 E0
G1 X72.574 Y29.128 E0.0407 F448
G1 X72.809 Y30.043 E0.0815
G1 X73.265 Y30.872 E0.1222
G1 X73.912 Y31.561 E0.1629
G1 X74.718 Y32.071 E0.2040
G1 X75.595 Y32.356 E0.2437
G1 X76.530 Y32.419 E0.2841
G1 X77.467 Y32.246 E0.3252
G1 X78.335 Y31.840 E0.3665
G1 X79.064 Y31.237 E0.4072
G1 X79.620 Y30.472 E0.4480
G1 X79.968 Y29.593 E0.4887
G1 X80.086 Y28.655 E0.5294
G1 X79.968 Y27.718 E0.5701
G1 X79.620 Y26.839 E0.6109
G1 X79.064 Y26.074 E0.6516
G1 X78.336 Y25.472 E0.6923
G1 X77.484 Y25.070 E0.7329
G1 X76.573 Y24.894 E0.7729
G1 X75.611 Y24.951 E0.8144
G1 X74.727 Y25.237 E0.8544
G1 X73.913 Y25.749 E0.8959
G1 X73.265 Y26.439 E0.9367
G1 X72.809 Y27.267 E0.9774
G1 X72.574 Y28.183 E1.0181
; outer perimeter
G1 X73.064 Y28.245 F3498
G92 E0
G1 X73.064 Y29.066 E0.0354 F336
G1 X73.269 Y29.862 E0.0708
G1 X73.664 Y30.581 E0.1062
G1 X74.227 Y31.180 E0.1416
G1 X74.928 Y31.624 E0.1773
G1 X75.689 Y31.871 E0.2118
G1 X76.501 Y31.926 E0.2469
G1 X77.316 Y31.775 E0.2826
G1 X78.071 Y31.422 E0.3185
G1 X78.704 Y30.898 E0.3539
G1 X79.187 Y30.234 E0.3893
G1 X79.489 Y29.470 E0.4247
G1 X79.592 Y28.655 E0.4601
G1 X79.489 Y27.840 E0.4955
G1 X79.187 Y27.077 E0.5309
G1 X78.704 Y26.412 E0.5662
G1 X78.071 Y25.888 E0.6016
G1 X77.331 Y25.540 E0.6369
G1 X76.540 Y25.387 E0.6716
G1 X75.702 Y25.436 E0.7078
G1 X74.936 Y25.684 E0.7425
G1 X74.227 Y26.130 E0.7786
G1 X73.664 Y26.729 E0.8140
G1 X73.269 Y27.449 E0.8494
G1 X73.064 Y28.245 E0.8847
G92 E0
G1 E-6.5000 F4998
; inner perimeter
G1 X104.275 Y17.271 F3498
G1 E0.0000 F4998
G92 E0
G1 X104.275 Y33.721 E0.7088 F560
G1 X108.225 Y33.721 E0.8790
G1 X108.225 Y17.271 E1.5877
G1 X104.275 Y17.271 E1.7579
; inner perimeter
G1 X104.765 Y17.761 F3498
G92 E0
G1 X104.765 Y33.231 E0.6665 F448
G1 X107.735 Y33.231 E0.7945
G1 X107.735 Y17.761 E1.4611
G1 X104.765 Y17.761 E1.5890
; outer perimeter
G1 X105.255 Y18.251 F3498
G92 E0
G1 X105.255 Y32.741 E0.6243 F336
G1 X107.245 Y32.741 E0.7101
G1 X107.245 Y18.251 E1.3344
G1 X105.255 Y18.251 E1.4201
; gap fill
G1 X123.876 Y15.901 F3498
G92 E0
G1 X123.965 Y15.812 E0.0054 F672
G1 X124.658 Y15.812 E0.0353
G1 X124.457 Y16.012 E0.0475
G1 X125.150 Y16.012 E0.0774
G1 X125.351 Y15.812 E0.0896
G1 X126.044 Y15.812 E0.1195
G1 X125.843 Y16.012 E0.1317
G1 X126.536 Y16.012 E0.1615
G1 X126.737 Y15.812 E0.1738
G1 X127.430 Y15.812 E0.2036
G1 X127.229 Y16.012 E0.2158
G1 X127.922 Y16.012 E0.2457
G1 X128.123 Y15.812 E0.2579
G1 X128.816 Y15.812 E0.2878
G1 X128.615 Y16.012 E0.3000
G1 X129.308 Y16.012 E0.3299
G1 X129.509 Y15.812 E0.3421
G1 X130.202 Y15.812 E0.3719
G1 X130.001 Y16.012 E0.3842
G1 X130.694 Y16.012 E0.4140
G1 X130.895 Y15.812 E0.4262
G92 E0
G1 E-6.5000 F4998
G1 X131.039 Y41.307 F3498
G1 E0.0000 F4998
G92 E0
G1 X130.847 Y41.499 E0.0117 F672
G1 X130.154 Y41.499 E0.0416
G1 X130.346 Y41.307 E0.0533
G1 X129.653 Y41.307 E0.0831
G1 X129.461 Y41.499 E0.0948
G1 X128.768 Y41.499 E0.1247
G1 X128.960 Y41.307 E0.1364
G1 X128.267 Y41.307 E0.1662
G1 X128.075 Y41.499 E0.1779
