; G-Code generated by Simplify3D(R) Version 3.0.0
; Dez 1, 2017 at 5:46:29 
; Settings Summary
;   processName,Process1
;   applyToModels,board02_full
;   profileName,Renkforce (modified)
;   profileVersion,2017-10-17 11:10:50
;   baseProfile,German RepRap NEO (modified)
;   printMaterial,
;   printQuality,
;   printExtruders,
;   extruderName,Primary Extruder
;   extruderToolheadNumber,0
;   extruderDiameter,0.5
;   extruderAutoWidth,0
;   extruderWidth,0.49
;   extrusionMultiplier,0.94
;   extruderUseRetract,1
;   extruderRetractionDistance,6.5
;   extruderExtraRestartDistance,0
;   extruderRetractionZLift,0
;   extruderRetractionSpeed,4998
;   extruderUseCoasting,0
;   extruderCoastingDistance,0.2
;   extruderUseWipe,0
;   extruderWipeDistance,5
;   primaryExtruder,0
;   layerHeight,0.15
;   topSolidLayers,4
;   bottomSolidLayers,3
;   perimeterOutlines,3
;   printPerimetersInsideOut,1
;   startPointOption,2
;   startPointOriginX,0
;   startPointOriginY,0
;   startPointOriginZ,300
;   sequentialIslands,0
;   spiralVaseMode,0
;   firstLayerHeightPercentage,150
;   firstLayerWidthPercentage,100
;   firstLayerUnderspeed,0.28
;   useRaft,0
;   raftExtruder,0
;   raftLayers,3
;   raftOffset,3
;   raftSeparationDistance,0.1
;   raftInfill,85
;   disableRaftBaseLayers,0
;   useSkirt,1
;   skirtExtruder,0
;   skirtLayers,1
;   skirtOutlines,2
;   skirtOffset,2
;   usePrimePillar,0
;   primePillarExtruder,999
;   primePillarWidth,12
;   primePillarLocation,7
;   primePillarSpeedMultiplier,1
;   useOozeShield,0
;   oozeShieldExtruder,999
;   oozeShieldOffset,2
;   oozeShieldOutlines,1
;   oozeShieldSidewallShape,1
;   oozeShieldSidewallAngle,30
;   oozeShieldSpeedMultiplier,1
;   infillExtruder,0
;   internalInfillPattern,Full Honeycomb
;   externalInfillPattern,Rectilinear
;   infillPercentage,10
;   outlineOverlapPercentage,15
;   infillExtrusionWidthPercentage,100
;   minInfillLength,3
;   infillLayerInterval,1
;   infillAngles,0,120,-120
;   overlapInfillAngles,0
;   generateSupport,1
;   supportExtruder,0
;   supportInfillPercentage,30
;   supportExtraInflation,0
;   denseSupportLayers,0
;   denseSupportInfillPercentage,75
;   supportLayerInterval,1
;   supportHorizontalPartOffset,1.5
;   supportUpperSeparationLayers,2
;   supportLowerSeparationLayers,2
;   supportType,0
;   supportGridSpacing,5
;   maxOverhangAngle,45
;   supportAngles,45
;   temperatureName,Primary Extruder
;   temperatureNumber,0
;   temperatureSetpointCount,3
;   temperatureSetpointLayers,1,2,3
;   temperatureSetpointTemperatures,197,193,189
;   temperatureStabilizeAtStartup,1
;   temperatureHeatedBed,0
;   temperatureRelayBetweenLayers,0
;   temperatureRelayBetweenLoops,0
;   fanLayers,1,3
;   fanSpeeds,0,80
;   blipFanToFullPower,0
;   adjustSpeedForCooling,1
;   minSpeedLayerTime,15
;   minCoolingSpeedSlowdown,20
;   increaseFanForCooling,0
;   minFanLayerTime,45
;   maxCoolingFanSpeed,100
;   increaseFanForBridging,0
;   bridgingFanSpeed,100
;   use5D,1
;   relativeEdistances,0
;   allowEaxisZeroing,1
;   independentExtruderAxes,0
;   includeM10123,0
;   stickySupport,1
;   applyToolheadOffsets,0
;   gcodeXoffset,0
;   gcodeYoffset,0
;   gcodeZoffset,0
;   overrideMachineDefinition,1
;   machineTypeOverride,0
;   strokeXoverride,150
;   strokeYoverride,150
;   strokeZoverride,150
;   originOffsetXoverride,0
;   originOffsetYoverride,0
;   originOffsetZoverride,0
;   homeXdirOverride,-1
;   homeYdirOverride,-1
;   homeZdirOverride,-1
;   flipXoverride,1
;   flipYoverride,-1
;   flipZoverride,1
;   toolheadOffsets,0,0|0,0|0,0|0,0|0,0|0,0
;   overrideFirmwareConfiguration,0
;   firmwareTypeOverride,RepRap (Marlin/Repetier/Sprinter)
;   GPXconfigOverride,r2
;   baudRateOverride,115200
;   overridePrinterModels,0
;   printerModelsOverride
;   startingGcode,G28 ; home all axes
;   layerChangeGcode,
;   retractionGcode,
;   toolChangeGcode,
;   endingGcode,M104 S0 ; turn off extruder,M140 S0 ; turn off bed,G28 X0  ; home X axis,G28 Y0  ; home Y axis,M84 ; disable motors,M107
;   createX3G,0
;   celebration,0
;   celebrationSong,Random Song
;   createMB5G,0
;   postProcessing,
;   defaultSpeed,2400
;   outlineUnderspeed,0.5
;   solidInfillUnderspeed,0.8
;   supportUnderspeed,0.8
;   rapidXYspeed,3498
;   rapidZspeed,1002
;   minBridgingArea,50
;   bridgingExtraInflation,0
;   bridgingExtrusionMultiplier,1
;   bridgingSpeedMultiplier,1
;   filamentDiameter,1.75
;   filamentPricePerKg,46
;   filamentDensity,1.25
;   useMinPrintHeight,0
;   minPrintHeight,0
;   useMaxPrintHeight,0
;   maxPrintHeight,0
;   useDiaphragm,0
;   diaphragmLayerInterval,20
;   robustSlicing,1
;   mergeAllIntoSolid,0
;   onlyRetractWhenCrossingOutline,1
;   retractBetweenLayers,1
;   useRetractionMinTravel,0
;   retractionMinTravel,3
;   retractWhileWiping,0
;   onlyWipeOutlines,1
;   avoidCrossingOutline,0
;   maxMovementDetourFactor,10
;   toolChangeRetractionDistance,0
;   toolChangeExtraRestartDistance,0
;   toolChangeRetractionSpeed,360
;   allowThinWallGapFill,1
;   thinWallAllowedOverlapPercentage,10
;   horizontalSizeCompensation,0
G90
M82
M106 S0
M104 S197 T0
M109 S197 T0
G28 ; home all axes
G92 E0
G1 E-6.5000 F4998
G1 Z0.225 F1002
; layer 1, Z = 0.225
T0
; tool H0.225 W0.490
; skirt
G1 X3.779 Y11.599 F3498
G1 E0.0000 F1499
G92 E0
G1 X9.019 Y11.599 E0.2258 F672
G1 X9.019 Y10.359 E0.2792
G1 X9.130 Y10.089 E0.2918
G1 X10.509 Y8.711 E0.3758
G1 X10.779 Y8.599 E0.3884
G1 X134.626 Y8.599 E5.7245
G1 X134.630 Y8.589 E5.7250
G1 X136.009 Y7.211 E5.8089
G1 X136.279 Y7.099 E5.8215
G1 X139.728 Y7.099 E5.9702
G1 X139.998 Y7.211 E5.9828
G1 X141.377 Y8.589 E6.0667
G1 X141.489 Y8.859 E6.0793
G1 X141.489 Y15.809 E6.3788
G1 X141.377 Y16.079 E6.3914
G1 X139.998 Y17.457 E6.4753
G1 X139.728 Y17.569 E6.4879
G1 X112.489 Y17.569 E7.6616
G1 X112.489 Y33.099 E8.3307
G1 X139.728 Y33.099 E9.5044
G1 X139.998 Y33.211 E9.5170
G1 X141.377 Y34.589 E9.6010
G1 X141.489 Y34.859 E9.6136
G1 X141.489 Y41.809 E9.9130
G1 X141.377 Y42.079 E9.9256
G1 X139.998 Y43.457 E10.0096
G1 X139.728 Y43.569 E10.0222
G1 X136.279 Y43.569 E10.1708
G1 X136.009 Y43.457 E10.1834
G1 X134.630 Y42.079 E10.2674
G1 X134.626 Y42.069 E10.2678
G1 X10.779 Y42.069 E15.6040
G1 X10.509 Y41.957 E15.6166
G1 X9.130 Y40.579 E15.7006
G1 X9.019 Y40.309 E15.7132
G1 X9.019 Y39.069 E15.7666
G1 X3.779 Y39.069 E15.9923
G1 X3.509 Y38.957 E16.0049
G1 X2.130 Y37.579 E16.0889
G1 X2.019 Y37.309 E16.1015
G1 X2.019 Y30.359 E16.4009
G1 X2.130 Y30.089 E16.4135
G1 X3.509 Y28.711 E16.4975
G1 X3.779 Y28.599 E16.5101
G1 X9.019 Y28.599 E16.7359
G1 X9.019 Y22.069 E17.0172
G1 X3.779 Y22.069 E17.2430
G1 X3.509 Y21.957 E17.2556
G1 X2.130 Y20.579 E17.3396
G1 X2.019 Y20.309 E17.3522
G1 X2.019 Y13.359 E17.6516
G1 X2.130 Y13.089 E17.6642
G1 X3.509 Y11.711 E17.7482
G1 X3.779 Y11.599 E17.7608
G1 X3.876 Y12.089 F3498
G92 E0
G1 X9.509 Y12.089 E0.2427 F672
G1 X9.509 Y10.457 E0.3130
G1 X9.546 Y10.367 E0.3172
G1 X10.786 Y9.126 E0.3928
G1 X10.876 Y9.089 E0.3970
G1 X135.009 Y9.089 E5.7454
G1 X135.009 Y8.957 E5.7511
G1 X135.046 Y8.867 E5.7553
G1 X136.286 Y7.626 E5.8309
G1 X136.376 Y7.589 E5.8351
G1 X139.631 Y7.589 E5.9753
G1 X139.721 Y7.626 E5.9795
G1 X140.961 Y8.867 E6.0551
G1 X140.999 Y8.957 E6.0593
G1 X140.999 Y15.711 E6.3503
G1 X140.961 Y15.801 E6.3545
G1 X139.721 Y17.042 E6.4301
G1 X139.631 Y17.079 E6.4343
G1 X111.999 Y17.079 E7.6249
G1 X111.999 Y33.589 E8.3362
G1 X139.631 Y33.589 E9.5268
G1 X139.721 Y33.626 E9.5310
G1 X140.961 Y34.867 E9.6066
G1 X140.999 Y34.957 E9.6108
G1 X140.999 Y41.711 E9.9018
G1 X140.961 Y41.801 E9.9060
G1 X139.721 Y43.042 E9.9816
G1 X139.631 Y43.079 E9.9858
G1 X136.376 Y43.079 E10.1260
G1 X136.286 Y43.042 E10.1302
G1 X135.046 Y41.801 E10.2058
G1 X135.009 Y41.711 E10.2100
G1 X135.009 Y41.579 E10.2157
G1 X10.876 Y41.579 E15.5641
G1 X10.786 Y41.542 E15.5683
G1 X9.546 Y40.301 E15.6439
G1 X9.509 Y40.211 E15.6481
G1 X9.509 Y38.579 E15.7184
G1 X3.876 Y38.579 E15.9611
G1 X3.786 Y38.542 E15.9653
G1 X2.546 Y37.301 E16.0408
G1 X2.509 Y37.211 E16.0450
G1 X2.509 Y30.457 E16.3361
G1 X2.546 Y30.367 E16.3403
G1 X3.786 Y29.126 E16.4159
G1 X3.876 Y29.089 E16.4201
G1 X9.509 Y29.089 E16.6627
G1 X9.509 Y21.579 E16.9863
G1 X3.876 Y21.579 E17.2290
G1 X3.786 Y21.542 E17.2332
G1 X2.546 Y20.301 E17.3088
G1 X2.509 Y20.211 E17.3130
G1 X2.509 Y13.457 E17.6040
G1 X2.546 Y13.367 E17.6082
G1 X3.786 Y12.126 E17.6838
G1 X3.876 Y12.089 E17.6880
G92 E0
G1 E-6.5000 F4998
; inner perimeter
G1 X5.979 Y15.559 F3498
G1 E0.0000 F4998
G92 E0
G1 X12.979 Y15.559 E0.3016 F560
G1 X12.979 Y12.559 E0.4309
G1 X137.529 Y12.559 E5.7973
G1 X137.529 Y13.609 E5.8425
G1 X108.529 Y13.609 E7.0920
G1 X108.529 Y37.059 E8.1024
G1 X137.529 Y37.059 E9.3519
G1 X137.529 Y38.109 E9.3971
G1 X12.979 Y38.109 E14.7636
G1 X12.979 Y35.109 E14.8928
G1 X5.979 Y35.109 E15.1944
G1 X5.979 Y32.559 E15.3043
G1 X12.979 Y32.559 E15.6059
G1 X12.979 Y18.109 E16.2285
G1 X5.979 Y18.109 E16.5301
G1 X5.979 Y15.559 E16.6400
; inner perimeter
G1 X5.489 Y15.069 F3498
G92 E0
G1 X12.489 Y15.069 E0.3016 F448
G1 X12.489 Y12.069 E0.4309
G1 X138.019 Y12.069 E5.8395
G1 X138.019 Y14.099 E5.9270
G1 X109.019 Y14.099 E7.1765
G1 X109.019 Y36.569 E8.1446
G1 X138.019 Y36.569 E9.3941
G1 X138.019 Y38.599 E9.4816
G1 X12.489 Y38.599 E14.8902
G1 X12.489 Y35.599 E15.0195
G1 X5.489 Y35.599 E15.3211
G1 X5.489 Y32.069 E15.4732
G1 X12.489 Y32.069 E15.7748
G1 X12.489 Y18.599 E16.3552
G1 X5.489 Y18.599 E16.6568
G1 X5.489 Y15.069 E16.8089
; outer perimeter
G1 X4.999 Y14.579 F3498
G92 E0
G1 X11.999 Y14.579 E0.3016 F336
G1 X11.999 Y11.579 E0.4309
G1 X137.499 Y11.579 E5.8382
G1 X137.499 Y10.079 E5.9028
G1 X138.509 Y10.079 E5.9464
G1 X138.509 Y14.589 E6.1407
G1 X109.509 Y14.589 E7.3902
G1 X109.509 Y36.079 E8.3161
G1 X138.509 Y36.079 E9.5656
G1 X138.509 Y40.589 E9.7599
G1 X137.499 Y40.589 E9.8035
G1 X137.499 Y39.089 E9.8681
G1 X11.999 Y39.089 E15.2754
G1 X11.999 Y36.089 E15.4047
G1 X4.999 Y36.089 E15.7063
G1 X4.999 Y31.579 E15.9006
G1 X11.999 Y31.579 E16.2022
G1 X11.999 Y19.089 E16.7404
G1 X4.999 Y19.089 E17.0420
G1 X4.999 Y14.579 E17.2363
; inner perimeter
G1 X63.623 Y24.273 F3498
G92 E0
G1 X63.489 Y25.334 E0.0461 F560
G1 X63.623 Y26.395 E0.0921
G1 X64.016 Y27.389 E0.1382
G1 X64.645 Y28.253 E0.1842
G1 X65.470 Y28.936 E0.2304
G1 X66.449 Y29.393 E0.2769
G1 X67.485 Y29.590 E0.3224
G1 X68.566 Y29.520 E0.3691
G1 X69.561 Y29.196 E0.4141
G1 X70.471 Y28.621 E0.4605
G1 X71.204 Y27.841 E0.5066
G1 X71.719 Y26.904 E0.5527
G1 X71.985 Y25.868 E0.5988
G1 X71.985 Y24.799 E0.6448
G1 X71.719 Y23.764 E0.6909
G1 X71.204 Y22.827 E0.7370
G1 X70.470 Y22.046 E0.7831
G1 X69.551 Y21.468 E0.8299
G1 X68.549 Y21.144 E0.8753
G1 X67.464 Y21.080 E0.9221
G1 X66.431 Y21.280 E0.9674
G1 X65.468 Y21.733 E1.0133
G1 X64.645 Y22.415 E1.0593
G1 X64.016 Y23.279 E1.1054
G1 X63.623 Y24.273 E1.1515
; inner perimeter
G1 X64.101 Y24.396 F3498
G92 E0
G1 X63.983 Y25.334 E0.0407 F448
G1 X64.101 Y26.272 E0.0814
G1 X64.449 Y27.151 E0.1222
G1 X65.005 Y27.915 E0.1629
G1 X65.734 Y28.518 E0.2037
G1 X66.600 Y28.924 E0.2449
G1 X67.515 Y29.097 E0.2850
G1 X68.473 Y29.035 E0.3264
G1 X69.351 Y28.749 E0.3661
G1 X70.157 Y28.240 E0.4072
G1 X70.804 Y27.550 E0.4480
G1 X71.260 Y26.722 E0.4887
G1 X71.495 Y25.807 E0.5294
G1 X71.495 Y24.861 E0.5702
G1 X71.260 Y23.946 E0.6109
G1 X70.804 Y23.118 E0.6516
G1 X70.156 Y22.427 E0.6924
G1 X69.342 Y21.915 E0.7338
G1 X68.458 Y21.629 E0.7739
G1 X67.496 Y21.573 E0.8154
G1 X66.584 Y21.749 E0.8554
G1 X65.733 Y22.150 E0.8959
G1 X65.005 Y22.753 E0.9367
G1 X64.449 Y23.517 E0.9774
G1 X64.101 Y24.396 E1.0181
; outer perimeter
G1 X64.580 Y24.519 F3498
G92 E0
G1 X64.477 Y25.334 E0.0354 F336
G1 X64.580 Y26.149 E0.0708
G1 X64.882 Y26.913 E0.1062
G1 X65.365 Y27.577 E0.1416
G1 X65.998 Y28.101 E0.1770
G1 X66.752 Y28.454 E0.2129
G1 X67.545 Y28.604 E0.2476
G1 X68.380 Y28.550 E0.2837
G1 X69.141 Y28.302 E0.3181
G1 X69.842 Y27.859 E0.3539
G1 X70.405 Y27.260 E0.3893
G1 X70.800 Y26.540 E0.4247
G1 X71.005 Y25.745 E0.4601
G1 X71.005 Y24.923 E0.4955
G1 X70.800 Y24.128 E0.5309
G1 X70.405 Y23.408 E0.5663
G1 X69.842 Y22.809 E0.6017
G1 X69.133 Y22.363 E0.6378
G1 X68.367 Y22.115 E0.6725
G1 X67.529 Y22.066 E0.7086
G1 X66.738 Y22.219 E0.7433
G1 X65.998 Y22.567 E0.7786
G1 X65.365 Y23.091 E0.8140
G1 X64.882 Y23.755 E0.8494
G1 X64.580 Y24.519 E0.8848
G92 E0
G1 E-6.5000 F4998
; gap fill
G1 X137.920 Y11.140 F3498
G1 E0.0000 F4998
G92 E0
G1 X138.087 Y10.973 E0.0102 F672
G92 E0
G1 E-6.5000 F4998
G1 X137.920 Y39.551 F3498
G1 E0.0000 F4998
G92 E0
G1 X138.087 Y39.384 E0.0102 F672
G1 X138.087 Y40.077 E0.0400
G1 X137.997 Y40.168 E0.0455
; solid layer
G1 X137.007 Y37.692 F3498
G92 E0
G1 X137.112 Y37.588 E0.0064 F538
G1 X137.112 Y37.475 E0.0112
G1 X136.531 Y37.475 E0.0363
G1 X136.314 Y37.692 E0.0495
G1 X135.621 Y37.692 E0.0793
G1 X135.838 Y37.475 E0.0926
G1 X135.145 Y37.475 E0.1224
G1 X134.928 Y37.692 E0.1356
G1 X134.235 Y37.692 E0.1655
G1 X134.452 Y37.475 E0.1787
G1 X133.759 Y37.475 E0.2086
G1 X133.542 Y37.692 E0.2218
G1 X132.849 Y37.692 E0.2516
G1 X133.066 Y37.475 E0.2649
G1 X132.373 Y37.475 E0.2947
G1 X132.156 Y37.692 E0.3080
G1 X131.463 Y37.692 E0.3378
G1 X131.680 Y37.475 E0.3510
G1 X130.987 Y37.475 E0.3809
G1 X130.770 Y37.692 E0.3941
G1 X130.078 Y37.692 E0.4240
G1 X130.295 Y37.475 E0.4372
G1 X129.602 Y37.475 E0.4670
G1 X129.385 Y37.692 E0.4803
G1 X128.692 Y37.692 E0.5101
G1 X128.909 Y37.475 E0.5234
G1 X128.216 Y37.475 E0.5532
G1 X127.999 Y37.692 E0.5664
G1 X127.306 Y37.692 E0.5963
G1 X127.523 Y37.475 E0.6095
G1 X126.830 Y37.475 E0.6394
G1 X126.613 Y37.692 E0.6526
G1 X125.920 Y37.692 E0.6824
G1 X126.137 Y37.475 E0.6957
G1 X125.444 Y37.475 E0.7255
G1 X125.227 Y37.692 E0.7388
G1 X124.534 Y37.692 E0.7686
G1 X124.751 Y37.475 E0.7818
G1 X124.058 Y37.475 E0.8117
G1 X123.841 Y37.692 E0.8249
G1 X123.148 Y37.692 E0.8548
G1 X123.365 Y37.475 E0.8680
G1 X122.672 Y37.475 E0.8978
G1 X122.455 Y37.692 E0.9111
G1 X121.762 Y37.692 E0.9409
G1 X121.979 Y37.475 E0.9542
G1 X121.286 Y37.475 E0.9840
G1 X121.069 Y37.692 E0.9972
G1 X120.376 Y37.692 E1.0271
G1 X120.593 Y37.475 E1.0403
G1 X119.900 Y37.475 E1.0702
G1 X119.683 Y37.692 E1.0834
G1 X118.990 Y37.692 E1.1132
G1 X119.207 Y37.475 E1.1265
G1 X118.514 Y37.475 E1.1563
G1 X118.297 Y37.692 E1.1696
G1 X117.604 Y37.692 E1.1994
G1 X117.821 Y37.475 E1.2126
G1 X117.128 Y37.475 E1.2425
G1 X116.911 Y37.692 E1.2557
G1 X116.218 Y37.692 E1.2856
G1 X116.435 Y37.475 E1.2988
G1 X115.742 Y37.475 E1.3286
G1 X115.525 Y37.692 E1.3419
G1 X114.832 Y37.692 E1.3717
G1 X115.049 Y37.475 E1.3850
G1 X114.356 Y37.475 E1.4148
G1 X114.139 Y37.692 E1.4280
G1 X113.446 Y37.692 E1.4579
G1 X113.663 Y37.475 E1.4711
G1 X112.970 Y37.475 E1.5010
G1 X112.753 Y37.692 E1.5142
G1 X112.060 Y37.692 E1.5440
G1 X112.277 Y37.475 E1.5573
G1 X111.584 Y37.475 E1.5871
G1 X111.367 Y37.692 E1.6004
G1 X110.675 Y37.692 E1.6302
G1 X110.892 Y37.475 E1.6434
G1 X110.199 Y37.475 E1.6733
G1 X109.982 Y37.692 E1.6865
G1 X109.289 Y37.692 E1.7164
G1 X109.506 Y37.475 E1.7296
G1 X108.813 Y37.475 E1.7594
G1 X108.596 Y37.692 E1.7727
G1 X107.903 Y37.692 E1.8025
G1 X108.120 Y37.475 E1.8157
G1 X108.112 Y37.475 E1.8161
G1 X108.112 Y36.790 E1.8456
G1 X107.210 Y37.692 E1.9006
G1 X106.517 Y37.692 E1.9305
G1 X108.112 Y36.097 E2.0277
G1 X108.112 Y35.404 E2.0575
G1 X105.824 Y37.692 E2.1970
G1 X105.131 Y37.692 E2.2268
G1 X108.112 Y34.711 E2.4085
G1 X108.112 Y34.018 E2.4383
G1 X104.438 Y37.692 E2.6622
G1 X103.745 Y37.692 E2.6921
G1 X108.112 Y33.325 E2.9582
G1 X108.112 Y32.632 E2.9880
G1 X103.052 Y37.692 E3.2964
G1 X102.359 Y37.692 E3.3262
G1 X108.112 Y31.939 E3.6768
G1 X108.112 Y31.246 E3.7066
G1 X101.666 Y37.692 E4.0994
G1 X100.973 Y37.692 E4.1293
G1 X108.112 Y30.553 E4.5643
G1 X108.112 Y29.860 E4.5942
G1 X100.280 Y37.692 E5.0714
G1 X99.587 Y37.692 E5.1012
G1 X108.112 Y29.167 E5.6207
G1 X108.112 Y28.474 E5.6506
G1 X98.894 Y37.692 E6.2122
G1 X98.201 Y37.692 E6.2421
G1 X108.112 Y27.782 E6.8460
G1 X108.112 Y27.089 E6.8759
G1 X97.508 Y37.692 E7.5220
G1 X96.815 Y37.692 E7.5519
G1 X108.112 Y26.396 E8.2402
G1 X108.112 Y25.703 E8.2701
G1 X96.122 Y37.692 E9.0006
G1 X95.429 Y37.692 E9.0305
G1 X108.112 Y25.010 E9.8033
G1 X108.112 Y24.317 E9.8332
G1 X94.736 Y37.692 E10.6482
