; G-Code generated by Simplify3D(R) Version 3.0.0
; Nov 30, 2017 at 8:51:45 
; Settings Summary
;   processName,Process1
;   applyToModels,board01
;   profileName,Renkforce (modified)
;   profileVersion,2017-10-17 11:10:50
;   baseProfile,German RepRap NEO (modified)
;   printMaterial,
;   printQuality,
;   printExtruders,
;   extruderName,Primary Extruder
;   extruderToolheadNumber,0
;   extruderDiameter,0.5
;   extruderAutoWidth,0
;   extruderWidth,0.49
;   extrusionMultiplier,0.94
;   extruderUseRetract,1
;   extruderRetractionDistance,6.5
;   extruderExtraRestartDistance,0
;   extruderRetractionZLift,0
;   extruderRetractionSpeed,4998
;   extruderUseCoasting,0
;   extruderCoastingDistance,0.2
;   extruderUseWipe,0
;   extruderWipeDistance,5
;   primaryExtruder,0
;   layerHeight,0.2
;   topSolidLayers,4
;   bottomSolidLayers,3
;   perimeterOutlines,3
;   printPerimetersInsideOut,1
;   startPointOption,2
;   startPointOriginX,0
;   startPointOriginY,0
;   startPointOriginZ,300
;   sequentialIslands,0
;   spiralVaseMode,0
;   firstLayerHeightPercentage,100
;   firstLayerWidthPercentage,100
;   firstLayerUnderspeed,0.28
;   useRaft,0
;   raftExtruder,0
;   raftLayers,3
;   raftOffset,3
;   raftSeparationDistance,0.1
;   raftInfill,85
;   disableRaftBaseLayers,0
;   useSkirt,1
;   skirtExtruder,0
;   skirtLayers,1
;   skirtOutlines,4
;   skirtOffset,2
;   usePrimePillar,0
;   primePillarExtruder,999
;   primePillarWidth,12
;   primePillarLocation,7
;   primePillarSpeedMultiplier,1
;   useOozeShield,0
;   oozeShieldExtruder,999
;   oozeShieldOffset,2
;   oozeShieldOutlines,1
;   oozeShieldSidewallShape,1
;   oozeShieldSidewallAngle,30
;   oozeShieldSpeedMultiplier,1
;   infillExtruder,0
;   internalInfillPattern,Full Honeycomb
;   externalInfillPattern,Rectilinear
;   infillPercentage,10
;   outlineOverlapPercentage,15
;   infillExtrusionWidthPercentage,100
;   minInfillLength,3
;   infillLayerInterval,1
;   infillAngles,0,120,-120
;   overlapInfillAngles,0
;   generateSupport,1
;   supportExtruder,0
;   supportInfillPercentage,30
;   supportExtraInflation,0
;   denseSupportLayers,0
;   denseSupportInfillPercentage,75
;   supportLayerInterval,1
;   supportHorizontalPartOffset,1.5
;   supportUpperSeparationLayers,2
;   supportLowerSeparationLayers,2
;   supportType,0
;   supportGridSpacing,5
;   maxOverhangAngle,45
;   supportAngles,45
;   temperatureName,Primary Extruder
;   temperatureNumber,0
;   temperatureSetpointCount,3
;   temperatureSetpointLayers,1,2,3
;   temperatureSetpointTemperatures,197,193,189
;   temperatureStabilizeAtStartup,1
;   temperatureHeatedBed,0
;   temperatureRelayBetweenLayers,0
;   temperatureRelayBetweenLoops,0
;   fanLayers,1,3
;   fanSpeeds,0,80
;   blipFanToFullPower,0
;   adjustSpeedForCooling,1
;   minSpeedLayerTime,15
;   minCoolingSpeedSlowdown,20
;   increaseFanForCooling,0
;   minFanLayerTime,45
;   maxCoolingFanSpeed,100
;   increaseFanForBridging,0
;   bridgingFanSpeed,100
;   use5D,1
;   relativeEdistances,0
;   allowEaxisZeroing,1
;   independentExtruderAxes,0
;   includeM10123,0
;   stickySupport,1
;   applyToolheadOffsets,0
;   gcodeXoffset,0
;   gcodeYoffset,0
;   gcodeZoffset,0
;   overrideMachineDefinition,1
;   machineTypeOverride,0
;   strokeXoverride,150
;   strokeYoverride,150
;   strokeZoverride,150
;   originOffsetXoverride,0
;   originOffsetYoverride,0
;   originOffsetZoverride,0
;   homeXdirOverride,-1
;   homeYdirOverride,-1
;   homeZdirOverride,-1
;   flipXoverride,1
;   flipYoverride,-1
;   flipZoverride,1
;   toolheadOffsets,0,0|0,0|0,0|0,0|0,0|0,0
;   overrideFirmwareConfiguration,0
;   firmwareTypeOverride,RepRap (Marlin/Repetier/Sprinter)
;   GPXconfigOverride,r2
;   baudRateOverride,115200
;   overridePrinterModels,0
;   printerModelsOverride
;   startingGcode,G28 ; home all axes
;   layerChangeGcode,
;   retractionGcode,
;   toolChangeGcode,
;   endingGcode,M104 S0 ; turn off extruder,M140 S0 ; turn off bed,G28 X0  ; home X axis,G28 Y0  ; home Y axis,M84 ; disable motors,M107
;   createX3G,0
;   celebration,0
;   celebrationSong,Random Song
;   createMB5G,0
;   postProcessing,
;   defaultSpeed,2400
;   outlineUnderspeed,0.5
;   solidInfillUnderspeed,0.8
;   supportUnderspeed,0.8
;   rapidXYspeed,3498
;   rapidZspeed,1002
;   minBridgingArea,50
;   bridgingExtraInflation,0
;   bridgingExtrusionMultiplier,1
;   bridgingSpeedMultiplier,1
;   filamentDiameter,1.75
;   filamentPricePerKg,46
;   filamentDensity,1.25
;   useMinPrintHeight,0
;   minPrintHeight,0
;   useMaxPrintHeight,0
;   maxPrintHeight,0
;   useDiaphragm,0
;   diaphragmLayerInterval,20
;   robustSlicing,1
;   mergeAllIntoSolid,0
;   onlyRetractWhenCrossingOutline,1
;   retractBetweenLayers,1
;   useRetractionMinTravel,0
;   retractionMinTravel,3
;   retractWhileWiping,0
;   onlyWipeOutlines,1
;   avoidCrossingOutline,0
;   maxMovementDetourFactor,10
;   toolChangeRetractionDistance,0
;   toolChangeExtraRestartDistance,0
;   toolChangeRetractionSpeed,360
;   allowThinWallGapFill,1
;   thinWallAllowedOverlapPercentage,10
;   horizontalSizeCompensation,0
G90
M82
M106 S0
M104 S197 T0
M109 S197 T0
G28 ; home all axes
G92 E0
G1 E-6.5000 F4998
G1 Z0.200 F1002
; layer 1, Z = 0.2
T0
; tool H0.200 W0.490
; skirt
G1 X7.523 Y14.060 F3498
G1 E0.0000 F1499
G92 E0
G1 X8.153 Y13.799 E0.0261 F672
G1 X11.992 Y13.799 E0.1732
G1 X12.623 Y14.060 E0.1993
G1 X13.862 Y15.299 E0.2664
G1 X46.975 Y15.299 E1.5346
G1 X47.605 Y15.560 E1.5607
G1 X49.259 Y17.214 E1.6503
G1 X49.520 Y17.844 E1.6764
G1 X49.520 Y48.184 E2.8384
G1 X49.259 Y48.814 E2.8645
G1 X47.605 Y50.468 E2.9541
G1 X46.975 Y50.729 E2.9802
G1 X13.862 Y50.729 E4.2484
G1 X12.623 Y51.968 E4.3155
G1 X11.992 Y52.229 E4.3417
G1 X8.153 Y52.229 E4.4887
G1 X7.523 Y51.968 E4.5148
G1 X5.869 Y50.314 E4.6044
G1 X5.608 Y49.684 E4.6306
G1 X5.608 Y42.244 E4.9155
G1 X5.869 Y41.614 E4.9416
G1 X7.523 Y39.960 E5.0312
G1 X8.153 Y39.699 E5.0573
G1 X34.608 Y39.699 E6.0705
G1 X34.608 Y26.629 E6.5711
G1 X8.153 Y26.629 E7.5843
G1 X7.523 Y26.368 E7.6104
G1 X5.869 Y24.714 E7.7000
G1 X5.608 Y24.084 E7.7261
G1 X5.608 Y16.344 E8.0225
G1 X5.869 Y15.714 E8.0486
G1 X7.523 Y14.060 E8.1382
G1 X7.800 Y14.475 F3498
G92 E0
G1 X8.251 Y14.289 E0.0187 F672
G1 X11.895 Y14.289 E0.1582
G1 X12.345 Y14.475 E0.1769
G1 X13.659 Y15.789 E0.2480
G1 X46.877 Y15.789 E1.5203
G1 X47.327 Y15.975 E1.5389
G1 X48.843 Y17.492 E1.6211
G1 X49.030 Y17.942 E1.6397
G1 X49.030 Y48.086 E2.7942
G1 X48.843 Y48.536 E2.8129
G1 X47.327 Y50.052 E2.8950
G1 X46.877 Y50.239 E2.9137
G1 X13.659 Y50.239 E4.1859
G1 X12.345 Y51.552 E4.2570
G1 X11.895 Y51.739 E4.2757
G1 X8.251 Y51.739 E4.4153
G1 X7.800 Y51.552 E4.4339
G1 X6.284 Y50.036 E4.5161
G1 X6.098 Y49.586 E4.5347
G1 X6.098 Y42.342 E4.8122
G1 X6.284 Y41.892 E4.8308
G1 X7.800 Y40.375 E4.9130
G1 X8.251 Y40.189 E4.9316
G1 X35.098 Y40.189 E5.9598
G1 X35.098 Y26.139 E6.4979
G1 X8.251 Y26.139 E7.5262
G1 X7.800 Y25.952 E7.5448
G1 X6.284 Y24.436 E7.6269
G1 X6.098 Y23.986 E7.6456
G1 X6.098 Y16.442 E7.9345
G1 X6.284 Y15.992 E7.9532
G1 X7.800 Y14.475 E8.0353
G1 X8.078 Y14.891 F3498
G92 E0
G1 X8.348 Y14.779 E0.0112 F672
G1 X11.797 Y14.779 E0.1433
G1 X12.068 Y14.891 E0.1545
G1 X13.446 Y16.269 E0.2292
G1 X13.450 Y16.279 E0.2296
G1 X46.780 Y16.279 E1.5061
G1 X47.050 Y16.391 E1.5173
G1 X48.428 Y17.769 E1.5919
G1 X48.540 Y18.039 E1.6031
G1 X48.540 Y47.989 E2.7501
G1 X48.428 Y48.259 E2.7613
G1 X47.050 Y49.637 E2.8360
G1 X46.780 Y49.749 E2.8472
G1 X13.450 Y49.749 E4.1237
G1 X13.446 Y49.759 E4.1241
G1 X12.068 Y51.137 E4.1987
G1 X11.797 Y51.249 E4.2099
G1 X8.348 Y51.249 E4.3420
G1 X8.078 Y51.137 E4.3532
G1 X6.700 Y49.759 E4.4279
G1 X6.588 Y49.489 E4.4391
G1 X6.588 Y42.439 E4.7091
G1 X6.700 Y42.169 E4.7203
G1 X8.078 Y40.791 E4.7949
G1 X8.348 Y40.679 E4.8061
G1 X35.588 Y40.679 E5.8494
G1 X35.588 Y25.649 E6.4250
G1 X8.348 Y25.649 E7.4683
G1 X8.078 Y25.537 E7.4795
G1 X6.700 Y24.159 E7.5541
G1 X6.588 Y23.889 E7.5653
G1 X6.588 Y16.539 E7.8468
G1 X6.700 Y16.269 E7.8580
G1 X8.078 Y14.891 E7.9326
G1 X8.356 Y15.306 F3498
G92 E0
G1 X8.446 Y15.269 E0.0037 F672
G1 X11.700 Y15.269 E0.1284
G1 X11.790 Y15.306 E0.1321
G1 X13.030 Y16.547 E0.1993
G1 X13.068 Y16.637 E0.2030
G1 X13.068 Y16.769 E0.2081
G1 X46.682 Y16.769 E1.4955
G1 X46.772 Y16.806 E1.4992
G1 X48.013 Y18.047 E1.5664
G1 X48.050 Y18.137 E1.5701
G1 X48.050 Y47.891 E2.7097
G1 X48.013 Y47.981 E2.7134
G1 X46.772 Y49.222 E2.7806
G1 X46.682 Y49.259 E2.7844
G1 X13.068 Y49.259 E4.0718
G1 X13.068 Y49.391 E4.0768
G1 X13.030 Y49.481 E4.0805
G1 X11.790 Y50.722 E4.1477
G1 X11.700 Y50.759 E4.1515
G1 X8.446 Y50.759 E4.2761
G1 X8.356 Y50.722 E4.2798
G1 X7.115 Y49.481 E4.3470
G1 X7.078 Y49.391 E4.3508
G1 X7.078 Y42.537 E4.6133
G1 X7.115 Y42.447 E4.6170
G1 X8.356 Y41.206 E4.6842
G1 X8.446 Y41.169 E4.6879
G1 X36.078 Y41.169 E5.7462
G1 X36.078 Y25.159 E6.3594
G1 X8.446 Y25.159 E7.4177
G1 X8.356 Y25.122 E7.4214
G1 X7.115 Y23.881 E7.4886
G1 X7.078 Y23.791 E7.4923
G1 X7.078 Y16.637 E7.7663
G1 X7.115 Y16.547 E7.7701
G1 X8.356 Y15.306 E7.8372
G92 E0
G1 E-6.5000 F4998
; inner perimeter
G1 X10.548 Y20.239 F3498
G1 E0.0000 F4998
G92 E0
G1 X44.580 Y20.239 E1.3034 F560
G1 X44.580 Y45.789 E2.2819
G1 X10.548 Y45.789 E3.5853
G1 X10.548 Y44.639 E3.6294
G1 X39.548 Y44.639 E4.7401
G1 X39.548 Y21.689 E5.6190
G1 X10.548 Y21.689 E6.7297
G1 X10.548 Y20.239 E6.7852
; inner perimeter
G1 X10.058 Y19.749 F3498
G92 E0
G1 X45.070 Y19.749 E1.3409 F448
G1 X45.070 Y46.279 E2.3570
G1 X10.058 Y46.279 E3.6979
G1 X10.058 Y44.149 E3.7795
G1 X39.058 Y44.149 E4.8902
G1 X39.058 Y22.179 E5.7316
G1 X10.058 Y22.179 E6.8423
G1 X10.058 Y19.749 E6.9354
; outer perimeter
G1 X9.568 Y17.759 F3498
G92 E0
G1 X10.578 Y17.759 E0.0387 F336
G1 X10.578 Y19.259 E0.0961
G1 X45.560 Y19.259 E1.4359
G1 X45.560 Y46.769 E2.4895
G1 X10.578 Y46.769 E3.8293
G1 X10.578 Y48.269 E3.8868
G1 X9.568 Y48.269 E3.9254
G1 X9.568 Y43.659 E4.1020
G1 X38.568 Y43.659 E5.2127
G1 X38.568 Y22.669 E6.0166
G1 X9.568 Y22.669 E7.1272
G1 X9.568 Y17.759 E7.3153
; gap fill
G1 X9.989 Y18.712 F3498
G92 E0
G1 X10.156 Y18.545 E0.0091 F672
G1 X10.156 Y19.238 E0.0356
G1 X10.062 Y19.332 E0.0407
G92 E0
G1 E-6.5000 F4998
G1 X9.989 Y47.124 F3498
G1 E0.0000 F4998
G92 E0
G1 X10.156 Y46.957 E0.0091 F672
G1 X10.156 Y47.650 E0.0356
G1 X9.989 Y47.817 E0.0447
; solid layer
G1 X11.048 Y45.372 F3498
G92 E0
G1 X11.365 Y45.055 E0.0172 F538
G1 X12.058 Y45.055 E0.0437
G1 X11.741 Y45.372 E0.0609
G1 X12.434 Y45.372 E0.0874
G1 X12.751 Y45.055 E0.1046
G1 X13.444 Y45.055 E0.1311
G1 X13.127 Y45.372 E0.1483
G1 X13.820 Y45.372 E0.1748
G1 X14.137 Y45.055 E0.1920
G1 X14.829 Y45.055 E0.2185
G1 X14.512 Y45.372 E0.2357
G1 X15.205 Y45.372 E0.2623
G1 X15.522 Y45.055 E0.2794
G1 X16.215 Y45.055 E0.3060
G1 X15.898 Y45.372 E0.3231
G1 X16.591 Y45.372 E0.3497
G1 X16.908 Y45.055 E0.3668
G1 X17.601 Y45.055 E0.3934
G1 X17.284 Y45.372 E0.4106
G1 X17.977 Y45.372 E0.4371
G1 X18.294 Y45.055 E0.4543
G1 X18.987 Y45.055 E0.4808
G1 X18.670 Y45.372 E0.4980
G1 X19.363 Y45.372 E0.5245
G1 X19.680 Y45.055 E0.5417
G1 X20.373 Y45.055 E0.5682
G1 X20.056 Y45.372 E0.5854
G1 X20.749 Y45.372 E0.6119
G1 X21.066 Y45.055 E0.6291
G1 X21.759 Y45.055 E0.6556
G1 X21.442 Y45.372 E0.6728
G1 X22.135 Y45.372 E0.6993
G1 X22.452 Y45.055 E0.7165
G1 X23.145 Y45.055 E0.7431
G1 X22.828 Y45.372 E0.7602
G1 X23.521 Y45.372 E0.7868
G1 X23.838 Y45.055 E0.8039
G1 X24.531 Y45.055 E0.8305
G1 X24.214 Y45.372 E0.8476
G1 X24.907 Y45.372 E0.8742
G1 X25.224 Y45.055 E0.8913
G1 X25.917 Y45.055 E0.9179
G1 X25.600 Y45.372 E0.9351
G1 X26.293 Y45.372 E0.9616
G1 X26.610 Y45.055 E0.9788
G1 X27.303 Y45.055 E1.0053
G1 X26.986 Y45.372 E1.0225
G1 X27.679 Y45.372 E1.0490
G1 X27.996 Y45.055 E1.0662
G1 X28.689 Y45.055 E1.0927
G1 X28.372 Y45.372 E1.1099
G1 X29.065 Y45.372 E1.1364
G1 X29.382 Y45.055 E1.1536
G1 X30.075 Y45.055 E1.1801
G1 X29.758 Y45.372 E1.1973
G1 X30.451 Y45.372 E1.2239
G1 X30.768 Y45.055 E1.2410
G1 X31.461 Y45.055 E1.2676
G1 X31.144 Y45.372 E1.2847
G1 X31.837 Y45.372 E1.3113
G1 X32.154 Y45.055 E1.3284
G1 X32.847 Y45.055 E1.3550
G1 X32.530 Y45.372 E1.3721
G1 X33.223 Y45.372 E1.3987
G1 X33.540 Y45.055 E1.4159
G1 X34.232 Y45.055 E1.4424
G1 X33.915 Y45.372 E1.4596
G1 X34.608 Y45.372 E1.4861
G1 X34.925 Y45.055 E1.5033
G1 X35.618 Y45.055 E1.5298
G1 X35.301 Y45.372 E1.5470
G1 X35.994 Y45.372 E1.5735
G1 X36.311 Y45.055 E1.5907
G1 X37.004 Y45.055 E1.6172
G1 X36.687 Y45.372 E1.6344
G1 X37.380 Y45.372 E1.6609
G1 X37.697 Y45.055 E1.6781
G1 X38.390 Y45.055 E1.7047
G1 X38.073 Y45.372 E1.7218
G1 X38.766 Y45.372 E1.7484
G1 X39.083 Y45.055 E1.7655
G1 X39.776 Y45.055 E1.7921
G1 X39.459 Y45.372 E1.8092
G1 X40.152 Y45.372 E1.8358
G1 X44.163 Y41.361 E2.0530
G1 X44.163 Y40.668 E2.0796
G1 X39.964 Y44.867 E2.3070
G1 X39.964 Y44.174 E2.3336
G1 X44.163 Y39.975 E2.5610
G1 X44.163 Y39.282 E2.5875
G1 X39.964 Y43.481 E2.8150
G1 X39.964 Y42.788 E2.8415
G1 X44.163 Y38.589 E3.0690
G1 X44.163 Y37.896 E3.0955
G1 X39.964 Y42.095 E3.3229
G1 X39.964 Y41.403 E3.3495
G1 X44.163 Y37.203 E3.5769
G1 X44.163 Y36.510 E3.6035
G1 X39.964 Y40.710 E3.8309
G1 X39.964 Y40.017 E3.8574
G1 X44.163 Y35.817 E4.0849
G1 X44.163 Y35.124 E4.1114
G1 X39.964 Y39.324 E4.3389
G1 X39.964 Y38.631 E4.3654
G1 X44.163 Y34.431 E4.5929
G1 X44.163 Y33.739 E4.6194
G1 X39.964 Y37.938 E4.8468
G1 X39.964 Y37.245 E4.8734
G1 X44.163 Y33.046 E5.1008
G1 X44.163 Y32.353 E5.1274
G1 X39.964 Y36.552 E5.3548
G1 X39.964 Y35.859 E5.3813
G1 X44.163 Y31.660 E5.6088
G1 X44.163 Y30.967 E5.6353
G1 X39.964 Y35.166 E5.8628
G1 X39.964 Y34.473 E5.8893
G1 X44.163 Y30.274 E6.1167
G1 X44.163 Y29.581 E6.1433
G1 X39.964 Y33.780 E6.3707
G1 X39.964 Y33.087 E6.3973
G1 X44.163 Y28.888 E6.6247
G1 X44.163 Y28.195 E6.6512
G1 X39.964 Y32.394 E6.8787
G1 X39.964 Y31.701 E6.9052
G1 X44.163 Y27.502 E7.1327
G1 X44.163 Y26.809 E7.1592
G1 X39.964 Y31.008 E7.3866
G1 X39.964 Y30.315 E7.4132
G1 X44.163 Y26.116 E7.6406
G1 X44.163 Y25.423 E7.6672
G1 X39.964 Y29.622 E7.8946
G1 X39.964 Y28.929 E7.9211
G1 X44.163 Y24.730 E8.1486
G1 X44.163 Y24.037 E8.1751
G1 X39.964 Y28.236 E8.4026
G1 X39.964 Y27.543 E8.4291
G1 X44.163 Y23.344 E8.6565
G1 X44.163 Y22.651 E8.6831
G1 X39.964 Y26.850 E8.9105
G1 X39.964 Y26.157 E8.9371
G1 X44.163 Y21.958 E9.1645
G1 X44.163 Y21.265 E9.1910
G1 X39.964 Y25.464 E9.4185
G1 X39.964 Y24.771 E9.4450
G1 X44.080 Y20.655 E9.6680
G1 X43.387 Y20.655 E9.6945
G1 X39.964 Y24.078 E9.8799
G1 X39.964 Y23.385 E9.9064
G1 X42.694 Y20.655 E10.0543
G1 X42.001 Y20.655 E10.0808
G1 X39.964 Y22.692 E10.1912
G1 X39.964 Y22.000 E10.2177
G1 X41.308 Y20.655 E10.2905
G1 X40.615 Y20.655 E10.3171
G1 X39.964 Y21.307 E10.3523
G1 X39.964 Y21.272 E10.3536
G1 X39.305 Y21.272 E10.3789
G1 X39.922 Y20.655 E10.4123
G1 X39.229 Y20.655 E10.4388
G1 X38.612 Y21.272 E10.4722
G1 X37.920 Y21.272 E10.4988
G1 X38.537 Y20.655 E10.5322
G1 X37.844 Y20.655 E10.5587
G1 X37.227 Y21.272 E10.5922
G1 X36.534 Y21.272 E10.6187
G1 X37.151 Y20.655 E10.6521
G1 X36.458 Y20.655 E10.6787
G1 X35.841 Y21.272 E10.7121
G1 X35.148 Y21.272 E10.7386
G1 X35.765 Y20.655 E10.7720
G1 X35.072 Y20.655 E10.7986
G1 X34.455 Y21.272 E10.8320
G1 X33.762 Y21.272 E10.8585
G1 X34.379 Y20.655 E10.8919
G1 X33.686 Y20.655 E10.9185
G1 X33.069 Y21.272 E10.9519
G1 X32.376 Y21.272 E10.9784
G1 X32.993 Y20.655 E11.0119
G1 X32.300 Y20.655 E11.0384
G1 X31.683 Y21.272 E11.0718
G1 X30.990 Y21.272 E11.0984
G1 X31.607 Y20.655 E11.1318
G1 X30.914 Y20.655 E11.1583
G1 X30.297 Y21.272 E11.1917
G1 X29.604 Y21.272 E11.2183
G1 X30.221 Y20.655 E11.2517
G1 X29.528 Y20.655 E11.2782
G1 X28.911 Y21.272 E11.3117
G1 X28.218 Y21.272 E11.3382
G1 X28.835 Y20.655 E11.3716
G1 X28.142 Y20.655 E11.3982
G1 X27.525 Y21.272 E11.4316
G1 X26.832 Y21.272 E11.4581
G1 X27.449 Y20.655 E11.4915
G1 X26.756 Y20.655 E11.5181
G1 X26.139 Y21.272 E11.5515
G1 X25.446 Y21.272 E11.5780
G1 X26.063 Y20.655 E11.6115
G1 X25.370 Y20.655 E11.6380
G1 X24.753 Y21.272 E11.6714
G1 X24.060 Y21.272 E11.6980
G1 X24.677 Y20.655 E11.7314
G1 X23.984 Y20.655 E11.7579
G1 X23.367 Y21.272 E11.7913
G1 X22.674 Y21.272 E11.8179
G1 X23.291 Y20.655 E11.8513
G1 X22.598 Y20.655 E11.8778
G1 X21.981 Y21.272 E11.9113
G1 X21.288 Y21.272 E11.9378
G1 X21.905 Y20.655 E11.9712
G1 X21.212 Y20.655 E11.9978
