; G-Code generated by Simplify3D(R) Version 3.0.0
; Dez 2, 2017 at 12:10:35 
; Settings Summary
;   processName,Process1
;   applyToModels,board_ritzel,board_ritzel(2)
;   profileName,Renkforce (modified)
;   profileVersion,2017-10-17 11:10:50
;   baseProfile,German RepRap NEO (modified)
;   printMaterial,
;   printQuality,
;   printExtruders,
;   extruderName,Primary Extruder
;   extruderToolheadNumber,0
;   extruderDiameter,0.5
;   extruderAutoWidth,0
;   extruderWidth,0.49
;   extrusionMultiplier,0.94
;   extruderUseRetract,1
;   extruderRetractionDistance,6.5
;   extruderExtraRestartDistance,0
;   extruderRetractionZLift,0
;   extruderRetractionSpeed,4998
;   extruderUseCoasting,0
;   extruderCoastingDistance,0.2
;   extruderUseWipe,0
;   extruderWipeDistance,5
;   primaryExtruder,0
;   layerHeight,0.15
;   topSolidLayers,4
;   bottomSolidLayers,3
;   perimeterOutlines,3
;   printPerimetersInsideOut,1
;   startPointOption,2
;   startPointOriginX,0
;   startPointOriginY,0
;   startPointOriginZ,300
;   sequentialIslands,0
;   spiralVaseMode,0
;   firstLayerHeightPercentage,150
;   firstLayerWidthPercentage,100
;   firstLayerUnderspeed,0.28
;   useRaft,0
;   raftExtruder,0
;   raftLayers,3
;   raftOffset,3
;   raftSeparationDistance,0.1
;   raftInfill,85
;   disableRaftBaseLayers,0
;   useSkirt,1
;   skirtExtruder,0
;   skirtLayers,1
;   skirtOutlines,2
;   skirtOffset,2
;   usePrimePillar,0
;   primePillarExtruder,999
;   primePillarWidth,12
;   primePillarLocation,7
;   primePillarSpeedMultiplier,1
;   useOozeShield,0
;   oozeShieldExtruder,999
;   oozeShieldOffset,2
;   oozeShieldOutlines,1
;   oozeShieldSidewallShape,1
;   oozeShieldSidewallAngle,30
;   oozeShieldSpeedMultiplier,1
;   infillExtruder,0
;   internalInfillPattern,Full Honeycomb
;   externalInfillPattern,Rectilinear
;   infillPercentage,15
;   outlineOverlapPercentage,15
;   infillExtrusionWidthPercentage,100
;   minInfillLength,3
;   infillLayerInterval,1
;   infillAngles,0,120,-120
;   overlapInfillAngles,0
;   generateSupport,0
;   supportExtruder,0
;   supportInfillPercentage,30
;   supportExtraInflation,0
;   denseSupportLayers,0
;   denseSupportInfillPercentage,75
;   supportLayerInterval,1
;   supportHorizontalPartOffset,1.5
;   supportUpperSeparationLayers,2
;   supportLowerSeparationLayers,2
;   supportType,0
;   supportGridSpacing,5
;   maxOverhangAngle,45
;   supportAngles,45
;   temperatureName,Primary Extruder
;   temperatureNumber,0
;   temperatureSetpointCount,3
;   temperatureSetpointLayers,1,2,3
;   temperatureSetpointTemperatures,197,193,189
;   temperatureStabilizeAtStartup,1
;   temperatureHeatedBed,0
;   temperatureRelayBetweenLayers,0
;   temperatureRelayBetweenLoops,0
;   fanLayers,1,3
;   fanSpeeds,0,80
;   blipFanToFullPower,0
;   adjustSpeedForCooling,1
;   minSpeedLayerTime,15
;   minCoolingSpeedSlowdown,20
;   increaseFanForCooling,0
;   minFanLayerTime,45
;   maxCoolingFanSpeed,100
;   increaseFanForBridging,0
;   bridgingFanSpeed,100
;   use5D,1
;   relativeEdistances,0
;   allowEaxisZeroing,1
;   independentExtruderAxes,0
;   includeM10123,0
;   stickySupport,1
;   applyToolheadOffsets,0
;   gcodeXoffset,0
;   gcodeYoffset,0
;   gcodeZoffset,0
;   overrideMachineDefinition,1
;   machineTypeOverride,0
;   strokeXoverride,150
;   strokeYoverride,150
;   strokeZoverride,150
;   originOffsetXoverride,0
;   originOffsetYoverride,0
;   originOffsetZoverride,0
;   homeXdirOverride,-1
;   homeYdirOverride,-1
;   homeZdirOverride,-1
;   flipXoverride,1
;   flipYoverride,-1
;   flipZoverride,1
;   toolheadOffsets,0,0|0,0|0,0|0,0|0,0|0,0
;   overrideFirmwareConfiguration,0
;   firmwareTypeOverride,RepRap (Marlin/Repetier/Sprinter)
;   GPXconfigOverride,r2
;   baudRateOverride,115200
;   overridePrinterModels,0
;   printerModelsOverride
;   startingGcode,G28 ; home all axes
;   layerChangeGcode,
;   retractionGcode,
;   toolChangeGcode,
;   endingGcode,M104 S0 ; turn off extruder,M140 S0 ; turn off bed,G28 X0  ; home X axis,G28 Y0  ; home Y axis,M84 ; disable motors,M107
;   createX3G,0
;   celebration,0
;   celebrationSong,Random Song
;   createMB5G,0
;   postProcessing,
;   defaultSpeed,2400
;   outlineUnderspeed,0.5
;   solidInfillUnderspeed,0.8
;   supportUnderspeed,0.8
;   rapidXYspeed,3498
;   rapidZspeed,1002
;   minBridgingArea,50
;   bridgingExtraInflation,0
;   bridgingExtrusionMultiplier,1
;   bridgingSpeedMultiplier,1
;   filamentDiameter,1.75
;   filamentPricePerKg,46
;   filamentDensity,1.25
;   useMinPrintHeight,0
;   minPrintHeight,0
;   useMaxPrintHeight,0
;   maxPrintHeight,0
;   useDiaphragm,0
;   diaphragmLayerInterval,20
;   robustSlicing,1
;   mergeAllIntoSolid,0
;   onlyRetractWhenCrossingOutline,1
;   retractBetweenLayers,1
;   useRetractionMinTravel,0
;   retractionMinTravel,3
;   retractWhileWiping,0
;   onlyWipeOutlines,1
;   avoidCrossingOutline,0
;   maxMovementDetourFactor,10
;   toolChangeRetractionDistance,0
;   toolChangeExtraRestartDistance,0
;   toolChangeRetractionSpeed,360
;   allowThinWallGapFill,1
;   thinWallAllowedOverlapPercentage,10
;   horizontalSizeCompensation,0
G90
M82
M106 S0
M104 S197 T0
M109 S197 T0
G28 ; home all axes
G92 E0
G1 E-6.5000 F4998
G1 Z0.225 F1002
; layer 1, Z = 0.225
T0
; tool H0.225 W0.490
; skirt
G1 X11.562 Y45.475 F3498
G1 E0.0000 F1499
G92 E0
G1 X11.674 Y45.205 E0.0126 F672
G1 X13.053 Y43.826 E0.0966
G1 X13.323 Y43.714 E0.1092
G1 X110.001 Y43.715 E4.2747
G1 X110.003 Y40.242 E4.4243
G1 X110.115 Y39.972 E4.4369
G1 X111.494 Y38.594 E4.5209
G1 X111.764 Y38.483 E4.5335
G1 X115.713 Y38.485 E4.7037
G1 X115.983 Y38.597 E4.7163
G1 X117.361 Y39.976 E4.8002
G1 X117.473 Y40.246 E4.8128
G1 X117.466 Y53.529 E5.3851
G1 X117.354 Y53.799 E5.3977
G1 X115.975 Y55.176 E5.4817
G1 X115.704 Y55.288 E5.4943
G1 X114.210 Y55.287 E5.5587
G1 X113.990 Y56.105 E5.5952
G1 X113.855 Y56.306 E5.6056
G1 X113.081 Y56.899 E5.6476
G1 X115.713 Y56.900 E5.7610
G1 X115.983 Y57.012 E5.7736
G1 X117.361 Y58.391 E5.8576
G1 X117.473 Y58.662 E5.8702
G1 X117.466 Y71.944 E6.4425
G1 X117.354 Y72.214 E6.4551
G1 X115.975 Y73.592 E6.5391
G1 X115.704 Y73.703 E6.5517
G1 X114.210 Y73.703 E6.6161
G1 X113.990 Y74.521 E6.6526
G1 X113.855 Y74.722 E6.6630
G1 X112.586 Y75.693 E6.7319
G1 X112.356 Y75.771 E6.7423
G1 X109.741 Y75.771 E6.8550
G1 X109.512 Y75.693 E6.8654
G1 X109.455 Y75.650 E6.8685
G1 X109.431 Y75.670 E6.8698
G1 X109.207 Y75.750 E6.8801
G1 X107.886 Y75.784 E6.9370
G1 X107.877 Y75.784 E6.9374
G1 X107.817 Y75.784 E6.9400
G1 X107.807 Y75.784 E6.9404
G1 X106.486 Y75.750 E6.9973
G1 X106.263 Y75.670 E7.0076
G1 X106.246 Y75.656 E7.0085
G1 X106.229 Y75.670 E7.0094
G1 X106.005 Y75.750 E7.0197
G1 X104.684 Y75.784 E7.0766
G1 X104.675 Y75.784 E7.0770
G1 X104.615 Y75.784 E7.0796
G1 X104.605 Y75.784 E7.0800
G1 X103.284 Y75.750 E7.1370
G1 X103.061 Y75.670 E7.1472
G1 X103.044 Y75.656 E7.1481
G1 X103.027 Y75.670 E7.1491
G1 X102.803 Y75.750 E7.1593
G1 X101.482 Y75.784 E7.2162
G1 X101.473 Y75.784 E7.2166
G1 X101.413 Y75.784 E7.2192
G1 X101.403 Y75.784 E7.2196
G1 X100.082 Y75.750 E7.2766
G1 X99.859 Y75.670 E7.2868
G1 X99.842 Y75.656 E7.2877
G1 X99.825 Y75.670 E7.2887
G1 X99.601 Y75.750 E7.2989
G1 X98.280 Y75.784 E7.3558
G1 X98.271 Y75.784 E7.3562
G1 X98.211 Y75.784 E7.3588
G1 X98.201 Y75.784 E7.3592
G1 X96.880 Y75.750 E7.4162
G1 X96.657 Y75.670 E7.4264
G1 X96.640 Y75.656 E7.4274
G1 X96.623 Y75.670 E7.4283
G1 X96.399 Y75.750 E7.4385
G1 X95.078 Y75.784 E7.4955
G1 X95.069 Y75.784 E7.4959
G1 X95.009 Y75.784 E7.4985
G1 X94.999 Y75.784 E7.4989
G1 X93.678 Y75.750 E7.5558
G1 X93.455 Y75.670 E7.5660
G1 X93.438 Y75.656 E7.5670
G1 X93.421 Y75.670 E7.5679
G1 X93.197 Y75.750 E7.5781
G1 X91.876 Y75.784 E7.6351
G1 X91.867 Y75.784 E7.6355
G1 X91.807 Y75.784 E7.6381
G1 X91.797 Y75.784 E7.6385
G1 X90.476 Y75.750 E7.6954
G1 X90.253 Y75.670 E7.7056
G1 X90.236 Y75.656 E7.7066
G1 X90.219 Y75.670 E7.7075
G1 X89.995 Y75.750 E7.7178
G1 X88.674 Y75.784 E7.7747
G1 X88.665 Y75.784 E7.7751
G1 X88.605 Y75.784 E7.7777
G1 X88.595 Y75.784 E7.7781
G1 X87.274 Y75.750 E7.8350
G1 X87.051 Y75.670 E7.8453
G1 X87.034 Y75.656 E7.8462
G1 X87.017 Y75.670 E7.8471
G1 X86.793 Y75.750 E7.8574
G1 X85.472 Y75.784 E7.9143
G1 X85.463 Y75.784 E7.9147
G1 X85.403 Y75.784 E7.9173
G1 X85.393 Y75.784 E7.9177
G1 X84.072 Y75.750 E7.9746
G1 X83.849 Y75.670 E7.9849
G1 X83.832 Y75.656 E7.9858
G1 X83.815 Y75.670 E7.9867
G1 X83.591 Y75.750 E7.9970
G1 X82.270 Y75.784 E8.0539
G1 X82.261 Y75.784 E8.0543
G1 X82.201 Y75.784 E8.0569
G1 X82.191 Y75.784 E8.0573
G1 X80.870 Y75.750 E8.1142
G1 X80.647 Y75.670 E8.1245
G1 X80.630 Y75.656 E8.1254
G1 X80.613 Y75.670 E8.1264
G1 X80.389 Y75.750 E8.1366
G1 X79.068 Y75.784 E8.1935
G1 X79.059 Y75.784 E8.1939
G1 X78.999 Y75.784 E8.1965
G1 X78.989 Y75.784 E8.1969
G1 X77.668 Y75.750 E8.2539
G1 X77.445 Y75.670 E8.2641
G1 X77.428 Y75.656 E8.2650
G1 X77.411 Y75.670 E8.2660
G1 X77.187 Y75.750 E8.2762
G1 X75.866 Y75.784 E8.3331
G1 X75.857 Y75.784 E8.3335
G1 X75.797 Y75.784 E8.3361
G1 X75.787 Y75.784 E8.3365
G1 X74.466 Y75.750 E8.3935
G1 X74.243 Y75.670 E8.4037
G1 X74.226 Y75.656 E8.4046
G1 X74.209 Y75.670 E8.4056
G1 X73.985 Y75.750 E8.4158
G1 X72.664 Y75.784 E8.4728
G1 X72.655 Y75.784 E8.4732
G1 X72.595 Y75.784 E8.4758
G1 X72.585 Y75.784 E8.4762
G1 X71.264 Y75.750 E8.5331
G1 X71.041 Y75.670 E8.5433
G1 X71.024 Y75.656 E8.5443
G1 X71.007 Y75.670 E8.5452
G1 X70.783 Y75.750 E8.5554
G1 X69.462 Y75.784 E8.6124
G1 X69.453 Y75.784 E8.6128
G1 X69.393 Y75.784 E8.6154
G1 X69.383 Y75.784 E8.6158
G1 X68.062 Y75.750 E8.6727
G1 X67.839 Y75.670 E8.6829
G1 X67.822 Y75.656 E8.6839
G1 X67.805 Y75.670 E8.6848
G1 X67.581 Y75.750 E8.6950
G1 X66.260 Y75.784 E8.7520
G1 X66.251 Y75.784 E8.7524
G1 X66.191 Y75.784 E8.7550
G1 X66.181 Y75.784 E8.7554
G1 X64.860 Y75.750 E8.8123
G1 X64.637 Y75.670 E8.8225
G1 X64.620 Y75.656 E8.8235
G1 X64.603 Y75.670 E8.8244
G1 X64.379 Y75.750 E8.8347
G1 X63.058 Y75.784 E8.8916
G1 X63.049 Y75.784 E8.8920
G1 X62.989 Y75.784 E8.8946
G1 X62.979 Y75.784 E8.8950
G1 X61.658 Y75.750 E8.9519
G1 X61.435 Y75.670 E8.9622
G1 X61.418 Y75.656 E8.9631
G1 X61.401 Y75.670 E8.9640
G1 X61.177 Y75.750 E8.9743
G1 X59.856 Y75.784 E9.0312
G1 X59.847 Y75.784 E9.0316
G1 X59.787 Y75.784 E9.0342
G1 X59.777 Y75.784 E9.0346
G1 X58.456 Y75.750 E9.0915
G1 X58.233 Y75.670 E9.1018
G1 X58.216 Y75.656 E9.1027
G1 X58.199 Y75.670 E9.1037
G1 X57.975 Y75.750 E9.1139
G1 X56.654 Y75.784 E9.1708
G1 X56.645 Y75.784 E9.1712
G1 X56.585 Y75.784 E9.1738
G1 X56.575 Y75.784 E9.1742
G1 X55.254 Y75.750 E9.2312
G1 X55.031 Y75.670 E9.2414
G1 X55.014 Y75.656 E9.2423
G1 X54.997 Y75.670 E9.2433
G1 X54.773 Y75.750 E9.2535
G1 X53.452 Y75.784 E9.3104
G1 X53.443 Y75.784 E9.3108
G1 X53.383 Y75.784 E9.3134
G1 X53.373 Y75.784 E9.3138
G1 X52.052 Y75.750 E9.3708
G1 X51.829 Y75.670 E9.3810
G1 X51.804 Y75.650 E9.3824
G1 X51.748 Y75.693 E9.3854
G1 X51.518 Y75.771 E9.3959
G1 X48.903 Y75.771 E9.5085
G1 X48.674 Y75.693 E9.5190
G1 X48.610 Y75.645 E9.5224
G1 X48.546 Y75.693 E9.5259
G1 X48.316 Y75.771 E9.5363
G1 X45.701 Y75.771 E9.6490
G1 X45.472 Y75.693 E9.6595
G1 X45.408 Y75.645 E9.6629
G1 X45.344 Y75.693 E9.6664
G1 X45.114 Y75.771 E9.6768
G1 X42.499 Y75.771 E9.7895
G1 X42.270 Y75.693 E9.8000
G1 X42.206 Y75.645 E9.8034
G1 X42.142 Y75.693 E9.8069
G1 X41.912 Y75.771 E9.8173
G1 X39.297 Y75.771 E9.9300
G1 X39.068 Y75.693 E9.9405
G1 X39.004 Y75.645 E9.9439
G1 X38.940 Y75.693 E9.9474
G1 X38.710 Y75.771 E9.9578
G1 X36.095 Y75.771 E10.0705
G1 X35.866 Y75.693 E10.0810
G1 X35.802 Y75.645 E10.0844
G1 X35.738 Y75.693 E10.0879
G1 X35.508 Y75.771 E10.0983
G1 X32.893 Y75.771 E10.2110
G1 X32.664 Y75.693 E10.2215
G1 X32.600 Y75.645 E10.2249
G1 X32.536 Y75.693 E10.2284
G1 X32.306 Y75.771 E10.2388
G1 X29.691 Y75.771 E10.3515
G1 X29.462 Y75.693 E10.3619
G1 X29.398 Y75.645 E10.3654
G1 X29.334 Y75.693 E10.3689
G1 X29.104 Y75.771 E10.3793
G1 X26.489 Y75.771 E10.4920
G1 X26.260 Y75.693 E10.5024
G1 X26.196 Y75.645 E10.5059
G1 X26.132 Y75.693 E10.5094
G1 X25.902 Y75.771 E10.5198
G1 X23.287 Y75.771 E10.6325
G1 X23.058 Y75.693 E10.6429
G1 X22.994 Y75.645 E10.6464
G1 X22.930 Y75.693 E10.6499
G1 X22.700 Y75.771 E10.6603
G1 X20.085 Y75.771 E10.7730
G1 X19.856 Y75.693 E10.7834
G1 X19.792 Y75.645 E10.7869
G1 X19.728 Y75.693 E10.7904
G1 X19.498 Y75.771 E10.8008
G1 X16.883 Y75.771 E10.9135
G1 X16.654 Y75.693 E10.9239
G1 X16.590 Y75.645 E10.9274
G1 X16.526 Y75.693 E10.9309
G1 X16.296 Y75.771 E10.9413
G1 X13.681 Y75.771 E11.0540
G1 X13.452 Y75.693 E11.0644
G1 X12.183 Y74.722 E11.1333
G1 X12.048 Y74.521 E11.1437
G1 X11.509 Y72.526 E11.2327
G1 X11.498 Y72.462 E11.2355
G1 X11.462 Y72.046 E11.2535
G1 X11.462 Y71.981 E11.2563
G1 X11.562 Y70.845 E11.3055
G1 X11.562 Y63.890 E11.6051
G1 X11.674 Y63.620 E11.6177
G1 X13.053 Y62.242 E11.7017
G1 X13.323 Y62.130 E11.7143
G1 X110.001 Y62.130 E15.8798
G1 X110.003 Y58.658 E16.0294
G1 X110.115 Y58.388 E16.0420
G1 X111.148 Y57.356 E16.1049
G1 X109.741 Y57.356 E16.1655
G1 X109.512 Y57.278 E16.1760
G1 X109.456 Y57.235 E16.1790
G1 X109.431 Y57.254 E16.1804
G1 X109.207 Y57.335 E16.1906
G1 X107.886 Y57.369 E16.2476
G1 X107.877 Y57.369 E16.2480
G1 X107.817 Y57.369 E16.2506
G1 X107.807 Y57.369 E16.2510
G1 X106.486 Y57.335 E16.3079
G1 X106.263 Y57.254 E16.3181
G1 X106.246 Y57.241 E16.3191
G1 X106.229 Y57.254 E16.3200
G1 X106.005 Y57.335 E16.3302
G1 X104.684 Y57.369 E16.3872
G1 X104.675 Y57.369 E16.3876
G1 X104.615 Y57.369 E16.3902
G1 X104.605 Y57.369 E16.3906
G1 X103.284 Y57.335 E16.4475
G1 X103.061 Y57.254 E16.4577
G1 X103.044 Y57.241 E16.4587
G1 X103.027 Y57.254 E16.4596
G1 X102.803 Y57.335 E16.4699
G1 X101.482 Y57.369 E16.5268
G1 X101.473 Y57.369 E16.5272
G1 X101.413 Y57.369 E16.5298
G1 X101.403 Y57.369 E16.5302
G1 X100.082 Y57.335 E16.5871
G1 X99.859 Y57.254 E16.5974
G1 X99.842 Y57.241 E16.5983
G1 X99.825 Y57.254 E16.5992
G1 X99.601 Y57.335 E16.6095
G1 X98.280 Y57.369 E16.6664
G1 X98.271 Y57.369 E16.6668
G1 X98.211 Y57.369 E16.6694
G1 X98.201 Y57.369 E16.6698
G1 X96.880 Y57.335 E16.7267
G1 X96.657 Y57.254 E16.7370
G1 X96.640 Y57.241 E16.7379
G1 X96.623 Y57.254 E16.7388
G1 X96.399 Y57.335 E16.7491
G1 X95.078 Y57.369 E16.8060
G1 X95.069 Y57.369 E16.8064
G1 X95.009 Y57.369 E16.8090
G1 X94.999 Y57.369 E16.8094
G1 X93.678 Y57.335 E16.8664
G1 X93.455 Y57.254 E16.8766
G1 X93.438 Y57.241 E16.8775
G1 X93.421 Y57.254 E16.8785
G1 X93.197 Y57.335 E16.8887
G1 X91.876 Y57.369 E16.9456
G1 X91.867 Y57.369 E16.9460
G1 X91.807 Y57.369 E16.9486
G1 X91.797 Y57.369 E16.9490
G1 X90.476 Y57.335 E17.0060
G1 X90.253 Y57.254 E17.0162
G1 X90.236 Y57.241 E17.0171
G1 X90.219 Y57.254 E17.0181
G1 X89.995 Y57.335 E17.0283
G1 X88.674 Y57.369 E17.0852
G1 X88.665 Y57.369 E17.0856
G1 X88.605 Y57.369 E17.0882
G1 X88.595 Y57.369 E17.0886
G1 X87.274 Y57.335 E17.1456
G1 X87.051 Y57.254 E17.1558
G1 X87.034 Y57.241 E17.1567
G1 X87.017 Y57.254 E17.1577
G1 X86.793 Y57.335 E17.1679
G1 X85.472 Y57.369 E17.2249
G1 X85.463 Y57.369 E17.2253
G1 X85.403 Y57.369 E17.2279
G1 X85.393 Y57.369 E17.2283
G1 X84.072 Y57.335 E17.2852
G1 X83.849 Y57.254 E17.2954
G1 X83.832 Y57.241 E17.2964
G1 X83.815 Y57.254 E17.2973
G1 X83.591 Y57.335 E17.3075
G1 X82.270 Y57.369 E17.3645
G1 X82.261 Y57.369 E17.3649
G1 X82.201 Y57.369 E17.3675
G1 X82.191 Y57.369 E17.3679
G1 X80.870 Y57.335 E17.4248
G1 X80.647 Y57.254 E17.4350
G1 X80.630 Y57.241 E17.4360
G1 X80.613 Y57.254 E17.4369
G1 X80.389 Y57.335 E17.4471
G1 X79.068 Y57.369 E17.5041
G1 X79.059 Y57.369 E17.5045
G1 X78.999 Y57.369 E17.5071
G1 X78.989 Y57.369 E17.5075
G1 X77.668 Y57.335 E17.5644
G1 X77.445 Y57.254 E17.5747
G1 X77.428 Y57.241 E17.5756
G1 X77.411 Y57.254 E17.5765
G1 X77.187 Y57.335 E17.5868
G1 X75.866 Y57.369 E17.6437
G1 X75.857 Y57.369 E17.6441
G1 X75.797 Y57.369 E17.6467
G1 X75.787 Y57.369 E17.6471
G1 X74.466 Y57.335 E17.7040
G1 X74.243 Y57.254 E17.7143
G1 X74.226 Y57.241 E17.7152
G1 X74.209 Y57.254 E17.7161
G1 X73.985 Y57.335 E17.7264
G1 X72.664 Y57.369 E17.7833
G1 X72.655 Y57.369 E17.7837
G1 X72.595 Y57.369 E17.7863
G1 X72.585 Y57.369 E17.7867
G1 X71.264 Y57.335 E17.8436
G1 X71.041 Y57.254 E17.8539
G1 X71.024 Y57.241 E17.8548
G1 X71.007 Y57.254 E17.8557
G1 X70.783 Y57.335 E17.8660
G1 X69.462 Y57.369 E17.9229
