; G-Code generated by Simplify3D(R) Version 3.0.0
; Sep 30, 2017 at 6:14:51 
; Settings Summary
;   processName,Process1
;   applyToModels,1KG-Halter-Neo
;   profileName,1.5 fein (modified)
;   profileVersion,2017-09-21 12:38:00
;   baseProfile,German RepRap NEO (modified)
;   printMaterial,
;   printQuality,
;   printExtruders,
;   extruderName,Primary Extruder
;   extruderToolheadNumber,0
;   extruderDiameter,0.5
;   extruderAutoWidth,0
;   extruderWidth,0.49
;   extrusionMultiplier,0.95
;   extruderUseRetract,1
;   extruderRetractionDistance,6.5
;   extruderExtraRestartDistance,0
;   extruderRetractionZLift,0
;   extruderRetractionSpeed,4998
;   extruderUseCoasting,0
;   extruderCoastingDistance,0.2
;   extruderUseWipe,0
;   extruderWipeDistance,5
;   primaryExtruder,0
;   layerHeight,0.2
;   topSolidLayers,4
;   bottomSolidLayers,3
;   perimeterOutlines,3
;   printPerimetersInsideOut,1
;   startPointOption,2
;   startPointOriginX,0
;   startPointOriginY,0
;   startPointOriginZ,300
;   sequentialIslands,0
;   spiralVaseMode,0
;   firstLayerHeightPercentage,100
;   firstLayerWidthPercentage,100
;   firstLayerUnderspeed,0.3
;   useRaft,0
;   raftExtruder,0
;   raftLayers,3
;   raftOffset,3
;   raftSeparationDistance,0.1
;   raftInfill,85
;   disableRaftBaseLayers,0
;   useSkirt,1
;   skirtExtruder,0
;   skirtLayers,1
;   skirtOutlines,4
;   skirtOffset,2
;   usePrimePillar,0
;   primePillarExtruder,999
;   primePillarWidth,12
;   primePillarLocation,7
;   primePillarSpeedMultiplier,1
;   useOozeShield,0
;   oozeShieldExtruder,999
;   oozeShieldOffset,2
;   oozeShieldOutlines,1
;   oozeShieldSidewallShape,1
;   oozeShieldSidewallAngle,30
;   oozeShieldSpeedMultiplier,1
;   infillExtruder,0
;   internalInfillPattern,Full Honeycomb
;   externalInfillPattern,Rectilinear
;   infillPercentage,20
;   outlineOverlapPercentage,15
;   infillExtrusionWidthPercentage,100
;   minInfillLength,3
;   infillLayerInterval,1
;   infillAngles,0,120,-120
;   overlapInfillAngles,0
;   generateSupport,0
;   supportExtruder,0
;   supportInfillPercentage,30
;   supportExtraInflation,0
;   denseSupportLayers,0
;   denseSupportInfillPercentage,75
;   supportLayerInterval,1
;   supportHorizontalPartOffset,1.5
;   supportUpperSeparationLayers,2
;   supportLowerSeparationLayers,2
;   supportType,0
;   supportGridSpacing,4
;   maxOverhangAngle,45
;   supportAngles,45
;   temperatureName,Primary Extruder
;   temperatureNumber,0
;   temperatureSetpointCount,3
;   temperatureSetpointLayers,1,2,3
;   temperatureSetpointTemperatures,207,202,197
;   temperatureStabilizeAtStartup,1
;   temperatureHeatedBed,0
;   temperatureRelayBetweenLayers,0
;   temperatureRelayBetweenLoops,0
;   fanLayers,1,3
;   fanSpeeds,0,100
;   blipFanToFullPower,0
;   adjustSpeedForCooling,1
;   minSpeedLayerTime,15
;   minCoolingSpeedSlowdown,20
;   increaseFanForCooling,0
;   minFanLayerTime,45
;   maxCoolingFanSpeed,100
;   increaseFanForBridging,0
;   bridgingFanSpeed,100
;   use5D,1
;   relativeEdistances,0
;   allowEaxisZeroing,1
;   independentExtruderAxes,0
;   includeM10123,0
;   stickySupport,1
;   applyToolheadOffsets,0
;   gcodeXoffset,0
;   gcodeYoffset,0
;   gcodeZoffset,0
;   overrideMachineDefinition,1
;   machineTypeOverride,0
;   strokeXoverride,150
;   strokeYoverride,150
;   strokeZoverride,150
;   originOffsetXoverride,0
;   originOffsetYoverride,0
;   originOffsetZoverride,0
;   homeXdirOverride,-1
;   homeYdirOverride,-1
;   homeZdirOverride,-1
;   flipXoverride,1
;   flipYoverride,-1
;   flipZoverride,1
;   toolheadOffsets,0,0|0,0|0,0|0,0|0,0|0,0
;   overrideFirmwareConfiguration,0
;   firmwareTypeOverride,RepRap (Marlin/Repetier/Sprinter)
;   GPXconfigOverride,r2
;   baudRateOverride,115200
;   overridePrinterModels,0
;   printerModelsOverride
;   startingGcode,G28 ; home all axes
;   layerChangeGcode,
;   retractionGcode,
;   toolChangeGcode,
;   endingGcode,M104 S0 ; turn off extruder,M140 S0 ; turn off bed,G28 X0  ; home X axis,G28 Y0  ; home Y axis,M84 ; disable motors,M107
;   createX3G,0
;   celebration,0
;   celebrationSong,Random Song
;   createMB5G,0
;   postProcessing,
;   defaultSpeed,2400
;   outlineUnderspeed,0.5
;   solidInfillUnderspeed,0.8
;   supportUnderspeed,0.8
;   rapidXYspeed,3498
;   rapidZspeed,1002
;   minBridgingArea,50
;   bridgingExtraInflation,0
;   bridgingExtrusionMultiplier,1
;   bridgingSpeedMultiplier,1
;   filamentDiameter,1.75
;   filamentPricePerKg,46
;   filamentDensity,1.25
;   useMinPrintHeight,0
;   minPrintHeight,0
;   useMaxPrintHeight,0
;   maxPrintHeight,0
;   useDiaphragm,0
;   diaphragmLayerInterval,20
;   robustSlicing,1
;   mergeAllIntoSolid,0
;   onlyRetractWhenCrossingOutline,1
;   retractBetweenLayers,1
;   useRetractionMinTravel,0
;   retractionMinTravel,3
;   retractWhileWiping,0
;   onlyWipeOutlines,1
;   avoidCrossingOutline,0
;   maxMovementDetourFactor,10
;   toolChangeRetractionDistance,0
;   toolChangeExtraRestartDistance,0
;   toolChangeRetractionSpeed,360
;   allowThinWallGapFill,1
;   thinWallAllowedOverlapPercentage,10
;   horizontalSizeCompensation,0
G90
M82
M106 S0
M104 S207 T0
M109 S207 T0
G28 ; home all axes
G92 E0
G1 E-6.5000 F4998
G1 Z0.200 F1002
; layer 1, Z = 0.2
T0
; tool H0.200 W0.490
; skirt
G1 X19.302 Y24.621 F3498
G1 E0.0000 F1499
G92 E0
G1 X19.933 Y24.360 E0.0264 F720
G1 X25.272 Y24.360 E0.2331
G1 X25.902 Y24.621 E0.2595
G1 X27.556 Y26.275 E0.3500
G1 X27.817 Y26.905 E0.3764
G1 X27.817 Y47.258 E1.1642
G1 X109.272 Y47.258 E4.3170
G1 X109.902 Y47.519 E4.3434
G1 X111.556 Y49.173 E4.4340
G1 X111.817 Y49.803 E4.4604
G1 X111.817 Y62.560 E4.9542
G1 X111.556 Y63.190 E4.9806
G1 X109.902 Y64.844 E5.0711
G1 X109.272 Y65.106 E5.0975
G1 X104.933 Y65.106 E5.2655
G1 X104.302 Y64.844 E5.2919
G1 X102.648 Y63.190 E5.3824
G1 X102.387 Y62.560 E5.4088
G1 X102.387 Y59.730 E5.5184
G1 X27.817 Y59.730 E8.4047
G1 X27.817 Y60.571 E8.4373
G1 X27.556 Y61.202 E8.4637
G1 X25.902 Y62.856 E8.5542
G1 X25.272 Y63.117 E8.5806
G1 X19.933 Y63.117 E8.7873
G1 X19.302 Y62.856 E8.8137
G1 X18.236 Y61.790 E8.8721
G1 X14.933 Y61.790 E8.9999
G1 X14.302 Y61.529 E9.0263
G1 X12.648 Y59.875 E9.1169
G1 X12.387 Y59.244 E9.1433
G1 X12.387 Y48.905 E9.5435
G1 X12.648 Y48.275 E9.5699
G1 X14.302 Y46.621 E9.6604
G1 X14.933 Y46.360 E9.6868
G1 X17.387 Y46.360 E9.7819
G1 X17.387 Y26.905 E10.5349
G1 X17.648 Y26.275 E10.5613
G1 X19.302 Y24.621 E10.6518
G1 X19.580 Y25.036 F3498
G92 E0
G1 X20.030 Y24.850 E0.0189 F720
G1 X25.174 Y24.850 E0.2180
G1 X25.625 Y25.036 E0.2368
G1 X27.141 Y26.552 E0.3198
G1 X27.327 Y27.003 E0.3387
G1 X27.327 Y47.748 E1.1417
G1 X109.174 Y47.748 E4.3097
G1 X109.625 Y47.934 E4.3285
G1 X111.141 Y49.450 E4.4115
G1 X111.327 Y49.901 E4.4304
G1 X111.327 Y62.463 E4.9166
G1 X111.141 Y62.913 E4.9355
G1 X109.625 Y64.429 E5.0185
G1 X109.174 Y64.616 E5.0374
G1 X105.030 Y64.616 E5.1978
G1 X104.580 Y64.429 E5.2166
G1 X103.064 Y62.913 E5.2996
G1 X102.877 Y62.463 E5.3185
G1 X102.877 Y59.240 E5.4432
G1 X27.327 Y59.240 E8.3675
G1 X27.327 Y60.474 E8.4153
G1 X27.141 Y60.924 E8.4341
G1 X25.625 Y62.440 E8.5171
G1 X25.174 Y62.627 E8.5360
G1 X20.030 Y62.627 E8.7351
G1 X19.580 Y62.440 E8.7540
G1 X18.439 Y61.300 E8.8164
G1 X15.030 Y61.300 E8.9484
G1 X14.580 Y61.113 E8.9672
G1 X13.064 Y59.597 E9.0502
G1 X12.877 Y59.147 E9.0691
G1 X12.877 Y49.003 E9.4617
G1 X13.064 Y48.552 E9.4806
G1 X14.580 Y47.036 E9.5636
G1 X15.030 Y46.850 E9.5825
G1 X17.877 Y46.850 E9.6927
G1 X17.877 Y27.003 E10.4609
G1 X18.064 Y26.552 E10.4797
G1 X19.580 Y25.036 E10.5627
G1 X19.857 Y25.452 F3498
G92 E0
G1 X20.128 Y25.340 E0.0113 F720
G1 X25.077 Y25.340 E0.2029
G1 X25.347 Y25.452 E0.2142
G1 X26.725 Y26.830 E0.2897
G1 X26.837 Y27.100 E0.3010
G1 X26.837 Y48.238 E1.1191
G1 X109.077 Y48.238 E4.3023
G1 X109.347 Y48.350 E4.3137
G1 X110.725 Y49.728 E4.3891
G1 X110.837 Y49.998 E4.4004
G1 X110.837 Y62.365 E4.8791
G1 X110.725 Y62.635 E4.8904
G1 X109.347 Y64.014 E4.9659
G1 X109.077 Y64.126 E4.9772
G1 X105.128 Y64.126 E5.1301
G1 X104.857 Y64.014 E5.1414
G1 X103.479 Y62.635 E5.2168
G1 X103.367 Y62.365 E5.2281
G1 X103.367 Y58.750 E5.3681
G1 X26.837 Y58.750 E8.3303
G1 X26.837 Y60.376 E8.3933
G1 X26.725 Y60.647 E8.4046
G1 X25.347 Y62.025 E8.4800
G1 X25.077 Y62.137 E8.4913
G1 X20.128 Y62.137 E8.6829
G1 X19.857 Y62.025 E8.6942
G1 X18.642 Y60.810 E8.7608
G1 X15.128 Y60.810 E8.8968
G1 X14.857 Y60.698 E8.9081
G1 X13.479 Y59.319 E8.9836
G1 X13.367 Y59.049 E8.9949
G1 X13.367 Y49.100 E9.3800
G1 X13.479 Y48.830 E9.3913
G1 X14.857 Y47.452 E9.4667
G1 X15.128 Y47.340 E9.4781
G1 X18.367 Y47.340 E9.6035
G1 X18.367 Y27.100 E10.3869
G1 X18.479 Y26.830 E10.3982
G1 X19.857 Y25.452 E10.4736
G1 X20.135 Y25.867 F3498
G92 E0
G1 X20.225 Y25.830 E0.0038 F720
G1 X24.979 Y25.830 E0.1878
G1 X25.069 Y25.867 E0.1916
G1 X26.310 Y27.107 E0.2595
G1 X26.347 Y27.197 E0.2632
G1 X26.347 Y48.728 E1.0966
G1 X108.979 Y48.728 E4.2950
G1 X109.069 Y48.765 E4.2988
G1 X110.310 Y50.006 E4.3667
G1 X110.347 Y50.096 E4.3705
G1 X110.347 Y62.268 E4.8416
G1 X110.310 Y62.358 E4.8454
G1 X109.069 Y63.598 E4.9133
G1 X108.979 Y63.636 E4.9170
G1 X105.225 Y63.636 E5.0624
G1 X105.135 Y63.598 E5.0661
G1 X103.895 Y62.358 E5.1340
G1 X103.857 Y62.268 E5.1378
G1 X103.857 Y58.260 E5.2929
G1 X26.347 Y58.260 E8.2931
G1 X26.347 Y60.279 E8.3712
G1 X26.310 Y60.369 E8.3750
G1 X25.069 Y61.610 E8.4429
G1 X24.979 Y61.647 E8.4467
G1 X20.225 Y61.647 E8.6307
G1 X20.135 Y61.610 E8.6345
G1 X18.895 Y60.369 E8.7024
G1 X18.874 Y60.320 E8.7045
G1 X15.225 Y60.320 E8.8457
G1 X15.135 Y60.282 E8.8495
G1 X13.895 Y59.042 E8.9174
G1 X13.857 Y58.952 E8.9211
G1 X13.857 Y49.197 E9.2987
G1 X13.895 Y49.107 E9.3025
G1 X15.135 Y47.867 E9.3704
G1 X15.225 Y47.830 E9.3742
G1 X18.857 Y47.830 E9.5147
G1 X18.857 Y27.197 E10.3133
G1 X18.895 Y27.107 E10.3171
G1 X20.135 Y25.867 E10.3850
G92 E0
G1 E-6.5000 F4998
; inner perimeter
G1 X22.327 Y29.300 F3498
G1 E0.0000 F4998
G92 E0
G1 X22.877 Y29.300 E0.0213 F600
G1 X22.877 Y52.198 E0.9076
G1 X106.877 Y52.198 E4.1589
G1 X106.877 Y54.790 E4.2593
G1 X22.877 Y54.790 E7.5106
G1 X22.877 Y58.177 E7.6417
G1 X22.327 Y58.177 E7.6630
G1 X22.327 Y56.850 E7.7144
G1 X17.327 Y56.850 E7.9079
G1 X17.327 Y51.300 E8.1227
G1 X17.877 Y51.300 E8.1440
G1 X17.877 Y55.300 E8.2988
G1 X22.327 Y55.300 E8.4711
G1 X22.327 Y29.300 E9.4775
; inner perimeter
G1 X21.837 Y28.810 F3498
G92 E0
G1 X23.367 Y28.810 E0.0592 F480
G1 X23.367 Y51.708 E0.9455
G1 X107.367 Y51.708 E4.1969
G1 X107.367 Y60.656 E4.5432
G1 X106.837 Y60.656 E4.5637
G1 X106.837 Y55.280 E4.7718
G1 X23.367 Y55.280 E8.0026
G1 X23.367 Y58.667 E8.1337
G1 X21.837 Y58.667 E8.1930
G1 X21.837 Y57.340 E8.2443
G1 X16.837 Y57.340 E8.4379
G1 X16.837 Y50.810 E8.6906
G1 X18.367 Y50.810 E8.7498
G1 X18.367 Y54.810 E8.9047
G1 X21.837 Y54.810 E9.0390
G1 X21.837 Y28.810 E10.0453
; outer perimeter
G1 X21.347 Y28.320 F3498
G92 E0
G1 X23.857 Y28.320 E0.0972 F360
G1 X23.857 Y51.218 E0.9835
G1 X107.857 Y51.218 E4.2348
G1 X107.857 Y61.146 E4.6191
G1 X106.347 Y61.146 E4.6775
G1 X106.347 Y55.770 E4.8856
G1 X23.857 Y55.770 E8.0785
G1 X23.857 Y59.157 E8.2096
G1 X21.347 Y59.157 E8.3068
G1 X21.347 Y57.830 E8.3581
G1 X16.347 Y57.830 E8.5517
G1 X16.347 Y50.320 E8.8423
G1 X18.857 Y50.320 E8.9395
G1 X18.857 Y54.320 E9.0943
G1 X21.347 Y54.320 E9.1907
G1 X21.347 Y28.320 E10.1971
; solid layer
G1 X22.744 Y53.189 F3498
G92 E0
G1 X23.319 Y52.614 E0.0315 F576
G1 X24.012 Y52.614 E0.0583
G1 X22.744 Y53.882 E0.1277
G1 X22.744 Y54.373 E0.1467
G1 X22.946 Y54.373 E0.1545
G1 X24.705 Y52.614 E0.2508
G1 X25.398 Y52.614 E0.2777
G1 X23.639 Y54.373 E0.3739
G1 X24.332 Y54.373 E0.4008
G1 X26.091 Y52.614 E0.4971
G1 X26.784 Y52.614 E0.5239
G1 X25.025 Y54.373 E0.6202
G1 X25.718 Y54.373 E0.6470
G1 X27.477 Y52.614 E0.7433
G1 X28.170 Y52.614 E0.7701
G1 X26.411 Y54.373 E0.8664
G1 X27.104 Y54.373 E0.8932
G1 X28.863 Y52.614 E0.9895
G1 X29.556 Y52.614 E1.0163
G1 X27.796 Y54.373 E1.1126
G1 X28.489 Y54.373 E1.1394
G1 X30.248 Y52.614 E1.2357
G1 X30.941 Y52.614 E1.2625
G1 X29.182 Y54.373 E1.3588
G1 X29.875 Y54.373 E1.3857
G1 X31.634 Y52.614 E1.4819
G1 X32.327 Y52.614 E1.5088
G1 X30.568 Y54.373 E1.6051
G1 X31.261 Y54.373 E1.6319
G1 X33.020 Y52.614 E1.7282
G1 X33.713 Y52.614 E1.7550
G1 X31.954 Y54.373 E1.8513
G1 X32.647 Y54.373 E1.8781
G1 X34.406 Y52.614 E1.9744
G1 X35.099 Y52.614 E2.0012
G1 X33.340 Y54.373 E2.0975
G1 X34.033 Y54.373 E2.1243
G1 X35.792 Y52.614 E2.2206
G1 X36.485 Y52.614 E2.2474
G1 X34.726 Y54.373 E2.3437
G1 X35.419 Y54.373 E2.3705
G1 X37.178 Y52.614 E2.4668
G1 X37.871 Y52.614 E2.4937
G1 X36.112 Y54.373 E2.5899
G1 X36.805 Y54.373 E2.6168
G1 X38.564 Y52.614 E2.7131
G1 X39.257 Y52.614 E2.7399
G1 X37.498 Y54.373 E2.8362
G1 X38.191 Y54.373 E2.8630
G1 X39.950 Y52.614 E2.9593
G1 X40.643 Y52.614 E2.9861
G1 X38.884 Y54.373 E3.0824
G1 X39.577 Y54.373 E3.1092
G1 X41.336 Y52.614 E3.2055
G1 X42.029 Y52.614 E3.2323
G1 X40.270 Y54.373 E3.3286
G1 X40.963 Y54.373 E3.3554
G1 X42.722 Y52.614 E3.4517
G1 X43.415 Y52.614 E3.4785
G1 X41.656 Y54.373 E3.5748
G1 X42.349 Y54.373 E3.6017
G1 X44.108 Y52.614 E3.6979
G1 X44.801 Y52.614 E3.7248
G1 X43.042 Y54.373 E3.8211
G1 X43.735 Y54.373 E3.8479
G1 X45.494 Y52.614 E3.9442
G1 X46.187 Y52.614 E3.9710
G1 X44.428 Y54.373 E4.0673
G1 X45.121 Y54.373 E4.0941
G1 X46.880 Y52.614 E4.1904
G1 X47.573 Y52.614 E4.2172
G1 X45.814 Y54.373 E4.3135
G1 X46.507 Y54.373 E4.3403
G1 X48.266 Y52.614 E4.4366
G1 X48.959 Y52.614 E4.4634
G1 X47.199 Y54.373 E4.5597
G1 X47.892 Y54.373 E4.5865
G1 X49.652 Y52.614 E4.6828
G1 X50.344 Y52.614 E4.7097
G1 X48.585 Y54.373 E4.8059
G1 X49.278 Y54.373 E4.8328
G1 X51.037 Y52.614 E4.9291
G1 X51.730 Y52.614 E4.9559
G1 X49.971 Y54.373 E5.0522
G1 X50.664 Y54.373 E5.0790
G1 X52.423 Y52.614 E5.1753
G1 X53.116 Y52.614 E5.2021
G1 X51.357 Y54.373 E5.2984
G1 X52.050 Y54.373 E5.3252
G1 X53.809 Y52.614 E5.4215
G1 X54.502 Y52.614 E5.4483
G1 X52.743 Y54.373 E5.5446
G1 X53.436 Y54.373 E5.5714
G1 X55.195 Y52.614 E5.6677
G1 X55.888 Y52.614 E5.6945
G1 X54.129 Y54.373 E5.7908
G1 X54.822 Y54.373 E5.8177
G1 X56.581 Y52.614 E5.9139
G1 X57.274 Y52.614 E5.9408
G1 X55.515 Y54.373 E6.0371
G1 X56.208 Y54.373 E6.0639
G1 X57.967 Y52.614 E6.1602
G1 X58.660 Y52.614 E6.1870
G1 X56.901 Y54.373 E6.2833
G1 X57.594 Y54.373 E6.3101
G1 X59.353 Y52.614 E6.4064
G1 X60.046 Y52.614 E6.4332
G1 X58.287 Y54.373 E6.5295
G1 X58.980 Y54.373 E6.5563
G1 X60.739 Y52.614 E6.6526
G1 X61.432 Y52.614 E6.6794
G1 X59.673 Y54.373 E6.7757
G1 X60.366 Y54.373 E6.8025
G1 X62.125 Y52.614 E6.8988
G1 X62.818 Y52.614 E6.9257
G1 X61.059 Y54.373 E7.0219
G1 X61.752 Y54.373 E7.0488
G1 X63.511 Y52.614 E7.1451
G1 X64.204 Y52.614 E7.1719
G1 X62.445 Y54.373 E7.2682
G1 X63.138 Y54.373 E7.2950
G1 X64.897 Y52.614 E7.3913
G1 X65.590 Y52.614 E7.4181
G1 X63.831 Y54.373 E7.5144
G1 X64.524 Y54.373 E7.5412
G1 X66.283 Y52.614 E7.6375
G1 X66.976 Y52.614 E7.6643
G1 X65.217 Y54.373 E7.7606
G1 X65.910 Y54.373 E7.7874
G1 X67.669 Y52.614 E7.8837
G1 X68.362 Y52.614 E7.9106
G1 X66.603 Y54.373 E8.0068
G1 X67.295 Y54.373 E8.0337
G1 X69.055 Y52.614 E8.1300
G1 X69.747 Y52.614 E8.1568
G1 X67.988 Y54.373 E8.2531
G1 X68.681 Y54.373 E8.2799
G1 X70.440 Y52.614 E8.3762
G1 X71.133 Y52.614 E8.4030
G1 X69.374 Y54.373 E8.4993
G1 X70.067 Y54.373 E8.5261
G1 X71.826 Y52.614 E8.6224
G1 X72.519 Y52.614 E8.6492
G1 X70.760 Y54.373 E8.7455
G1 X71.453 Y54.373 E8.7723
G1 X73.212 Y52.614 E8.8686
G1 X73.905 Y52.614 E8.8954
G1 X72.146 Y54.373 E8.9917
G1 X72.839 Y54.373 E9.0186
G1 X74.598 Y52.614 E9.1148
G1 X75.291 Y52.614 E9.1417
G1 X73.532 Y54.373 E9.2380
G1 X74.225 Y54.373 E9.2648
G1 X75.984 Y52.614 E9.3611
G1 X76.677 Y52.614 E9.3879
G1 X74.918 Y54.373 E9.4842
G1 X75.611 Y54.373 E9.5110
G1 X77.370 Y52.614 E9.6073
G1 X78.063 Y52.614 E9.6341
G1 X76.304 Y54.373 E9.7304
G1 X76.997 Y54.373 E9.7572
G1 X78.756 Y52.614 E9.8535
G1 X79.449 Y52.614 E9.8803
G1 X77.690 Y54.373 E9.9766
G1 X78.383 Y54.373 E10.0034
G1 X80.142 Y52.614 E10.0997
G1 X80.835 Y52.614 E10.1266
G1 X79.076 Y54.373 E10.2228
G1 X79.769 Y54.373 E10.2497
G1 X81.528 Y52.614 E10.3460
G1 X82.221 Y52.614 E10.3728
G1 X80.462 Y54.373 E10.4691
G1 X81.155 Y54.373 E10.4959
G1 X82.914 Y52.614 E10.5922
G1 X83.607 Y52.614 E10.6190
G1 X81.848 Y54.373 E10.7153
G1 X82.541 Y54.373 E10.7421
