; G-Code generated by Simplify3D(R) Version 3.0.0
; Sep 30, 2017 at 5:24:57 
; Settings Summary
;   processName,Process1
;   applyToModels,1KG-Halter-Neo
;   profileName,1.5 fein (modified)
;   profileVersion,2017-09-21 12:38:00
;   baseProfile,German RepRap NEO (modified)
;   printMaterial,
;   printQuality,
;   printExtruders,
;   extruderName,Primary Extruder
;   extruderToolheadNumber,0
;   extruderDiameter,0.5
;   extruderAutoWidth,0
;   extruderWidth,0.49
;   extrusionMultiplier,0.96
;   extruderUseRetract,1
;   extruderRetractionDistance,6.5
;   extruderExtraRestartDistance,0
;   extruderRetractionZLift,0
;   extruderRetractionSpeed,4998
;   extruderUseCoasting,0
;   extruderCoastingDistance,0.2
;   extruderUseWipe,0
;   extruderWipeDistance,5
;   primaryExtruder,0
;   layerHeight,0.2
;   topSolidLayers,4
;   bottomSolidLayers,3
;   perimeterOutlines,3
;   printPerimetersInsideOut,1
;   startPointOption,2
;   startPointOriginX,0
;   startPointOriginY,0
;   startPointOriginZ,300
;   sequentialIslands,0
;   spiralVaseMode,0
;   firstLayerHeightPercentage,100
;   firstLayerWidthPercentage,100
;   firstLayerUnderspeed,0.3
;   useRaft,0
;   raftExtruder,0
;   raftLayers,3
;   raftOffset,3
;   raftSeparationDistance,0.1
;   raftInfill,85
;   disableRaftBaseLayers,0
;   useSkirt,1
;   skirtExtruder,0
;   skirtLayers,1
;   skirtOutlines,4
;   skirtOffset,2
;   usePrimePillar,0
;   primePillarExtruder,999
;   primePillarWidth,12
;   primePillarLocation,7
;   primePillarSpeedMultiplier,1
;   useOozeShield,0
;   oozeShieldExtruder,999
;   oozeShieldOffset,2
;   oozeShieldOutlines,1
;   oozeShieldSidewallShape,1
;   oozeShieldSidewallAngle,30
;   oozeShieldSpeedMultiplier,1
;   infillExtruder,0
;   internalInfillPattern,Full Honeycomb
;   externalInfillPattern,Rectilinear
;   infillPercentage,20
;   outlineOverlapPercentage,15
;   infillExtrusionWidthPercentage,100
;   minInfillLength,3
;   infillLayerInterval,1
;   infillAngles,0,120,-120
;   overlapInfillAngles,0
;   generateSupport,0
;   supportExtruder,0
;   supportInfillPercentage,30
;   supportExtraInflation,0
;   denseSupportLayers,0
;   denseSupportInfillPercentage,75
;   supportLayerInterval,1
;   supportHorizontalPartOffset,1.5
;   supportUpperSeparationLayers,2
;   supportLowerSeparationLayers,2
;   supportType,0
;   supportGridSpacing,4
;   maxOverhangAngle,45
;   supportAngles,45
;   temperatureName,Primary Extruder
;   temperatureNumber,0
;   temperatureSetpointCount,3
;   temperatureSetpointLayers,1,2,3
;   temperatureSetpointTemperatures,207,199,195
;   temperatureStabilizeAtStartup,1
;   temperatureHeatedBed,0
;   temperatureRelayBetweenLayers,0
;   temperatureRelayBetweenLoops,0
;   fanLayers,1,3
;   fanSpeeds,0,100
;   blipFanToFullPower,0
;   adjustSpeedForCooling,1
;   minSpeedLayerTime,15
;   minCoolingSpeedSlowdown,20
;   increaseFanForCooling,0
;   minFanLayerTime,45
;   maxCoolingFanSpeed,100
;   increaseFanForBridging,0
;   bridgingFanSpeed,100
;   use5D,1
;   relativeEdistances,0
;   allowEaxisZeroing,1
;   independentExtruderAxes,0
;   includeM10123,0
;   stickySupport,1
;   applyToolheadOffsets,0
;   gcodeXoffset,0
;   gcodeYoffset,0
;   gcodeZoffset,0
;   overrideMachineDefinition,1
;   machineTypeOverride,0
;   strokeXoverride,150
;   strokeYoverride,150
;   strokeZoverride,150
;   originOffsetXoverride,0
;   originOffsetYoverride,0
;   originOffsetZoverride,0
;   homeXdirOverride,-1
;   homeYdirOverride,-1
;   homeZdirOverride,-1
;   flipXoverride,1
;   flipYoverride,-1
;   flipZoverride,1
;   toolheadOffsets,0,0|0,0|0,0|0,0|0,0|0,0
;   overrideFirmwareConfiguration,0
;   firmwareTypeOverride,RepRap (Marlin/Repetier/Sprinter)
;   GPXconfigOverride,r2
;   baudRateOverride,115200
;   overridePrinterModels,0
;   printerModelsOverride
;   startingGcode,G28 ; home all axes
;   layerChangeGcode,
;   retractionGcode,
;   toolChangeGcode,
;   endingGcode,M104 S0 ; turn off extruder,M140 S0 ; turn off bed,G28 X0  ; home X axis,G28 Y0  ; home Y axis,M84 ; disable motors,M107
;   createX3G,0
;   celebration,0
;   celebrationSong,Random Song
;   createMB5G,0
;   postProcessing,
;   defaultSpeed,2400
;   outlineUnderspeed,0.5
;   solidInfillUnderspeed,0.8
;   supportUnderspeed,0.8
;   rapidXYspeed,3498
;   rapidZspeed,1002
;   minBridgingArea,50
;   bridgingExtraInflation,0
;   bridgingExtrusionMultiplier,1
;   bridgingSpeedMultiplier,1
;   filamentDiameter,1.75
;   filamentPricePerKg,46
;   filamentDensity,1.25
;   useMinPrintHeight,0
;   minPrintHeight,0
;   useMaxPrintHeight,0
;   maxPrintHeight,0
;   useDiaphragm,0
;   diaphragmLayerInterval,20
;   robustSlicing,1
;   mergeAllIntoSolid,0
;   onlyRetractWhenCrossingOutline,1
;   retractBetweenLayers,1
;   useRetractionMinTravel,0
;   retractionMinTravel,3
;   retractWhileWiping,0
;   onlyWipeOutlines,1
;   avoidCrossingOutline,0
;   maxMovementDetourFactor,10
;   toolChangeRetractionDistance,0
;   toolChangeExtraRestartDistance,0
;   toolChangeRetractionSpeed,360
;   allowThinWallGapFill,1
;   thinWallAllowedOverlapPercentage,10
;   horizontalSizeCompensation,0
G90
M82
M106 S0
M104 S207 T0
M109 S207 T0
G28 ; home all axes
G92 E0
G1 E-6.5000 F4998
G1 Z0.200 F1002
; layer 1, Z = 0.2
T0
; tool H0.200 W0.490
; skirt
G1 X13.243 Y31.853 F3498
G1 E0.0000 F1499
G92 E0
G1 X18.582 Y31.852 E0.2088 F720
G1 X19.213 Y32.114 E0.2355
G1 X20.867 Y33.768 E0.3270
G1 X21.128 Y34.398 E0.3537
G1 X21.128 Y54.751 E1.1498
G1 X102.582 Y54.751 E4.3358
G1 X103.213 Y55.012 E4.3625
G1 X104.867 Y56.666 E4.4540
G1 X105.128 Y57.296 E4.4806
G1 X105.128 Y70.053 E4.9796
G1 X104.867 Y70.683 E5.0063
G1 X103.213 Y72.337 E5.0978
G1 X102.582 Y72.598 E5.1245
G1 X98.243 Y72.598 E5.2942
G1 X97.613 Y72.337 E5.3209
G1 X95.959 Y70.683 E5.4124
G1 X95.698 Y70.053 E5.4391
G1 X95.698 Y67.223 E5.5498
G1 X21.128 Y67.223 E8.4665
G1 X21.128 Y68.064 E8.4994
G1 X20.867 Y68.695 E8.5261
G1 X19.213 Y70.349 E8.6176
G1 X18.582 Y70.610 E8.6443
G1 X13.243 Y70.610 E8.8531
G1 X12.613 Y70.349 E8.8798
G1 X11.547 Y69.282 E8.9388
G1 X8.243 Y69.282 E9.0680
G1 X7.613 Y69.021 E9.0947
G1 X5.959 Y67.367 E9.1862
G1 X5.698 Y66.737 E9.2129
G1 X5.698 Y56.398 E9.6173
G1 X5.959 Y55.768 E9.6439
G1 X7.613 Y54.114 E9.7354
G1 X8.243 Y53.852 E9.7621
G1 X10.698 Y53.852 E9.8581
G1 X10.698 Y34.398 E10.6191
G1 X10.959 Y33.768 E10.6458
G1 X12.613 Y32.114 E10.7373
G1 X13.243 Y31.852 E10.7639
G1 X13.341 Y32.342 F3498
G92 E0
G1 X18.485 Y32.343 E0.2012 F720
G1 X18.935 Y32.529 E0.2203
G1 X20.451 Y34.045 E0.3041
G1 X20.638 Y34.495 E0.3232
G1 X20.638 Y55.241 E1.1346
G1 X102.485 Y55.241 E4.3360
G1 X102.935 Y55.427 E4.3550
G1 X104.451 Y56.943 E4.4389
G1 X104.638 Y57.394 E4.4580
G1 X104.638 Y69.956 E4.9493
G1 X104.451 Y70.406 E4.9684
G1 X102.935 Y71.922 E5.0523
G1 X102.485 Y72.108 E5.0713
G1 X98.341 Y72.108 E5.2334
G1 X97.890 Y71.922 E5.2525
G1 X96.374 Y70.406 E5.3363
G1 X96.188 Y69.956 E5.3554
G1 X96.188 Y66.733 E5.4815
G1 X20.638 Y66.733 E8.4365
G1 X20.638 Y67.967 E8.4848
G1 X20.451 Y68.417 E8.5039
G1 X18.935 Y69.933 E8.5877
G1 X18.485 Y70.120 E8.6068
G1 X13.341 Y70.120 E8.8080
G1 X12.890 Y69.933 E8.8271
G1 X11.750 Y68.793 E8.8902
G1 X8.341 Y68.793 E9.0235
G1 X7.890 Y68.606 E9.0426
G1 X6.374 Y67.090 E9.1264
G1 X6.188 Y66.640 E9.1455
G1 X6.188 Y56.495 E9.5423
G1 X6.374 Y56.045 E9.5613
G1 X7.890 Y54.529 E9.6452
G1 X8.341 Y54.343 E9.6643
G1 X11.188 Y54.343 E9.7756
G1 X11.188 Y34.495 E10.5519
G1 X11.374 Y34.045 E10.5710
G1 X12.890 Y32.529 E10.6548
G1 X13.341 Y32.343 E10.6739
G1 X13.438 Y32.833 F3498
G92 E0
G1 X18.387 Y32.833 E0.1936 F720
G1 X18.658 Y32.944 E0.2050
G1 X20.036 Y34.323 E0.2813
G1 X20.148 Y34.593 E0.2927
G1 X20.148 Y55.731 E1.1195
G1 X102.387 Y55.731 E4.3362
G1 X102.658 Y55.843 E4.3476
G1 X104.036 Y57.221 E4.4239
G1 X104.148 Y57.491 E4.4353
G1 X104.148 Y69.858 E4.9190
G1 X104.036 Y70.128 E4.9305
G1 X102.658 Y71.507 E5.0067
G1 X102.387 Y71.618 E5.0182
G1 X98.438 Y71.618 E5.1726
G1 X98.168 Y71.507 E5.1841
G1 X96.790 Y70.128 E5.2603
G1 X96.678 Y69.858 E5.2717
G1 X96.678 Y66.243 E5.4132
G1 X20.148 Y66.243 E8.4065
G1 X20.148 Y67.869 E8.4702
G1 X20.036 Y68.139 E8.4816
G1 X18.658 Y69.518 E8.5579
G1 X18.387 Y69.630 E8.5693
G1 X13.438 Y69.630 E8.7629
G1 X13.168 Y69.518 E8.7743
G1 X11.953 Y68.302 E8.8415
G1 X8.438 Y68.302 E8.9790
G1 X8.168 Y68.191 E8.9904
G1 X6.790 Y66.812 E9.0667
G1 X6.678 Y66.542 E9.0781
G1 X6.678 Y56.593 E9.4673
G1 X6.790 Y56.323 E9.4787
G1 X8.168 Y54.944 E9.5550
G1 X8.438 Y54.833 E9.5664
G1 X11.678 Y54.833 E9.6931
G1 X11.678 Y34.593 E10.4848
G1 X11.790 Y34.323 E10.4962
G1 X13.168 Y32.944 E10.5724
G1 X13.438 Y32.833 E10.5839
G1 X13.536 Y33.322 F3498
G92 E0
G1 X18.290 Y33.322 E0.1860 F720
G1 X18.380 Y33.360 E0.1898
G1 X19.621 Y34.600 E0.2584
G1 X19.658 Y34.690 E0.2622
G1 X19.658 Y56.221 E1.1043
G1 X102.290 Y56.221 E4.3364
G1 X102.380 Y56.258 E4.3402
G1 X103.621 Y57.498 E4.4088
G1 X103.658 Y57.588 E4.4126
G1 X103.658 Y69.761 E4.8887
G1 X103.621 Y69.851 E4.8926
G1 X102.380 Y71.091 E4.9612
G1 X102.290 Y71.128 E4.9650
G1 X98.536 Y71.128 E5.1118
G1 X98.446 Y71.091 E5.1156
G1 X97.205 Y69.851 E5.1843
G1 X97.168 Y69.761 E5.1881
G1 X97.168 Y65.753 E5.3448
G1 X19.658 Y65.753 E8.3766
G1 X19.658 Y67.772 E8.4555
G1 X19.621 Y67.862 E8.4594
G1 X18.380 Y69.102 E8.5280
G1 X18.290 Y69.140 E8.5318
G1 X13.536 Y69.140 E8.7177
G1 X13.446 Y69.102 E8.7216
G1 X12.205 Y67.862 E8.7902
G1 X12.185 Y67.812 E8.7923
G1 X8.536 Y67.812 E8.9350
G1 X8.446 Y67.775 E8.9388
G1 X7.205 Y66.535 E9.0074
G1 X7.168 Y66.445 E9.0112
G1 X7.168 Y56.690 E9.3928
G1 X7.205 Y56.600 E9.3966
G1 X8.446 Y55.360 E9.4652
G1 X8.536 Y55.322 E9.4690
G1 X12.168 Y55.322 E9.6111
G1 X12.168 Y34.690 E10.4181
G1 X12.205 Y34.600 E10.4219
G1 X13.446 Y33.360 E10.4905
G1 X13.536 Y33.322 E10.4943
G92 E0
G1 E-6.5000 F4998
; inner perimeter
G1 X15.638 Y36.792 F3498
G1 E0.0000 F4998
G92 E0
G1 X16.188 Y36.792 E0.0215 F600
G1 X16.188 Y59.691 E0.9171
G1 X100.188 Y59.691 E4.2027
G1 X100.188 Y62.283 E4.3041
G1 X16.188 Y62.283 E7.5897
G1 X16.188 Y65.670 E7.7222
G1 X15.638 Y65.670 E7.7437
G1 X15.638 Y64.343 E7.7956
G1 X10.638 Y64.343 E7.9911
G1 X10.638 Y58.792 E8.2082
G1 X11.188 Y58.792 E8.2297
G1 X11.188 Y62.792 E8.3862
G1 X15.638 Y62.792 E8.5603
G1 X15.638 Y36.792 E9.5772
; inner perimeter
G1 X15.148 Y36.303 F3498
G92 E0
G1 X16.678 Y36.303 E0.0598 F480
G1 X16.678 Y59.201 E0.9555
G1 X100.678 Y59.201 E4.2410
G1 X100.678 Y68.148 E4.5910
G1 X100.148 Y68.148 E4.6118
G1 X100.148 Y62.773 E4.8220
G1 X16.678 Y62.773 E8.0869
G1 X16.678 Y66.160 E8.2194
G1 X15.148 Y66.160 E8.2792
G1 X15.148 Y64.832 E8.3311
G1 X10.148 Y64.832 E8.5267
G1 X10.148 Y58.303 E8.7821
G1 X11.678 Y58.303 E8.8419
G1 X11.678 Y62.303 E8.9984
G1 X15.148 Y62.303 E9.1341
G1 X15.148 Y36.303 E10.1511
; outer perimeter
G1 X14.658 Y35.812 F3498
G92 E0
G1 X17.168 Y35.812 E0.0982 F360
G1 X17.168 Y58.711 E0.9938
G1 X101.168 Y58.711 E4.2794
G1 X101.168 Y68.638 E4.6677
G1 X99.658 Y68.638 E4.7268
G1 X99.658 Y63.263 E4.9370
G1 X17.168 Y63.263 E8.1635
G1 X17.168 Y66.650 E8.2960
G1 X14.658 Y66.650 E8.3942
G1 X14.658 Y65.323 E8.4461
G1 X9.658 Y65.323 E8.6417
G1 X9.658 Y57.812 E8.9354
G1 X12.168 Y57.812 E9.0336
G1 X12.168 Y61.812 E9.1901
G1 X14.658 Y61.812 E9.2874
G1 X14.658 Y35.812 E10.3044
; solid layer
G1 X16.054 Y60.682 F3498
G92 E0
G1 X16.629 Y60.107 E0.0318 F576
G1 X17.322 Y60.107 E0.0589
G1 X16.054 Y61.375 E0.1291
G1 X16.054 Y61.866 E0.1483
G1 X16.256 Y61.866 E0.1562
G1 X18.015 Y60.107 E0.2535
G1 X18.708 Y60.107 E0.2806
G1 X16.949 Y61.866 E0.3779
G1 X17.642 Y61.866 E0.4050
G1 X19.401 Y60.107 E0.5023
G1 X20.094 Y60.107 E0.5294
G1 X18.335 Y61.866 E0.6267
G1 X19.028 Y61.866 E0.6538
G1 X20.787 Y60.107 E0.7511
G1 X21.480 Y60.107 E0.7782
G1 X19.721 Y61.866 E0.8755
G1 X20.414 Y61.866 E0.9026
G1 X22.173 Y60.107 E0.9999
G1 X22.866 Y60.107 E1.0270
G1 X21.107 Y61.866 E1.1243
G1 X21.800 Y61.866 E1.1514
G1 X23.559 Y60.107 E1.2487
G1 X24.252 Y60.107 E1.2758
G1 X22.493 Y61.866 E1.3731
G1 X23.186 Y61.866 E1.4002
G1 X24.945 Y60.107 E1.4975
G1 X25.638 Y60.107 E1.5246
G1 X23.879 Y61.866 E1.6219
G1 X24.572 Y61.866 E1.6491
G1 X26.331 Y60.107 E1.7464
G1 X27.024 Y60.107 E1.7735
G1 X25.265 Y61.866 E1.8708
G1 X25.958 Y61.866 E1.8979
G1 X27.717 Y60.107 E1.9952
G1 X28.410 Y60.107 E2.0223
G1 X26.651 Y61.866 E2.1196
G1 X27.344 Y61.866 E2.1467
G1 X29.103 Y60.107 E2.2440
G1 X29.796 Y60.107 E2.2711
G1 X28.037 Y61.866 E2.3684
G1 X28.730 Y61.866 E2.3955
G1 X30.489 Y60.107 E2.4928
G1 X31.182 Y60.107 E2.5199
G1 X29.423 Y61.866 E2.6172
G1 X30.116 Y61.866 E2.6443
G1 X31.875 Y60.107 E2.7416
G1 X32.568 Y60.107 E2.7687
G1 X30.809 Y61.866 E2.8660
G1 X31.502 Y61.866 E2.8931
G1 X33.261 Y60.107 E2.9904
G1 X33.954 Y60.107 E3.0175
G1 X32.195 Y61.866 E3.1148
G1 X32.887 Y61.866 E3.1419
G1 X34.647 Y60.107 E3.2392
G1 X35.339 Y60.107 E3.2663
G1 X33.580 Y61.866 E3.3636
G1 X34.273 Y61.866 E3.3908
G1 X36.032 Y60.107 E3.4881
G1 X36.725 Y60.107 E3.5152
G1 X34.966 Y61.866 E3.6125
G1 X35.659 Y61.866 E3.6396
G1 X37.418 Y60.107 E3.7369
G1 X38.111 Y60.107 E3.7640
G1 X36.352 Y61.866 E3.8613
G1 X37.045 Y61.866 E3.8884
G1 X38.804 Y60.107 E3.9857
G1 X39.497 Y60.107 E4.0128
G1 X37.738 Y61.866 E4.1101
G1 X38.431 Y61.866 E4.1372
G1 X40.190 Y60.107 E4.2345
G1 X40.883 Y60.107 E4.2616
G1 X39.124 Y61.866 E4.3589
G1 X39.817 Y61.866 E4.3860
G1 X41.576 Y60.107 E4.4833
G1 X42.269 Y60.107 E4.5104
G1 X40.510 Y61.866 E4.6077
G1 X41.203 Y61.866 E4.6348
G1 X42.962 Y60.107 E4.7321
G1 X43.655 Y60.107 E4.7592
G1 X41.896 Y61.866 E4.8565
G1 X42.589 Y61.866 E4.8836
G1 X44.348 Y60.107 E4.9809
G1 X45.041 Y60.107 E5.0080
G1 X43.282 Y61.866 E5.1053
G1 X43.975 Y61.866 E5.1325
G1 X45.734 Y60.107 E5.2298
G1 X46.427 Y60.107 E5.2569
G1 X44.668 Y61.866 E5.3542
G1 X45.361 Y61.866 E5.3813
G1 X47.120 Y60.107 E5.4786
G1 X47.813 Y60.107 E5.5057
G1 X46.054 Y61.866 E5.6030
G1 X46.747 Y61.866 E5.6301
G1 X48.506 Y60.107 E5.7274
G1 X49.199 Y60.107 E5.7545
G1 X47.440 Y61.866 E5.8518
G1 X48.133 Y61.866 E5.8789
G1 X49.892 Y60.107 E5.9762
G1 X50.585 Y60.107 E6.0033
G1 X48.826 Y61.866 E6.1006
G1 X49.519 Y61.866 E6.1277
G1 X51.278 Y60.107 E6.2250
G1 X51.971 Y60.107 E6.2521
G1 X50.212 Y61.866 E6.3494
G1 X50.905 Y61.866 E6.3765
G1 X52.664 Y60.107 E6.4738
G1 X53.357 Y60.107 E6.5009
G1 X51.598 Y61.866 E6.5982
G1 X52.290 Y61.866 E6.6253
G1 X54.050 Y60.107 E6.7226
G1 X54.742 Y60.107 E6.7497
G1 X52.983 Y61.866 E6.8471
G1 X53.676 Y61.866 E6.8742
G1 X55.435 Y60.107 E6.9715
G1 X56.128 Y60.107 E6.9986
G1 X54.369 Y61.866 E7.0959
G1 X55.062 Y61.866 E7.1230
G1 X56.821 Y60.107 E7.2203
G1 X57.514 Y60.107 E7.2474
G1 X55.755 Y61.866 E7.3447
G1 X56.448 Y61.866 E7.3718
G1 X58.207 Y60.107 E7.4691
G1 X58.900 Y60.107 E7.4962
G1 X57.141 Y61.866 E7.5935
G1 X57.834 Y61.866 E7.6206
G1 X59.593 Y60.107 E7.7179
G1 X60.286 Y60.107 E7.7450
G1 X58.527 Y61.866 E7.8423
G1 X59.220 Y61.866 E7.8694
G1 X60.979 Y60.107 E7.9667
G1 X61.672 Y60.107 E7.9938
G1 X59.913 Y61.866 E8.0911
G1 X60.606 Y61.866 E8.1182
G1 X62.365 Y60.107 E8.2155
G1 X63.058 Y60.107 E8.2426
G1 X61.299 Y61.866 E8.3399
G1 X61.992 Y61.866 E8.3670
G1 X63.751 Y60.107 E8.4643
G1 X64.444 Y60.107 E8.4914
G1 X62.685 Y61.866 E8.5888
G1 X63.378 Y61.866 E8.6159
G1 X65.137 Y60.107 E8.7132
G1 X65.830 Y60.107 E8.7403
G1 X64.071 Y61.866 E8.8376
G1 X64.764 Y61.866 E8.8647
G1 X66.523 Y60.107 E8.9620
G1 X67.216 Y60.107 E8.9891
G1 X65.457 Y61.866 E9.0864
G1 X66.150 Y61.866 E9.1135
G1 X67.909 Y60.107 E9.2108
G1 X68.602 Y60.107 E9.2379
G1 X66.843 Y61.866 E9.3352
G1 X67.536 Y61.866 E9.3623
G1 X69.295 Y60.107 E9.4596
G1 X69.988 Y60.107 E9.4867
G1 X68.229 Y61.866 E9.5840
G1 X68.922 Y61.866 E9.6111
G1 X70.681 Y60.107 E9.7084
G1 X71.374 Y60.107 E9.7355
G1 X69.615 Y61.866 E9.8328
G1 X70.308 Y61.866 E9.8599
G1 X72.067 Y60.107 E9.9572
G1 X72.760 Y60.107 E9.9843
G1 X71.001 Y61.866 E10.0816
G1 X71.693 Y61.866 E10.1087
G1 X73.453 Y60.107 E10.2060
G1 X74.146 Y60.107 E10.2331
G1 X72.386 Y61.866 E10.3305
G1 X73.079 Y61.866 E10.3576
G1 X74.838 Y60.107 E10.4549
G1 X75.531 Y60.107 E10.4820
G1 X73.772 Y61.866 E10.5793
G1 X74.465 Y61.866 E10.6064
G1 X76.224 Y60.107 E10.7037
G1 X76.917 Y60.107 E10.7308
G1 X75.158 Y61.866 E10.8281
G1 X75.851 Y61.866 E10.8552
G1 X77.610 Y60.107 E10.9525
