; G-Code generated by Simplify3D(R) Version 3.0.0
; Okt 3, 2017 at 2:29:36 
; Settings Summary
;   processName,Process1
;   applyToModels,halterung12
;   profileName,1.5 fein (modified)
;   profileVersion,2017-10-02 14:07:01
;   baseProfile,German RepRap NEO (modified)
;   printMaterial,
;   printQuality,
;   printExtruders,
;   extruderName,Primary Extruder
;   extruderToolheadNumber,0
;   extruderDiameter,0.5
;   extruderAutoWidth,0
;   extruderWidth,0.49
;   extrusionMultiplier,0.92
;   extruderUseRetract,1
;   extruderRetractionDistance,6.2
;   extruderExtraRestartDistance,0
;   extruderRetractionZLift,0
;   extruderRetractionSpeed,4998
;   extruderUseCoasting,0
;   extruderCoastingDistance,0.2
;   extruderUseWipe,0
;   extruderWipeDistance,5
;   primaryExtruder,0
;   layerHeight,0.2
;   topSolidLayers,4
;   bottomSolidLayers,3
;   perimeterOutlines,3
;   printPerimetersInsideOut,1
;   startPointOption,2
;   startPointOriginX,0
;   startPointOriginY,0
;   startPointOriginZ,300
;   sequentialIslands,0
;   spiralVaseMode,0
;   firstLayerHeightPercentage,100
;   firstLayerWidthPercentage,100
;   firstLayerUnderspeed,0.3
;   useRaft,0
;   raftExtruder,0
;   raftLayers,3
;   raftOffset,3
;   raftSeparationDistance,0.1
;   raftInfill,85
;   disableRaftBaseLayers,0
;   useSkirt,1
;   skirtExtruder,0
;   skirtLayers,1
;   skirtOutlines,5
;   skirtOffset,2
;   usePrimePillar,0
;   primePillarExtruder,999
;   primePillarWidth,12
;   primePillarLocation,7
;   primePillarSpeedMultiplier,1
;   useOozeShield,0
;   oozeShieldExtruder,999
;   oozeShieldOffset,2
;   oozeShieldOutlines,1
;   oozeShieldSidewallShape,1
;   oozeShieldSidewallAngle,30
;   oozeShieldSpeedMultiplier,1
;   infillExtruder,0
;   internalInfillPattern,Full Honeycomb
;   externalInfillPattern,Rectilinear
;   infillPercentage,50
;   outlineOverlapPercentage,15
;   infillExtrusionWidthPercentage,100
;   minInfillLength,3
;   infillLayerInterval,1
;   infillAngles,0,120,-120
;   overlapInfillAngles,0
;   generateSupport,1
;   supportExtruder,0
;   supportInfillPercentage,30
;   supportExtraInflation,0
;   denseSupportLayers,0
;   denseSupportInfillPercentage,75
;   supportLayerInterval,1
;   supportHorizontalPartOffset,1.5
;   supportUpperSeparationLayers,2
;   supportLowerSeparationLayers,2
;   supportType,0
;   supportGridSpacing,4
;   maxOverhangAngle,45
;   supportAngles,45
;   temperatureName,Primary Extruder
;   temperatureNumber,0
;   temperatureSetpointCount,3
;   temperatureSetpointLayers,1,2,3
;   temperatureSetpointTemperatures,199,193,186
;   temperatureStabilizeAtStartup,1
;   temperatureHeatedBed,0
;   temperatureRelayBetweenLayers,0
;   temperatureRelayBetweenLoops,0
;   fanLayers,1,3
;   fanSpeeds,0,100
;   blipFanToFullPower,0
;   adjustSpeedForCooling,1
;   minSpeedLayerTime,15
;   minCoolingSpeedSlowdown,20
;   increaseFanForCooling,0
;   minFanLayerTime,45
;   maxCoolingFanSpeed,100
;   increaseFanForBridging,0
;   bridgingFanSpeed,100
;   use5D,1
;   relativeEdistances,0
;   allowEaxisZeroing,1
;   independentExtruderAxes,0
;   includeM10123,0
;   stickySupport,1
;   applyToolheadOffsets,0
;   gcodeXoffset,0
;   gcodeYoffset,0
;   gcodeZoffset,0
;   overrideMachineDefinition,1
;   machineTypeOverride,0
;   strokeXoverride,150
;   strokeYoverride,150
;   strokeZoverride,150
;   originOffsetXoverride,0
;   originOffsetYoverride,0
;   originOffsetZoverride,0
;   homeXdirOverride,-1
;   homeYdirOverride,-1
;   homeZdirOverride,-1
;   flipXoverride,1
;   flipYoverride,-1
;   flipZoverride,1
;   toolheadOffsets,0,0|0,0|0,0|0,0|0,0|0,0
;   overrideFirmwareConfiguration,0
;   firmwareTypeOverride,RepRap (Marlin/Repetier/Sprinter)
;   GPXconfigOverride,r2
;   baudRateOverride,115200
;   overridePrinterModels,0
;   printerModelsOverride
;   startingGcode,G28 ; home all axes
;   layerChangeGcode,
;   retractionGcode,
;   toolChangeGcode,
;   endingGcode,M104 S0 ; turn off extruder,M140 S0 ; turn off bed,G28 X0  ; home X axis,G28 Y0  ; home Y axis,M84 ; disable motors,M107
;   createX3G,0
;   celebration,0
;   celebrationSong,Random Song
;   createMB5G,0
;   postProcessing,
;   defaultSpeed,2400
;   outlineUnderspeed,0.5
;   solidInfillUnderspeed,0.8
;   supportUnderspeed,0.8
;   rapidXYspeed,3498
;   rapidZspeed,1002
;   minBridgingArea,50
;   bridgingExtraInflation,0
;   bridgingExtrusionMultiplier,1
;   bridgingSpeedMultiplier,1
;   filamentDiameter,1.75
;   filamentPricePerKg,46
;   filamentDensity,1.25
;   useMinPrintHeight,0
;   minPrintHeight,0
;   useMaxPrintHeight,0
;   maxPrintHeight,0
;   useDiaphragm,0
;   diaphragmLayerInterval,20
;   robustSlicing,1
;   mergeAllIntoSolid,0
;   onlyRetractWhenCrossingOutline,1
;   retractBetweenLayers,1
;   useRetractionMinTravel,0
;   retractionMinTravel,3
;   retractWhileWiping,0
;   onlyWipeOutlines,1
;   avoidCrossingOutline,0
;   maxMovementDetourFactor,10
;   toolChangeRetractionDistance,0
;   toolChangeExtraRestartDistance,0
;   toolChangeRetractionSpeed,360
;   allowThinWallGapFill,1
;   thinWallAllowedOverlapPercentage,10
;   horizontalSizeCompensation,0
G90
M82
M106 S0
M104 S199 T0
M109 S199 T0
G28 ; home all axes
G92 E0
G1 E-6.2000 F4998
G1 Z0.200 F1002
; layer 1, Z = 0.2
T0
; tool H0.200 W0.490
; skirt
G1 X57.046 Y20.878 F3498
G1 E0.0000 F1499
G92 E0
G1 X57.382 Y20.068 E0.0329 F720
G1 X59.174 Y18.276 E0.1279
G1 X59.984 Y17.940 E0.1607
G1 X67.740 Y17.940 E0.4515
G1 X68.551 Y18.276 E0.4844
G1 X70.343 Y20.068 E0.5793
G1 X70.678 Y20.878 E0.6122
G1 X70.678 Y59.345 E2.0541
G1 X70.675 Y59.424 E2.0571
G1 X70.659 Y59.648 E2.0655
G1 X70.651 Y59.727 E2.0685
G1 X70.441 Y61.168 E2.1231
G1 X70.379 Y61.406 E2.1323
G1 X70.131 Y62.051 E2.1582
G1 X70.018 Y62.269 E2.1674
G1 X69.097 Y63.648 E2.2295
G1 X68.959 Y63.815 E2.2377
G1 X68.527 Y64.247 E2.2606
G1 X68.360 Y64.385 E2.2687
G1 X67.015 Y65.283 E2.3293
G1 X66.824 Y65.385 E2.3374
G1 X66.260 Y65.619 E2.3603
G1 X66.052 Y65.682 E2.3685
G1 X64.616 Y65.968 E2.4234
G1 X64.508 Y65.984 E2.4274
G1 X64.205 Y66.014 E2.4388
G1 X64.097 Y66.019 E2.4429
G1 X58.502 Y66.019 E2.6526
G1 X58.394 Y66.014 E2.6567
G1 X58.091 Y65.984 E2.6681
G1 X57.985 Y65.968 E2.6721
G1 X56.545 Y65.683 E2.7271
G1 X56.338 Y65.620 E2.7353
G1 X55.773 Y65.386 E2.7582
G1 X55.581 Y65.284 E2.7663
G1 X54.175 Y64.344 E2.8297
G1 X53.972 Y64.169 E2.8397
G1 X53.463 Y63.611 E2.8681
G1 X53.308 Y63.392 E2.8781
G1 X52.529 Y61.953 E2.9395
G1 X52.445 Y61.753 E2.9476
G1 X52.264 Y61.167 E2.9706
G1 X52.221 Y60.955 E2.9787
G1 X52.081 Y59.591 E3.0301
G1 X52.077 Y59.535 E3.0322
G1 X52.068 Y59.377 E3.0381
G1 X52.067 Y59.321 E3.0402
G1 X52.059 Y40.862 E3.7321
G1 X52.071 Y40.696 E3.7384
G1 X52.142 Y40.231 E3.7560
G1 X52.179 Y40.069 E3.7622
G1 X52.542 Y38.904 E3.8080
G1 X52.665 Y38.640 E3.8189
G1 X53.105 Y37.947 E3.8497
G1 X53.292 Y37.724 E3.8606
G1 X54.312 Y36.789 E3.9124
G1 X54.530 Y36.633 E3.9225
G1 X55.196 Y36.271 E3.9509
G1 X55.445 Y36.173 E3.9609
G1 X56.567 Y35.880 E4.0044
G1 X56.705 Y35.853 E4.0097
G1 X57.046 Y35.810 E4.0226
G1 X57.046 Y20.878 E4.5823
G1 X57.536 Y20.976 F3498
G92 E0
G1 X57.797 Y20.345 E0.0256 F720
G1 X59.451 Y18.691 E0.1133
G1 X60.082 Y18.430 E0.1388
G1 X67.643 Y18.430 E0.4222
G1 X68.273 Y18.691 E0.4478
G1 X69.927 Y20.345 E0.5355
G1 X70.188 Y20.976 E0.5611
G1 X70.188 Y59.336 E1.9990
G1 X70.186 Y59.398 E2.0013
G1 X70.171 Y59.604 E2.0090
G1 X70.164 Y59.666 E2.0114
G1 X69.960 Y61.071 E2.0646
G1 X69.912 Y61.255 E2.0717
G1 X69.683 Y61.850 E2.0956
G1 X69.595 Y62.019 E2.1028
G1 X68.703 Y63.356 E2.1630
G1 X68.596 Y63.486 E2.1693
G1 X68.198 Y63.884 E2.1904
G1 X68.068 Y63.991 E2.1967
G1 X66.763 Y64.863 E2.2556
G1 X66.614 Y64.942 E2.2619
G1 X66.094 Y65.157 E2.2830
G1 X65.933 Y65.206 E2.2893
G1 X64.532 Y65.485 E2.3428
G1 X64.448 Y65.497 E2.3460
G1 X64.169 Y65.525 E2.3565
G1 X64.085 Y65.529 E2.3597
G1 X58.514 Y65.529 E2.5685
G1 X58.430 Y65.525 E2.5717
G1 X58.151 Y65.497 E2.5822
G1 X58.068 Y65.485 E2.5853
G1 X56.664 Y65.207 E2.6390
G1 X56.503 Y65.158 E2.6453
G1 X55.982 Y64.942 E2.6664
G1 X55.834 Y64.863 E2.6727
G1 X54.472 Y63.953 E2.7341
G1 X54.314 Y63.817 E2.7419
G1 X53.845 Y63.303 E2.7680
G1 X53.725 Y63.133 E2.7758
G1 X52.971 Y61.741 E2.8351
G1 X52.906 Y61.585 E2.8415
G1 X52.740 Y61.046 E2.8626
G1 X52.706 Y60.881 E2.8689
G1 X52.569 Y59.547 E2.9192
G1 X52.566 Y59.504 E2.9208
G1 X52.558 Y59.358 E2.9263
G1 X52.557 Y59.315 E2.9279
G1 X52.549 Y40.881 E3.6189
G1 X52.559 Y40.751 E3.6238
G1 X52.624 Y40.323 E3.6400
G1 X52.653 Y40.197 E3.6448
G1 X53.001 Y39.081 E3.6887
G1 X53.096 Y38.876 E3.6971
G1 X53.501 Y38.237 E3.7255
G1 X53.647 Y38.063 E3.7340
G1 X54.621 Y37.171 E3.7835
G1 X54.791 Y37.050 E3.7913
G1 X55.404 Y36.716 E3.8175
G1 X55.598 Y36.639 E3.8253
G1 X56.675 Y36.358 E3.8671
G1 X56.783 Y36.337 E3.8712
G1 X57.145 Y36.291 E3.8848
G1 X57.254 Y36.284 E3.8889
G1 X57.536 Y36.284 E3.8995
G1 X57.536 Y20.976 E4.4733
G1 X58.026 Y21.073 F3498
G92 E0
G1 X58.213 Y20.623 E0.0183 F720
G1 X59.729 Y19.107 E0.0986
G1 X60.179 Y18.920 E0.1169
G1 X67.545 Y18.920 E0.3930
G1 X67.996 Y19.107 E0.4113
G1 X69.512 Y20.623 E0.4917
G1 X69.698 Y21.073 E0.5099
G1 X69.698 Y59.327 E1.9438
G1 X69.697 Y59.371 E1.9455
G1 X69.683 Y59.560 E1.9526
G1 X69.678 Y59.604 E1.9542
G1 X69.479 Y60.973 E2.0061
G1 X69.444 Y61.105 E2.0112
G1 X69.235 Y61.649 E2.0331
G1 X69.173 Y61.770 E2.0382
G1 X68.309 Y63.063 E2.0965
G1 X68.232 Y63.156 E2.1010
G1 X67.868 Y63.520 E2.1203
G1 X67.775 Y63.596 E2.1248
G1 X66.510 Y64.442 E2.1818
G1 X66.404 Y64.499 E2.1863
G1 X65.929 Y64.695 E2.2056
G1 X65.814 Y64.730 E2.2101
G1 X64.448 Y65.002 E2.2623
G1 X64.388 Y65.011 E2.2646
G1 X64.133 Y65.036 E2.2742
G1 X64.073 Y65.039 E2.2764
G1 X58.526 Y65.039 E2.4844
G1 X58.466 Y65.036 E2.4866
G1 X58.211 Y65.011 E2.4962
G1 X58.152 Y65.002 E2.4985
G1 X56.783 Y64.731 E2.5508
G1 X56.668 Y64.696 E2.5553
G1 X56.192 Y64.499 E2.5746
G1 X56.086 Y64.442 E2.5791
G1 X54.769 Y63.562 E2.6385
G1 X54.657 Y63.465 E2.6440
G1 X54.228 Y62.995 E2.6679
G1 X54.141 Y62.873 E2.6735
G1 X53.414 Y61.529 E2.7308
G1 X53.367 Y61.418 E2.7353
G1 X53.215 Y60.925 E2.7546
G1 X53.191 Y60.806 E2.7592
G1 X53.057 Y59.503 E2.8083
G1 X53.055 Y59.472 E2.8094
G1 X53.048 Y59.339 E2.8144
G1 X53.047 Y59.308 E2.8156
G1 X53.039 Y40.899 E3.5057
G1 X53.046 Y40.807 E3.5091
G1 X53.105 Y40.415 E3.5240
G1 X53.126 Y40.325 E3.5274
G1 X53.459 Y39.258 E3.5693
G1 X53.527 Y39.111 E3.5754
G1 X53.898 Y38.527 E3.6013
G1 X54.001 Y38.403 E3.6074
G1 X54.930 Y37.552 E3.6546
G1 X55.051 Y37.466 E3.6602
G1 X55.612 Y37.161 E3.6841
G1 X55.750 Y37.106 E3.6897
G1 X56.784 Y36.836 E3.7297
G1 X56.860 Y36.822 E3.7327
G1 X57.191 Y36.779 E3.7452
G1 X57.269 Y36.774 E3.7481
G1 X58.026 Y36.774 E3.7765
G1 X58.026 Y21.073 E4.3650
G1 X58.516 Y21.171 F3498
G92 E0
G1 X58.628 Y20.901 E0.0110 F720
G1 X60.007 Y19.522 E0.0840
G1 X60.277 Y19.410 E0.0950
G1 X67.448 Y19.410 E0.3638
G1 X67.718 Y19.522 E0.3748
G1 X69.096 Y20.901 E0.4478
G1 X69.208 Y21.171 E0.4588
G1 X69.208 Y59.318 E1.8887
G1 X69.207 Y59.345 E1.8897
G1 X69.195 Y59.515 E1.8961
G1 X69.192 Y59.542 E1.8971
G1 X68.998 Y60.876 E1.9476
G1 X68.977 Y60.955 E1.9507
G1 X68.788 Y61.448 E1.9705
G1 X68.750 Y61.520 E1.9736
G1 X67.915 Y62.771 E2.0299
G1 X67.869 Y62.827 E2.0327
G1 X67.539 Y63.157 E2.0501
G1 X67.483 Y63.202 E2.0528
G1 X66.258 Y64.021 E2.1081
G1 X66.194 Y64.055 E2.1108
G1 X65.764 Y64.233 E2.1282
G1 X65.695 Y64.254 E2.1310
G1 X64.364 Y64.519 E2.1818
G1 X64.328 Y64.524 E2.1832
G1 X64.097 Y64.547 E2.1919
G1 X64.061 Y64.549 E2.1932
G1 X58.538 Y64.549 E2.4003
G1 X58.502 Y64.547 E2.4016
G1 X58.271 Y64.524 E2.4103
G1 X58.235 Y64.519 E2.4117
G1 X56.902 Y64.255 E2.4626
G1 X56.833 Y64.234 E2.4653
G1 X56.402 Y64.055 E2.4828
G1 X56.338 Y64.021 E2.4855
G1 X55.066 Y63.172 E2.5428
G1 X54.999 Y63.113 E2.5462
G1 X54.610 Y62.687 E2.5678
G1 X54.558 Y62.614 E2.5712
G1 X53.856 Y61.317 E2.6265
G1 X53.828 Y61.250 E2.6292
G1 X53.690 Y60.803 E2.6467
G1 X53.676 Y60.732 E2.6494
G1 X53.545 Y59.459 E2.6974
G1 X53.544 Y59.441 E2.6981
G1 X53.537 Y59.320 E2.7026
G1 X53.537 Y59.302 E2.7033
G1 X53.529 Y40.917 E3.3924
G1 X53.533 Y40.862 E3.3945
G1 X53.587 Y40.507 E3.4079
G1 X53.599 Y40.453 E3.4100
G1 X53.917 Y39.434 E3.4500
G1 X53.958 Y39.346 E3.4537
G1 X54.294 Y38.817 E3.4772
G1 X54.356 Y38.742 E3.4808
G1 X55.239 Y37.934 E3.5257
G1 X55.312 Y37.882 E3.5290
G1 X55.820 Y37.605 E3.5507
G1 X55.903 Y37.572 E3.5541
G1 X56.892 Y37.314 E3.5924
G1 X56.938 Y37.306 E3.5942
G1 X57.238 Y37.267 E3.6055
G1 X57.285 Y37.264 E3.6072
G1 X58.189 Y37.264 E3.6411
G1 X58.231 Y37.267 E3.6427
G1 X58.501 Y37.298 E3.6529
G1 X58.516 Y37.300 E3.6535
G1 X58.516 Y21.171 E4.2581
G1 X59.006 Y21.268 F3498
G92 E0
G1 X59.044 Y21.178 E0.0037 F720
G1 X60.284 Y19.938 E0.0694
G1 X60.374 Y19.900 E0.0731
G1 X67.350 Y19.900 E0.3346
G1 X67.440 Y19.938 E0.3382
G1 X68.681 Y21.178 E0.4040
G1 X68.718 Y21.268 E0.4076
G1 X68.718 Y59.309 E1.8336
G1 X68.718 Y59.318 E1.8339
G1 X68.707 Y59.471 E1.8397
G1 X68.706 Y59.480 E1.8400
G1 X68.517 Y60.778 E1.8892
G1 X68.510 Y60.804 E1.8902
G1 X68.340 Y61.247 E1.9079
G1 X68.328 Y61.271 E1.9090
G1 X67.520 Y62.479 E1.9634
G1 X67.505 Y62.498 E1.9643
G1 X67.210 Y62.793 E1.9800
G1 X67.191 Y62.808 E1.9809
G1 X66.006 Y63.600 E2.0343
G1 X65.985 Y63.612 E2.0352
G1 X65.598 Y63.772 E2.0509
G1 X65.575 Y63.779 E2.0518
G1 X64.280 Y64.036 E2.1013
G1 X64.268 Y64.038 E2.1017
G1 X64.061 Y64.058 E2.1096
G1 X64.049 Y64.059 E2.1100
G1 X58.550 Y64.059 E2.3161
G1 X58.538 Y64.058 E2.3166
G1 X58.331 Y64.038 E2.3244
G1 X58.319 Y64.036 E2.3248
G1 X57.021 Y63.779 E2.3744
G1 X56.998 Y63.772 E2.3753
G1 X56.611 Y63.612 E2.3910
G1 X56.590 Y63.600 E2.3919
G1 X55.363 Y62.781 E2.4472
G1 X55.341 Y62.761 E2.4483
G1 X54.992 Y62.379 E2.4677
G1 X54.975 Y62.354 E2.4689
G1 X54.299 Y61.105 E2.5221
G1 X54.289 Y61.083 E2.5230
G1 X54.166 Y60.682 E2.5387
G1 X54.161 Y60.658 E2.5396
G1 X54.033 Y59.416 E2.5865
G1 X54.033 Y59.409 E2.5867
G1 X54.027 Y59.301 E2.5908
G1 X54.027 Y59.295 E2.5910
G1 X54.019 Y40.936 E3.2792
G1 X54.020 Y40.917 E3.2799
G1 X54.069 Y40.599 E3.2919
G1 X54.073 Y40.581 E3.2926
G1 X54.375 Y39.611 E3.3307
G1 X54.389 Y39.582 E3.3319
G1 X54.690 Y39.107 E3.3530
G1 X54.711 Y39.082 E3.3542
G1 X55.548 Y38.315 E3.3968
G1 X55.572 Y38.298 E3.3979
G1 X56.028 Y38.050 E3.4173
G1 X56.055 Y38.039 E3.4184
G1 X57.001 Y37.793 E3.4551
G1 X57.016 Y37.790 E3.4557
G1 X57.285 Y37.755 E3.4658
G1 X57.301 Y37.754 E3.4664
G1 X58.174 Y37.754 E3.4992
G1 X58.188 Y37.755 E3.4997
G1 X58.431 Y37.783 E3.5088
G1 X58.444 Y37.785 E3.5093
G1 X59.006 Y37.916 E3.5310
G1 X59.006 Y21.268 E4.1550
G92 E0
G1 E-6.2000 F4998
; inner perimeter
G1 X57.912 Y41.224 F3498
G1 E0.0000 F4998
G92 E0
G1 X58.210 Y41.294 E0.0115 F600
G1 X58.586 Y41.524 E0.0280
G1 X59.141 Y42.050 E0.0567
G1 X57.489 Y42.051 E0.1186
G1 X57.489 Y41.224 E0.1496
G1 X57.912 Y41.224 E0.1654
G92 E0
G1 E-6.2000 F4998
G1 X63.296 Y41.279 F3498
G1 E0.0000 F4998
G92 E0
G1 X65.248 Y41.279 E0.0732 F600
G1 X65.248 Y59.144 E0.7428
G1 X65.157 Y59.770 E0.7665
G1 X64.887 Y60.175 E0.7848
G1 X64.455 Y60.463 E0.8043
G1 X63.824 Y60.589 E0.8284
G1 X58.774 Y60.589 E1.0177
G1 X58.141 Y60.463 E1.0418
G1 X57.759 Y60.208 E1.0591
G1 X57.566 Y59.852 E1.0742
G1 X57.497 Y59.177 E1.0997
G1 X57.496 Y57.059 E1.1791
G1 X57.868 Y57.040 E1.1931
G1 X57.889 Y57.247 E1.2009
G1 X57.968 Y57.675 E1.2172
G1 X58.131 Y58.130 E1.2353
G1 X58.366 Y58.553 E1.2534
G1 X58.668 Y58.931 E1.2716
G1 X59.028 Y59.255 E1.2898
G1 X59.437 Y59.515 E1.3079
G1 X59.882 Y59.704 E1.3260
G1 X60.351 Y59.818 E1.3441
G1 X60.795 Y59.854 E1.3608
G1 X61.703 Y59.838 E1.3948
G1 X62.093 Y59.767 E1.4097
G1 X62.447 Y59.657 E1.4236
G1 X62.785 Y59.505 E1.4375
G1 X63.102 Y59.314 E1.4514
G1 X63.394 Y59.085 E1.4653
G1 X63.656 Y58.824 E1.4792
G1 X63.885 Y58.532 E1.4931
G1 X64.077 Y58.215 E1.5069
G1 X64.229 Y57.877 E1.5208
G1 X64.340 Y57.524 E1.5347
G1 X64.407 Y57.159 E1.5486
G1 X64.428 Y56.826 E1.5611
G1 X64.428 Y43.310 E2.0678
G1 X63.296 Y41.279 E2.1549
G92 E0
G1 E-6.2000 F4998
; inner perimeter
G1 X61.986 Y22.880 F3498
G1 E0.0000 F4998
G92 E0
G1 X62.382 Y22.880 E0.0148 F480
G1 X62.382 Y40.646 E0.6808
G1 X61.986 Y39.936 E0.7113
G1 X61.986 Y22.880 E1.3506
G92 E0
G1 E-6.2000 F4998
G1 X64.790 Y22.880 F3498
G1 E0.0000 F4998
G92 E0
