; G-Code generated by Simplify3D(R) Version 3.0.0
; Okt 3, 2017 at 12:22:47 
; Settings Summary
;   processName,Process1
;   applyToModels,halterung12
;   profileName,1.5 fein (modified)
;   profileVersion,2017-10-02 14:07:01
;   baseProfile,German RepRap NEO (modified)
;   printMaterial,
;   printQuality,
;   printExtruders,
;   extruderName,Primary Extruder
;   extruderToolheadNumber,0
;   extruderDiameter,0.5
;   extruderAutoWidth,0
;   extruderWidth,0.49
;   extrusionMultiplier,0.93
;   extruderUseRetract,1
;   extruderRetractionDistance,6.5
;   extruderExtraRestartDistance,0
;   extruderRetractionZLift,0
;   extruderRetractionSpeed,4998
;   extruderUseCoasting,0
;   extruderCoastingDistance,0.2
;   extruderUseWipe,0
;   extruderWipeDistance,5
;   primaryExtruder,0
;   layerHeight,0.2
;   topSolidLayers,4
;   bottomSolidLayers,3
;   perimeterOutlines,3
;   printPerimetersInsideOut,1
;   startPointOption,2
;   startPointOriginX,0
;   startPointOriginY,0
;   startPointOriginZ,300
;   sequentialIslands,0
;   spiralVaseMode,0
;   firstLayerHeightPercentage,100
;   firstLayerWidthPercentage,100
;   firstLayerUnderspeed,0.3
;   useRaft,0
;   raftExtruder,0
;   raftLayers,3
;   raftOffset,3
;   raftSeparationDistance,0.1
;   raftInfill,85
;   disableRaftBaseLayers,0
;   useSkirt,1
;   skirtExtruder,0
;   skirtLayers,1
;   skirtOutlines,5
;   skirtOffset,2
;   usePrimePillar,0
;   primePillarExtruder,999
;   primePillarWidth,12
;   primePillarLocation,7
;   primePillarSpeedMultiplier,1
;   useOozeShield,0
;   oozeShieldExtruder,999
;   oozeShieldOffset,2
;   oozeShieldOutlines,1
;   oozeShieldSidewallShape,1
;   oozeShieldSidewallAngle,30
;   oozeShieldSpeedMultiplier,1
;   infillExtruder,0
;   internalInfillPattern,Full Honeycomb
;   externalInfillPattern,Rectilinear
;   infillPercentage,100
;   outlineOverlapPercentage,15
;   infillExtrusionWidthPercentage,100
;   minInfillLength,3
;   infillLayerInterval,1
;   infillAngles,0,120,-120
;   overlapInfillAngles,0
;   generateSupport,1
;   supportExtruder,0
;   supportInfillPercentage,30
;   supportExtraInflation,0
;   denseSupportLayers,0
;   denseSupportInfillPercentage,75
;   supportLayerInterval,1
;   supportHorizontalPartOffset,1.5
;   supportUpperSeparationLayers,2
;   supportLowerSeparationLayers,2
;   supportType,0
;   supportGridSpacing,4
;   maxOverhangAngle,45
;   supportAngles,45
;   temperatureName,Primary Extruder
;   temperatureNumber,0
;   temperatureSetpointCount,3
;   temperatureSetpointLayers,1,2,3
;   temperatureSetpointTemperatures,207,202,197
;   temperatureStabilizeAtStartup,1
;   temperatureHeatedBed,0
;   temperatureRelayBetweenLayers,0
;   temperatureRelayBetweenLoops,0
;   fanLayers,1,3
;   fanSpeeds,0,100
;   blipFanToFullPower,0
;   adjustSpeedForCooling,1
;   minSpeedLayerTime,15
;   minCoolingSpeedSlowdown,20
;   increaseFanForCooling,0
;   minFanLayerTime,45
;   maxCoolingFanSpeed,100
;   increaseFanForBridging,0
;   bridgingFanSpeed,100
;   use5D,1
;   relativeEdistances,0
;   allowEaxisZeroing,1
;   independentExtruderAxes,0
;   includeM10123,0
;   stickySupport,1
;   applyToolheadOffsets,0
;   gcodeXoffset,0
;   gcodeYoffset,0
;   gcodeZoffset,0
;   overrideMachineDefinition,1
;   machineTypeOverride,0
;   strokeXoverride,150
;   strokeYoverride,150
;   strokeZoverride,150
;   originOffsetXoverride,0
;   originOffsetYoverride,0
;   originOffsetZoverride,0
;   homeXdirOverride,-1
;   homeYdirOverride,-1
;   homeZdirOverride,-1
;   flipXoverride,1
;   flipYoverride,-1
;   flipZoverride,1
;   toolheadOffsets,0,0|0,0|0,0|0,0|0,0|0,0
;   overrideFirmwareConfiguration,0
;   firmwareTypeOverride,RepRap (Marlin/Repetier/Sprinter)
;   GPXconfigOverride,r2
;   baudRateOverride,115200
;   overridePrinterModels,0
;   printerModelsOverride
;   startingGcode,G28 ; home all axes
;   layerChangeGcode,
;   retractionGcode,
;   toolChangeGcode,
;   endingGcode,M104 S0 ; turn off extruder,M140 S0 ; turn off bed,G28 X0  ; home X axis,G28 Y0  ; home Y axis,M84 ; disable motors,M107
;   createX3G,0
;   celebration,0
;   celebrationSong,Random Song
;   createMB5G,0
;   postProcessing,
;   defaultSpeed,2400
;   outlineUnderspeed,0.5
;   solidInfillUnderspeed,0.8
;   supportUnderspeed,0.8
;   rapidXYspeed,3498
;   rapidZspeed,1002
;   minBridgingArea,50
;   bridgingExtraInflation,0
;   bridgingExtrusionMultiplier,1
;   bridgingSpeedMultiplier,1
;   filamentDiameter,1.75
;   filamentPricePerKg,46
;   filamentDensity,1.25
;   useMinPrintHeight,0
;   minPrintHeight,0
;   useMaxPrintHeight,0
;   maxPrintHeight,0
;   useDiaphragm,0
;   diaphragmLayerInterval,20
;   robustSlicing,1
;   mergeAllIntoSolid,0
;   onlyRetractWhenCrossingOutline,1
;   retractBetweenLayers,1
;   useRetractionMinTravel,0
;   retractionMinTravel,3
;   retractWhileWiping,0
;   onlyWipeOutlines,1
;   avoidCrossingOutline,0
;   maxMovementDetourFactor,10
;   toolChangeRetractionDistance,0
;   toolChangeExtraRestartDistance,0
;   toolChangeRetractionSpeed,360
;   allowThinWallGapFill,1
;   thinWallAllowedOverlapPercentage,10
;   horizontalSizeCompensation,0
G90
M82
M106 S0
M104 S207 T0
M109 S207 T0
G28 ; home all axes
G92 E0
G1 E-6.5000 F4998
G1 Z0.200 F1002
; layer 1, Z = 0.2
T0
; tool H0.200 W0.490
; skirt
G1 X22.749 Y14.979 F3498
G1 E0.0000 F1499
G92 E0
G1 X24.541 Y13.187 E0.0960 F720
G1 X25.351 Y12.851 E0.1293
G1 X29.313 Y12.851 E0.2794
G1 X33.107 Y12.851 E0.4231
G1 X33.918 Y13.187 E0.4564
G1 X35.709 Y14.979 E0.5524
G1 X36.045 Y15.789 E0.5856
G1 X36.045 Y54.255 E2.0432
G1 X36.042 Y54.335 E2.0462
G1 X36.026 Y54.559 E2.0547
G1 X36.017 Y54.638 E2.0577
G1 X35.808 Y56.079 E2.1129
G1 X35.746 Y56.316 E2.1222
G1 X35.498 Y56.962 E2.1484
G1 X35.385 Y57.180 E2.1577
G1 X34.464 Y58.559 E2.2205
G1 X34.326 Y58.726 E2.2288
G1 X33.894 Y59.158 E2.2519
G1 X33.727 Y59.295 E2.2601
G1 X32.382 Y60.194 E2.3214
G1 X32.191 Y60.296 E2.3296
G1 X31.627 Y60.530 E2.3527
G1 X31.419 Y60.593 E2.3610
G1 X29.983 Y60.878 E2.4165
G1 X29.875 Y60.894 E2.4206
G1 X29.572 Y60.924 E2.4321
G1 X29.464 Y60.930 E2.4362
G1 X23.869 Y60.930 E2.6482
G1 X23.761 Y60.924 E2.6523
G1 X23.458 Y60.895 E2.6638
G1 X23.351 Y60.879 E2.6679
G1 X21.912 Y60.593 E2.7235
G1 X21.704 Y60.530 E2.7318
G1 X21.140 Y60.296 E2.7549
G1 X20.948 Y60.194 E2.7631
G1 X19.542 Y59.255 E2.8272
G1 X19.339 Y59.080 E2.8374
G1 X18.830 Y58.521 E2.8660
G1 X18.675 Y58.303 E2.8762
G1 X17.896 Y56.864 E2.9382
G1 X17.812 Y56.663 E2.9464
G1 X17.631 Y56.078 E2.9696
G1 X17.588 Y55.865 E2.9778
G1 X17.448 Y54.502 E3.0298
G1 X17.443 Y54.446 E3.0319
G1 X17.435 Y54.288 E3.0379
G1 X17.434 Y54.232 E3.0400
G1 X17.426 Y35.773 E3.7395
G1 X17.438 Y35.607 E3.7458
G1 X17.509 Y35.142 E3.7636
G1 X17.546 Y34.980 E3.7699
G1 X17.909 Y33.815 E3.8161
G1 X18.032 Y33.551 E3.8271
G1 X18.472 Y32.857 E3.8583
G1 X18.659 Y32.634 E3.8693
G1 X19.679 Y31.700 E3.9217
G1 X19.897 Y31.544 E3.9319
G1 X20.563 Y31.182 E3.9606
G1 X20.812 Y31.083 E3.9708
G1 X21.934 Y30.791 E4.0147
G1 X22.072 Y30.764 E4.0200
G1 X22.413 Y30.720 E4.0330
G1 X22.413 Y15.789 E4.5988
G1 X22.749 Y14.979 E4.6321
G1 X23.164 Y15.256 F3498
G92 E0
G1 X24.818 Y13.602 E0.0886 F720
G1 X25.449 Y13.341 E0.1145
G1 X29.313 Y13.341 E0.2609
G1 X33.010 Y13.341 E0.4010
G1 X33.640 Y13.602 E0.4268
G1 X35.294 Y15.256 E0.5155
G1 X35.555 Y15.886 E0.5413
G1 X35.555 Y54.247 E1.9949
G1 X35.553 Y54.309 E1.9972
G1 X35.538 Y54.515 E2.0050
G1 X35.531 Y54.576 E2.0074
G1 X35.327 Y55.981 E2.0612
G1 X35.279 Y56.166 E2.0684
G1 X35.050 Y56.761 E2.0926
G1 X34.962 Y56.930 E2.0998
G1 X34.070 Y58.266 E2.1607
G1 X33.963 Y58.397 E2.1671
G1 X33.565 Y58.794 E2.1884
G1 X33.435 Y58.901 E2.1948
G1 X32.130 Y59.773 E2.2542
G1 X31.981 Y59.853 E2.2606
G1 X31.461 Y60.068 E2.2819
G1 X31.300 Y60.117 E2.2883
G1 X29.899 Y60.396 E2.3425
G1 X29.815 Y60.408 E2.3456
G1 X29.536 Y60.435 E2.3563
G1 X29.452 Y60.440 E2.3595
G1 X23.881 Y60.440 E2.5706
G1 X23.797 Y60.435 E2.5738
G1 X23.518 Y60.408 E2.5844
G1 X23.435 Y60.396 E2.5876
G1 X22.031 Y60.117 E2.6418
G1 X21.870 Y60.068 E2.6482
G1 X21.349 Y59.853 E2.6695
G1 X21.200 Y59.773 E2.6759
G1 X19.839 Y58.864 E2.7379
G1 X19.681 Y58.728 E2.7458
G1 X19.212 Y58.213 E2.7722
G1 X19.092 Y58.043 E2.7801
G1 X18.338 Y56.652 E2.8401
G1 X18.273 Y56.496 E2.8465
G1 X18.107 Y55.957 E2.8679
G1 X18.073 Y55.791 E2.8743
G1 X17.936 Y54.458 E2.9251
G1 X17.933 Y54.414 E2.9267
G1 X17.925 Y54.269 E2.9322
G1 X17.924 Y54.225 E2.9339
G1 X17.916 Y35.791 E3.6324
G1 X17.926 Y35.662 E3.6373
G1 X17.991 Y35.234 E3.6537
G1 X18.020 Y35.108 E3.6586
G1 X18.367 Y33.992 E3.7029
G1 X18.463 Y33.786 E3.7115
G1 X18.868 Y33.147 E3.7401
G1 X19.014 Y32.974 E3.7487
G1 X19.988 Y32.081 E3.7988
G1 X20.158 Y31.960 E3.8067
G1 X20.771 Y31.627 E3.8331
G1 X20.965 Y31.550 E3.8410
G1 X22.042 Y31.269 E3.8832
G1 X22.149 Y31.248 E3.8874
G1 X22.511 Y31.202 E3.9012
G1 X22.621 Y31.195 E3.9054
G1 X22.903 Y31.195 E3.9161
G1 X22.903 Y15.886 E4.4961
G1 X23.164 Y15.256 E4.5220
G1 X23.580 Y15.534 F3498
G92 E0
G1 X25.096 Y14.017 E0.0812 F720
G1 X25.546 Y13.831 E0.0997
G1 X29.313 Y13.831 E0.2424
G1 X32.912 Y13.831 E0.3788
G1 X33.362 Y14.017 E0.3973
G1 X34.879 Y15.534 E0.4785
G1 X35.065 Y15.984 E0.4970
G1 X35.065 Y54.238 E1.9465
G1 X35.064 Y54.282 E1.9482
G1 X35.050 Y54.470 E1.9553
G1 X35.045 Y54.514 E1.9570
G1 X34.846 Y55.884 E2.0095
G1 X34.811 Y56.016 E2.0146
G1 X34.602 Y56.560 E2.0367
G1 X34.540 Y56.681 E2.0419
G1 X33.675 Y57.974 E2.1008
G1 X33.599 Y58.067 E2.1054
G1 X33.235 Y58.431 E2.1249
G1 X33.142 Y58.507 E2.1294
G1 X31.877 Y59.352 E2.1871
G1 X31.771 Y59.409 E2.1916
G1 X31.296 Y59.606 E2.2111
G1 X31.181 Y59.641 E2.2157
G1 X29.815 Y59.913 E2.2684
G1 X29.755 Y59.921 E2.2707
G1 X29.500 Y59.947 E2.2804
G1 X29.440 Y59.950 E2.2827
G1 X23.893 Y59.950 E2.4929
G1 X23.833 Y59.947 E2.4952
G1 X23.578 Y59.922 E2.5049
G1 X23.519 Y59.913 E2.5072
G1 X22.150 Y59.641 E2.5600
G1 X22.035 Y59.606 E2.5646
G1 X21.559 Y59.409 E2.5841
G1 X21.453 Y59.353 E2.5887
G1 X20.136 Y58.473 E2.6487
G1 X20.023 Y58.376 E2.6543
G1 X19.595 Y57.905 E2.6784
G1 X19.508 Y57.784 E2.6841
G1 X18.781 Y56.440 E2.7420
G1 X18.734 Y56.328 E2.7466
G1 X18.582 Y55.835 E2.7661
G1 X18.558 Y55.717 E2.7707
G1 X18.424 Y54.414 E2.8203
G1 X18.422 Y54.383 E2.8215
G1 X18.415 Y54.250 E2.8266
G1 X18.414 Y54.219 E2.8277
G1 X18.406 Y35.810 E3.5253
G1 X18.413 Y35.717 E3.5288
G1 X18.472 Y35.326 E3.5438
G1 X18.493 Y35.236 E3.5473
G1 X18.826 Y34.168 E3.5897
G1 X18.894 Y34.022 E3.5958
G1 X19.264 Y33.437 E3.6220
G1 X19.368 Y33.313 E3.6282
G1 X20.297 Y32.463 E3.6759
G1 X20.418 Y32.376 E3.6815
G1 X20.979 Y32.071 E3.7057
G1 X21.117 Y32.017 E3.7113
G1 X22.151 Y31.747 E3.7518
G1 X22.227 Y31.732 E3.7548
G1 X22.558 Y31.690 E3.7674
G1 X22.636 Y31.685 E3.7704
G1 X23.393 Y31.685 E3.7990
G1 X23.393 Y15.984 E4.3940
G1 X23.580 Y15.534 E4.4124
G1 X23.995 Y15.811 F3498
G92 E0
G1 X25.373 Y14.433 E0.0739 F720
G1 X25.644 Y14.321 E0.0849
G1 X29.313 Y14.321 E0.2240
G1 X32.815 Y14.321 E0.3567
G1 X33.085 Y14.433 E0.3677
G1 X34.463 Y15.811 E0.4416
G1 X34.575 Y16.081 E0.4527
G1 X34.575 Y54.229 E1.8982
G1 X34.574 Y54.255 E1.8992
G1 X34.562 Y54.426 E1.9057
G1 X34.559 Y54.453 E1.9067
G1 X34.365 Y55.786 E1.9577
G1 X34.344 Y55.865 E1.9608
G1 X34.155 Y56.358 E1.9808
G1 X34.117 Y56.431 E1.9839
G1 X33.281 Y57.682 E2.0409
G1 X33.236 Y57.738 E2.0437
G1 X32.906 Y58.067 E2.0613
G1 X32.850 Y58.113 E2.0641
G1 X31.625 Y58.932 E2.1199
G1 X31.561 Y58.966 E2.1226
G1 X31.131 Y59.144 E2.1403
G1 X31.062 Y59.165 E2.1430
G1 X29.731 Y59.430 E2.1944
G1 X29.695 Y59.435 E2.1958
G1 X29.464 Y59.458 E2.2046
G1 X29.428 Y59.460 E2.2060
G1 X23.905 Y59.460 E2.4153
G1 X23.869 Y59.458 E2.4166
G1 X23.638 Y59.435 E2.4254
G1 X23.602 Y59.430 E2.4268
G1 X22.269 Y59.165 E2.4783
G1 X22.200 Y59.144 E2.4810
G1 X21.769 Y58.966 E2.4987
G1 X21.705 Y58.932 E2.5015
G1 X20.433 Y58.082 E2.5594
G1 X20.366 Y58.024 E2.5628
G1 X19.977 Y57.597 E2.5847
G1 X19.925 Y57.524 E2.5880
G1 X19.223 Y56.227 E2.6439
G1 X19.195 Y56.161 E2.6467
G1 X19.057 Y55.714 E2.6644
G1 X19.043 Y55.643 E2.6671
G1 X18.912 Y54.370 E2.7156
G1 X18.911 Y54.351 E2.7163
G1 X18.904 Y54.231 E2.7209
G1 X18.904 Y54.212 E2.7216
G1 X18.896 Y35.828 E3.4182
G1 X18.900 Y35.773 E3.4203
G1 X18.954 Y35.418 E3.4339
G1 X18.966 Y35.364 E3.4360
G1 X19.284 Y34.345 E3.4765
G1 X19.325 Y34.257 E3.4801
G1 X19.661 Y33.727 E3.5039
G1 X19.723 Y33.653 E3.5076
G1 X20.606 Y32.844 E3.5529
G1 X20.679 Y32.792 E3.5563
G1 X21.187 Y32.516 E3.5782
G1 X21.270 Y32.483 E3.5816
G1 X22.259 Y32.225 E3.6204
G1 X22.305 Y32.216 E3.6221
G1 X22.605 Y32.178 E3.6336
G1 X22.652 Y32.175 E3.6354
G1 X23.555 Y32.175 E3.6696
G1 X23.598 Y32.177 E3.6712
G1 X23.867 Y32.208 E3.6815
G1 X23.883 Y32.211 E3.6821
G1 X23.883 Y16.081 E4.2933
G1 X23.995 Y15.811 E4.3044
G1 X24.411 Y16.089 F3498
G92 E0
G1 X25.651 Y14.848 E0.0665 F720
G1 X25.741 Y14.811 E0.0702
G1 X29.313 Y14.811 E0.2055
G1 X32.717 Y14.811 E0.3345
G1 X32.807 Y14.848 E0.3382
G1 X34.048 Y16.089 E0.4047
G1 X34.085 Y16.179 E0.4084
G1 X34.085 Y54.220 E1.8498
G1 X34.085 Y54.229 E1.8501
G1 X34.074 Y54.382 E1.8560
G1 X34.073 Y54.391 E1.8563
G1 X33.884 Y55.689 E1.9060
G1 X33.877 Y55.715 E1.9070
G1 X33.707 Y56.157 E1.9250
G1 X33.695 Y56.181 E1.9260
G1 X32.887 Y57.390 E1.9811
G1 X32.872 Y57.408 E1.9820
G1 X32.577 Y57.704 E1.9978
G1 X32.558 Y57.719 E1.9987
G1 X31.373 Y58.511 E2.0527
G1 X31.352 Y58.522 E2.0536
G1 X30.965 Y58.682 E2.0695
G1 X30.942 Y58.689 E2.0704
G1 X29.647 Y58.947 E2.1204
G1 X29.635 Y58.949 E2.1209
G1 X29.428 Y58.969 E2.1288
G1 X29.416 Y58.970 E2.1292
G1 X23.917 Y58.970 E2.3376
G1 X23.905 Y58.969 E2.3381
G1 X23.698 Y58.949 E2.3460
G1 X23.686 Y58.947 E2.3464
G1 X22.388 Y58.689 E2.3965
G1 X22.365 Y58.682 E2.3975
G1 X21.978 Y58.522 E2.4133
G1 X21.957 Y58.511 E2.4142
G1 X20.730 Y57.691 E2.4701
G1 X20.708 Y57.672 E2.4713
G1 X20.359 Y57.289 E2.4909
G1 X20.342 Y57.265 E2.4920
G1 X19.665 Y56.015 E2.5458
G1 X19.656 Y55.993 E2.5468
G1 X19.533 Y55.593 E2.5626
G1 X19.528 Y55.569 E2.5636
G1 X19.400 Y54.326 E2.6109
G1 X19.400 Y54.320 E2.6111
G1 X19.394 Y54.212 E2.6152
G1 X19.394 Y54.206 E2.6155
G1 X19.386 Y35.846 E3.3111
G1 X19.387 Y35.828 E3.3118
G1 X19.436 Y35.510 E3.3240
G1 X19.440 Y35.492 E3.3247
G1 X19.742 Y34.522 E3.3632
G1 X19.756 Y34.492 E3.3645
G1 X20.057 Y34.017 E3.3858
G1 X20.078 Y33.992 E3.3870
G1 X20.915 Y33.226 E3.4300
G1 X20.939 Y33.209 E3.4311
G1 X21.395 Y32.961 E3.4508
G1 X21.422 Y32.950 E3.4519
G1 X22.368 Y32.703 E3.4889
G1 X22.383 Y32.700 E3.4895
G1 X22.652 Y32.666 E3.4998
G1 X22.668 Y32.665 E3.5004
G1 X23.541 Y32.665 E3.5335
G1 X23.555 Y32.666 E3.5340
G1 X23.797 Y32.693 E3.5433
G1 X23.811 Y32.696 E3.5438
G1 X24.373 Y32.827 E3.5657
G1 X24.373 Y16.179 E4.1965
G1 X24.411 Y16.089 E4.2002
G92 E0
G1 E-6.5000 F4998
; inner perimeter
G1 X23.278 Y36.135 F3498
G1 E0.0000 F4998
G92 E0
G1 X23.577 Y36.204 E0.0116 F600
G1 X23.953 Y36.435 E0.0283
G1 X24.508 Y36.961 E0.0573
G1 X22.856 Y36.961 E0.1199
G1 X22.856 Y36.135 E0.1512
G1 X23.278 Y36.135 E0.1672
G92 E0
G1 E-6.5000 F4998
G1 X28.663 Y36.190 F3498
G1 E0.0000 F4998
G92 E0
G1 X30.615 Y36.190 E0.0740 F600
G1 X30.615 Y54.055 E0.7509
G1 X30.524 Y54.681 E0.7749
G1 X30.254 Y55.085 E0.7933
G1 X29.821 Y55.374 E0.8130
G1 X29.191 Y55.500 E0.8374
G1 X24.141 Y55.500 E1.0287
G1 X23.508 Y55.374 E1.0532
G1 X23.126 Y55.119 E1.0706
G1 X22.933 Y54.763 E1.0859
G1 X22.864 Y54.088 E1.1116
G1 X22.863 Y51.969 E1.1919
G1 X23.235 Y51.950 E1.2060
G1 X23.256 Y52.158 E1.2139
G1 X23.335 Y52.585 E1.2304
G1 X23.497 Y53.040 E1.2487
G1 X23.733 Y53.463 E1.2671
G1 X24.035 Y53.842 E1.2854
G1 X24.395 Y54.166 E1.3038
G1 X24.804 Y54.425 E1.3221
G1 X25.249 Y54.614 E1.3404
G1 X25.718 Y54.729 E1.3587
G1 X26.162 Y54.765 E1.3756
G1 X27.070 Y54.749 E1.4100
G1 X27.460 Y54.677 E1.4250
G1 X27.814 Y54.568 E1.4391
G1 X28.152 Y54.416 E1.4531
G1 X28.469 Y54.224 E1.4672
G1 X28.761 Y53.996 E1.4812
G1 X29.023 Y53.734 E1.4952
G1 X29.252 Y53.443 E1.5093
G1 X29.444 Y53.126 E1.5233
G1 X29.596 Y52.788 E1.5374
G1 X29.707 Y52.434 E1.5514
G1 X29.774 Y52.070 E1.5654
G1 X29.794 Y51.736 E1.5781
G1 X29.795 Y38.221 E2.0902
G1 X28.663 Y36.190 E2.1783
G92 E0
G1 E-6.5000 F4998
; inner perimeter
G1 X27.353 Y17.791 F3498
G1 E0.0000 F4998
G92 E0
G1 X27.749 Y17.791 E0.0150 F480
G1 X27.749 Y35.557 E0.6882
