; G-Code generated by Simplify3D(R) Version 3.0.0
; Okt 3, 2017 at 3:21:27 
; Settings Summary
;   processName,Process1
;   applyToModels,halterung12,halterung12(2),halterung12(3),halterung12(4),halterung12(5),halterung12(6),halterung12(8),halterung12(9),halterung12(10),halterung12(11)
;   profileName,1.5 fein (modified)
;   profileVersion,2017-10-02 14:07:01
;   baseProfile,German RepRap NEO (modified)
;   printMaterial,
;   printQuality,
;   printExtruders,
;   extruderName,Primary Extruder
;   extruderToolheadNumber,0
;   extruderDiameter,0.5
;   extruderAutoWidth,0
;   extruderWidth,0.49
;   extrusionMultiplier,0.91
;   extruderUseRetract,1
;   extruderRetractionDistance,6.5
;   extruderExtraRestartDistance,0
;   extruderRetractionZLift,0
;   extruderRetractionSpeed,4998
;   extruderUseCoasting,0
;   extruderCoastingDistance,0.2
;   extruderUseWipe,0
;   extruderWipeDistance,5
;   primaryExtruder,0
;   layerHeight,0.2
;   topSolidLayers,4
;   bottomSolidLayers,3
;   perimeterOutlines,3
;   printPerimetersInsideOut,1
;   startPointOption,2
;   startPointOriginX,0
;   startPointOriginY,0
;   startPointOriginZ,300
;   sequentialIslands,0
;   spiralVaseMode,0
;   firstLayerHeightPercentage,100
;   firstLayerWidthPercentage,100
;   firstLayerUnderspeed,0.3
;   useRaft,0
;   raftExtruder,0
;   raftLayers,3
;   raftOffset,3
;   raftSeparationDistance,0.1
;   raftInfill,85
;   disableRaftBaseLayers,0
;   useSkirt,1
;   skirtExtruder,0
;   skirtLayers,1
;   skirtOutlines,3
;   skirtOffset,2
;   usePrimePillar,0
;   primePillarExtruder,999
;   primePillarWidth,12
;   primePillarLocation,7
;   primePillarSpeedMultiplier,1
;   useOozeShield,0
;   oozeShieldExtruder,999
;   oozeShieldOffset,2
;   oozeShieldOutlines,1
;   oozeShieldSidewallShape,1
;   oozeShieldSidewallAngle,30
;   oozeShieldSpeedMultiplier,1
;   infillExtruder,0
;   internalInfillPattern,Full Honeycomb
;   externalInfillPattern,Rectilinear
;   infillPercentage,50
;   outlineOverlapPercentage,15
;   infillExtrusionWidthPercentage,100
;   minInfillLength,3
;   infillLayerInterval,1
;   infillAngles,0,120,-120
;   overlapInfillAngles,0
;   generateSupport,1
;   supportExtruder,0
;   supportInfillPercentage,30
;   supportExtraInflation,0
;   denseSupportLayers,0
;   denseSupportInfillPercentage,75
;   supportLayerInterval,1
;   supportHorizontalPartOffset,1.5
;   supportUpperSeparationLayers,2
;   supportLowerSeparationLayers,2
;   supportType,0
;   supportGridSpacing,4
;   maxOverhangAngle,45
;   supportAngles,45
;   temperatureName,Primary Extruder
;   temperatureNumber,0
;   temperatureSetpointCount,3
;   temperatureSetpointLayers,1,2,3
;   temperatureSetpointTemperatures,195,190,184
;   temperatureStabilizeAtStartup,1
;   temperatureHeatedBed,0
;   temperatureRelayBetweenLayers,0
;   temperatureRelayBetweenLoops,0
;   fanLayers,1,3
;   fanSpeeds,0,100
;   blipFanToFullPower,0
;   adjustSpeedForCooling,1
;   minSpeedLayerTime,15
;   minCoolingSpeedSlowdown,20
;   increaseFanForCooling,0
;   minFanLayerTime,45
;   maxCoolingFanSpeed,100
;   increaseFanForBridging,0
;   bridgingFanSpeed,100
;   use5D,1
;   relativeEdistances,0
;   allowEaxisZeroing,1
;   independentExtruderAxes,0
;   includeM10123,0
;   stickySupport,1
;   applyToolheadOffsets,0
;   gcodeXoffset,0
;   gcodeYoffset,0
;   gcodeZoffset,0
;   overrideMachineDefinition,1
;   machineTypeOverride,0
;   strokeXoverride,150
;   strokeYoverride,150
;   strokeZoverride,150
;   originOffsetXoverride,0
;   originOffsetYoverride,0
;   originOffsetZoverride,0
;   homeXdirOverride,-1
;   homeYdirOverride,-1
;   homeZdirOverride,-1
;   flipXoverride,1
;   flipYoverride,-1
;   flipZoverride,1
;   toolheadOffsets,0,0|0,0|0,0|0,0|0,0|0,0
;   overrideFirmwareConfiguration,0
;   firmwareTypeOverride,RepRap (Marlin/Repetier/Sprinter)
;   GPXconfigOverride,r2
;   baudRateOverride,115200
;   overridePrinterModels,0
;   printerModelsOverride
;   startingGcode,G28 ; home all axes
;   layerChangeGcode,
;   retractionGcode,
;   toolChangeGcode,
;   endingGcode,M104 S0 ; turn off extruder,M140 S0 ; turn off bed,G28 X0  ; home X axis,G28 Y0  ; home Y axis,M84 ; disable motors,M107
;   createX3G,0
;   celebration,0
;   celebrationSong,Random Song
;   createMB5G,0
;   postProcessing,
;   defaultSpeed,3600
;   outlineUnderspeed,0.5
;   solidInfillUnderspeed,0.8
;   supportUnderspeed,0.8
;   rapidXYspeed,3498
;   rapidZspeed,1002
;   minBridgingArea,50
;   bridgingExtraInflation,0
;   bridgingExtrusionMultiplier,1
;   bridgingSpeedMultiplier,1
;   filamentDiameter,1.75
;   filamentPricePerKg,46
;   filamentDensity,1.25
;   useMinPrintHeight,0
;   minPrintHeight,0
;   useMaxPrintHeight,0
;   maxPrintHeight,0
;   useDiaphragm,0
;   diaphragmLayerInterval,20
;   robustSlicing,1
;   mergeAllIntoSolid,0
;   onlyRetractWhenCrossingOutline,1
;   retractBetweenLayers,1
;   useRetractionMinTravel,0
;   retractionMinTravel,3
;   retractWhileWiping,0
;   onlyWipeOutlines,1
;   avoidCrossingOutline,0
;   maxMovementDetourFactor,10
;   toolChangeRetractionDistance,0
;   toolChangeExtraRestartDistance,0
;   toolChangeRetractionSpeed,360
;   allowThinWallGapFill,1
;   thinWallAllowedOverlapPercentage,10
;   horizontalSizeCompensation,0
G90
M82
M106 S0
M104 S195 T0
M109 S195 T0
G28 ; home all axes
G92 E0
G1 E-6.5000 F4998
G1 Z0.200 F1002
; layer 1, Z = 0.2
T0
; tool H0.200 W0.490
; skirt
G1 X18.273 Y8.858 F3498
G1 E0.0000 F1499
G92 E0
G1 X18.459 Y8.407 E0.0181 F1080
G1 X19.975 Y6.891 E0.0976
G1 X20.426 Y6.705 E0.1156
G1 X27.792 Y6.705 E0.3887
G1 X28.242 Y6.891 E0.4068
G1 X29.758 Y8.407 E0.4863
G1 X29.945 Y8.858 E0.5044
G1 X29.945 Y25.741 E1.1304
G1 X30.385 Y25.337 E1.1525
G1 X30.507 Y25.250 E1.1580
G1 X31.067 Y24.945 E1.1817
G1 X31.206 Y24.890 E1.1872
G1 X32.239 Y24.621 E1.2268
G1 X32.316 Y24.606 E1.2297
G1 X32.647 Y24.563 E1.2421
G1 X32.725 Y24.558 E1.2450
G1 X33.482 Y24.558 E1.2731
G1 X33.482 Y8.858 E1.8552
G1 X33.668 Y8.407 E1.8733
G1 X35.185 Y6.891 E1.9528
G1 X35.635 Y6.705 E1.9708
G1 X43.001 Y6.705 E2.2439
G1 X43.451 Y6.891 E2.2620
G1 X44.967 Y8.407 E2.3415
G1 X45.154 Y8.858 E2.3596
G1 X45.154 Y25.741 E2.9855
G1 X45.595 Y25.337 E3.0077
G1 X45.716 Y25.250 E3.0132
G1 X46.277 Y24.945 E3.0369
G1 X46.415 Y24.890 E3.0424
G1 X47.449 Y24.621 E3.0820
G1 X47.525 Y24.606 E3.0849
G1 X47.856 Y24.563 E3.0973
G1 X47.934 Y24.558 E3.1002
G1 X48.691 Y24.558 E3.1283
G1 X48.691 Y8.858 E3.7104
G1 X48.878 Y8.407 E3.7285
G1 X50.394 Y6.891 E3.8080
G1 X50.844 Y6.705 E3.8260
G1 X58.210 Y6.705 E4.0991
G1 X58.660 Y6.891 E4.1172
G1 X60.177 Y8.407 E4.1967
G1 X60.363 Y8.858 E4.2148
G1 X60.363 Y25.741 E4.8407
G1 X60.804 Y25.337 E4.8629
G1 X60.925 Y25.250 E4.8684
G1 X61.486 Y24.945 E4.8921
G1 X61.625 Y24.890 E4.8976
G1 X62.658 Y24.621 E4.9372
G1 X62.735 Y24.606 E4.9401
G1 X63.065 Y24.563 E4.9525
G1 X63.143 Y24.558 E4.9554
G1 X63.901 Y24.558 E4.9835
G1 X63.901 Y8.858 E5.5656
G1 X64.087 Y8.407 E5.5837
G1 X65.603 Y6.891 E5.6632
G1 X66.053 Y6.705 E5.6812
G1 X73.419 Y6.705 E5.9543
G1 X73.870 Y6.891 E5.9724
G1 X75.386 Y8.407 E6.0519
G1 X75.572 Y8.858 E6.0700
G1 X75.572 Y25.741 E6.6959
G1 X76.013 Y25.337 E6.7181
G1 X76.135 Y25.250 E6.7236
G1 X76.695 Y24.945 E6.7473
G1 X76.834 Y24.890 E6.7528
G1 X77.867 Y24.621 E6.7924
G1 X77.944 Y24.606 E6.7953
G1 X78.275 Y24.563 E6.8077
G1 X78.353 Y24.558 E6.8106
G1 X79.110 Y24.558 E6.8387
G1 X79.110 Y8.858 E7.4208
G1 X79.296 Y8.407 E7.4389
G1 X80.812 Y6.891 E7.5184
G1 X81.263 Y6.705 E7.5364
G1 X88.629 Y6.705 E7.8095
G1 X89.079 Y6.891 E7.8276
G1 X90.595 Y8.407 E7.9071
G1 X90.782 Y8.858 E7.9252
G1 X90.782 Y47.111 E9.3435
G1 X90.780 Y47.156 E9.3451
G1 X90.766 Y47.344 E9.3521
G1 X90.762 Y47.388 E9.3538
G1 X90.562 Y48.758 E9.4051
G1 X90.528 Y48.889 E9.4102
G1 X90.319 Y49.433 E9.4318
G1 X90.256 Y49.554 E9.4368
G1 X89.392 Y50.848 E9.4945
G1 X89.316 Y50.941 E9.4989
G1 X88.952 Y51.304 E9.5180
G1 X88.859 Y51.381 E9.5225
G1 X87.594 Y52.226 E9.5789
G1 X87.508 Y52.272 E9.5825
G1 X88.629 Y52.272 E9.6241
G1 X89.079 Y52.459 E9.6421
G1 X90.595 Y53.975 E9.7216
G1 X90.782 Y54.425 E9.7397
G1 X90.782 Y92.679 E11.1580
G1 X90.780 Y92.723 E11.1597
G1 X90.766 Y92.911 E11.1667
G1 X90.762 Y92.955 E11.1683
G1 X90.562 Y94.325 E11.2196
G1 X90.528 Y94.457 E11.2247
G1 X90.319 Y95.001 E11.2463
G1 X90.256 Y95.122 E11.2513
G1 X89.392 Y96.415 E11.3090
G1 X89.316 Y96.508 E11.3135
G1 X88.952 Y96.872 E11.3325
G1 X88.859 Y96.948 E11.3370
G1 X87.594 Y97.793 E11.3934
G1 X87.488 Y97.850 E11.3979
G1 X87.012 Y98.047 E11.4169
G1 X86.897 Y98.082 E11.4214
G1 X85.531 Y98.354 E11.4730
G1 X85.472 Y98.362 E11.4753
G1 X85.217 Y98.388 E11.4848
G1 X85.156 Y98.391 E11.4870
G1 X79.609 Y98.391 E11.6927
G1 X79.549 Y98.388 E11.6949
G1 X79.294 Y98.363 E11.7044
G1 X79.235 Y98.354 E11.7066
G1 X77.867 Y98.082 E11.7584
G1 X77.751 Y98.047 E11.7628
G1 X77.275 Y97.850 E11.7819
G1 X77.169 Y97.794 E11.7864
G1 X75.853 Y96.914 E11.8451
G1 X75.740 Y96.817 E11.8506
G1 X75.311 Y96.346 E11.8742
G1 X75.225 Y96.225 E11.8797
G1 X74.815 Y95.468 E11.9116
G1 X74.183 Y96.415 E11.9539
G1 X74.106 Y96.508 E11.9583
G1 X73.743 Y96.872 E11.9774
G1 X73.650 Y96.948 E11.9819
G1 X72.385 Y97.793 E12.0383
G1 X72.278 Y97.850 E12.0427
G1 X71.803 Y98.047 E12.0618
G1 X71.688 Y98.082 E12.0663
G1 X70.322 Y98.354 E12.1179
G1 X70.263 Y98.362 E12.1201
G1 X70.007 Y98.388 E12.1296
G1 X69.947 Y98.391 E12.1319
G1 X64.400 Y98.391 E12.3375
G1 X64.340 Y98.388 E12.3398
G1 X64.085 Y98.363 E12.3493
G1 X64.026 Y98.354 E12.3515
G1 X62.657 Y98.082 E12.4032
G1 X62.542 Y98.047 E12.4077
G1 X62.066 Y97.850 E12.4268
G1 X61.960 Y97.794 E12.4312
G1 X60.644 Y96.914 E12.4899
G1 X60.531 Y96.817 E12.4955
G1 X60.102 Y96.346 E12.5191
G1 X60.016 Y96.225 E12.5246
G1 X59.606 Y95.468 E12.5565
G1 X58.973 Y96.415 E12.5987
G1 X58.897 Y96.508 E12.6032
G1 X58.533 Y96.872 E12.6222
G1 X58.440 Y96.948 E12.6267
G1 X57.175 Y97.793 E12.6831
G1 X57.069 Y97.850 E12.6876
G1 X56.594 Y98.047 E12.7066
G1 X56.479 Y98.082 E12.7111
G1 X55.113 Y98.354 E12.7627
G1 X55.053 Y98.362 E12.7650
G1 X54.798 Y98.388 E12.7745
G1 X54.738 Y98.391 E12.7767
G1 X49.191 Y98.391 E12.9824
G1 X49.131 Y98.388 E12.9846
G1 X48.876 Y98.363 E12.9941
G1 X48.817 Y98.354 E12.9963
G1 X47.448 Y98.082 E13.0481
G1 X47.333 Y98.047 E13.0525
G1 X46.857 Y97.850 E13.0716
G1 X46.751 Y97.794 E13.0761
G1 X45.434 Y96.914 E13.1348
G1 X45.321 Y96.817 E13.1403
G1 X44.892 Y96.346 E13.1639
G1 X44.806 Y96.225 E13.1694
G1 X44.397 Y95.468 E13.2013
G1 X43.764 Y96.415 E13.2436
G1 X43.688 Y96.508 E13.2480
G1 X43.324 Y96.872 E13.2671
G1 X43.231 Y96.948 E13.2716
G1 X41.966 Y97.793 E13.3280
G1 X41.860 Y97.850 E13.3324
G1 X41.385 Y98.047 E13.3515
G1 X41.269 Y98.082 E13.3560
G1 X39.904 Y98.354 E13.4076
G1 X39.844 Y98.362 E13.4098
G1 X39.589 Y98.388 E13.4193
G1 X39.529 Y98.391 E13.4216
G1 X33.981 Y98.391 E13.6273
G1 X33.921 Y98.388 E13.6295
G1 X33.667 Y98.363 E13.6390
G1 X33.607 Y98.354 E13.6412
G1 X32.239 Y98.082 E13.6929
G1 X32.123 Y98.047 E13.6974
G1 X31.648 Y97.850 E13.7165
G1 X31.541 Y97.794 E13.7210
G1 X30.225 Y96.914 E13.7796
G1 X30.112 Y96.817 E13.7852
G1 X29.683 Y96.346 E13.8088
G1 X29.597 Y96.225 E13.8143
G1 X29.187 Y95.468 E13.8462
G1 X28.555 Y96.415 E13.8884
G1 X28.478 Y96.508 E13.8929
G1 X28.115 Y96.872 E13.9119
G1 X28.022 Y96.948 E13.9164
G1 X26.757 Y97.793 E13.9728
G1 X26.651 Y97.850 E13.9773
G1 X26.175 Y98.047 E13.9964
G1 X26.060 Y98.082 E14.0008
G1 X24.694 Y98.354 E14.0525
G1 X24.635 Y98.362 E14.0547
G1 X24.379 Y98.388 E14.0642
G1 X24.319 Y98.391 E14.0664
G1 X18.772 Y98.391 E14.2721
G1 X18.712 Y98.388 E14.2743
G1 X18.457 Y98.363 E14.2838
G1 X18.398 Y98.354 E14.2860
G1 X17.029 Y98.082 E14.3378
G1 X16.914 Y98.047 E14.3422
G1 X16.438 Y97.850 E14.3613
G1 X16.332 Y97.794 E14.3658
G1 X15.016 Y96.914 E14.4245
G1 X14.903 Y96.817 E14.4300
G1 X14.474 Y96.346 E14.4536
G1 X14.388 Y96.225 E14.4592
G1 X13.660 Y94.880 E14.5158
G1 X13.613 Y94.769 E14.5203
G1 X13.461 Y94.276 E14.5394
G1 X13.437 Y94.158 E14.5439
G1 X13.303 Y92.855 E14.5925
G1 X13.301 Y92.824 E14.5936
G1 X13.294 Y92.691 E14.5986
G1 X13.293 Y92.660 E14.5997
G1 X13.285 Y74.251 E15.2823
G1 X13.292 Y74.158 E15.2857
G1 X13.352 Y73.767 E15.3004
G1 X13.372 Y73.677 E15.3038
G1 X13.705 Y72.609 E15.3453
G1 X13.773 Y72.463 E15.3513
G1 X14.144 Y71.878 E15.3769
G1 X14.248 Y71.754 E15.3829
G1 X15.176 Y70.904 E15.4296
G1 X15.298 Y70.817 E15.4351
G1 X15.858 Y70.512 E15.4588
G1 X15.997 Y70.458 E15.4643
G1 X17.030 Y70.188 E15.5039
G1 X17.107 Y70.173 E15.5068
G1 X17.438 Y70.131 E15.5192
G1 X17.516 Y70.126 E15.5221
G1 X18.273 Y70.126 E15.5501
G1 X18.273 Y54.425 E16.1323
G1 X18.459 Y53.975 E16.1503
G1 X19.611 Y52.823 E16.2107
G1 X18.772 Y52.823 E16.2418
G1 X18.712 Y52.820 E16.2440
G1 X18.457 Y52.795 E16.2535
G1 X18.398 Y52.786 E16.2558
G1 X17.029 Y52.515 E16.3075
G1 X16.914 Y52.480 E16.3119
G1 X16.438 Y52.283 E16.3310
G1 X16.332 Y52.226 E16.3355
G1 X15.016 Y51.347 E16.3942
G1 X14.903 Y51.250 E16.3997
G1 X14.474 Y50.779 E16.4233
G1 X14.388 Y50.657 E16.4289
G1 X13.660 Y49.313 E16.4855
G1 X13.613 Y49.202 E16.4900
G1 X13.461 Y48.709 E16.5091
G1 X13.437 Y48.591 E16.5136
G1 X13.303 Y47.288 E16.5622
G1 X13.301 Y47.257 E16.5633
G1 X13.294 Y47.124 E16.5683
G1 X13.293 Y47.092 E16.5694
G1 X13.285 Y28.683 E17.2520
G1 X13.292 Y28.591 E17.2554
G1 X13.352 Y28.200 E17.2701
G1 X13.372 Y28.109 E17.2735
G1 X13.705 Y27.042 E17.3150
G1 X13.773 Y26.895 E17.3210
G1 X14.144 Y26.311 E17.3466
G1 X14.248 Y26.187 E17.3526
G1 X15.176 Y25.337 E17.3993
G1 X15.298 Y25.250 E17.4048
G1 X15.858 Y24.945 E17.4285
G1 X15.997 Y24.890 E17.4340
G1 X17.030 Y24.621 E17.4736
G1 X17.107 Y24.606 E17.4765
G1 X17.438 Y24.563 E17.4889
G1 X17.516 Y24.558 E17.4918
G1 X18.273 Y24.558 E17.5198
G1 X18.273 Y8.858 E18.1020
G92 E0
G1 E-6.5000 F4998
G1 X29.187 Y49.901 F3498
G1 E0.0000 F4998
G92 E0
G1 X28.555 Y50.848 E0.0422 F1080
G1 X28.478 Y50.941 E0.0467
G1 X28.115 Y51.304 E0.0658
G1 X28.022 Y51.381 E0.0702
G1 X26.757 Y52.226 E0.1266
G1 X26.671 Y52.272 E0.1302
G1 X27.792 Y52.272 E0.1718
G1 X28.242 Y52.459 E0.1899
G1 X29.758 Y53.975 E0.2694
G1 X29.945 Y54.425 E0.2874
G1 X29.945 Y71.308 E0.9134
G1 X30.385 Y70.904 E0.9356
G1 X30.507 Y70.817 E0.9411
G1 X31.067 Y70.512 E0.9647
G1 X31.206 Y70.458 E0.9703
G1 X32.239 Y70.188 E1.0099
G1 X32.316 Y70.173 E1.0128
G1 X32.647 Y70.131 E1.0251
G1 X32.725 Y70.126 E1.0280
G1 X33.482 Y70.126 E1.0561
G1 X33.482 Y54.425 E1.6382
G1 X33.668 Y53.975 E1.6563
G1 X34.820 Y52.823 E1.7167
G1 X33.981 Y52.823 E1.7478
G1 X33.921 Y52.820 E1.7500
G1 X33.667 Y52.795 E1.7595
G1 X33.607 Y52.786 E1.7617
G1 X32.239 Y52.515 E1.8134
G1 X32.123 Y52.480 E1.8179
G1 X31.648 Y52.283 E1.8370
G1 X31.541 Y52.226 E1.8415
G1 X30.225 Y51.347 E1.9002
G1 X30.112 Y51.250 E1.9057
G1 X29.683 Y50.779 E1.9293
G1 X29.597 Y50.657 E1.9348
G1 X29.187 Y49.901 E1.9667
G1 X41.880 Y52.272 F3498
G92 E0
G1 X43.001 Y52.272 E0.0416 F1080
G1 X43.451 Y52.459 E0.0596
G1 X44.967 Y53.975 E0.1391
G1 X45.154 Y54.425 E0.1572
G1 X45.154 Y71.308 E0.7832
G1 X45.595 Y70.904 E0.8053
G1 X45.716 Y70.817 E0.8109
G1 X46.277 Y70.512 E0.8345
G1 X46.415 Y70.458 E0.8400
G1 X47.449 Y70.188 E0.8796
G1 X47.525 Y70.173 E0.8825
G1 X47.856 Y70.131 E0.8949
G1 X47.934 Y70.126 E0.8978
G1 X48.691 Y70.126 E0.9259
G1 X48.691 Y54.425 E1.5080
G1 X48.878 Y53.975 E1.5261
G1 X50.029 Y52.823 E1.5865
G1 X49.191 Y52.823 E1.6175
G1 X49.131 Y52.820 E1.6198
G1 X48.876 Y52.795 E1.6293
G1 X48.817 Y52.786 E1.6315
G1 X47.448 Y52.515 E1.6832
G1 X47.333 Y52.480 E1.6877
G1 X46.857 Y52.283 E1.7068
G1 X46.751 Y52.226 E1.7112
G1 X45.434 Y51.347 E1.7699
G1 X45.321 Y51.250 E1.7755
G1 X44.892 Y50.779 E1.7991
G1 X44.806 Y50.657 E1.8046
G1 X44.397 Y49.901 E1.8365
G1 X43.764 Y50.848 E1.8787
G1 X43.688 Y50.941 E1.8832
G1 X43.324 Y51.304 E1.9022
G1 X43.231 Y51.381 E1.9067
G1 X41.966 Y52.226 E1.9631
G1 X41.880 Y52.272 E1.9667
G1 X57.089 Y52.272 F3498
G92 E0
G1 X58.210 Y52.272 E0.0416 F1080
G1 X58.660 Y52.459 E0.0596
G1 X60.177 Y53.975 E0.1391
G1 X60.363 Y54.425 E0.1572
G1 X60.363 Y71.308 E0.7832
G1 X60.804 Y70.904 E0.8053
G1 X60.925 Y70.817 E0.8109
G1 X61.486 Y70.512 E0.8345
G1 X61.625 Y70.458 E0.8400
G1 X62.658 Y70.188 E0.8796
G1 X62.735 Y70.173 E0.8825
G1 X63.065 Y70.131 E0.8949
G1 X63.143 Y70.126 E0.8978
