; G-Code generated by Simplify3D(R) Version 3.0.0
; Okt 2, 2017 at 3:58:36 
; Settings Summary
;   processName,Process1
;   applyToModels,halterung12(3),halterung12(4),halterung12(5),halterung12(7),halterung12(10),halterung12(11)
;   profileName,1.5 fein (modified)
;   profileVersion,2017-10-02 14:07:01
;   baseProfile,German RepRap NEO (modified)
;   printMaterial,
;   printQuality,
;   printExtruders,
;   extruderName,Primary Extruder
;   extruderToolheadNumber,0
;   extruderDiameter,0.5
;   extruderAutoWidth,0
;   extruderWidth,0.49
;   extrusionMultiplier,0.95
;   extruderUseRetract,1
;   extruderRetractionDistance,6.5
;   extruderExtraRestartDistance,0
;   extruderRetractionZLift,0
;   extruderRetractionSpeed,4998
;   extruderUseCoasting,0
;   extruderCoastingDistance,0.2
;   extruderUseWipe,0
;   extruderWipeDistance,5
;   primaryExtruder,0
;   layerHeight,0.2
;   topSolidLayers,4
;   bottomSolidLayers,3
;   perimeterOutlines,3
;   printPerimetersInsideOut,1
;   startPointOption,2
;   startPointOriginX,0
;   startPointOriginY,0
;   startPointOriginZ,300
;   sequentialIslands,0
;   spiralVaseMode,0
;   firstLayerHeightPercentage,100
;   firstLayerWidthPercentage,100
;   firstLayerUnderspeed,0.3
;   useRaft,0
;   raftExtruder,0
;   raftLayers,3
;   raftOffset,3
;   raftSeparationDistance,0.1
;   raftInfill,85
;   disableRaftBaseLayers,0
;   useSkirt,1
;   skirtExtruder,0
;   skirtLayers,1
;   skirtOutlines,1
;   skirtOffset,2
;   usePrimePillar,0
;   primePillarExtruder,999
;   primePillarWidth,12
;   primePillarLocation,7
;   primePillarSpeedMultiplier,1
;   useOozeShield,0
;   oozeShieldExtruder,999
;   oozeShieldOffset,2
;   oozeShieldOutlines,1
;   oozeShieldSidewallShape,1
;   oozeShieldSidewallAngle,30
;   oozeShieldSpeedMultiplier,1
;   infillExtruder,0
;   internalInfillPattern,Full Honeycomb
;   externalInfillPattern,Rectilinear
;   infillPercentage,20
;   outlineOverlapPercentage,15
;   infillExtrusionWidthPercentage,100
;   minInfillLength,3
;   infillLayerInterval,1
;   infillAngles,0,120,-120
;   overlapInfillAngles,0
;   generateSupport,0
;   supportExtruder,0
;   supportInfillPercentage,30
;   supportExtraInflation,0
;   denseSupportLayers,0
;   denseSupportInfillPercentage,75
;   supportLayerInterval,1
;   supportHorizontalPartOffset,1.5
;   supportUpperSeparationLayers,2
;   supportLowerSeparationLayers,2
;   supportType,0
;   supportGridSpacing,4
;   maxOverhangAngle,45
;   supportAngles,45
;   temperatureName,Primary Extruder
;   temperatureNumber,0
;   temperatureSetpointCount,3
;   temperatureSetpointLayers,1,2,3
;   temperatureSetpointTemperatures,207,202,197
;   temperatureStabilizeAtStartup,1
;   temperatureHeatedBed,0
;   temperatureRelayBetweenLayers,0
;   temperatureRelayBetweenLoops,0
;   fanLayers,1,3
;   fanSpeeds,0,100
;   blipFanToFullPower,0
;   adjustSpeedForCooling,1
;   minSpeedLayerTime,15
;   minCoolingSpeedSlowdown,20
;   increaseFanForCooling,0
;   minFanLayerTime,45
;   maxCoolingFanSpeed,100
;   increaseFanForBridging,0
;   bridgingFanSpeed,100
;   use5D,1
;   relativeEdistances,0
;   allowEaxisZeroing,1
;   independentExtruderAxes,0
;   includeM10123,0
;   stickySupport,1
;   applyToolheadOffsets,0
;   gcodeXoffset,0
;   gcodeYoffset,0
;   gcodeZoffset,0
;   overrideMachineDefinition,1
;   machineTypeOverride,0
;   strokeXoverride,150
;   strokeYoverride,150
;   strokeZoverride,150
;   originOffsetXoverride,0
;   originOffsetYoverride,0
;   originOffsetZoverride,0
;   homeXdirOverride,-1
;   homeYdirOverride,-1
;   homeZdirOverride,-1
;   flipXoverride,1
;   flipYoverride,-1
;   flipZoverride,1
;   toolheadOffsets,0,0|0,0|0,0|0,0|0,0|0,0
;   overrideFirmwareConfiguration,0
;   firmwareTypeOverride,RepRap (Marlin/Repetier/Sprinter)
;   GPXconfigOverride,r2
;   baudRateOverride,115200
;   overridePrinterModels,0
;   printerModelsOverride
;   startingGcode,G28 ; home all axes
;   layerChangeGcode,
;   retractionGcode,
;   toolChangeGcode,
;   endingGcode,M104 S0 ; turn off extruder,M140 S0 ; turn off bed,G28 X0  ; home X axis,G28 Y0  ; home Y axis,M84 ; disable motors,M107
;   createX3G,0
;   celebration,0
;   celebrationSong,Random Song
;   createMB5G,0
;   postProcessing,
;   defaultSpeed,4200
;   outlineUnderspeed,0.5
;   solidInfillUnderspeed,0.8
;   supportUnderspeed,0.8
;   rapidXYspeed,3498
;   rapidZspeed,1002
;   minBridgingArea,50
;   bridgingExtraInflation,0
;   bridgingExtrusionMultiplier,1
;   bridgingSpeedMultiplier,1
;   filamentDiameter,1.75
;   filamentPricePerKg,46
;   filamentDensity,1.25
;   useMinPrintHeight,0
;   minPrintHeight,0
;   useMaxPrintHeight,0
;   maxPrintHeight,0
;   useDiaphragm,0
;   diaphragmLayerInterval,20
;   robustSlicing,1
;   mergeAllIntoSolid,0
;   onlyRetractWhenCrossingOutline,1
;   retractBetweenLayers,1
;   useRetractionMinTravel,0
;   retractionMinTravel,3
;   retractWhileWiping,0
;   onlyWipeOutlines,1
;   avoidCrossingOutline,0
;   maxMovementDetourFactor,10
;   toolChangeRetractionDistance,0
;   toolChangeExtraRestartDistance,0
;   toolChangeRetractionSpeed,360
;   allowThinWallGapFill,1
;   thinWallAllowedOverlapPercentage,10
;   horizontalSizeCompensation,0
G90
M82
M106 S0
M104 S207 T0
M109 S207 T0
G28 ; home all axes
G92 E0
G1 E-6.5000 F4998
G1 Z0.200 F1002
; layer 1, Z = 0.2
T0
; tool H0.200 W0.490
; skirt
G1 X30.273 Y8.521 F3498
G1 E0.0000 F1499
G92 E0
G1 X30.310 Y8.431 E0.0038 F1260
G1 X31.550 Y7.190 E0.0717
G1 X31.641 Y7.153 E0.0754
G1 X38.617 Y7.153 E0.3455
G1 X38.707 Y7.190 E0.3492
G1 X39.947 Y8.431 E0.4171
G1 X39.985 Y8.521 E0.4209
G1 X39.985 Y46.562 E1.8934
G1 X39.984 Y46.571 E1.8937
G1 X39.973 Y46.724 E1.8996
G1 X39.972 Y46.733 E1.9000
G1 X39.783 Y48.031 E1.9508
G1 X39.776 Y48.057 E1.9518
G1 X39.607 Y48.499 E1.9701
G1 X39.594 Y48.523 E1.9712
G1 X38.787 Y49.731 E2.0274
G1 X38.772 Y49.750 E2.0284
G1 X38.476 Y50.046 E2.0446
G1 X38.457 Y50.061 E2.0455
G1 X37.272 Y50.853 E2.1007
G1 X37.251 Y50.864 E2.1016
G1 X36.865 Y51.024 E2.1178
G1 X36.842 Y51.031 E2.1187
G1 X35.547 Y51.289 E2.1698
G1 X35.535 Y51.290 E2.1703
G1 X35.327 Y51.311 E2.1783
G1 X35.315 Y51.311 E2.1788
G1 X29.813 Y51.311 E2.3918
G1 X29.801 Y51.311 E2.3922
G1 X29.594 Y51.290 E2.4003
G1 X29.582 Y51.289 E2.4008
G1 X28.287 Y51.031 E2.4519
G1 X28.264 Y51.024 E2.4528
G1 X27.877 Y50.864 E2.4690
G1 X27.856 Y50.853 E2.4699
G1 X26.630 Y50.033 E2.5270
G1 X26.607 Y50.014 E2.5282
G1 X26.258 Y49.631 E2.5482
G1 X26.241 Y49.607 E2.5494
G1 X25.565 Y48.357 E2.6044
G1 X25.556 Y48.335 E2.6053
G1 X25.432 Y47.935 E2.6215
G1 X25.427 Y47.911 E2.6225
G1 X25.299 Y46.661 E2.6711
G1 X25.298 Y46.655 E2.6713
G1 X25.293 Y46.546 E2.6755
G1 X25.293 Y46.540 E2.6758
G1 X25.285 Y28.188 E3.3861
G1 X25.287 Y28.170 E3.3868
G1 X25.335 Y27.852 E3.3993
G1 X25.339 Y27.834 E3.4000
G1 X25.641 Y26.863 E3.4393
G1 X25.655 Y26.834 E3.4406
G1 X25.957 Y26.359 E3.4624
G1 X25.977 Y26.334 E3.4636
G1 X26.814 Y25.568 E3.5075
G1 X26.838 Y25.551 E3.5087
G1 X27.294 Y25.303 E3.5288
G1 X27.322 Y25.292 E3.5299
G1 X28.267 Y25.045 E3.5677
G1 X28.282 Y25.042 E3.5683
G1 X28.551 Y25.008 E3.5788
G1 X28.567 Y25.007 E3.5794
G1 X29.441 Y25.007 E3.6133
G1 X29.455 Y25.008 E3.6138
G1 X29.697 Y25.035 E3.6232
G1 X29.711 Y25.038 E3.6238
G1 X30.273 Y25.169 E3.6461
G1 X30.273 Y8.521 E4.2905
G1 X45.482 Y8.521 F3498
G92 E0
G1 X45.519 Y8.431 E0.0038 F1260
G1 X46.760 Y7.190 E0.0717
G1 X46.850 Y7.153 E0.0754
G1 X53.826 Y7.153 E0.3455
G1 X53.916 Y7.190 E0.3492
G1 X55.157 Y8.431 E0.4171
G1 X55.194 Y8.521 E0.4209
G1 X55.194 Y46.562 E1.8934
G1 X55.194 Y46.571 E1.8937
G1 X55.182 Y46.724 E1.8996
G1 X55.182 Y46.733 E1.9000
G1 X54.993 Y48.031 E1.9508
G1 X54.986 Y48.057 E1.9518
G1 X54.816 Y48.499 E1.9701
G1 X54.803 Y48.523 E1.9712
G1 X53.996 Y49.732 E2.0274
G1 X53.981 Y49.750 E2.0284
G1 X53.685 Y50.046 E2.0446
G1 X53.667 Y50.061 E2.0455
G1 X52.482 Y50.853 E2.1007
G1 X52.460 Y50.864 E2.1016
G1 X52.074 Y51.024 E2.1178
G1 X52.051 Y51.031 E2.1187
G1 X50.756 Y51.289 E2.1698
G1 X50.744 Y51.290 E2.1703
G1 X50.537 Y51.311 E2.1783
G1 X50.525 Y51.311 E2.1788
G1 X45.023 Y51.311 E2.3918
G1 X45.010 Y51.311 E2.3922
G1 X44.803 Y51.290 E2.4003
G1 X44.791 Y51.289 E2.4008
G1 X43.496 Y51.031 E2.4519
G1 X43.473 Y51.024 E2.4528
G1 X43.087 Y50.864 E2.4690
G1 X43.066 Y50.853 E2.4699
G1 X41.839 Y50.033 E2.5270
G1 X41.816 Y50.014 E2.5282
G1 X41.468 Y49.631 E2.5482
G1 X41.450 Y49.607 E2.5494
G1 X40.774 Y48.357 E2.6044
G1 X40.765 Y48.335 E2.6053
G1 X40.641 Y47.935 E2.6215
G1 X40.636 Y47.911 E2.6225
G1 X40.508 Y46.661 E2.6711
G1 X40.508 Y46.655 E2.6713
G1 X40.502 Y46.546 E2.6755
G1 X40.502 Y46.540 E2.6758
G1 X40.495 Y28.188 E3.3861
G1 X40.496 Y28.170 E3.3868
G1 X40.544 Y27.852 E3.3993
G1 X40.548 Y27.834 E3.4000
G1 X40.851 Y26.863 E3.4393
G1 X40.864 Y26.834 E3.4406
G1 X41.166 Y26.359 E3.4624
G1 X41.187 Y26.334 E3.4636
G1 X42.023 Y25.568 E3.5075
G1 X42.048 Y25.551 E3.5087
G1 X42.503 Y25.303 E3.5288
G1 X42.531 Y25.292 E3.5299
G1 X43.476 Y25.045 E3.5677
G1 X43.492 Y25.042 E3.5683
G1 X43.761 Y25.008 E3.5788
G1 X43.776 Y25.007 E3.5794
G1 X44.650 Y25.007 E3.6133
G1 X44.664 Y25.008 E3.6138
G1 X44.906 Y25.035 E3.6232
G1 X44.920 Y25.038 E3.6238
G1 X45.482 Y25.169 E3.6461
G1 X45.482 Y8.521 E4.2905
G1 X60.691 Y8.521 F3498
G92 E0
G1 X60.729 Y8.431 E0.0038 F1260
G1 X61.969 Y7.190 E0.0717
G1 X62.059 Y7.153 E0.0754
G1 X69.035 Y7.153 E0.3455
G1 X69.125 Y7.190 E0.3492
G1 X70.366 Y8.431 E0.4171
G1 X70.403 Y8.521 E0.4209
G1 X70.403 Y46.562 E1.8934
G1 X70.403 Y46.571 E1.8937
G1 X70.392 Y46.724 E1.8996
G1 X70.391 Y46.733 E1.9000
G1 X70.202 Y48.031 E1.9508
G1 X70.195 Y48.057 E1.9518
G1 X70.025 Y48.499 E1.9701
G1 X70.013 Y48.523 E1.9712
G1 X69.205 Y49.732 E2.0274
G1 X69.190 Y49.750 E2.0284
G1 X68.894 Y50.046 E2.0446
G1 X68.876 Y50.061 E2.0455
G1 X67.691 Y50.853 E2.1007
G1 X67.670 Y50.864 E2.1016
G1 X67.283 Y51.024 E2.1178
G1 X67.260 Y51.031 E2.1187
G1 X65.965 Y51.289 E2.1698
G1 X65.953 Y51.290 E2.1703
G1 X65.746 Y51.311 E2.1783
G1 X65.734 Y51.311 E2.1788
G1 X60.232 Y51.311 E2.3918
G1 X60.220 Y51.311 E2.3922
G1 X60.012 Y51.290 E2.4003
G1 X60.000 Y51.289 E2.4008
G1 X58.705 Y51.031 E2.4519
G1 X58.682 Y51.024 E2.4528
G1 X58.296 Y50.864 E2.4690
G1 X58.275 Y50.853 E2.4699
G1 X57.048 Y50.033 E2.5270
G1 X57.026 Y50.014 E2.5282
G1 X56.677 Y49.631 E2.5482
G1 X56.660 Y49.607 E2.5494
G1 X55.983 Y48.357 E2.6044
G1 X55.974 Y48.335 E2.6053
G1 X55.851 Y47.935 E2.6215
G1 X55.846 Y47.911 E2.6225
G1 X55.717 Y46.661 E2.6711
G1 X55.717 Y46.655 E2.6713
G1 X55.711 Y46.546 E2.6755
G1 X55.711 Y46.540 E2.6758
G1 X55.704 Y28.188 E3.3861
G1 X55.705 Y28.170 E3.3868
G1 X55.754 Y27.852 E3.3993
G1 X55.758 Y27.834 E3.4000
G1 X56.060 Y26.863 E3.4393
G1 X56.074 Y26.834 E3.4406
G1 X56.375 Y26.359 E3.4624
G1 X56.396 Y26.334 E3.4636
G1 X57.233 Y25.568 E3.5075
G1 X57.257 Y25.551 E3.5087
G1 X57.713 Y25.303 E3.5288
G1 X57.740 Y25.292 E3.5299
G1 X58.686 Y25.045 E3.5677
G1 X58.701 Y25.042 E3.5683
G1 X58.970 Y25.008 E3.5788
G1 X58.986 Y25.007 E3.5794
G1 X59.859 Y25.007 E3.6133
G1 X59.873 Y25.008 E3.6138
G1 X60.115 Y25.035 E3.6232
G1 X60.129 Y25.038 E3.6238
G1 X60.691 Y25.169 E3.6461
G1 X60.691 Y8.521 E4.2905
G1 X75.901 Y8.521 F3498
G92 E0
G1 X75.938 Y8.431 E0.0038 F1260
G1 X77.178 Y7.190 E0.0717
G1 X77.268 Y7.153 E0.0754
G1 X84.245 Y7.153 E0.3455
G1 X84.335 Y7.190 E0.3492
G1 X85.575 Y8.431 E0.4171
G1 X85.612 Y8.521 E0.4209
G1 X85.612 Y46.562 E1.8934
G1 X85.612 Y46.571 E1.8937
G1 X85.601 Y46.724 E1.8996
G1 X85.600 Y46.733 E1.9000
G1 X85.411 Y48.031 E1.9508
G1 X85.404 Y48.057 E1.9518
G1 X85.234 Y48.499 E1.9701
G1 X85.222 Y48.523 E1.9712
G1 X84.415 Y49.732 E2.0274
G1 X84.399 Y49.750 E2.0284
G1 X84.104 Y50.046 E2.0446
G1 X84.085 Y50.061 E2.0455
G1 X82.900 Y50.853 E2.1007
G1 X82.879 Y50.864 E2.1016
G1 X82.493 Y51.024 E2.1178
G1 X82.470 Y51.031 E2.1187
G1 X81.175 Y51.289 E2.1698
G1 X81.163 Y51.290 E2.1703
G1 X80.955 Y51.311 E2.1783
G1 X80.943 Y51.311 E2.1788
G1 X75.441 Y51.311 E2.3918
G1 X75.429 Y51.311 E2.3922
G1 X75.222 Y51.290 E2.4003
G1 X75.210 Y51.289 E2.4008
G1 X73.915 Y51.031 E2.4519
G1 X73.892 Y51.024 E2.4528
G1 X73.505 Y50.864 E2.4690
G1 X73.484 Y50.853 E2.4699
G1 X72.258 Y50.033 E2.5270
G1 X72.235 Y50.014 E2.5282
G1 X71.886 Y49.631 E2.5482
G1 X71.869 Y49.607 E2.5494
G1 X71.193 Y48.357 E2.6044
G1 X71.183 Y48.335 E2.6053
G1 X71.060 Y47.935 E2.6215
G1 X71.055 Y47.911 E2.6225
G1 X70.927 Y46.661 E2.6711
G1 X70.926 Y46.655 E2.6713
G1 X70.921 Y46.546 E2.6755
G1 X70.920 Y46.540 E2.6758
G1 X70.913 Y28.188 E3.3861
G1 X70.915 Y28.170 E3.3868
G1 X70.963 Y27.852 E3.3993
G1 X70.967 Y27.834 E3.4000
G1 X71.269 Y26.863 E3.4393
G1 X71.283 Y26.834 E3.4406
G1 X71.584 Y26.359 E3.4624
G1 X71.605 Y26.334 E3.4636
G1 X72.442 Y25.568 E3.5075
G1 X72.466 Y25.551 E3.5087
G1 X72.922 Y25.303 E3.5288
G1 X72.950 Y25.292 E3.5299
G1 X73.895 Y25.045 E3.5677
G1 X73.910 Y25.042 E3.5683
G1 X74.179 Y25.008 E3.5788
G1 X74.195 Y25.007 E3.5794
G1 X75.069 Y25.007 E3.6133
G1 X75.083 Y25.008 E3.6138
G1 X75.325 Y25.035 E3.6232
G1 X75.339 Y25.038 E3.6238
G1 X75.901 Y25.169 E3.6461
G1 X75.901 Y8.521 E4.2905
G92 E0
G1 E-6.5000 F4998
G1 X53.916 Y52.758 F3498
G1 E0.0000 F4998
G92 E0
G1 X55.157 Y53.998 E0.0679 F1260
G1 X55.194 Y54.088 E0.0717
G1 X55.194 Y92.129 E1.5441
G1 X55.194 Y92.138 E1.5445
G1 X55.182 Y92.291 E1.5504
G1 X55.182 Y92.300 E1.5507
G1 X54.993 Y93.598 E1.6015
G1 X54.986 Y93.624 E1.6026
G1 X54.816 Y94.067 E1.6209
G1 X54.803 Y94.091 E1.6220
G1 X53.996 Y95.299 E1.6782
G1 X53.981 Y95.317 E1.6791
G1 X53.685 Y95.613 E1.6953
G1 X53.667 Y95.628 E1.6962
G1 X52.482 Y96.420 E1.7514
G1 X52.460 Y96.431 E1.7523
G1 X52.074 Y96.591 E1.7685
G1 X52.051 Y96.598 E1.7694
G1 X50.756 Y96.856 E1.8206
G1 X50.744 Y96.858 E1.8210
G1 X50.537 Y96.878 E1.8291
G1 X50.525 Y96.879 E1.8296
G1 X45.023 Y96.879 E2.0425
G1 X45.010 Y96.878 E2.0430
G1 X44.803 Y96.858 E2.0511
G1 X44.791 Y96.856 E2.0515
G1 X43.496 Y96.598 E2.1026
G1 X43.473 Y96.591 E2.1036
G1 X43.087 Y96.431 E2.1198
G1 X43.066 Y96.420 E2.1207
G1 X41.839 Y95.601 E2.1778
G1 X41.816 Y95.581 E2.1789
G1 X41.468 Y95.198 E2.1990
G1 X41.450 Y95.174 E2.2001
G1 X40.774 Y93.925 E2.2551
G1 X40.765 Y93.903 E2.2561
G1 X40.641 Y93.502 E2.2723
G1 X40.636 Y93.478 E2.2732
G1 X40.508 Y92.228 E2.3219
G1 X40.508 Y92.222 E2.3221
G1 X40.502 Y92.114 E2.3263
G1 X40.502 Y92.108 E2.3265
G1 X40.495 Y73.756 E3.0369
G1 X40.496 Y73.737 E3.0376
G1 X40.544 Y73.419 E3.0500
G1 X40.548 Y73.401 E3.0508
G1 X40.851 Y72.431 E3.0901
G1 X40.864 Y72.401 E3.0913
G1 X41.166 Y71.927 E3.1131
G1 X41.187 Y71.902 E3.1144
G1 X42.023 Y71.135 E3.1583
G1 X42.048 Y71.118 E3.1594
G1 X42.503 Y70.870 E3.1795
G1 X42.531 Y70.859 E3.1807
G1 X43.476 Y70.613 E3.2185
G1 X43.492 Y70.610 E3.2191
G1 X43.761 Y70.575 E3.2296
G1 X43.776 Y70.574 E3.2302
G1 X44.650 Y70.574 E3.2640
G1 X44.664 Y70.575 E3.2646
G1 X44.906 Y70.603 E3.2740
G1 X44.920 Y70.605 E3.2745
G1 X45.482 Y70.736 E3.2969
G1 X45.482 Y54.088 E3.9413
G1 X45.519 Y53.998 E3.9450
G1 X46.760 Y52.758 E4.0129
G1 X46.850 Y52.720 E4.0167
G1 X53.826 Y52.720 E4.2867
G1 X53.916 Y52.758 E4.2905
G1 X39.985 Y54.088 F3498
G92 E0
G1 X39.985 Y92.129 E1.4724 F1260
G1 X39.984 Y92.138 E1.4728
G1 X39.973 Y92.291 E1.4787
G1 X39.972 Y92.300 E1.4791
G1 X39.783 Y93.598 E1.5298
G1 X39.776 Y93.625 E1.5309
G1 X39.607 Y94.067 E1.5492
G1 X39.594 Y94.091 E1.5503
G1 X38.787 Y95.299 E1.6065
G1 X38.772 Y95.317 E1.6075
G1 X38.476 Y95.613 E1.6236
G1 X38.457 Y95.628 E1.6246
G1 X37.272 Y96.420 E1.6797
G1 X37.251 Y96.431 E1.6807
G1 X36.865 Y96.591 E1.6968
G1 X36.842 Y96.598 E1.6978
G1 X35.547 Y96.856 E1.7489
G1 X35.535 Y96.858 E1.7493
G1 X35.327 Y96.878 E1.7574
G1 X35.315 Y96.879 E1.7579
G1 X29.813 Y96.879 E1.9709
G1 X29.801 Y96.878 E1.9713
G1 X29.594 Y96.858 E1.9794
G1 X29.582 Y96.856 E1.9799
G1 X28.287 Y96.598 E2.0310
G1 X28.264 Y96.591 E2.0319
G1 X27.877 Y96.431 E2.0481
G1 X27.856 Y96.420 E2.0490
G1 X26.630 Y95.601 E2.1061
G1 X26.607 Y95.581 E2.1073
G1 X26.258 Y95.198 E2.1273
G1 X26.241 Y95.174 E2.1284
G1 X25.565 Y93.925 E2.1834
G1 X25.556 Y93.903 E2.1844
G1 X25.432 Y93.502 E2.2006
G1 X25.427 Y93.478 E2.2015
G1 X25.299 Y92.228 E2.2502
G1 X25.298 Y92.222 E2.2504
G1 X25.293 Y92.114 E2.2546
G1 X25.293 Y92.108 E2.2549
G1 X25.285 Y73.756 E2.9652
