; G-Code generated by Simplify3D(R) Version 3.0.0
; Okt 4, 2017 at 10:36:52 
; Settings Summary
;   processName,Process1
;   applyToModels,halterung13,halterung13(2),halterung13(3),halterung13(4)
;   profileName,1.5 fein (modified)
;   profileVersion,2017-10-02 14:07:01
;   baseProfile,German RepRap NEO (modified)
;   printMaterial,
;   printQuality,
;   printExtruders,
;   extruderName,Primary Extruder
;   extruderToolheadNumber,0
;   extruderDiameter,0.5
;   extruderAutoWidth,0
;   extruderWidth,0.49
;   extrusionMultiplier,0.91
;   extruderUseRetract,1
;   extruderRetractionDistance,6.5
;   extruderExtraRestartDistance,0
;   extruderRetractionZLift,0
;   extruderRetractionSpeed,4998
;   extruderUseCoasting,0
;   extruderCoastingDistance,0.2
;   extruderUseWipe,0
;   extruderWipeDistance,5
;   primaryExtruder,0
;   layerHeight,0.2
;   topSolidLayers,4
;   bottomSolidLayers,3
;   perimeterOutlines,3
;   printPerimetersInsideOut,1
;   startPointOption,2
;   startPointOriginX,0
;   startPointOriginY,0
;   startPointOriginZ,300
;   sequentialIslands,0
;   spiralVaseMode,0
;   firstLayerHeightPercentage,100
;   firstLayerWidthPercentage,100
;   firstLayerUnderspeed,0.18
;   useRaft,0
;   raftExtruder,0
;   raftLayers,3
;   raftOffset,3
;   raftSeparationDistance,0.1
;   raftInfill,85
;   disableRaftBaseLayers,0
;   useSkirt,1
;   skirtExtruder,0
;   skirtLayers,1
;   skirtOutlines,3
;   skirtOffset,2
;   usePrimePillar,0
;   primePillarExtruder,999
;   primePillarWidth,12
;   primePillarLocation,7
;   primePillarSpeedMultiplier,1
;   useOozeShield,0
;   oozeShieldExtruder,999
;   oozeShieldOffset,2
;   oozeShieldOutlines,1
;   oozeShieldSidewallShape,1
;   oozeShieldSidewallAngle,30
;   oozeShieldSpeedMultiplier,1
;   infillExtruder,0
;   internalInfillPattern,Full Honeycomb
;   externalInfillPattern,Rectilinear
;   infillPercentage,45
;   outlineOverlapPercentage,15
;   infillExtrusionWidthPercentage,100
;   minInfillLength,3
;   infillLayerInterval,1
;   infillAngles,0,120,-120
;   overlapInfillAngles,0
;   generateSupport,1
;   supportExtruder,0
;   supportInfillPercentage,30
;   supportExtraInflation,0
;   denseSupportLayers,0
;   denseSupportInfillPercentage,75
;   supportLayerInterval,1
;   supportHorizontalPartOffset,1.5
;   supportUpperSeparationLayers,2
;   supportLowerSeparationLayers,2
;   supportType,0
;   supportGridSpacing,4
;   maxOverhangAngle,45
;   supportAngles,45
;   temperatureName,Primary Extruder
;   temperatureNumber,0
;   temperatureSetpointCount,3
;   temperatureSetpointLayers,1,2,3
;   temperatureSetpointTemperatures,191,187,182
;   temperatureStabilizeAtStartup,1
;   temperatureHeatedBed,0
;   temperatureRelayBetweenLayers,0
;   temperatureRelayBetweenLoops,0
;   fanLayers,1,3
;   fanSpeeds,0,100
;   blipFanToFullPower,0
;   adjustSpeedForCooling,1
;   minSpeedLayerTime,15
;   minCoolingSpeedSlowdown,20
;   increaseFanForCooling,0
;   minFanLayerTime,45
;   maxCoolingFanSpeed,100
;   increaseFanForBridging,0
;   bridgingFanSpeed,100
;   use5D,1
;   relativeEdistances,0
;   allowEaxisZeroing,1
;   independentExtruderAxes,0
;   includeM10123,0
;   stickySupport,1
;   applyToolheadOffsets,0
;   gcodeXoffset,0
;   gcodeYoffset,0
;   gcodeZoffset,0
;   overrideMachineDefinition,1
;   machineTypeOverride,0
;   strokeXoverride,150
;   strokeYoverride,150
;   strokeZoverride,150
;   originOffsetXoverride,0
;   originOffsetYoverride,0
;   originOffsetZoverride,0
;   homeXdirOverride,-1
;   homeYdirOverride,-1
;   homeZdirOverride,-1
;   flipXoverride,1
;   flipYoverride,-1
;   flipZoverride,1
;   toolheadOffsets,0,0|0,0|0,0|0,0|0,0|0,0
;   overrideFirmwareConfiguration,0
;   firmwareTypeOverride,RepRap (Marlin/Repetier/Sprinter)
;   GPXconfigOverride,r2
;   baudRateOverride,115200
;   overridePrinterModels,0
;   printerModelsOverride
;   startingGcode,G28 ; home all axes
;   layerChangeGcode,
;   retractionGcode,
;   toolChangeGcode,
;   endingGcode,M104 S0 ; turn off extruder,M140 S0 ; turn off bed,G28 X0  ; home X axis,G28 Y0  ; home Y axis,M84 ; disable motors,M107
;   createX3G,0
;   celebration,0
;   celebrationSong,Random Song
;   createMB5G,0
;   postProcessing,
;   defaultSpeed,4800
;   outlineUnderspeed,0.5
;   solidInfillUnderspeed,0.8
;   supportUnderspeed,0.8
;   rapidXYspeed,3498
;   rapidZspeed,1002
;   minBridgingArea,50
;   bridgingExtraInflation,0
;   bridgingExtrusionMultiplier,1
;   bridgingSpeedMultiplier,1
;   filamentDiameter,1.75
;   filamentPricePerKg,46
;   filamentDensity,1.25
;   useMinPrintHeight,0
;   minPrintHeight,0
;   useMaxPrintHeight,0
;   maxPrintHeight,0
;   useDiaphragm,0
;   diaphragmLayerInterval,20
;   robustSlicing,1
;   mergeAllIntoSolid,0
;   onlyRetractWhenCrossingOutline,1
;   retractBetweenLayers,1
;   useRetractionMinTravel,0
;   retractionMinTravel,3
;   retractWhileWiping,0
;   onlyWipeOutlines,1
;   avoidCrossingOutline,0
;   maxMovementDetourFactor,10
;   toolChangeRetractionDistance,0
;   toolChangeExtraRestartDistance,0
;   toolChangeRetractionSpeed,360
;   allowThinWallGapFill,1
;   thinWallAllowedOverlapPercentage,10
;   horizontalSizeCompensation,0
G90
M82
M106 S0
M104 S191 T0
M109 S191 T0
G28 ; home all axes
G92 E0
G1 E-6.5000 F4998
G1 Z0.200 F1002
; layer 1, Z = 0.2
T0
; tool H0.200 W0.490
; skirt
G1 X74.280 Y86.578 F3498
G1 E0.0000 F1499
G92 E0
G1 X81.646 Y86.578 E0.2731 F960
G1 X82.096 Y86.765 E0.2912
G1 X83.613 Y88.281 E0.3707
G1 X83.799 Y88.731 E0.3887
G1 X83.799 Y106.850 E1.0605
G1 X83.837 Y106.769 E1.0639
G1 X84.208 Y106.185 E1.0895
G1 X84.312 Y106.061 E1.0955
G1 X85.240 Y105.210 E1.1422
G1 X85.361 Y105.124 E1.1477
G1 X85.922 Y104.819 E1.1714
G1 X86.061 Y104.764 E1.1769
G1 X87.094 Y104.495 E1.2165
G1 X87.171 Y104.480 E1.2194
G1 X87.502 Y104.437 E1.2318
G1 X87.580 Y104.432 E1.2347
G1 X88.114 Y104.432 E1.2545
G1 X88.185 Y104.436 E1.2571
G1 X88.337 Y104.454 E1.2628
G1 X88.337 Y88.731 E1.8457
G1 X88.523 Y88.281 E1.8638
G1 X90.039 Y86.765 E1.9433
G1 X90.489 Y86.578 E1.9614
G1 X97.856 Y86.578 E2.2345
G1 X98.306 Y86.765 E2.2525
G1 X99.822 Y88.281 E2.3320
G1 X100.008 Y88.731 E2.3501
G1 X100.008 Y106.850 E3.0219
G1 X100.046 Y106.769 E3.0252
G1 X100.417 Y106.185 E3.0509
G1 X100.521 Y106.061 E3.0569
G1 X101.449 Y105.210 E3.1036
G1 X101.571 Y105.124 E3.1091
G1 X102.131 Y104.819 E3.1327
G1 X102.270 Y104.764 E3.1383
G1 X103.303 Y104.495 E3.1779
G1 X103.380 Y104.480 E3.1808
G1 X103.711 Y104.437 E3.1931
G1 X103.789 Y104.432 E3.1960
G1 X104.324 Y104.432 E3.2159
G1 X104.394 Y104.436 E3.2185
G1 X104.546 Y104.454 E3.2241
G1 X104.546 Y88.731 E3.8071
G1 X104.732 Y88.281 E3.8252
G1 X106.248 Y86.765 E3.9047
G1 X106.699 Y86.578 E3.9227
G1 X114.065 Y86.578 E4.1958
G1 X114.515 Y86.765 E4.2139
G1 X116.031 Y88.281 E4.2934
G1 X116.218 Y88.731 E4.3115
G1 X116.218 Y106.850 E4.9833
G1 X116.255 Y106.769 E4.9866
G1 X116.626 Y106.185 E5.0122
G1 X116.730 Y106.061 E5.0182
G1 X117.659 Y105.210 E5.0649
G1 X117.780 Y105.124 E5.0705
G1 X118.340 Y104.819 E5.0941
G1 X118.479 Y104.764 E5.0996
G1 X119.512 Y104.495 E5.1392
G1 X119.589 Y104.480 E5.1421
G1 X119.920 Y104.437 E5.1545
G1 X119.998 Y104.432 E5.1574
G1 X120.533 Y104.432 E5.1772
G1 X120.603 Y104.436 E5.1798
G1 X120.755 Y104.454 E5.1855
G1 X120.755 Y88.731 E5.7684
G1 X120.942 Y88.281 E5.7865
G1 X122.458 Y86.765 E5.8660
G1 X122.908 Y86.578 E5.8841
G1 X130.274 Y86.578 E6.1572
G1 X130.724 Y86.765 E6.1753
G1 X132.241 Y88.281 E6.2548
G1 X132.427 Y88.731 E6.2728
G1 X132.427 Y126.985 E7.6912
G1 X132.425 Y127.029 E7.6928
G1 X132.412 Y127.218 E7.6998
G1 X132.407 Y127.262 E7.7014
G1 X132.208 Y128.631 E7.7528
G1 X132.173 Y128.763 E7.7578
G1 X131.964 Y129.307 E7.7794
G1 X131.902 Y129.428 E7.7845
G1 X131.037 Y130.721 E7.8421
G1 X130.961 Y130.815 E7.8466
G1 X130.597 Y131.178 E7.8657
G1 X130.504 Y131.255 E7.8701
G1 X129.239 Y132.100 E7.9265
G1 X129.133 Y132.157 E7.9310
G1 X128.658 Y132.353 E7.9501
G1 X128.543 Y132.388 E7.9545
G1 X127.177 Y132.660 E8.0062
G1 X127.117 Y132.669 E8.0084
G1 X126.862 Y132.694 E8.0179
G1 X126.802 Y132.697 E8.0201
G1 X121.254 Y132.697 E8.2258
G1 X121.195 Y132.694 E8.2280
G1 X120.940 Y132.669 E8.2375
G1 X120.880 Y132.660 E8.2398
G1 X119.512 Y132.389 E8.2915
G1 X119.397 Y132.354 E8.2960
G1 X118.921 Y132.157 E8.3151
G1 X118.814 Y132.100 E8.3195
G1 X117.498 Y131.221 E8.3782
G1 X117.385 Y131.123 E8.3837
G1 X116.956 Y130.653 E8.4074
G1 X116.870 Y130.531 E8.4129
G1 X116.142 Y129.187 E8.4695
G1 X116.096 Y129.076 E8.4740
G1 X115.980 Y128.701 E8.4886
G1 X115.964 Y128.763 E8.4909
G1 X115.755 Y129.307 E8.5125
G1 X115.692 Y129.428 E8.5176
G1 X114.828 Y130.722 E8.5753
G1 X114.752 Y130.815 E8.5797
G1 X114.388 Y131.178 E8.5988
G1 X114.295 Y131.255 E8.6033
G1 X113.030 Y132.100 E8.6597
G1 X112.924 Y132.157 E8.6641
G1 X112.449 Y132.353 E8.6832
G1 X112.333 Y132.388 E8.6877
G1 X110.968 Y132.660 E8.7393
G1 X110.908 Y132.669 E8.7415
G1 X110.653 Y132.694 E8.7511
G1 X110.593 Y132.697 E8.7533
G1 X105.045 Y132.697 E8.9590
G1 X104.985 Y132.694 E8.9612
G1 X104.731 Y132.669 E8.9707
G1 X104.671 Y132.660 E8.9729
G1 X103.303 Y132.389 E9.0246
G1 X103.187 Y132.354 E9.0291
G1 X102.712 Y132.157 E9.0482
G1 X102.605 Y132.100 E9.0527
G1 X101.289 Y131.221 E9.1114
G1 X101.176 Y131.123 E9.1169
G1 X100.747 Y130.653 E9.1405
G1 X100.661 Y130.531 E9.1460
G1 X99.933 Y129.187 E9.2027
G1 X99.886 Y129.076 E9.2072
G1 X99.771 Y128.701 E9.2217
G1 X99.755 Y128.763 E9.2241
G1 X99.546 Y129.307 E9.2457
G1 X99.483 Y129.428 E9.2507
G1 X98.619 Y130.722 E9.3084
G1 X98.542 Y130.815 E9.3129
G1 X98.179 Y131.178 E9.3319
G1 X98.086 Y131.255 E9.3364
G1 X96.821 Y132.100 E9.3928
G1 X96.714 Y132.157 E9.3973
G1 X96.239 Y132.353 E9.4164
G1 X96.124 Y132.388 E9.4208
G1 X94.758 Y132.660 E9.4724
G1 X94.699 Y132.669 E9.4747
G1 X94.443 Y132.694 E9.4842
G1 X94.383 Y132.697 E9.4864
G1 X88.836 Y132.697 E9.6921
G1 X88.776 Y132.694 E9.6943
G1 X88.521 Y132.669 E9.7038
G1 X88.462 Y132.660 E9.7060
G1 X87.093 Y132.389 E9.7578
G1 X86.978 Y132.354 E9.7622
G1 X86.502 Y132.157 E9.7813
G1 X86.396 Y132.100 E9.7858
G1 X85.080 Y131.221 E9.8445
G1 X84.967 Y131.123 E9.8500
G1 X84.538 Y130.653 E9.8736
G1 X84.452 Y130.531 E9.8792
G1 X83.724 Y129.187 E9.9358
G1 X83.677 Y129.076 E9.9403
G1 X83.562 Y128.701 E9.9548
G1 X83.545 Y128.763 E9.9572
G1 X83.336 Y129.307 E9.9788
G1 X83.274 Y129.428 E9.9839
G1 X82.409 Y130.721 E10.0416
G1 X82.333 Y130.815 E10.0460
G1 X81.969 Y131.178 E10.0651
G1 X81.876 Y131.255 E10.0695
G1 X80.611 Y132.100 E10.1260
G1 X80.505 Y132.157 E10.1304
G1 X80.030 Y132.353 E10.1495
G1 X79.915 Y132.388 E10.1540
G1 X78.549 Y132.660 E10.2056
G1 X78.489 Y132.669 E10.2078
G1 X78.234 Y132.694 E10.2173
G1 X78.174 Y132.697 E10.2196
G1 X72.627 Y132.697 E10.4252
G1 X72.567 Y132.694 E10.4275
G1 X72.312 Y132.669 E10.4370
G1 X72.253 Y132.660 E10.4392
G1 X70.884 Y132.389 E10.4909
G1 X70.769 Y132.354 E10.4954
G1 X70.293 Y132.157 E10.5145
G1 X70.187 Y132.100 E10.5189
G1 X68.870 Y131.221 E10.5776
G1 X68.757 Y131.123 E10.5832
G1 X68.329 Y130.653 E10.6068
G1 X68.242 Y130.531 E10.6123
G1 X67.515 Y129.187 E10.6690
G1 X67.468 Y129.076 E10.6734
G1 X67.316 Y128.583 E10.6926
G1 X67.292 Y128.465 E10.6970
G1 X67.158 Y127.161 E10.7456
G1 X67.156 Y127.130 E10.7468
G1 X67.149 Y126.997 E10.7517
G1 X67.148 Y126.966 E10.7529
G1 X67.140 Y108.557 E11.4354
G1 X67.147 Y108.465 E11.4388
G1 X67.206 Y108.073 E11.4535
G1 X67.227 Y107.983 E11.4570
G1 X67.560 Y106.916 E11.4984
G1 X67.628 Y106.769 E11.5044
G1 X67.998 Y106.185 E11.5301
G1 X68.102 Y106.061 E11.5361
G1 X69.031 Y105.210 E11.5827
G1 X69.152 Y105.124 E11.5883
G1 X69.713 Y104.819 E11.6119
G1 X69.851 Y104.764 E11.6175
G1 X70.885 Y104.495 E11.6570
G1 X70.961 Y104.480 E11.6599
G1 X71.292 Y104.437 E11.6723
G1 X71.370 Y104.432 E11.6752
G1 X71.905 Y104.432 E11.6950
G1 X71.975 Y104.436 E11.6976
G1 X72.127 Y104.454 E11.7033
G1 X72.127 Y88.731 E12.2863
G1 X72.314 Y88.281 E12.3043
G1 X73.830 Y86.765 E12.3838
G1 X74.280 Y86.578 E12.4019
G1 X74.378 Y87.068 F3498
G92 E0
G1 X81.549 Y87.068 E0.2659 F960
G1 X81.819 Y87.180 E0.2767
G1 X83.197 Y88.559 E0.3490
G1 X83.309 Y88.829 E0.3598
G1 X83.309 Y126.976 E1.7742
G1 X83.308 Y127.003 E1.7752
G1 X83.296 Y127.174 E1.7816
G1 X83.293 Y127.200 E1.7825
G1 X83.099 Y128.534 E1.8325
G1 X83.078 Y128.613 E1.8355
G1 X82.889 Y129.106 E1.8551
G1 X82.851 Y129.178 E1.8582
G1 X82.015 Y130.429 E1.9139
G1 X81.970 Y130.485 E1.9166
G1 X81.640 Y130.815 E1.9339
G1 X81.584 Y130.861 E1.9366
G1 X80.359 Y131.679 E1.9912
G1 X80.295 Y131.713 E1.9939
G1 X79.865 Y131.892 E2.0112
G1 X79.796 Y131.912 E2.0138
G1 X78.465 Y132.177 E2.0641
G1 X78.429 Y132.182 E2.0655
G1 X78.198 Y132.205 E2.0741
G1 X78.162 Y132.207 E2.0754
G1 X72.639 Y132.207 E2.2802
G1 X72.603 Y132.205 E2.2816
G1 X72.372 Y132.183 E2.2902
G1 X72.336 Y132.177 E2.2915
G1 X71.003 Y131.913 E2.3419
G1 X70.934 Y131.892 E2.3446
G1 X70.503 Y131.713 E2.3619
G1 X70.439 Y131.679 E2.3645
G1 X69.167 Y130.830 E2.4212
G1 X69.100 Y130.771 E2.4246
G1 X68.711 Y130.345 E2.4460
G1 X68.659 Y130.272 E2.4493
G1 X67.957 Y128.975 E2.5040
G1 X67.929 Y128.908 E2.5066
G1 X67.791 Y128.461 E2.5240
G1 X67.777 Y128.391 E2.5267
G1 X67.646 Y127.118 E2.5741
G1 X67.645 Y127.099 E2.5748
G1 X67.638 Y126.978 E2.5793
G1 X67.638 Y126.960 E2.5800
G1 X67.630 Y108.575 E3.2616
G1 X67.634 Y108.520 E3.2637
G1 X67.688 Y108.165 E3.2770
G1 X67.700 Y108.111 E3.2790
G1 X68.018 Y107.092 E3.3186
G1 X68.059 Y107.004 E3.3222
G1 X68.395 Y106.475 E3.3454
G1 X68.457 Y106.400 E3.3490
G1 X69.340 Y105.592 E3.3934
G1 X69.413 Y105.540 E3.3967
G1 X69.921 Y105.264 E3.4182
G1 X70.004 Y105.231 E3.4215
G1 X70.993 Y104.973 E3.4594
G1 X71.039 Y104.964 E3.4611
G1 X71.339 Y104.925 E3.4723
G1 X71.386 Y104.922 E3.4741
G1 X71.891 Y104.922 E3.4928
G1 X71.933 Y104.925 E3.4944
G1 X72.203 Y104.956 E3.5045
G1 X72.245 Y104.963 E3.5060
G1 X72.617 Y105.050 E3.5202
G1 X72.617 Y88.829 E4.1216
G1 X72.729 Y88.559 E4.1325
G1 X74.107 Y87.180 E4.2047
G1 X74.378 Y87.068 E4.2156
G1 X88.827 Y88.829 F3498
G92 E0
G1 X88.938 Y88.559 E0.0108 F960
G1 X90.317 Y87.180 E0.0831
G1 X90.587 Y87.068 E0.0940
G1 X97.758 Y87.068 E0.3598
G1 X98.028 Y87.180 E0.3707
G1 X99.407 Y88.559 E0.4430
G1 X99.518 Y88.829 E0.4538
G1 X99.518 Y126.976 E1.8682
G1 X99.517 Y127.003 E1.8692
G1 X99.505 Y127.174 E1.8755
G1 X99.502 Y127.200 E1.8765
G1 X99.308 Y128.534 E1.9265
G1 X99.287 Y128.613 E1.9295
G1 X99.098 Y129.106 E1.9491
G1 X99.060 Y129.178 E1.9521
G1 X98.225 Y130.429 E2.0079
G1 X98.179 Y130.485 E2.0106
G1 X97.849 Y130.815 E2.0278
G1 X97.793 Y130.861 E2.0305
G1 X96.568 Y131.679 E2.0852
G1 X96.505 Y131.713 E2.0878
G1 X96.074 Y131.892 E2.1051
G1 X96.005 Y131.912 E2.1078
G1 X94.674 Y132.177 E2.1581
G1 X94.639 Y132.182 E2.1594
G1 X94.407 Y132.205 E2.1680
G1 X94.371 Y132.207 E2.1694
G1 X88.848 Y132.207 E2.3742
G1 X88.812 Y132.205 E2.3755
G1 X88.581 Y132.183 E2.3841
G1 X88.545 Y132.177 E2.3854
G1 X87.212 Y131.913 E2.4358
G1 X87.143 Y131.892 E2.4385
G1 X86.712 Y131.713 E2.4558
G1 X86.648 Y131.679 E2.4585
G1 X85.377 Y130.830 E2.5152
G1 X85.309 Y130.771 E2.5185
G1 X84.920 Y130.345 E2.5399
G1 X84.868 Y130.272 E2.5432
G1 X84.166 Y128.975 E2.5979
G1 X84.138 Y128.908 E2.6006
G1 X84.000 Y128.461 E2.6179
G1 X83.986 Y128.390 E2.6206
G1 X83.855 Y127.118 E2.6681
G1 X83.854 Y127.099 E2.6687
G1 X83.848 Y126.978 E2.6732
G1 X83.847 Y126.960 E2.6739
G1 X83.839 Y108.575 E3.3555
G1 X83.843 Y108.520 E3.3576
G1 X83.897 Y108.165 E3.3709
G1 X83.910 Y108.111 E3.3730
G1 X84.227 Y107.092 E3.4125
G1 X84.268 Y107.004 E3.4161
G1 X84.604 Y106.475 E3.4394
G1 X84.666 Y106.400 E3.4430
G1 X85.549 Y105.592 E3.4874
G1 X85.622 Y105.540 E3.4907
G1 X86.130 Y105.264 E3.5121
G1 X86.213 Y105.231 E3.5154
G1 X87.202 Y104.973 E3.5534
G1 X87.248 Y104.964 E3.5551
G1 X87.548 Y104.925 E3.5663
G1 X87.595 Y104.922 E3.5680
G1 X88.100 Y104.922 E3.5868
G1 X88.142 Y104.925 E3.5883
G1 X88.412 Y104.956 E3.5984
G1 X88.454 Y104.963 E3.6000
G1 X88.827 Y105.050 E3.6142
G1 X88.827 Y88.829 E4.2156
G1 X105.036 Y88.829 F3498
G92 E0
G1 X105.148 Y88.559 E0.0108 F960
G1 X106.526 Y87.180 E0.0831
G1 X106.796 Y87.068 E0.0940
G1 X113.967 Y87.068 E0.3598
G1 X114.237 Y87.180 E0.3707
G1 X115.616 Y88.559 E0.4430
G1 X115.728 Y88.829 E0.4538
G1 X115.728 Y126.976 E1.8682
G1 X115.727 Y127.003 E1.8692
