; G-Code generated by Simplify3D(R) Version 3.0.0
; Okt 2, 2017 at 7:02:19 
; Settings Summary
;   processName,Process1
;   applyToModels,halterung12,halterung12(2),halterung12(3),halterung12(4)
;   profileName,1.5 fein (modified)
;   profileVersion,2017-10-02 14:07:01
;   baseProfile,German RepRap NEO (modified)
;   printMaterial,
;   printQuality,
;   printExtruders,
;   extruderName,Primary Extruder
;   extruderToolheadNumber,0
;   extruderDiameter,0.5
;   extruderAutoWidth,0
;   extruderWidth,0.49
;   extrusionMultiplier,0.95
;   extruderUseRetract,1
;   extruderRetractionDistance,6.5
;   extruderExtraRestartDistance,0
;   extruderRetractionZLift,0
;   extruderRetractionSpeed,4998
;   extruderUseCoasting,0
;   extruderCoastingDistance,0.2
;   extruderUseWipe,0
;   extruderWipeDistance,5
;   primaryExtruder,0
;   layerHeight,0.2
;   topSolidLayers,4
;   bottomSolidLayers,3
;   perimeterOutlines,3
;   printPerimetersInsideOut,1
;   startPointOption,2
;   startPointOriginX,0
;   startPointOriginY,0
;   startPointOriginZ,300
;   sequentialIslands,0
;   spiralVaseMode,0
;   firstLayerHeightPercentage,100
;   firstLayerWidthPercentage,100
;   firstLayerUnderspeed,0.3
;   useRaft,0
;   raftExtruder,0
;   raftLayers,3
;   raftOffset,3
;   raftSeparationDistance,0.1
;   raftInfill,85
;   disableRaftBaseLayers,0
;   useSkirt,1
;   skirtExtruder,0
;   skirtLayers,1
;   skirtOutlines,5
;   skirtOffset,2
;   usePrimePillar,0
;   primePillarExtruder,999
;   primePillarWidth,12
;   primePillarLocation,7
;   primePillarSpeedMultiplier,1
;   useOozeShield,0
;   oozeShieldExtruder,999
;   oozeShieldOffset,2
;   oozeShieldOutlines,1
;   oozeShieldSidewallShape,1
;   oozeShieldSidewallAngle,30
;   oozeShieldSpeedMultiplier,1
;   infillExtruder,0
;   internalInfillPattern,Full Honeycomb
;   externalInfillPattern,Rectilinear
;   infillPercentage,30
;   outlineOverlapPercentage,15
;   infillExtrusionWidthPercentage,100
;   minInfillLength,3
;   infillLayerInterval,1
;   infillAngles,0,120,-120
;   overlapInfillAngles,0
;   generateSupport,1
;   supportExtruder,0
;   supportInfillPercentage,30
;   supportExtraInflation,0
;   denseSupportLayers,0
;   denseSupportInfillPercentage,75
;   supportLayerInterval,1
;   supportHorizontalPartOffset,1.5
;   supportUpperSeparationLayers,2
;   supportLowerSeparationLayers,2
;   supportType,0
;   supportGridSpacing,4
;   maxOverhangAngle,45
;   supportAngles,45
;   temperatureName,Primary Extruder
;   temperatureNumber,0
;   temperatureSetpointCount,3
;   temperatureSetpointLayers,1,2,3
;   temperatureSetpointTemperatures,207,202,197
;   temperatureStabilizeAtStartup,1
;   temperatureHeatedBed,0
;   temperatureRelayBetweenLayers,0
;   temperatureRelayBetweenLoops,0
;   fanLayers,1,3
;   fanSpeeds,0,100
;   blipFanToFullPower,0
;   adjustSpeedForCooling,1
;   minSpeedLayerTime,15
;   minCoolingSpeedSlowdown,20
;   increaseFanForCooling,0
;   minFanLayerTime,45
;   maxCoolingFanSpeed,100
;   increaseFanForBridging,0
;   bridgingFanSpeed,100
;   use5D,1
;   relativeEdistances,0
;   allowEaxisZeroing,1
;   independentExtruderAxes,0
;   includeM10123,0
;   stickySupport,1
;   applyToolheadOffsets,0
;   gcodeXoffset,0
;   gcodeYoffset,0
;   gcodeZoffset,0
;   overrideMachineDefinition,1
;   machineTypeOverride,0
;   strokeXoverride,150
;   strokeYoverride,150
;   strokeZoverride,150
;   originOffsetXoverride,0
;   originOffsetYoverride,0
;   originOffsetZoverride,0
;   homeXdirOverride,-1
;   homeYdirOverride,-1
;   homeZdirOverride,-1
;   flipXoverride,1
;   flipYoverride,-1
;   flipZoverride,1
;   toolheadOffsets,0,0|0,0|0,0|0,0|0,0|0,0
;   overrideFirmwareConfiguration,0
;   firmwareTypeOverride,RepRap (Marlin/Repetier/Sprinter)
;   GPXconfigOverride,r2
;   baudRateOverride,115200
;   overridePrinterModels,0
;   printerModelsOverride
;   startingGcode,G28 ; home all axes
;   layerChangeGcode,
;   retractionGcode,
;   toolChangeGcode,
;   endingGcode,M104 S0 ; turn off extruder,M140 S0 ; turn off bed,G28 X0  ; home X axis,G28 Y0  ; home Y axis,M84 ; disable motors,M107
;   createX3G,0
;   celebration,0
;   celebrationSong,Random Song
;   createMB5G,0
;   postProcessing,
;   defaultSpeed,2400
;   outlineUnderspeed,0.5
;   solidInfillUnderspeed,0.8
;   supportUnderspeed,0.8
;   rapidXYspeed,3498
;   rapidZspeed,1002
;   minBridgingArea,50
;   bridgingExtraInflation,0
;   bridgingExtrusionMultiplier,1
;   bridgingSpeedMultiplier,1
;   filamentDiameter,1.7
;   filamentPricePerKg,46
;   filamentDensity,1.25
;   useMinPrintHeight,0
;   minPrintHeight,0
;   useMaxPrintHeight,0
;   maxPrintHeight,0
;   useDiaphragm,0
;   diaphragmLayerInterval,20
;   robustSlicing,1
;   mergeAllIntoSolid,0
;   onlyRetractWhenCrossingOutline,1
;   retractBetweenLayers,1
;   useRetractionMinTravel,0
;   retractionMinTravel,3
;   retractWhileWiping,0
;   onlyWipeOutlines,1
;   avoidCrossingOutline,0
;   maxMovementDetourFactor,10
;   toolChangeRetractionDistance,0
;   toolChangeExtraRestartDistance,0
;   toolChangeRetractionSpeed,360
;   allowThinWallGapFill,1
;   thinWallAllowedOverlapPercentage,10
;   horizontalSizeCompensation,0
G90
M82
M106 S0
M104 S207 T0
M109 S207 T0
G28 ; home all axes
G92 E0
G1 E-6.5000 F4998
G1 Z0.200 F1002
; layer 1, Z = 0.2
T0
; tool H0.200 W0.490
; skirt
G1 X22.749 Y14.979 F3498
G1 E0.0000 F1499
G92 E0
G1 X24.541 Y13.187 E0.1039 F720
G1 X25.351 Y12.851 E0.1399
G1 X29.313 Y12.851 E0.3024
G1 X33.107 Y12.851 E0.4580
G1 X33.918 Y13.187 E0.4940
G1 X35.709 Y14.979 E0.5980
G1 X36.045 Y15.789 E0.6339
G1 X36.045 Y31.588 E1.2820
G1 X36.107 Y31.544 E1.2851
G1 X36.772 Y31.182 E1.3161
G1 X37.022 Y31.083 E1.3271
G1 X38.143 Y30.791 E1.3747
G1 X38.281 Y30.764 E1.3804
G1 X38.623 Y30.720 E1.3946
G1 X38.623 Y15.789 E2.0070
G1 X38.958 Y14.979 E2.0430
G1 X40.750 Y13.187 E2.1469
G1 X41.561 Y12.851 E2.1829
G1 X45.522 Y12.851 E2.3454
G1 X49.316 Y12.851 E2.5010
G1 X50.127 Y13.187 E2.5370
G1 X51.919 Y14.979 E2.6409
G1 X52.254 Y15.789 E2.6769
G1 X52.254 Y31.588 E3.3250
G1 X52.316 Y31.544 E3.3281
G1 X52.981 Y31.182 E3.3591
G1 X53.231 Y31.083 E3.3701
G1 X54.352 Y30.791 E3.4177
G1 X54.490 Y30.764 E3.4234
G1 X54.832 Y30.720 E3.4376
G1 X54.832 Y15.789 E4.0500
G1 X55.168 Y14.979 E4.0860
G1 X56.959 Y13.187 E4.1899
G1 X57.770 Y12.851 E4.2259
G1 X61.731 Y12.851 E4.3884
G1 X65.526 Y12.851 E4.5440
G1 X66.336 Y13.187 E4.5800
G1 X68.128 Y14.979 E4.6839
G1 X68.464 Y15.789 E4.7199
G1 X68.464 Y31.588 E5.3679
G1 X68.525 Y31.544 E5.3710
G1 X69.191 Y31.182 E5.4021
G1 X69.440 Y31.083 E5.4131
G1 X70.561 Y30.791 E5.4606
G1 X70.700 Y30.764 E5.4664
G1 X71.041 Y30.720 E5.4805
G1 X71.041 Y15.789 E6.0930
G1 X71.377 Y14.979 E6.1290
G1 X73.169 Y13.187 E6.2329
G1 X73.979 Y12.851 E6.2689
G1 X77.941 Y12.851 E6.4314
G1 X81.735 Y12.851 E6.5870
G1 X82.545 Y13.187 E6.6230
G1 X84.337 Y14.979 E6.7269
G1 X84.673 Y15.789 E6.7629
G1 X84.673 Y54.255 E8.3407
G1 X84.670 Y54.335 E8.3439
G1 X84.654 Y54.559 E8.3531
G1 X84.645 Y54.638 E8.3564
G1 X84.436 Y56.079 E8.4161
G1 X84.374 Y56.316 E8.4262
G1 X84.126 Y56.962 E8.4546
G1 X84.013 Y57.180 E8.4646
G1 X83.091 Y58.559 E8.5326
G1 X82.954 Y58.726 E8.5415
G1 X82.522 Y59.158 E8.5666
G1 X82.355 Y59.295 E8.5755
G1 X81.010 Y60.194 E8.6418
G1 X80.819 Y60.296 E8.6507
G1 X80.254 Y60.530 E8.6758
G1 X80.047 Y60.593 E8.6846
G1 X78.610 Y60.878 E8.7447
G1 X78.503 Y60.894 E8.7492
G1 X78.200 Y60.924 E8.7617
G1 X78.092 Y60.930 E8.7661
G1 X72.497 Y60.930 E8.9956
G1 X72.389 Y60.924 E9.0000
G1 X72.086 Y60.895 E9.0125
G1 X71.979 Y60.879 E9.0169
G1 X70.540 Y60.593 E9.0771
G1 X70.332 Y60.530 E9.0860
G1 X69.767 Y60.296 E9.1111
G1 X69.576 Y60.194 E9.1200
G1 X68.170 Y59.255 E9.1893
G1 X67.967 Y59.080 E9.2003
G1 X67.458 Y58.521 E9.2314
G1 X67.303 Y58.303 E9.2423
G1 X67.191 Y58.096 E9.2520
G1 X66.882 Y58.559 E9.2748
G1 X66.745 Y58.726 E9.2837
G1 X66.313 Y59.158 E9.3087
G1 X66.145 Y59.295 E9.3176
G1 X64.800 Y60.194 E9.3839
G1 X64.609 Y60.296 E9.3928
G1 X64.045 Y60.530 E9.4179
G1 X63.838 Y60.593 E9.4268
G1 X62.401 Y60.878 E9.4868
G1 X62.294 Y60.894 E9.4913
G1 X61.991 Y60.924 E9.5038
G1 X61.883 Y60.930 E9.5082
G1 X56.287 Y60.930 E9.7377
G1 X56.179 Y60.924 E9.7422
G1 X55.877 Y60.895 E9.7546
G1 X55.770 Y60.879 E9.7591
G1 X54.331 Y60.593 E9.8192
G1 X54.123 Y60.530 E9.8281
G1 X53.558 Y60.296 E9.8532
G1 X53.367 Y60.194 E9.8621
G1 X51.961 Y59.255 E9.9315
G1 X51.758 Y59.080 E9.9425
G1 X51.249 Y58.521 E9.9735
G1 X51.093 Y58.303 E9.9845
G1 X50.982 Y58.096 E9.9941
G1 X50.673 Y58.559 E10.0169
G1 X50.535 Y58.726 E10.0258
G1 X50.104 Y59.158 E10.0508
G1 X49.936 Y59.295 E10.0597
G1 X48.591 Y60.194 E10.1261
G1 X48.400 Y60.296 E10.1350
G1 X47.836 Y60.530 E10.1600
G1 X47.629 Y60.593 E10.1689
G1 X46.192 Y60.878 E10.2290
G1 X46.085 Y60.894 E10.2334
G1 X45.781 Y60.924 E10.2459
G1 X45.673 Y60.930 E10.2504
G1 X40.078 Y60.930 E10.4799
G1 X39.970 Y60.924 E10.4843
G1 X39.668 Y60.895 E10.4968
G1 X39.561 Y60.879 E10.5012
G1 X38.121 Y60.593 E10.5614
G1 X37.914 Y60.530 E10.5703
G1 X37.349 Y60.296 E10.5953
G1 X37.158 Y60.194 E10.6042
G1 X35.752 Y59.255 E10.6736
G1 X35.548 Y59.080 E10.6846
G1 X35.039 Y58.521 E10.7156
G1 X34.884 Y58.303 E10.7266
G1 X34.772 Y58.096 E10.7362
G1 X34.464 Y58.559 E10.7590
G1 X34.326 Y58.726 E10.7679
G1 X33.894 Y59.158 E10.7929
G1 X33.727 Y59.295 E10.8018
G1 X32.382 Y60.194 E10.8682
G1 X32.191 Y60.296 E10.8771
G1 X31.627 Y60.530 E10.9021
G1 X31.419 Y60.593 E10.9110
G1 X29.983 Y60.878 E10.9711
G1 X29.875 Y60.894 E10.9755
G1 X29.572 Y60.924 E10.9880
G1 X29.464 Y60.930 E10.9925
G1 X23.869 Y60.930 E11.2220
G1 X23.761 Y60.924 E11.2264
G1 X23.458 Y60.895 E11.2389
G1 X23.351 Y60.879 E11.2433
G1 X21.912 Y60.593 E11.3035
G1 X21.704 Y60.530 E11.3124
G1 X21.140 Y60.296 E11.3375
G1 X20.948 Y60.194 E11.3464
G1 X19.542 Y59.255 E11.4157
G1 X19.339 Y59.080 E11.4267
G1 X18.830 Y58.521 E11.4577
G1 X18.675 Y58.303 E11.4687
G1 X17.896 Y56.864 E11.5358
G1 X17.812 Y56.663 E11.5447
G1 X17.631 Y56.078 E11.5699
G1 X17.588 Y55.865 E11.5788
G1 X17.448 Y54.502 E11.6350
G1 X17.443 Y54.446 E11.6373
G1 X17.435 Y54.288 E11.6438
G1 X17.434 Y54.232 E11.6461
G1 X17.426 Y35.773 E12.4032
G1 X17.438 Y35.607 E12.4100
G1 X17.509 Y35.142 E12.4293
G1 X17.546 Y34.980 E12.4362
G1 X17.909 Y33.815 E12.4862
G1 X18.032 Y33.551 E12.4981
G1 X18.472 Y32.857 E12.5318
G1 X18.659 Y32.634 E12.5438
G1 X19.679 Y31.700 E12.6005
G1 X19.897 Y31.544 E12.6115
G1 X20.563 Y31.182 E12.6426
G1 X20.812 Y31.083 E12.6536
G1 X21.934 Y30.791 E12.7011
G1 X22.072 Y30.764 E12.7069
G1 X22.413 Y30.720 E12.7210
G1 X22.413 Y15.789 E13.3335
G1 X22.749 Y14.979 E13.3694
G1 X23.164 Y15.256 F3498
G92 E0
G1 X24.818 Y13.602 E0.0959 F720
G1 X25.449 Y13.341 E0.1239
G1 X29.313 Y13.341 E0.2824
G1 X33.010 Y13.341 E0.4341
G1 X33.640 Y13.602 E0.4620
G1 X35.294 Y15.256 E0.5580
G1 X35.555 Y15.886 E0.5860
G1 X35.555 Y32.669 E1.2744
G1 X36.197 Y32.081 E1.3101
G1 X36.367 Y31.960 E1.3186
G1 X36.980 Y31.627 E1.3472
G1 X37.174 Y31.550 E1.3558
G1 X38.251 Y31.269 E1.4015
G1 X38.359 Y31.248 E1.4060
G1 X38.721 Y31.202 E1.4209
G1 X38.830 Y31.195 E1.4254
G1 X39.113 Y31.195 E1.4370
G1 X39.113 Y15.886 E2.0649
G1 X39.374 Y15.256 E2.0929
G1 X41.028 Y13.602 E2.1888
G1 X41.658 Y13.341 E2.2168
G1 X45.522 Y13.341 E2.3753
G1 X49.219 Y13.341 E2.5270
G1 X49.849 Y13.602 E2.5549
G1 X51.503 Y15.256 E2.6509
G1 X51.764 Y15.886 E2.6789
G1 X51.764 Y32.669 E3.3673
G1 X52.406 Y32.081 E3.4030
G1 X52.576 Y31.960 E3.4115
G1 X53.189 Y31.627 E3.4401
G1 X53.383 Y31.550 E3.4487
G1 X54.461 Y31.269 E3.4944
G1 X54.568 Y31.248 E3.4989
G1 X54.930 Y31.202 E3.5138
G1 X55.039 Y31.195 E3.5183
G1 X55.322 Y31.195 E3.5299
G1 X55.322 Y15.886 E4.1578
G1 X55.583 Y15.256 E4.1858
G1 X57.237 Y13.602 E4.2817
G1 X57.867 Y13.341 E4.3097
G1 X61.731 Y13.341 E4.4682
G1 X65.428 Y13.341 E4.6198
G1 X66.059 Y13.602 E4.6478
G1 X67.713 Y15.256 E4.7438
G1 X67.974 Y15.886 E4.7718
G1 X67.974 Y32.669 E5.4601
G1 X68.616 Y32.081 E5.4959
G1 X68.786 Y31.960 E5.5044
G1 X69.399 Y31.627 E5.5330
G1 X69.593 Y31.550 E5.5416
G1 X70.670 Y31.269 E5.5873
G1 X70.777 Y31.248 E5.5918
G1 X71.139 Y31.202 E5.6067
G1 X71.248 Y31.195 E5.6112
G1 X71.531 Y31.195 E5.6228
G1 X71.531 Y15.886 E6.2507
G1 X71.792 Y15.256 E6.2787
G1 X73.446 Y13.602 E6.3746
G1 X74.077 Y13.341 E6.4026
G1 X77.941 Y13.341 E6.5611
G1 X81.638 Y13.341 E6.7127
G1 X82.268 Y13.602 E6.7407
G1 X83.922 Y15.256 E6.8367
G1 X84.183 Y15.886 E6.8647
G1 X84.183 Y54.247 E8.4381
G1 X84.181 Y54.308 E8.4406
G1 X84.166 Y54.515 E8.4491
G1 X84.159 Y54.576 E8.4516
G1 X83.955 Y55.981 E8.5099
G1 X83.906 Y56.166 E8.5177
G1 X83.678 Y56.761 E8.5438
G1 X83.590 Y56.930 E8.5517
G1 X82.697 Y58.266 E8.6176
G1 X82.590 Y58.397 E8.6245
G1 X82.193 Y58.794 E8.6475
G1 X82.063 Y58.901 E8.6545
G1 X80.757 Y59.773 E8.7188
G1 X80.609 Y59.853 E8.7258
G1 X80.089 Y60.068 E8.7488
G1 X79.928 Y60.117 E8.7557
G1 X78.527 Y60.396 E8.8143
G1 X78.443 Y60.408 E8.8178
G1 X78.164 Y60.435 E8.8293
G1 X78.080 Y60.440 E8.8328
G1 X72.509 Y60.440 E9.0613
G1 X72.425 Y60.435 E9.0647
G1 X72.146 Y60.408 E9.0762
G1 X72.063 Y60.396 E9.0797
G1 X70.659 Y60.117 E9.1384
G1 X70.498 Y60.068 E9.1453
G1 X69.977 Y59.853 E9.1684
G1 X69.828 Y59.773 E9.1753
G1 X68.467 Y58.864 E9.2424
G1 X68.309 Y58.728 E9.2510
G1 X67.840 Y58.213 E9.2796
G1 X67.719 Y58.043 E9.2881
G1 X67.235 Y57.148 E9.3298
G1 X66.488 Y58.266 E9.3850
G1 X66.381 Y58.397 E9.3919
G1 X65.983 Y58.794 E9.4150
G1 X65.853 Y58.901 E9.4219
G1 X64.548 Y59.773 E9.4863
G1 X64.399 Y59.853 E9.4932
G1 X63.880 Y60.068 E9.5163
G1 X63.719 Y60.117 E9.5232
G1 X62.317 Y60.396 E9.5818
G1 X62.234 Y60.408 E9.5852
G1 X61.955 Y60.435 E9.5967
G1 X61.871 Y60.440 E9.6002
G1 X56.299 Y60.440 E9.8287
G1 X56.215 Y60.435 E9.8321
G1 X55.937 Y60.408 E9.8436
G1 X55.854 Y60.396 E9.8471
G1 X54.450 Y60.117 E9.9058
G1 X54.288 Y60.068 E9.9127
G1 X53.768 Y59.853 E9.9358
G1 X53.619 Y59.773 E9.9427
G1 X52.258 Y58.864 E10.0099
G1 X52.100 Y58.728 E10.0184
G1 X51.631 Y58.213 E10.0470
G1 X51.510 Y58.043 E10.0555
G1 X51.026 Y57.148 E10.0973
G1 X50.279 Y58.266 E10.1524
G1 X50.172 Y58.397 E10.1593
G1 X49.774 Y58.794 E10.1824
G1 X49.644 Y58.901 E10.1893
G1 X48.339 Y59.773 E10.2537
G1 X48.190 Y59.853 E10.2606
G1 X47.671 Y60.068 E10.2837
G1 X47.509 Y60.117 E10.2906
G1 X46.108 Y60.396 E10.3492
G1 X46.025 Y60.408 E10.3526
G1 X45.745 Y60.435 E10.3642
G1 X45.661 Y60.440 E10.3676
G1 X40.090 Y60.440 E10.5961
G1 X40.006 Y60.435 E10.5996
G1 X39.727 Y60.408 E10.6111
G1 X39.644 Y60.396 E10.6145
G1 X38.240 Y60.117 E10.6732
G1 X38.079 Y60.068 E10.6801
G1 X37.559 Y59.853 E10.7032
G1 X37.410 Y59.773 E10.7102
G1 X36.049 Y58.864 E10.7773
G1 X35.891 Y58.728 E10.7858
G1 X35.422 Y58.213 E10.8144
G1 X35.301 Y58.043 E10.8230
G1 X34.816 Y57.148 E10.8647
G1 X34.070 Y58.266 E10.9198
G1 X33.963 Y58.397 E10.9268
G1 X33.565 Y58.794 E10.9498
G1 X33.435 Y58.901 E10.9567
G1 X32.130 Y59.773 E11.0211
G1 X31.981 Y59.853 E11.0280
G1 X31.461 Y60.068 E11.0511
G1 X31.300 Y60.117 E11.0580
G1 X29.899 Y60.396 E11.1166
G1 X29.815 Y60.408 E11.1201
G1 X29.536 Y60.435 E11.1316
G1 X29.452 Y60.440 E11.1350
G1 X23.881 Y60.440 E11.3636
G1 X23.797 Y60.435 E11.3670
G1 X23.518 Y60.408 E11.3785
G1 X23.435 Y60.396 E11.3819
G1 X22.031 Y60.117 E11.4406
G1 X21.870 Y60.068 E11.4476
G1 X21.349 Y59.853 E11.4707
G1 X21.200 Y59.773 E11.4776
G1 X19.839 Y58.864 E11.5447
G1 X19.681 Y58.728 E11.5533
G1 X19.212 Y58.213 E11.5818
G1 X19.092 Y58.043 E11.5904
G1 X18.338 Y56.652 E11.6553
G1 X18.273 Y56.496 E11.6622
G1 X18.107 Y55.957 E11.6854
G1 X18.073 Y55.791 E11.6923
G1 X17.936 Y54.458 E11.7473
G1 X17.933 Y54.414 E11.7491
G1 X17.925 Y54.269 E11.7550
G1 X17.924 Y54.225 E11.7568
G1 X17.916 Y35.791 E12.5129
G1 X17.926 Y35.662 E12.5182
G1 X17.991 Y35.234 E12.5360
G1 X18.020 Y35.108 E12.5413
G1 X18.367 Y33.992 E12.5893
G1 X18.463 Y33.786 E12.5986
G1 X18.868 Y33.147 E12.6296
G1 X19.014 Y32.974 E12.6389
G1 X19.988 Y32.081 E12.6931
G1 X20.158 Y31.960 E12.7016
G1 X20.771 Y31.627 E12.7302
G1 X20.965 Y31.550 E12.7388
G1 X22.042 Y31.269 E12.7845
G1 X22.149 Y31.248 E12.7890
G1 X22.511 Y31.202 E12.8039
G1 X22.621 Y31.195 E12.8084
G1 X22.903 Y31.195 E12.8200
G1 X22.903 Y15.886 E13.4479
G1 X23.164 Y15.256 E13.4759
G1 X23.393 Y15.984 F3498
G92 E0
G1 X23.580 Y15.534 E0.0200 F720
G1 X25.096 Y14.017 E0.1079
