; G-Code generated by Simplify3D(R) Version 3.0.0
; Okt 3, 2017 at 1:29:51 
; Settings Summary
;   processName,Process1
;   applyToModels,halterung12
;   profileName,1.5 fein (modified)
;   profileVersion,2017-10-02 14:07:01
;   baseProfile,German RepRap NEO (modified)
;   printMaterial,
;   printQuality,
;   printExtruders,
;   extruderName,Primary Extruder
;   extruderToolheadNumber,0
;   extruderDiameter,0.5
;   extruderAutoWidth,0
;   extruderWidth,0.49
;   extrusionMultiplier,0.92
;   extruderUseRetract,1
;   extruderRetractionDistance,5
;   extruderExtraRestartDistance,0
;   extruderRetractionZLift,0
;   extruderRetractionSpeed,4998
;   extruderUseCoasting,0
;   extruderCoastingDistance,0.2
;   extruderUseWipe,0
;   extruderWipeDistance,5
;   primaryExtruder,0
;   layerHeight,0.2
;   topSolidLayers,4
;   bottomSolidLayers,3
;   perimeterOutlines,3
;   printPerimetersInsideOut,1
;   startPointOption,2
;   startPointOriginX,0
;   startPointOriginY,0
;   startPointOriginZ,300
;   sequentialIslands,0
;   spiralVaseMode,0
;   firstLayerHeightPercentage,100
;   firstLayerWidthPercentage,100
;   firstLayerUnderspeed,0.3
;   useRaft,0
;   raftExtruder,0
;   raftLayers,3
;   raftOffset,3
;   raftSeparationDistance,0.1
;   raftInfill,85
;   disableRaftBaseLayers,0
;   useSkirt,1
;   skirtExtruder,0
;   skirtLayers,1
;   skirtOutlines,5
;   skirtOffset,2
;   usePrimePillar,0
;   primePillarExtruder,999
;   primePillarWidth,12
;   primePillarLocation,7
;   primePillarSpeedMultiplier,1
;   useOozeShield,0
;   oozeShieldExtruder,999
;   oozeShieldOffset,2
;   oozeShieldOutlines,1
;   oozeShieldSidewallShape,1
;   oozeShieldSidewallAngle,30
;   oozeShieldSpeedMultiplier,1
;   infillExtruder,0
;   internalInfillPattern,Full Honeycomb
;   externalInfillPattern,Rectilinear
;   infillPercentage,50
;   outlineOverlapPercentage,15
;   infillExtrusionWidthPercentage,100
;   minInfillLength,3
;   infillLayerInterval,1
;   infillAngles,0,120,-120
;   overlapInfillAngles,0
;   generateSupport,1
;   supportExtruder,0
;   supportInfillPercentage,30
;   supportExtraInflation,0
;   denseSupportLayers,0
;   denseSupportInfillPercentage,75
;   supportLayerInterval,1
;   supportHorizontalPartOffset,1.5
;   supportUpperSeparationLayers,2
;   supportLowerSeparationLayers,2
;   supportType,0
;   supportGridSpacing,4
;   maxOverhangAngle,45
;   supportAngles,45
;   temperatureName,Primary Extruder
;   temperatureNumber,0
;   temperatureSetpointCount,3
;   temperatureSetpointLayers,1,2,3
;   temperatureSetpointTemperatures,202,195,189
;   temperatureStabilizeAtStartup,1
;   temperatureHeatedBed,0
;   temperatureRelayBetweenLayers,0
;   temperatureRelayBetweenLoops,0
;   fanLayers,1,3
;   fanSpeeds,0,100
;   blipFanToFullPower,0
;   adjustSpeedForCooling,1
;   minSpeedLayerTime,15
;   minCoolingSpeedSlowdown,20
;   increaseFanForCooling,0
;   minFanLayerTime,45
;   maxCoolingFanSpeed,100
;   increaseFanForBridging,0
;   bridgingFanSpeed,100
;   use5D,1
;   relativeEdistances,0
;   allowEaxisZeroing,1
;   independentExtruderAxes,0
;   includeM10123,0
;   stickySupport,1
;   applyToolheadOffsets,0
;   gcodeXoffset,0
;   gcodeYoffset,0
;   gcodeZoffset,0
;   overrideMachineDefinition,1
;   machineTypeOverride,0
;   strokeXoverride,150
;   strokeYoverride,150
;   strokeZoverride,150
;   originOffsetXoverride,0
;   originOffsetYoverride,0
;   originOffsetZoverride,0
;   homeXdirOverride,-1
;   homeYdirOverride,-1
;   homeZdirOverride,-1
;   flipXoverride,1
;   flipYoverride,-1
;   flipZoverride,1
;   toolheadOffsets,0,0|0,0|0,0|0,0|0,0|0,0
;   overrideFirmwareConfiguration,0
;   firmwareTypeOverride,RepRap (Marlin/Repetier/Sprinter)
;   GPXconfigOverride,r2
;   baudRateOverride,115200
;   overridePrinterModels,0
;   printerModelsOverride
;   startingGcode,G28 ; home all axes
;   layerChangeGcode,
;   retractionGcode,
;   toolChangeGcode,
;   endingGcode,M104 S0 ; turn off extruder,M140 S0 ; turn off bed,G28 X0  ; home X axis,G28 Y0  ; home Y axis,M84 ; disable motors,M107
;   createX3G,0
;   celebration,0
;   celebrationSong,Random Song
;   createMB5G,0
;   postProcessing,
;   defaultSpeed,2400
;   outlineUnderspeed,0.5
;   solidInfillUnderspeed,0.8
;   supportUnderspeed,0.8
;   rapidXYspeed,3498
;   rapidZspeed,1002
;   minBridgingArea,50
;   bridgingExtraInflation,0
;   bridgingExtrusionMultiplier,1
;   bridgingSpeedMultiplier,1
;   filamentDiameter,1.75
;   filamentPricePerKg,46
;   filamentDensity,1.25
;   useMinPrintHeight,0
;   minPrintHeight,0
;   useMaxPrintHeight,0
;   maxPrintHeight,0
;   useDiaphragm,0
;   diaphragmLayerInterval,20
;   robustSlicing,1
;   mergeAllIntoSolid,0
;   onlyRetractWhenCrossingOutline,1
;   retractBetweenLayers,1
;   useRetractionMinTravel,0
;   retractionMinTravel,3
;   retractWhileWiping,0
;   onlyWipeOutlines,1
;   avoidCrossingOutline,0
;   maxMovementDetourFactor,10
;   toolChangeRetractionDistance,0
;   toolChangeExtraRestartDistance,0
;   toolChangeRetractionSpeed,360
;   allowThinWallGapFill,1
;   thinWallAllowedOverlapPercentage,10
;   horizontalSizeCompensation,0
G90
M82
M106 S0
M104 S202 T0
M109 S202 T0
G28 ; home all axes
G92 E0
G1 E-5.0000 F4998
G1 Z0.200 F1002
; layer 1, Z = 0.2
T0
; tool H0.200 W0.490
; skirt
G1 X75.294 Y88.730 F3498
G1 E0.0000 F1499
G92 E0
G1 X76.105 Y88.394 E0.0329 F720
G1 X79.347 Y88.394 E0.1544
G1 X83.861 Y88.394 E0.3236
G1 X84.671 Y88.730 E0.3565
G1 X86.463 Y90.521 E0.4515
G1 X86.799 Y91.332 E0.4844
G1 X86.799 Y129.798 E1.9262
G1 X86.796 Y129.878 E1.9292
G1 X86.779 Y130.102 E1.9376
G1 X86.771 Y130.181 E1.9406
G1 X86.561 Y131.622 E1.9952
G1 X86.499 Y131.859 E2.0044
G1 X86.251 Y132.505 E2.0303
G1 X86.138 Y132.723 E2.0395
G1 X85.217 Y134.101 E2.1017
G1 X85.079 Y134.269 E2.1098
G1 X84.648 Y134.701 E2.1327
G1 X84.480 Y134.838 E2.1408
G1 X83.135 Y135.737 E2.2015
G1 X82.944 Y135.839 E2.2096
G1 X82.380 Y136.073 E2.2325
G1 X82.173 Y136.136 E2.2406
G1 X80.736 Y136.421 E2.2955
G1 X80.629 Y136.437 E2.2995
G1 X80.326 Y136.467 E2.3110
G1 X80.217 Y136.472 E2.3150
G1 X74.622 Y136.472 E2.5248
G1 X74.514 Y136.467 E2.5288
G1 X74.212 Y136.437 E2.5402
G1 X74.105 Y136.422 E2.5443
G1 X72.665 Y136.136 E2.5993
G1 X72.458 Y136.073 E2.6074
G1 X71.893 Y135.839 E2.6303
G1 X71.702 Y135.737 E2.6384
G1 X70.296 Y134.798 E2.7018
G1 X70.093 Y134.623 E2.7119
G1 X69.583 Y134.064 E2.7402
G1 X69.428 Y133.846 E2.7503
G1 X68.649 Y132.406 E2.8116
G1 X68.565 Y132.206 E2.8197
G1 X68.385 Y131.621 E2.8427
G1 X68.341 Y131.408 E2.8508
G1 X68.201 Y130.045 E2.9022
G1 X68.197 Y129.989 E2.9043
G1 X68.189 Y129.831 E2.9102
G1 X68.187 Y129.774 E2.9124
G1 X68.179 Y111.316 E3.6043
G1 X68.192 Y111.150 E3.6105
G1 X68.262 Y110.685 E3.6281
G1 X68.300 Y110.522 E3.6344
G1 X68.663 Y109.358 E3.6801
G1 X68.785 Y109.094 E3.6910
G1 X69.225 Y108.400 E3.7218
G1 X69.412 Y108.177 E3.7327
G1 X70.432 Y107.243 E3.7846
G1 X70.651 Y107.087 E3.7946
G1 X71.316 Y106.725 E3.8230
G1 X71.566 Y106.626 E3.8331
G1 X72.687 Y106.334 E3.8765
G1 X72.825 Y106.307 E3.8818
G1 X73.167 Y106.263 E3.8947
G1 X73.167 Y91.332 E4.4544
G1 X73.502 Y90.521 E4.4873
G1 X75.294 Y88.730 E4.5823
G1 X75.572 Y89.145 F3498
G92 E0
G1 X76.202 Y88.884 E0.0256 F720
G1 X79.347 Y88.884 E0.1434
G1 X83.763 Y88.884 E0.3090
G1 X84.393 Y89.145 E0.3346
G1 X86.047 Y90.799 E0.4222
G1 X86.309 Y91.429 E0.4478
G1 X86.309 Y129.789 E1.8857
G1 X86.306 Y129.851 E1.8880
G1 X86.291 Y130.057 E1.8958
G1 X86.285 Y130.119 E1.8981
G1 X86.080 Y131.524 E1.9513
G1 X86.032 Y131.709 E1.9585
G1 X85.803 Y132.304 E1.9824
G1 X85.716 Y132.473 E1.9895
G1 X84.823 Y133.809 E2.0498
G1 X84.716 Y133.939 E2.0561
G1 X84.318 Y134.337 E2.0772
G1 X84.188 Y134.444 E2.0835
G1 X82.883 Y135.316 E2.1423
G1 X82.734 Y135.396 E2.1486
G1 X82.215 Y135.611 E2.1697
G1 X82.053 Y135.660 E2.1760
G1 X80.652 Y135.938 E2.2296
G1 X80.569 Y135.951 E2.2327
G1 X80.289 Y135.978 E2.2433
G1 X80.205 Y135.982 E2.2464
G1 X74.634 Y135.982 E2.4553
G1 X74.550 Y135.978 E2.4584
G1 X74.271 Y135.951 E2.4689
G1 X74.188 Y135.939 E2.4720
G1 X72.784 Y135.660 E2.5257
G1 X72.623 Y135.611 E2.5320
G1 X72.103 Y135.396 E2.5531
G1 X71.954 Y135.316 E2.5595
G1 X70.593 Y134.407 E2.6208
G1 X70.435 Y134.271 E2.6286
G1 X69.966 Y133.756 E2.6547
G1 X69.845 Y133.586 E2.6626
G1 X69.092 Y132.194 E2.7219
G1 X69.026 Y132.039 E2.7282
G1 X68.860 Y131.500 E2.7493
G1 X68.826 Y131.334 E2.7557
G1 X68.689 Y130.001 E2.8059
G1 X68.686 Y129.957 E2.8076
G1 X68.678 Y129.812 E2.8130
G1 X68.677 Y129.768 E2.8147
G1 X68.669 Y111.334 E3.5056
G1 X68.679 Y111.205 E3.5105
G1 X68.744 Y110.777 E3.5267
G1 X68.773 Y110.651 E3.5316
G1 X69.121 Y109.535 E3.5754
G1 X69.216 Y109.329 E3.5839
G1 X69.621 Y108.690 E3.6122
G1 X69.767 Y108.517 E3.6207
G1 X70.741 Y107.624 E3.6703
G1 X70.911 Y107.503 E3.6781
G1 X71.524 Y107.170 E3.7042
G1 X71.718 Y107.093 E3.7121
G1 X72.795 Y106.812 E3.7538
G1 X72.903 Y106.791 E3.7579
G1 X73.265 Y106.745 E3.7716
G1 X73.374 Y106.738 E3.7757
G1 X73.657 Y106.738 E3.7863
G1 X73.657 Y91.429 E4.3601
G1 X73.918 Y90.799 E4.3857
G1 X75.572 Y89.145 E4.4733
G1 X75.849 Y89.560 F3498
G92 E0
G1 X76.300 Y89.374 E0.0183 F720
G1 X79.347 Y89.374 E0.1325
G1 X83.666 Y89.374 E0.2944
G1 X84.116 Y89.560 E0.3126
G1 X85.632 Y91.076 E0.3930
G1 X85.819 Y91.527 E0.4113
G1 X85.819 Y129.781 E1.8452
G1 X85.817 Y129.825 E1.8469
G1 X85.803 Y130.013 E1.8539
G1 X85.799 Y130.057 E1.8556
G1 X85.599 Y131.427 E1.9075
G1 X85.565 Y131.559 E1.9126
G1 X85.356 Y132.102 E1.9344
G1 X85.293 Y132.223 E1.9395
G1 X84.429 Y133.517 E1.9978
G1 X84.352 Y133.610 E2.0024
G1 X83.989 Y133.974 E2.0216
G1 X83.896 Y134.050 E2.0261
G1 X82.631 Y134.895 E2.0832
G1 X82.525 Y134.952 E2.0877
G1 X82.049 Y135.149 E2.1070
G1 X81.934 Y135.184 E2.1115
G1 X80.568 Y135.455 E2.1637
G1 X80.509 Y135.464 E2.1659
G1 X80.253 Y135.489 E2.1756
G1 X80.193 Y135.492 E2.1778
G1 X74.646 Y135.492 E2.3857
G1 X74.586 Y135.489 E2.3880
G1 X74.331 Y135.464 E2.3976
G1 X74.272 Y135.456 E2.3998
G1 X72.903 Y135.184 E2.4521
G1 X72.788 Y135.149 E2.4567
G1 X72.312 Y134.952 E2.4760
G1 X72.206 Y134.895 E2.4805
G1 X70.890 Y134.016 E2.5398
G1 X70.777 Y133.919 E2.5454
G1 X70.348 Y133.448 E2.5693
G1 X70.262 Y133.327 E2.5749
G1 X69.534 Y131.982 E2.6321
G1 X69.487 Y131.871 E2.6367
G1 X69.335 Y131.378 E2.6560
G1 X69.311 Y131.260 E2.6605
G1 X69.177 Y129.957 E2.7096
G1 X69.175 Y129.926 E2.7108
G1 X69.168 Y129.793 E2.7158
G1 X69.167 Y129.762 E2.7170
G1 X69.159 Y111.353 E3.4070
G1 X69.166 Y111.260 E3.4105
G1 X69.226 Y110.869 E3.4253
G1 X69.246 Y110.779 E3.4288
G1 X69.579 Y109.711 E3.4707
G1 X69.647 Y109.564 E3.4768
G1 X70.018 Y108.980 E3.5027
G1 X70.122 Y108.856 E3.5088
G1 X71.050 Y108.006 E3.5560
G1 X71.172 Y107.919 E3.5616
G1 X71.732 Y107.614 E3.5855
G1 X71.871 Y107.559 E3.5911
G1 X72.904 Y107.290 E3.6311
G1 X72.981 Y107.275 E3.6340
G1 X73.312 Y107.233 E3.6465
G1 X73.390 Y107.228 E3.6494
G1 X74.147 Y107.228 E3.6778
G1 X74.147 Y91.527 E4.2664
G1 X74.333 Y91.077 E4.2846
G1 X75.849 Y89.560 E4.3650
G1 X76.127 Y89.976 F3498
G92 E0
G1 X76.397 Y89.864 E0.0110 F720
G1 X79.347 Y89.864 E0.1215
G1 X83.568 Y89.864 E0.2798
G1 X83.838 Y89.976 E0.2907
G1 X85.217 Y91.354 E0.3638
G1 X85.329 Y91.624 E0.3748
G1 X85.329 Y129.772 E1.8047
G1 X85.328 Y129.798 E1.8057
G1 X85.315 Y129.969 E1.8121
G1 X85.312 Y129.995 E1.8131
G1 X85.118 Y131.329 E1.8636
G1 X85.097 Y131.408 E1.8667
G1 X84.908 Y131.901 E1.8865
G1 X84.871 Y131.974 E1.8895
G1 X84.035 Y133.225 E1.9459
G1 X83.989 Y133.280 E1.9486
G1 X83.659 Y133.610 E1.9661
G1 X83.603 Y133.656 E1.9688
G1 X82.378 Y134.475 E2.0240
G1 X82.315 Y134.509 E2.0267
G1 X81.884 Y134.687 E2.0442
G1 X81.815 Y134.708 E2.0469
G1 X80.484 Y134.973 E2.0978
G1 X80.449 Y134.978 E2.0991
G1 X80.217 Y135.001 E2.1078
G1 X80.181 Y135.002 E2.1092
G1 X74.658 Y135.002 E2.3162
G1 X74.622 Y135.001 E2.3176
G1 X74.391 Y134.978 E2.3263
G1 X74.356 Y134.973 E2.3276
G1 X73.022 Y134.708 E2.3786
G1 X72.953 Y134.687 E2.3813
G1 X72.522 Y134.509 E2.3988
G1 X72.458 Y134.475 E2.4015
G1 X71.187 Y133.625 E2.4588
G1 X71.119 Y133.567 E2.4622
G1 X70.730 Y133.140 E2.4838
G1 X70.678 Y133.067 E2.4872
G1 X69.976 Y131.770 E2.5424
G1 X69.948 Y131.704 E2.5451
G1 X69.811 Y131.257 E2.5627
G1 X69.796 Y131.186 E2.5654
G1 X69.665 Y129.913 E2.6133
G1 X69.664 Y129.894 E2.6140
G1 X69.658 Y129.774 E2.6186
G1 X69.657 Y129.755 E2.6193
G1 X69.649 Y111.371 E3.3084
G1 X69.653 Y111.315 E3.3105
G1 X69.707 Y110.961 E3.3239
G1 X69.720 Y110.907 E3.3260
G1 X70.037 Y109.888 E3.3660
G1 X70.078 Y109.800 E3.3696
G1 X70.414 Y109.270 E3.3932
G1 X70.476 Y109.196 E3.3968
G1 X71.359 Y108.387 E3.4417
G1 X71.432 Y108.335 E3.4450
G1 X71.940 Y108.059 E3.4667
G1 X72.023 Y108.026 E3.4700
G1 X73.012 Y107.768 E3.5084
G1 X73.059 Y107.759 E3.5101
G1 X73.358 Y107.721 E3.5215
G1 X73.405 Y107.718 E3.5232
G1 X74.309 Y107.718 E3.5571
G1 X74.351 Y107.720 E3.5587
G1 X74.621 Y107.751 E3.5689
G1 X74.637 Y107.754 E3.5695
G1 X74.637 Y91.624 E4.1741
G1 X74.749 Y91.354 E4.1850
G1 X76.127 Y89.976 E4.2581
G1 X76.404 Y90.391 F3498
G92 E0
G1 X76.494 Y90.354 E0.0037 F720
G1 X79.347 Y90.354 E0.1106
G1 X83.471 Y90.354 E0.2652
G1 X83.561 Y90.391 E0.2688
G1 X84.801 Y91.632 E0.3346
G1 X84.839 Y91.722 E0.3382
G1 X84.839 Y129.763 E1.7642
G1 X84.838 Y129.772 E1.7645
G1 X84.827 Y129.925 E1.7702
G1 X84.826 Y129.934 E1.7706
G1 X84.637 Y131.232 E1.8197
G1 X84.630 Y131.258 E1.8208
G1 X84.460 Y131.700 E1.8385
G1 X84.448 Y131.724 E1.8395
G1 X83.641 Y132.932 E1.8940
G1 X83.625 Y132.951 E1.8949
G1 X83.330 Y133.247 E1.9106
G1 X83.311 Y133.262 E1.9115
G1 X82.126 Y134.054 E1.9649
G1 X82.105 Y134.065 E1.9658
G1 X81.719 Y134.225 E1.9815
G1 X81.696 Y134.232 E1.9824
G1 X80.401 Y134.490 E2.0319
G1 X80.389 Y134.491 E2.0323
G1 X80.181 Y134.512 E2.0401
G1 X80.169 Y134.512 E2.0406
G1 X74.670 Y134.512 E2.2467
G1 X74.658 Y134.512 E2.2472
G1 X74.451 Y134.491 E2.2550
G1 X74.439 Y134.490 E2.2554
G1 X73.141 Y134.232 E2.3050
G1 X73.118 Y134.225 E2.3059
G1 X72.732 Y134.065 E2.3216
G1 X72.710 Y134.054 E2.3225
G1 X71.484 Y133.234 E2.3778
G1 X71.461 Y133.215 E2.3789
G1 X71.112 Y132.832 E2.3983
G1 X71.095 Y132.808 E2.3995
G1 X70.419 Y131.558 E2.4527
G1 X70.409 Y131.536 E2.4536
G1 X70.286 Y131.135 E2.4693
G1 X70.281 Y131.112 E2.4702
G1 X70.153 Y129.869 E2.5171
G1 X70.153 Y129.863 E2.5173
G1 X70.147 Y129.755 E2.5213
G1 X70.147 Y129.749 E2.5216
G1 X70.139 Y111.389 E3.2098
G1 X70.141 Y111.371 E3.2105
G1 X70.189 Y111.053 E3.2225
G1 X70.193 Y111.035 E3.2232
G1 X70.495 Y110.064 E3.2613
G1 X70.509 Y110.035 E3.2625
G1 X70.811 Y109.560 E3.2836
G1 X70.831 Y109.535 E3.2848
G1 X71.668 Y108.769 E3.3274
G1 X71.692 Y108.751 E3.3285
G1 X72.148 Y108.504 E3.3479
G1 X72.176 Y108.493 E3.3490
G1 X73.121 Y108.246 E3.3857
G1 X73.136 Y108.243 E3.3862
G1 X73.405 Y108.209 E3.3964
G1 X73.421 Y108.208 E3.3970
G1 X74.295 Y108.208 E3.4297
G1 X74.309 Y108.208 E3.4303
G1 X74.551 Y108.236 E3.4394
G1 X74.565 Y108.239 E3.4399
G1 X75.127 Y108.370 E3.4616
G1 X75.127 Y91.722 E4.0856
G1 X75.164 Y91.632 E4.0893
G1 X76.404 Y90.391 E4.1550
G92 E0
G1 E-5.0000 F4998
; inner perimeter
G1 X74.032 Y111.678 F3498
G1 E0.0000 F4998
G92 E0
G1 X74.330 Y111.747 E0.0115 F600
G1 X74.706 Y111.978 E0.0280
G1 X75.261 Y112.504 E0.0567
G1 X73.610 Y112.504 E0.1186
G1 X73.609 Y111.678 E0.1496
G1 X74.032 Y111.678 E0.1654
G92 E0
G1 E-5.0000 F4998
G1 X79.416 Y111.733 F3498
G1 E0.0000 F4998
G92 E0
G1 X81.369 Y111.733 E0.0732 F600
G1 X81.369 Y129.597 E0.7428
G1 X81.277 Y130.224 E0.7665
G1 X81.007 Y130.628 E0.7848
G1 X80.575 Y130.917 E0.8043
G1 X79.944 Y131.042 E0.8284
G1 X74.894 Y131.042 E1.0177
G1 X74.261 Y130.917 E1.0418
G1 X73.879 Y130.661 E1.0591
G1 X73.687 Y130.306 E1.0742
G1 X73.617 Y129.631 E1.0997
G1 X73.616 Y127.512 E1.1791
G1 X73.989 Y127.493 E1.1931
G1 X74.010 Y127.701 E1.2009
G1 X74.088 Y128.128 E1.2172
G1 X74.251 Y128.583 E1.2353
G1 X74.486 Y129.006 E1.2534
G1 X74.788 Y129.385 E1.2716
G1 X75.149 Y129.709 E1.2898
G1 X75.557 Y129.968 E1.3079
G1 X76.003 Y130.157 E1.3260
G1 X76.471 Y130.272 E1.3441
G1 X76.915 Y130.307 E1.3608
G1 X77.823 Y130.291 E1.3949
G1 X78.213 Y130.220 E1.4097
G1 X78.567 Y130.110 E1.4236
G1 X78.905 Y129.959 E1.4375
G1 X79.222 Y129.767 E1.4514
G1 X79.514 Y129.539 E1.4653
G1 X79.776 Y129.277 E1.4792
G1 X80.005 Y128.986 E1.4931
G1 X80.197 Y128.669 E1.5070
