; G-Code generated by Simplify3D(R) Version 3.0.0
; Okt 3, 2017 at 6:43:07 
; Settings Summary
;   processName,Process1
;   applyToModels,halterung12
;   profileName,1.5 fein (modified)
;   profileVersion,2017-10-02 14:07:01
;   baseProfile,German RepRap NEO (modified)
;   printMaterial,
;   printQuality,
;   printExtruders,
;   extruderName,Primary Extruder
;   extruderToolheadNumber,0
;   extruderDiameter,0.5
;   extruderAutoWidth,0
;   extruderWidth,0.49
;   extrusionMultiplier,0.91
;   extruderUseRetract,1
;   extruderRetractionDistance,6.5
;   extruderExtraRestartDistance,0
;   extruderRetractionZLift,0
;   extruderRetractionSpeed,4998
;   extruderUseCoasting,0
;   extruderCoastingDistance,0.2
;   extruderUseWipe,0
;   extruderWipeDistance,5
;   primaryExtruder,0
;   layerHeight,0.2
;   topSolidLayers,4
;   bottomSolidLayers,3
;   perimeterOutlines,3
;   printPerimetersInsideOut,1
;   startPointOption,2
;   startPointOriginX,0
;   startPointOriginY,0
;   startPointOriginZ,300
;   sequentialIslands,0
;   spiralVaseMode,0
;   firstLayerHeightPercentage,100
;   firstLayerWidthPercentage,100
;   firstLayerUnderspeed,0.3
;   useRaft,0
;   raftExtruder,0
;   raftLayers,3
;   raftOffset,3
;   raftSeparationDistance,0.1
;   raftInfill,85
;   disableRaftBaseLayers,0
;   useSkirt,1
;   skirtExtruder,0
;   skirtLayers,1
;   skirtOutlines,3
;   skirtOffset,2
;   usePrimePillar,0
;   primePillarExtruder,999
;   primePillarWidth,12
;   primePillarLocation,7
;   primePillarSpeedMultiplier,1
;   useOozeShield,0
;   oozeShieldExtruder,999
;   oozeShieldOffset,2
;   oozeShieldOutlines,1
;   oozeShieldSidewallShape,1
;   oozeShieldSidewallAngle,30
;   oozeShieldSpeedMultiplier,1
;   infillExtruder,0
;   internalInfillPattern,Full Honeycomb
;   externalInfillPattern,Rectilinear
;   infillPercentage,45
;   outlineOverlapPercentage,15
;   infillExtrusionWidthPercentage,100
;   minInfillLength,3
;   infillLayerInterval,1
;   infillAngles,0,120,-120
;   overlapInfillAngles,0
;   generateSupport,1
;   supportExtruder,0
;   supportInfillPercentage,30
;   supportExtraInflation,0
;   denseSupportLayers,0
;   denseSupportInfillPercentage,75
;   supportLayerInterval,1
;   supportHorizontalPartOffset,1.5
;   supportUpperSeparationLayers,2
;   supportLowerSeparationLayers,2
;   supportType,0
;   supportGridSpacing,4
;   maxOverhangAngle,45
;   supportAngles,45
;   temperatureName,Primary Extruder
;   temperatureNumber,0
;   temperatureSetpointCount,3
;   temperatureSetpointLayers,1,2,3
;   temperatureSetpointTemperatures,192,188,183
;   temperatureStabilizeAtStartup,1
;   temperatureHeatedBed,0
;   temperatureRelayBetweenLayers,0
;   temperatureRelayBetweenLoops,0
;   fanLayers,1,3
;   fanSpeeds,0,100
;   blipFanToFullPower,0
;   adjustSpeedForCooling,1
;   minSpeedLayerTime,15
;   minCoolingSpeedSlowdown,20
;   increaseFanForCooling,0
;   minFanLayerTime,45
;   maxCoolingFanSpeed,100
;   increaseFanForBridging,0
;   bridgingFanSpeed,100
;   use5D,1
;   relativeEdistances,0
;   allowEaxisZeroing,1
;   independentExtruderAxes,0
;   includeM10123,0
;   stickySupport,1
;   applyToolheadOffsets,0
;   gcodeXoffset,0
;   gcodeYoffset,0
;   gcodeZoffset,0
;   overrideMachineDefinition,1
;   machineTypeOverride,0
;   strokeXoverride,150
;   strokeYoverride,150
;   strokeZoverride,150
;   originOffsetXoverride,0
;   originOffsetYoverride,0
;   originOffsetZoverride,0
;   homeXdirOverride,-1
;   homeYdirOverride,-1
;   homeZdirOverride,-1
;   flipXoverride,1
;   flipYoverride,-1
;   flipZoverride,1
;   toolheadOffsets,0,0|0,0|0,0|0,0|0,0|0,0
;   overrideFirmwareConfiguration,0
;   firmwareTypeOverride,RepRap (Marlin/Repetier/Sprinter)
;   GPXconfigOverride,r2
;   baudRateOverride,115200
;   overridePrinterModels,0
;   printerModelsOverride
;   startingGcode,G28 ; home all axes
;   layerChangeGcode,
;   retractionGcode,
;   toolChangeGcode,
;   endingGcode,M104 S0 ; turn off extruder,M140 S0 ; turn off bed,G28 X0  ; home X axis,G28 Y0  ; home Y axis,M84 ; disable motors,M107
;   createX3G,0
;   celebration,0
;   celebrationSong,Random Song
;   createMB5G,0
;   postProcessing,
;   defaultSpeed,4800
;   outlineUnderspeed,0.5
;   solidInfillUnderspeed,0.8
;   supportUnderspeed,0.8
;   rapidXYspeed,3498
;   rapidZspeed,1002
;   minBridgingArea,50
;   bridgingExtraInflation,0
;   bridgingExtrusionMultiplier,1
;   bridgingSpeedMultiplier,1
;   filamentDiameter,1.75
;   filamentPricePerKg,46
;   filamentDensity,1.25
;   useMinPrintHeight,0
;   minPrintHeight,0
;   useMaxPrintHeight,0
;   maxPrintHeight,0
;   useDiaphragm,0
;   diaphragmLayerInterval,20
;   robustSlicing,1
;   mergeAllIntoSolid,0
;   onlyRetractWhenCrossingOutline,1
;   retractBetweenLayers,1
;   useRetractionMinTravel,0
;   retractionMinTravel,3
;   retractWhileWiping,0
;   onlyWipeOutlines,1
;   avoidCrossingOutline,0
;   maxMovementDetourFactor,10
;   toolChangeRetractionDistance,0
;   toolChangeExtraRestartDistance,0
;   toolChangeRetractionSpeed,360
;   allowThinWallGapFill,1
;   thinWallAllowedOverlapPercentage,10
;   horizontalSizeCompensation,0
G90
M82
M106 S0
M104 S192 T0
M109 S192 T0
G28 ; home all axes
G92 E0
G1 E-6.5000 F4998
G1 Z0.200 F1002
; layer 1, Z = 0.2
T0
; tool H0.200 W0.490
; skirt
G1 X78.812 Y38.122 F3498
G1 E0.0000 F1499
G92 E0
G1 X80.328 Y36.605 E0.0795 F1440
G1 X80.778 Y36.419 E0.0976
G1 X83.825 Y36.419 E0.2105
G1 X88.145 Y36.419 E0.3707
G1 X88.595 Y36.605 E0.3887
G1 X90.111 Y38.122 E0.4682
G1 X90.297 Y38.572 E0.4863
G1 X90.297 Y76.826 E1.9046
G1 X90.296 Y76.870 E1.9063
G1 X90.282 Y77.058 E1.9133
G1 X90.277 Y77.102 E1.9149
G1 X90.078 Y78.472 E1.9662
G1 X90.044 Y78.604 E1.9713
G1 X89.835 Y79.148 E1.9929
G1 X89.772 Y79.269 E1.9979
G1 X88.908 Y80.562 E2.0556
G1 X88.831 Y80.655 E2.0601
G1 X88.468 Y81.019 E2.0792
G1 X88.375 Y81.095 E2.0836
G1 X87.110 Y81.940 E2.1400
G1 X87.004 Y81.997 E2.1445
G1 X86.528 Y82.194 E2.1636
G1 X86.413 Y82.229 E2.1680
G1 X85.047 Y82.501 E2.2197
G1 X84.988 Y82.509 E2.2219
G1 X84.732 Y82.535 E2.2314
G1 X84.672 Y82.538 E2.2336
G1 X79.125 Y82.538 E2.4393
G1 X79.065 Y82.535 E2.4415
G1 X78.810 Y82.510 E2.4510
G1 X78.751 Y82.501 E2.4533
G1 X77.382 Y82.229 E2.5050
G1 X77.267 Y82.194 E2.5094
G1 X76.791 Y81.997 E2.5285
G1 X76.685 Y81.941 E2.5330
G1 X75.369 Y81.061 E2.5917
G1 X75.256 Y80.964 E2.5972
G1 X74.827 Y80.493 E2.6208
G1 X74.741 Y80.372 E2.6264
G1 X74.013 Y79.028 E2.6830
G1 X73.966 Y78.916 E2.6875
G1 X73.814 Y78.423 E2.7066
G1 X73.790 Y78.305 E2.7111
G1 X73.656 Y77.002 E2.7597
G1 X73.654 Y76.971 E2.7608
G1 X73.647 Y76.838 E2.7658
G1 X73.646 Y76.807 E2.7669
G1 X73.638 Y58.398 E3.4495
G1 X73.645 Y58.305 E3.4529
G1 X73.705 Y57.914 E3.4676
G1 X73.725 Y57.824 E3.4710
G1 X74.058 Y56.756 E3.5125
G1 X74.126 Y56.610 E3.5185
G1 X74.497 Y56.025 E3.5441
G1 X74.601 Y55.901 E3.5501
G1 X75.529 Y55.051 E3.5968
G1 X75.651 Y54.964 E3.6023
G1 X76.211 Y54.659 E3.6260
G1 X76.350 Y54.605 E3.6315
G1 X77.383 Y54.335 E3.6711
G1 X77.460 Y54.320 E3.6740
G1 X77.791 Y54.278 E3.6864
G1 X77.869 Y54.273 E3.6893
G1 X78.626 Y54.273 E3.7173
G1 X78.626 Y38.572 E4.2995
G1 X78.812 Y38.122 E4.3176
G1 X79.228 Y38.399 F3498
G92 E0
G1 X80.606 Y37.021 E0.0723 F1440
G1 X80.876 Y36.909 E0.0831
G1 X83.825 Y36.909 E0.1925
G1 X88.047 Y36.909 E0.3490
G1 X88.317 Y37.021 E0.3598
G1 X89.696 Y38.399 E0.4321
G1 X89.808 Y38.669 E0.4430
G1 X89.808 Y76.817 E1.8573
G1 X89.807 Y76.843 E1.8583
G1 X89.794 Y77.014 E1.8647
G1 X89.791 Y77.041 E1.8657
G1 X89.597 Y78.374 E1.9156
G1 X89.576 Y78.453 E1.9187
G1 X89.387 Y78.946 E1.9382
G1 X89.349 Y79.019 E1.9413
G1 X88.514 Y80.270 E1.9970
G1 X88.468 Y80.326 E1.9997
G1 X88.138 Y80.655 E2.0170
G1 X88.082 Y80.701 E2.0197
G1 X86.857 Y81.520 E2.0743
G1 X86.794 Y81.554 E2.0770
G1 X86.363 Y81.732 E2.0943
G1 X86.294 Y81.753 E2.0969
G1 X84.963 Y82.018 E2.1472
G1 X84.928 Y82.023 E2.1486
G1 X84.696 Y82.046 E2.1572
G1 X84.660 Y82.048 E2.1585
G1 X79.137 Y82.048 E2.3633
G1 X79.101 Y82.046 E2.3647
G1 X78.870 Y82.023 E2.3733
G1 X78.835 Y82.018 E2.3746
G1 X77.501 Y81.753 E2.4250
G1 X77.432 Y81.732 E2.4277
G1 X77.001 Y81.554 E2.4450
G1 X76.937 Y81.520 E2.4477
G1 X75.666 Y80.670 E2.5044
G1 X75.598 Y80.612 E2.5077
G1 X75.209 Y80.185 E2.5291
G1 X75.157 Y80.112 E2.5324
G1 X74.455 Y78.816 E2.5871
G1 X74.427 Y78.749 E2.5897
G1 X74.290 Y78.302 E2.6071
G1 X74.275 Y78.231 E2.6098
G1 X74.144 Y76.958 E2.6572
G1 X74.143 Y76.939 E2.6579
G1 X74.137 Y76.819 E2.6624
G1 X74.136 Y76.800 E2.6631
G1 X74.128 Y58.416 E3.3447
G1 X74.132 Y58.361 E3.3468
G1 X74.186 Y58.006 E3.3601
G1 X74.199 Y57.952 E3.3621
G1 X74.516 Y56.933 E3.4017
G1 X74.557 Y56.845 E3.4053
G1 X74.893 Y56.315 E3.4285
G1 X74.955 Y56.241 E3.4321
G1 X75.838 Y55.433 E3.4765
G1 X75.911 Y55.381 E3.4798
G1 X76.419 Y55.104 E3.5013
G1 X76.502 Y55.071 E3.5046
G1 X77.491 Y54.813 E3.5425
G1 X77.538 Y54.804 E3.5442
G1 X77.837 Y54.766 E3.5555
G1 X77.884 Y54.763 E3.5572
G1 X78.788 Y54.763 E3.5907
G1 X78.830 Y54.765 E3.5923
G1 X79.100 Y54.796 E3.6023
G1 X79.116 Y54.799 E3.6029
G1 X79.116 Y38.669 E4.2010
G1 X79.228 Y38.399 E4.2118
G1 X79.643 Y38.677 F3498
G92 E0
G1 X80.883 Y37.436 E0.0650 F1440
G1 X80.973 Y37.399 E0.0687
G1 X83.825 Y37.399 E0.1744
G1 X87.950 Y37.399 E0.3273
G1 X88.040 Y37.436 E0.3309
G1 X89.280 Y38.677 E0.3960
G1 X89.317 Y38.767 E0.3996
G1 X89.317 Y76.808 E1.8100
G1 X89.317 Y76.817 E1.8104
G1 X89.306 Y76.970 E1.8160
G1 X89.305 Y76.979 E1.8164
G1 X89.116 Y78.277 E1.8650
G1 X89.109 Y78.303 E1.8660
G1 X88.939 Y78.745 E1.8836
G1 X88.927 Y78.769 E1.8846
G1 X88.120 Y79.978 E1.9385
G1 X88.104 Y79.996 E1.9394
G1 X87.809 Y80.292 E1.9549
G1 X87.790 Y80.307 E1.9557
G1 X86.605 Y81.099 E2.0086
G1 X86.584 Y81.110 E2.0095
G1 X86.198 Y81.270 E2.0250
G1 X86.175 Y81.277 E2.0259
G1 X84.880 Y81.535 E2.0748
G1 X84.868 Y81.537 E2.0753
G1 X84.660 Y81.557 E2.0830
G1 X84.648 Y81.558 E2.0835
G1 X79.149 Y81.558 E2.2873
G1 X79.137 Y81.557 E2.2878
G1 X78.930 Y81.537 E2.2955
G1 X78.918 Y81.535 E2.2960
G1 X77.620 Y81.277 E2.3450
G1 X77.597 Y81.270 E2.3459
G1 X77.211 Y81.110 E2.3614
G1 X77.189 Y81.099 E2.3623
G1 X75.963 Y80.279 E2.4170
G1 X75.940 Y80.260 E2.4181
G1 X75.591 Y79.877 E2.4373
G1 X75.574 Y79.853 E2.4384
G1 X74.898 Y78.603 E2.4911
G1 X74.888 Y78.581 E2.4920
G1 X74.765 Y78.181 E2.5075
G1 X74.760 Y78.157 E2.5084
G1 X74.632 Y76.914 E2.5547
G1 X74.632 Y76.908 E2.5550
G1 X74.626 Y76.800 E2.5590
G1 X74.626 Y76.794 E2.5592
G1 X74.618 Y58.434 E3.2399
G1 X74.620 Y58.416 E3.2406
G1 X74.668 Y58.098 E3.2525
G1 X74.672 Y58.080 E3.2532
G1 X74.974 Y57.110 E3.2909
G1 X74.988 Y57.080 E3.2921
G1 X75.289 Y56.605 E3.3130
G1 X75.310 Y56.580 E3.3142
G1 X76.147 Y55.814 E3.3562
G1 X76.171 Y55.797 E3.3573
G1 X76.627 Y55.549 E3.3766
G1 X76.655 Y55.538 E3.3777
G1 X77.600 Y55.291 E3.4139
G1 X77.615 Y55.288 E3.4145
G1 X77.884 Y55.254 E3.4245
G1 X77.900 Y55.253 E3.4251
G1 X78.774 Y55.253 E3.4575
G1 X78.788 Y55.254 E3.4580
G1 X79.030 Y55.281 E3.4671
G1 X79.044 Y55.284 E3.4676
G1 X79.606 Y55.415 E3.4890
G1 X79.606 Y38.767 E4.1062
G1 X79.643 Y38.677 E4.1099
G92 E0
G1 E-6.5000 F4998
; inner perimeter
G1 X78.511 Y58.723 F3498
G1 E0.0000 F4998
G92 E0
G1 X78.809 Y58.792 E0.0114 F1200
G1 X79.185 Y59.023 E0.0277
G1 X79.740 Y59.549 E0.0561
G1 X78.089 Y59.549 E0.1173
G1 X78.088 Y58.723 E0.1479
G1 X78.511 Y58.723 E0.1636
G92 E0
G1 E-6.5000 F4998
G1 X83.895 Y58.778 F3498
G1 E0.0000 F4998
G92 E0
G1 X85.847 Y58.778 E0.0724 F1200
G1 X85.847 Y76.643 E0.7347
G1 X85.756 Y77.269 E0.7582
G1 X85.486 Y77.673 E0.7762
G1 X85.054 Y77.962 E0.7955
G1 X84.423 Y78.088 E0.8194
G1 X79.373 Y78.088 E1.0066
G1 X78.740 Y77.962 E1.0305
G1 X78.358 Y77.707 E1.0476
G1 X78.165 Y77.351 E1.0626
G1 X78.096 Y76.676 E1.0877
G1 X78.095 Y74.557 E1.1663
G1 X78.468 Y74.538 E1.1801
G1 X78.489 Y74.746 E1.1878
G1 X78.567 Y75.173 E1.2039
G1 X78.730 Y75.628 E1.2219
G1 X78.965 Y76.051 E1.2398
G1 X79.267 Y76.430 E1.2578
G1 X79.628 Y76.754 E1.2757
G1 X80.036 Y77.013 E1.2937
G1 X80.481 Y77.202 E1.3116
G1 X80.950 Y77.317 E1.3295
G1 X81.394 Y77.353 E1.3460
G1 X82.302 Y77.337 E1.3797
G1 X82.692 Y77.266 E1.3944
G1 X83.046 Y77.156 E1.4081
G1 X83.384 Y77.004 E1.4219
G1 X83.701 Y76.812 E1.4356
G1 X83.993 Y76.584 E1.4493
G1 X84.255 Y76.322 E1.4631
G1 X84.484 Y76.031 E1.4768
G1 X84.676 Y75.714 E1.4906
G1 X84.829 Y75.376 E1.5043
G1 X84.939 Y75.022 E1.5180
G1 X85.006 Y74.658 E1.5318
G1 X85.027 Y74.324 E1.5442
G1 X85.027 Y60.809 E2.0453
G1 X83.895 Y58.778 E2.1315
G92 E0
G1 E-6.5000 F4998
; inner perimeter
G1 X82.586 Y40.379 F3498
G1 E0.0000 F4998
G92 E0
G1 X82.982 Y40.379 E0.0147 F960
G1 X82.982 Y58.146 E0.6734
G1 X82.586 Y57.434 E0.7036
G1 X82.586 Y40.379 E1.3360
G92 E0
G1 E-6.5000 F4998
G1 X85.389 Y40.379 F3498
G1 E0.0000 F4998
G92 E0
G1 X86.338 Y40.379 E0.0352 F960
G1 X86.338 Y76.678 E1.3810
G1 X86.225 Y77.449 E1.4099
G1 X85.839 Y78.027 E1.4357
G1 X85.245 Y78.424 E1.4622
G1 X84.472 Y78.578 E1.4914
G1 X79.325 Y78.578 E1.6822
G1 X78.549 Y78.424 E1.7115
G1 X77.985 Y78.047 E1.7367
G1 X77.688 Y77.498 E1.7598
G1 X77.606 Y76.701 E1.7895
G1 X77.598 Y58.706 E2.4567
G1 X77.677 Y58.454 E2.4665
G1 X77.834 Y58.310 E2.4744
G1 X78.130 Y58.233 E2.4858
G1 X78.567 Y58.233 E2.5020
G1 X78.998 Y58.333 E2.5184
G1 X79.485 Y58.632 E2.5396
G1 X79.915 Y59.039 E2.5615
G1 X80.411 Y60.039 E2.6029
G1 X78.939 Y60.039 E2.6575
G1 X78.939 Y74.325 E3.1872
G1 X78.974 Y74.677 E3.2003
G1 X79.042 Y75.046 E3.2142
G1 X79.178 Y75.425 E3.2291
G1 X79.374 Y75.778 E3.2441
G1 X79.625 Y76.093 E3.2590
G1 X79.925 Y76.362 E3.2740
G1 X80.265 Y76.578 E3.2889
G1 X80.636 Y76.736 E3.3039
G1 X81.029 Y76.832 E3.3188
G1 X81.410 Y76.862 E3.3330
G1 X82.253 Y76.847 E3.3643
G1 X82.575 Y76.789 E3.3764
G1 X82.872 Y76.696 E3.3880
G1 X83.156 Y76.569 E3.3995
G1 X83.423 Y76.408 E3.4111
G1 X83.668 Y76.216 E3.4226
G1 X83.888 Y75.996 E3.4341
G1 X84.080 Y75.752 E3.4457
G1 X84.242 Y75.485 E3.4572
G1 X84.370 Y75.201 E3.4688
G1 X84.463 Y74.904 E3.4803
G1 X84.519 Y74.598 E3.4918
G1 X84.537 Y74.309 E3.5026
G1 X84.537 Y60.936 E3.9984
G1 X83.061 Y58.288 E4.1108
G1 X85.389 Y58.288 E4.1971
G1 X85.389 Y40.379 E4.8611
G92 E0
G1 E-6.5000 F4998
; outer perimeter
G1 X82.096 Y39.889 F3498
G1 E0.0000 F4998
G92 E0
G1 X83.472 Y39.889 E0.0510 F720
G1 X83.472 Y57.798 E0.7150
G1 X84.899 Y57.798 E0.7679
G1 X84.899 Y39.889 E1.4319
G1 X86.828 Y39.889 E1.5035
G1 X86.828 Y76.714 E2.8688
G1 X86.694 Y77.629 E2.9031
G1 X86.193 Y78.380 E2.9366
G1 X85.436 Y78.885 E2.9703
G1 X84.520 Y79.068 E3.0049
G1 X79.277 Y79.068 E3.1993
G1 X78.358 Y78.885 E3.2341
G1 X77.612 Y78.387 E3.2673
G1 X77.211 Y77.645 E3.2986
G1 X77.116 Y76.726 E3.3328
G1 X77.108 Y58.631 E4.0037
G1 X77.248 Y58.182 E4.0212
G1 X77.593 Y57.866 E4.0385
G1 X78.067 Y57.743 E4.0567
G1 X78.624 Y57.743 E4.0773
G1 X79.187 Y57.874 E4.0988
G1 X79.785 Y58.241 E4.1248
G1 X80.315 Y58.743 E4.1519
G1 X80.760 Y59.639 E4.1889
G1 X80.994 Y60.462 E4.2207
G1 X80.988 Y60.496 E4.2220
G1 X80.973 Y60.512 E4.2228
G1 X80.914 Y60.529 E4.2250
G1 X79.429 Y60.529 E4.2801
G1 X79.429 Y74.300 E4.7907
G1 X79.460 Y74.608 E4.8022
G1 X79.517 Y74.918 E4.8139
G1 X79.625 Y75.222 E4.8258
G1 X79.782 Y75.504 E4.8378
G1 X79.983 Y75.755 E4.8497
G1 X80.222 Y75.970 E4.8616
G1 X80.494 Y76.143 E4.8736
G1 X80.791 Y76.269 E4.8856
G1 X81.107 Y76.346 E4.8976
G1 X81.425 Y76.372 E4.9094
G1 X82.205 Y76.358 E4.9384
G1 X82.458 Y76.312 E4.9479
G1 X82.698 Y76.237 E4.9572
G1 X82.928 Y76.134 E4.9666
G1 X83.144 Y76.004 E4.9759
G1 X83.343 Y75.849 E4.9853
G1 X83.521 Y75.671 E4.9946
G1 X83.677 Y75.472 E5.0040
G1 X83.807 Y75.257 E5.0133
G1 X83.911 Y75.027 E5.0227
G1 X83.986 Y74.786 E5.0320
G1 X84.032 Y74.539 E5.0413
G1 X84.047 Y74.294 E5.0504
G1 X84.047 Y61.063 E5.5410
G1 X82.096 Y57.562 E5.6896
G1 X82.096 Y39.889 E6.3449
G92 E0
G1 E-6.5000 F4998
; gap fill
G1 X85.810 Y41.327 F3498
G1 E0.0000 F4998
G92 E0
G1 X85.916 Y41.221 E0.0055 F1440
G1 X85.916 Y41.914 E0.0312
G1 X85.810 Y42.020 E0.0368
G1 X85.810 Y42.713 E0.0625
G1 X85.916 Y42.607 E0.0680
G1 X85.916 Y43.300 E0.0937
G1 X85.810 Y43.406 E0.0993
G1 X85.810 Y44.099 E0.1250
G1 X85.916 Y43.993 E0.1305
G1 X85.916 Y44.686 E0.1562
G1 X85.810 Y44.792 E0.1617
G1 X85.810 Y45.485 E0.1874
G1 X85.916 Y45.379 E0.1930
G1 X85.916 Y46.072 E0.2187
G1 X85.810 Y46.178 E0.2242
G1 X85.810 Y46.871 E0.2499
