; G-Code generated by Simplify3D(R) Version 3.0.0
; Okt 4, 2017 at 8:36:26 
; Settings Summary
;   processName,Process1
;   applyToModels,halterung13,halterung13(2),halterung13(3),halterung13(4),halterung13(5),halterung13(6)
;   profileName,new profile
;   profileVersion,2017-10-04 20:36:04
;   baseProfile,German RepRap NEO (modified)
;   printMaterial,
;   printQuality,
;   printExtruders,
;   extruderName,Primary Extruder
;   extruderToolheadNumber,0
;   extruderDiameter,0.5
;   extruderAutoWidth,0
;   extruderWidth,0.49
;   extrusionMultiplier,0.92
;   extruderUseRetract,1
;   extruderRetractionDistance,6.5
;   extruderExtraRestartDistance,0
;   extruderRetractionZLift,0
;   extruderRetractionSpeed,4998
;   extruderUseCoasting,0
;   extruderCoastingDistance,0.2
;   extruderUseWipe,0
;   extruderWipeDistance,5
;   primaryExtruder,0
;   layerHeight,0.2
;   topSolidLayers,4
;   bottomSolidLayers,3
;   perimeterOutlines,3
;   printPerimetersInsideOut,1
;   startPointOption,2
;   startPointOriginX,0
;   startPointOriginY,0
;   startPointOriginZ,300
;   sequentialIslands,0
;   spiralVaseMode,0
;   firstLayerHeightPercentage,100
;   firstLayerWidthPercentage,100
;   firstLayerUnderspeed,0.2
;   useRaft,0
;   raftExtruder,0
;   raftLayers,3
;   raftOffset,3
;   raftSeparationDistance,0.1
;   raftInfill,85
;   disableRaftBaseLayers,0
;   useSkirt,1
;   skirtExtruder,0
;   skirtLayers,1
;   skirtOutlines,2
;   skirtOffset,2
;   usePrimePillar,0
;   primePillarExtruder,999
;   primePillarWidth,12
;   primePillarLocation,7
;   primePillarSpeedMultiplier,1
;   useOozeShield,0
;   oozeShieldExtruder,999
;   oozeShieldOffset,2
;   oozeShieldOutlines,1
;   oozeShieldSidewallShape,1
;   oozeShieldSidewallAngle,30
;   oozeShieldSpeedMultiplier,1
;   infillExtruder,0
;   internalInfillPattern,Full Honeycomb
;   externalInfillPattern,Rectilinear
;   infillPercentage,30
;   outlineOverlapPercentage,15
;   infillExtrusionWidthPercentage,100
;   minInfillLength,3
;   infillLayerInterval,1
;   infillAngles,0,120,-120
;   overlapInfillAngles,0
;   generateSupport,0
;   supportExtruder,0
;   supportInfillPercentage,30
;   supportExtraInflation,0
;   denseSupportLayers,0
;   denseSupportInfillPercentage,75
;   supportLayerInterval,1
;   supportHorizontalPartOffset,1.5
;   supportUpperSeparationLayers,2
;   supportLowerSeparationLayers,2
;   supportType,0
;   supportGridSpacing,4
;   maxOverhangAngle,45
;   supportAngles,45
;   temperatureName,Primary Extruder
;   temperatureNumber,0
;   temperatureSetpointCount,3
;   temperatureSetpointLayers,1,2,3
;   temperatureSetpointTemperatures,193,189,184
;   temperatureStabilizeAtStartup,1
;   temperatureHeatedBed,0
;   temperatureRelayBetweenLayers,0
;   temperatureRelayBetweenLoops,0
;   fanLayers,1,3
;   fanSpeeds,0,100
;   blipFanToFullPower,0
;   adjustSpeedForCooling,1
;   minSpeedLayerTime,15
;   minCoolingSpeedSlowdown,20
;   increaseFanForCooling,0
;   minFanLayerTime,45
;   maxCoolingFanSpeed,100
;   increaseFanForBridging,0
;   bridgingFanSpeed,100
;   use5D,1
;   relativeEdistances,0
;   allowEaxisZeroing,1
;   independentExtruderAxes,0
;   includeM10123,0
;   stickySupport,1
;   applyToolheadOffsets,0
;   gcodeXoffset,0
;   gcodeYoffset,0
;   gcodeZoffset,0
;   overrideMachineDefinition,1
;   machineTypeOverride,0
;   strokeXoverride,150
;   strokeYoverride,150
;   strokeZoverride,150
;   originOffsetXoverride,0
;   originOffsetYoverride,0
;   originOffsetZoverride,0
;   homeXdirOverride,-1
;   homeYdirOverride,-1
;   homeZdirOverride,-1
;   flipXoverride,1
;   flipYoverride,-1
;   flipZoverride,1
;   toolheadOffsets,0,0|0,0|0,0|0,0|0,0|0,0
;   overrideFirmwareConfiguration,0
;   firmwareTypeOverride,RepRap (Marlin/Repetier/Sprinter)
;   GPXconfigOverride,r2
;   baudRateOverride,115200
;   overridePrinterModels,0
;   printerModelsOverride
;   startingGcode,G28 ; home all axes
;   layerChangeGcode,
;   retractionGcode,
;   toolChangeGcode,
;   endingGcode,M104 S0 ; turn off extruder,M140 S0 ; turn off bed,G28 X0  ; home X axis,G28 Y0  ; home Y axis,M84 ; disable motors,M107
;   createX3G,0
;   celebration,0
;   celebrationSong,Random Song
;   createMB5G,0
;   postProcessing,
;   defaultSpeed,4200
;   outlineUnderspeed,0.5
;   solidInfillUnderspeed,0.8
;   supportUnderspeed,0.8
;   rapidXYspeed,3498
;   rapidZspeed,1002
;   minBridgingArea,50
;   bridgingExtraInflation,0
;   bridgingExtrusionMultiplier,1
;   bridgingSpeedMultiplier,1
;   filamentDiameter,1.75
;   filamentPricePerKg,46
;   filamentDensity,1.25
;   useMinPrintHeight,0
;   minPrintHeight,0
;   useMaxPrintHeight,0
;   maxPrintHeight,0
;   useDiaphragm,0
;   diaphragmLayerInterval,20
;   robustSlicing,1
;   mergeAllIntoSolid,0
;   onlyRetractWhenCrossingOutline,1
;   retractBetweenLayers,1
;   useRetractionMinTravel,0
;   retractionMinTravel,3
;   retractWhileWiping,0
;   onlyWipeOutlines,1
;   avoidCrossingOutline,0
;   maxMovementDetourFactor,10
;   toolChangeRetractionDistance,0
;   toolChangeExtraRestartDistance,0
;   toolChangeRetractionSpeed,360
;   allowThinWallGapFill,1
;   thinWallAllowedOverlapPercentage,10
;   horizontalSizeCompensation,0
G90
M82
M106 S0
M104 S193 T0
M109 S193 T0
G28 ; home all axes
G92 E0
G1 E-6.5000 F4998
G1 Z0.200 F1002
; layer 1, Z = 0.2
T0
; tool H0.200 W0.490
; skirt
G1 X13.667 Y11.017 F3498
G1 E0.0000 F1499
G92 E0
G1 X15.045 Y9.639 E0.0731 F840
G1 X15.316 Y9.527 E0.0840
G1 X18.265 Y9.527 E0.1946
G1 X22.487 Y9.527 E0.3528
G1 X22.757 Y9.639 E0.3638
G1 X24.135 Y11.017 E0.4369
G1 X24.247 Y11.287 E0.4478
G1 X24.247 Y29.398 E1.1267
G1 X24.542 Y28.933 E1.1473
G1 X24.604 Y28.859 E1.1509
G1 X25.487 Y28.050 E1.1958
G1 X25.560 Y27.998 E1.1992
G1 X26.068 Y27.722 E1.2208
G1 X26.151 Y27.689 E1.2242
G1 X27.140 Y27.431 E1.2625
G1 X27.186 Y27.422 E1.2643
G1 X27.486 Y27.384 E1.2756
G1 X27.533 Y27.381 E1.2774
G1 X28.038 Y27.381 E1.2963
G1 X28.080 Y27.383 E1.2979
G1 X28.350 Y27.414 E1.3081
G1 X28.392 Y27.421 E1.3096
G1 X28.765 Y27.508 E1.3240
G1 X28.765 Y11.287 E1.9320
G1 X28.876 Y11.017 E1.9430
G1 X30.255 Y9.639 E2.0161
G1 X30.525 Y9.527 E2.0270
G1 X33.474 Y9.527 E2.1376
G1 X37.696 Y9.527 E2.2958
G1 X37.966 Y9.639 E2.3068
G1 X39.345 Y11.017 E2.3798
G1 X39.456 Y11.287 E2.3908
G1 X39.456 Y29.398 E3.0697
G1 X39.751 Y28.933 E3.0903
G1 X39.814 Y28.859 E3.0939
G1 X40.696 Y28.050 E3.1388
G1 X40.769 Y27.998 E3.1421
G1 X41.277 Y27.722 E3.1638
G1 X41.360 Y27.689 E3.1672
G1 X42.350 Y27.431 E3.2055
G1 X42.396 Y27.422 E3.2073
G1 X42.696 Y27.384 E3.2186
G1 X42.742 Y27.381 E3.2203
G1 X43.248 Y27.381 E3.2393
G1 X43.290 Y27.383 E3.2409
G1 X43.560 Y27.414 E3.2511
G1 X43.601 Y27.421 E3.2526
G1 X43.974 Y27.508 E3.2670
G1 X43.974 Y11.287 E3.8750
G1 X44.086 Y11.017 E3.8860
G1 X45.464 Y9.639 E3.9590
G1 X45.734 Y9.527 E3.9700
G1 X48.684 Y9.527 E4.0806
G1 X52.905 Y9.527 E4.2388
G1 X53.176 Y9.639 E4.2498
G1 X54.554 Y11.017 E4.3228
G1 X54.666 Y11.287 E4.3338
G1 X54.666 Y29.398 E5.0126
G1 X54.961 Y28.933 E5.0333
G1 X55.023 Y28.859 E5.0369
G1 X55.906 Y28.050 E5.0818
G1 X55.978 Y27.998 E5.0851
G1 X56.486 Y27.722 E5.1068
G1 X56.570 Y27.689 E5.1102
G1 X57.559 Y27.431 E5.1485
G1 X57.605 Y27.422 E5.1502
G1 X57.905 Y27.384 E5.1616
G1 X57.952 Y27.381 E5.1633
G1 X58.457 Y27.381 E5.1823
G1 X58.499 Y27.383 E5.1839
G1 X58.769 Y27.414 E5.1940
G1 X58.810 Y27.421 E5.1956
G1 X59.183 Y27.508 E5.2100
G1 X59.183 Y11.287 E5.8180
G1 X59.295 Y11.017 E5.8290
G1 X60.673 Y9.639 E5.9020
G1 X60.944 Y9.527 E5.9130
G1 X63.893 Y9.527 E6.0235
G1 X68.115 Y9.527 E6.1818
G1 X68.385 Y9.639 E6.1927
G1 X69.763 Y11.017 E6.2658
G1 X69.875 Y11.287 E6.2768
G1 X69.875 Y49.435 E7.7067
G1 X69.874 Y49.461 E7.7077
G1 X69.862 Y49.632 E7.7141
G1 X69.859 Y49.658 E7.7151
G1 X69.665 Y50.992 E7.7656
G1 X69.644 Y51.071 E7.7687
G1 X69.455 Y51.564 E7.7885
G1 X69.417 Y51.637 E7.7916
G1 X68.581 Y52.888 E7.8479
G1 X68.535 Y52.943 E7.8507
G1 X68.206 Y53.273 E7.8681
G1 X68.150 Y53.319 E7.8708
G1 X66.925 Y54.137 E7.9261
G1 X66.861 Y54.171 E7.9288
G1 X66.431 Y54.350 E7.9462
G1 X66.361 Y54.371 E7.9490
G1 X65.031 Y54.635 E7.9998
G1 X64.995 Y54.641 E8.0012
G1 X64.764 Y54.664 E8.0099
G1 X64.728 Y54.665 E8.0112
G1 X59.205 Y54.665 E8.2183
G1 X59.169 Y54.664 E8.2196
G1 X58.938 Y54.641 E8.2283
G1 X58.902 Y54.636 E8.2297
G1 X57.569 Y54.371 E8.2806
G1 X57.500 Y54.350 E8.2833
G1 X57.068 Y54.172 E8.3008
G1 X57.005 Y54.138 E8.3035
G1 X55.733 Y53.288 E8.3608
G1 X55.665 Y53.230 E8.3642
G1 X55.277 Y52.803 E8.3858
G1 X55.225 Y52.730 E8.3892
G1 X54.523 Y51.433 E8.4445
G1 X54.495 Y51.367 E8.4472
G1 X54.418 Y51.116 E8.4570
G1 X54.245 Y51.564 E8.4750
G1 X54.208 Y51.637 E8.4781
G1 X53.372 Y52.888 E8.5344
G1 X53.326 Y52.943 E8.5372
G1 X52.997 Y53.273 E8.5546
G1 X52.941 Y53.319 E8.5573
G1 X51.716 Y54.137 E8.6126
G1 X51.652 Y54.171 E8.6153
G1 X51.221 Y54.350 E8.6327
G1 X51.152 Y54.371 E8.6355
G1 X49.822 Y54.635 E8.6863
G1 X49.786 Y54.641 E8.6877
G1 X49.555 Y54.664 E8.6964
G1 X49.518 Y54.665 E8.6977
G1 X43.995 Y54.665 E8.9048
G1 X43.959 Y54.664 E8.9061
G1 X43.728 Y54.641 E8.9148
G1 X43.693 Y54.636 E8.9162
G1 X42.360 Y54.371 E8.9671
G1 X42.290 Y54.350 E8.9698
G1 X41.859 Y54.172 E8.9873
G1 X41.795 Y54.138 E8.9900
G1 X40.524 Y53.288 E9.0473
G1 X40.456 Y53.230 E9.0507
G1 X40.067 Y52.803 E9.0723
G1 X40.016 Y52.730 E9.0757
G1 X39.314 Y51.433 E9.1310
G1 X39.286 Y51.367 E9.1337
G1 X39.208 Y51.116 E9.1435
G1 X39.036 Y51.564 E9.1615
G1 X38.998 Y51.637 E9.1646
G1 X38.163 Y52.888 E9.2209
G1 X38.117 Y52.943 E9.2237
G1 X37.787 Y53.273 E9.2411
G1 X37.731 Y53.319 E9.2438
G1 X36.506 Y54.137 E9.2991
G1 X36.443 Y54.171 E9.3018
G1 X36.012 Y54.350 E9.3192
G1 X35.943 Y54.371 E9.3220
G1 X34.612 Y54.635 E9.3728
G1 X34.577 Y54.641 E9.3742
G1 X34.345 Y54.664 E9.3829
G1 X34.309 Y54.665 E9.3842
G1 X28.786 Y54.665 E9.5913
G1 X28.750 Y54.664 E9.5926
G1 X28.519 Y54.641 E9.6013
G1 X28.483 Y54.636 E9.6027
G1 X27.150 Y54.371 E9.6536
G1 X27.081 Y54.350 E9.6563
G1 X26.650 Y54.172 E9.6738
G1 X26.586 Y54.138 E9.6765
G1 X25.315 Y53.288 E9.7338
G1 X25.247 Y53.230 E9.7372
G1 X24.858 Y52.803 E9.7588
G1 X24.806 Y52.730 E9.7622
G1 X24.104 Y51.433 E9.8175
G1 X24.076 Y51.367 E9.8202
G1 X23.999 Y51.116 E9.8300
G1 X23.827 Y51.564 E9.8480
G1 X23.789 Y51.637 E9.8511
G1 X22.953 Y52.888 E9.9074
G1 X22.908 Y52.943 E9.9102
G1 X22.578 Y53.273 E9.9276
G1 X22.522 Y53.319 E9.9303
G1 X21.297 Y54.137 E9.9856
G1 X21.233 Y54.171 E9.9883
G1 X20.803 Y54.350 E10.0057
G1 X20.734 Y54.371 E10.0085
G1 X19.403 Y54.635 E10.0593
G1 X19.367 Y54.641 E10.0607
G1 X19.136 Y54.664 E10.0694
G1 X19.100 Y54.665 E10.0707
G1 X13.577 Y54.665 E10.2778
G1 X13.541 Y54.664 E10.2791
G1 X13.310 Y54.641 E10.2878
G1 X13.274 Y54.636 E10.2892
G1 X11.941 Y54.371 E10.3401
G1 X11.872 Y54.350 E10.3428
G1 X11.441 Y54.172 E10.3603
G1 X11.377 Y54.138 E10.3630
G1 X10.105 Y53.288 E10.4203
G1 X10.038 Y53.230 E10.4237
G1 X9.649 Y52.803 E10.4453
G1 X9.597 Y52.730 E10.4487
G1 X8.895 Y51.433 E10.5040
G1 X8.867 Y51.367 E10.5067
G1 X8.729 Y50.920 E10.5242
G1 X8.715 Y50.849 E10.5269
G1 X8.584 Y49.576 E10.5749
G1 X8.583 Y49.557 E10.5756
G1 X8.576 Y49.437 E10.5801
G1 X8.576 Y49.418 E10.5808
G1 X8.568 Y31.034 E11.2699
G1 X8.572 Y30.978 E11.2720
G1 X8.626 Y30.624 E11.2854
G1 X8.638 Y30.569 E11.2875
G1 X8.956 Y29.551 E11.3275
G1 X8.997 Y29.463 E11.3312
G1 X9.333 Y28.933 E11.3547
G1 X9.395 Y28.859 E11.3583
G1 X10.278 Y28.050 E11.4032
G1 X10.351 Y27.998 E11.4065
G1 X10.859 Y27.722 E11.4282
G1 X10.942 Y27.689 E11.4316
G1 X11.931 Y27.431 E11.4699
G1 X11.977 Y27.422 E11.4717
G1 X12.277 Y27.384 E11.4830
G1 X12.324 Y27.381 E11.4847
G1 X12.829 Y27.381 E11.5037
G1 X12.871 Y27.383 E11.5053
G1 X13.141 Y27.414 E11.5154
G1 X13.183 Y27.421 E11.5170
G1 X13.555 Y27.508 E11.5314
G1 X13.555 Y11.287 E12.1394
G1 X13.667 Y11.017 E12.1504
G92 E0
G1 E-6.5000 F4998
G1 X15.316 Y55.094 F3498
G1 E0.0000 F4998
G92 E0
G1 X22.487 Y55.094 E0.2688 F840
G1 X22.757 Y55.206 E0.2798
G1 X24.135 Y56.584 E0.3528
G1 X24.247 Y56.854 E0.3638
G1 X24.247 Y74.965 E1.0426
G1 X24.542 Y74.500 E1.0633
G1 X24.604 Y74.426 E1.0669
G1 X25.487 Y73.618 E1.1118
G1 X25.560 Y73.566 E1.1151
G1 X26.068 Y73.289 E1.1368
G1 X26.151 Y73.256 E1.1402
G1 X27.140 Y72.998 E1.1785
G1 X27.186 Y72.989 E1.1802
G1 X27.486 Y72.951 E1.1916
G1 X27.533 Y72.948 E1.1933
G1 X28.038 Y72.948 E1.2123
G1 X28.080 Y72.950 E1.2139
G1 X28.350 Y72.981 E1.2240
G1 X28.392 Y72.989 E1.2256
G1 X28.765 Y73.076 E1.2400
G1 X28.765 Y56.854 E1.8480
G1 X28.876 Y56.584 E1.8590
G1 X30.255 Y55.206 E1.9320
G1 X30.525 Y55.094 E1.9430
G1 X37.696 Y55.094 E2.2118
G1 X37.966 Y55.206 E2.2228
G1 X39.345 Y56.584 E2.2958
G1 X39.456 Y56.854 E2.3068
G1 X39.456 Y95.002 E3.7367
G1 X39.456 Y95.029 E3.7377
G1 X39.443 Y95.199 E3.7441
G1 X39.440 Y95.226 E3.7451
G1 X39.246 Y96.560 E3.7956
G1 X39.225 Y96.639 E3.7987
G1 X39.036 Y97.132 E3.8185
G1 X38.998 Y97.204 E3.8216
G1 X38.163 Y98.455 E3.8779
G1 X38.117 Y98.511 E3.8807
G1 X37.787 Y98.840 E3.8981
G1 X37.731 Y98.886 E3.9008
G1 X36.506 Y99.705 E3.9561
G1 X36.443 Y99.739 E3.9588
G1 X36.012 Y99.917 E3.9762
G1 X35.943 Y99.938 E3.9790
G1 X34.612 Y100.203 E4.0298
G1 X34.577 Y100.208 E4.0312
G1 X34.345 Y100.231 E4.0399
G1 X34.309 Y100.233 E4.0412
G1 X28.786 Y100.233 E4.2483
G1 X28.750 Y100.231 E4.2496
G1 X28.519 Y100.208 E4.2583
G1 X28.483 Y100.203 E4.2597
G1 X27.150 Y99.938 E4.3106
G1 X27.081 Y99.918 E4.3133
G1 X26.650 Y99.739 E4.3308
G1 X26.586 Y99.705 E4.3335
G1 X25.315 Y98.855 E4.3908
G1 X25.247 Y98.797 E4.3942
G1 X24.858 Y98.370 E4.4158
G1 X24.806 Y98.297 E4.4192
G1 X24.104 Y97.001 E4.4745
G1 X24.076 Y96.934 E4.4772
G1 X23.999 Y96.683 E4.4870
G1 X23.827 Y97.132 E4.5050
G1 X23.789 Y97.204 E4.5081
G1 X22.953 Y98.455 E4.5644
G1 X22.908 Y98.511 E4.5672
G1 X22.578 Y98.840 E4.5846
G1 X22.522 Y98.886 E4.5873
G1 X21.297 Y99.705 E4.6426
G1 X21.233 Y99.739 E4.6453
G1 X20.803 Y99.917 E4.6627
G1 X20.734 Y99.938 E4.6655
G1 X19.403 Y100.203 E4.7163
G1 X19.367 Y100.208 E4.7177
G1 X19.136 Y100.231 E4.7264
G1 X19.100 Y100.233 E4.7277
G1 X13.577 Y100.233 E4.9348
G1 X13.541 Y100.231 E4.9361
G1 X13.310 Y100.208 E4.9448
G1 X13.274 Y100.203 E4.9462
G1 X11.941 Y99.938 E4.9971
G1 X11.872 Y99.918 E4.9998
G1 X11.441 Y99.739 E5.0173
G1 X11.377 Y99.705 E5.0200
G1 X10.105 Y98.855 E5.0773
G1 X10.038 Y98.797 E5.0807
G1 X9.649 Y98.370 E5.1023
G1 X9.597 Y98.297 E5.1057
G1 X8.895 Y97.001 E5.1610
G1 X8.867 Y96.934 E5.1637
G1 X8.729 Y96.487 E5.1812
G1 X8.715 Y96.416 E5.1839
G1 X8.584 Y95.143 E5.2319
G1 X8.583 Y95.125 E5.2326
G1 X8.576 Y95.004 E5.2371
G1 X8.576 Y94.985 E5.2378
G1 X8.568 Y76.601 E5.9269
G1 X8.572 Y76.546 E5.9290
G1 X8.626 Y76.191 E5.9424
G1 X8.638 Y76.137 E5.9445
G1 X8.956 Y75.118 E5.9845
G1 X8.997 Y75.030 E5.9882
G1 X9.333 Y74.500 E6.0117
G1 X9.395 Y74.426 E6.0153
G1 X10.278 Y73.618 E6.0602
G1 X10.351 Y73.566 E6.0635
G1 X10.859 Y73.289 E6.0852
G1 X10.942 Y73.256 E6.0886
G1 X11.931 Y72.998 E6.1269
G1 X11.977 Y72.989 E6.1287
G1 X12.277 Y72.951 E6.1400
G1 X12.324 Y72.948 E6.1417
G1 X12.829 Y72.948 E6.1607
G1 X12.871 Y72.950 E6.1623
G1 X13.141 Y72.981 E6.1724
G1 X13.183 Y72.989 E6.1740
G1 X13.555 Y73.076 E6.1884
G1 X13.555 Y56.854 E6.7964
G1 X13.667 Y56.584 E6.8074
G1 X15.045 Y55.206 E6.8804
G1 X15.316 Y55.094 E6.8914
G1 X15.413 Y55.584 F3498
G92 E0
G1 X22.389 Y55.584 E0.2615 F840
G1 X22.479 Y55.621 E0.2652
G1 X23.720 Y56.862 E0.3309
G1 X23.757 Y56.952 E0.3346
G1 X23.757 Y94.993 E1.7605
G1 X23.757 Y95.002 E1.7608
G1 X23.746 Y95.155 E1.7666
G1 X23.745 Y95.164 E1.7669
G1 X23.556 Y96.462 E1.8161
G1 X23.549 Y96.488 E1.8171
G1 X23.379 Y96.930 E1.8349
G1 X23.367 Y96.955 E1.8359
G1 X22.559 Y98.163 E1.8904
G1 X22.544 Y98.181 E1.8913
G1 X22.248 Y98.477 E1.9069
G1 X22.230 Y98.492 E1.9078
G1 X21.045 Y99.284 E1.9612
G1 X21.024 Y99.295 E1.9622
G1 X20.637 Y99.455 E1.9778
G1 X20.614 Y99.462 E1.9787
G1 X19.319 Y99.720 E2.0282
G1 X19.307 Y99.722 E2.0287
G1 X19.100 Y99.742 E2.0365
G1 X19.088 Y99.743 E2.0369
G1 X13.589 Y99.743 E2.2431
G1 X13.577 Y99.742 E2.2435
G1 X13.370 Y99.722 E2.2513
G1 X13.358 Y99.720 E2.2518
G1 X12.060 Y99.463 E2.3014
G1 X12.037 Y99.456 E2.3023
G1 X11.650 Y99.295 E2.3180
G1 X11.629 Y99.284 E2.3189
G1 X10.402 Y98.464 E2.3742
G1 X10.380 Y98.445 E2.3753
G1 X10.031 Y98.062 E2.3947
G1 X10.014 Y98.038 E2.3958
