; G-Code generated by Simplify3D(R) Version 3.0.0
; Okt 3, 2017 at 12:54:13 
; Settings Summary
;   processName,Process1
;   applyToModels,halterung12
;   profileName,1.5 fein (modified)
;   profileVersion,2017-10-02 14:07:01
;   baseProfile,German RepRap NEO (modified)
;   printMaterial,
;   printQuality,
;   printExtruders,
;   extruderName,Primary Extruder
;   extruderToolheadNumber,0
;   extruderDiameter,0.5
;   extruderAutoWidth,0
;   extruderWidth,0.49
;   extrusionMultiplier,0.93
;   extruderUseRetract,1
;   extruderRetractionDistance,5
;   extruderExtraRestartDistance,0
;   extruderRetractionZLift,0
;   extruderRetractionSpeed,4998
;   extruderUseCoasting,0
;   extruderCoastingDistance,0.2
;   extruderUseWipe,0
;   extruderWipeDistance,5
;   primaryExtruder,0
;   layerHeight,0.2
;   topSolidLayers,4
;   bottomSolidLayers,3
;   perimeterOutlines,3
;   printPerimetersInsideOut,1
;   startPointOption,2
;   startPointOriginX,0
;   startPointOriginY,0
;   startPointOriginZ,300
;   sequentialIslands,0
;   spiralVaseMode,0
;   firstLayerHeightPercentage,100
;   firstLayerWidthPercentage,100
;   firstLayerUnderspeed,0.3
;   useRaft,0
;   raftExtruder,0
;   raftLayers,3
;   raftOffset,3
;   raftSeparationDistance,0.1
;   raftInfill,85
;   disableRaftBaseLayers,0
;   useSkirt,1
;   skirtExtruder,0
;   skirtLayers,1
;   skirtOutlines,5
;   skirtOffset,2
;   usePrimePillar,0
;   primePillarExtruder,999
;   primePillarWidth,12
;   primePillarLocation,7
;   primePillarSpeedMultiplier,1
;   useOozeShield,0
;   oozeShieldExtruder,999
;   oozeShieldOffset,2
;   oozeShieldOutlines,1
;   oozeShieldSidewallShape,1
;   oozeShieldSidewallAngle,30
;   oozeShieldSpeedMultiplier,1
;   infillExtruder,0
;   internalInfillPattern,Full Honeycomb
;   externalInfillPattern,Rectilinear
;   infillPercentage,50
;   outlineOverlapPercentage,15
;   infillExtrusionWidthPercentage,100
;   minInfillLength,3
;   infillLayerInterval,1
;   infillAngles,0,120,-120
;   overlapInfillAngles,0
;   generateSupport,1
;   supportExtruder,0
;   supportInfillPercentage,30
;   supportExtraInflation,0
;   denseSupportLayers,0
;   denseSupportInfillPercentage,75
;   supportLayerInterval,1
;   supportHorizontalPartOffset,1.5
;   supportUpperSeparationLayers,2
;   supportLowerSeparationLayers,2
;   supportType,0
;   supportGridSpacing,4
;   maxOverhangAngle,45
;   supportAngles,45
;   temperatureName,Primary Extruder
;   temperatureNumber,0
;   temperatureSetpointCount,3
;   temperatureSetpointLayers,1,2,3
;   temperatureSetpointTemperatures,207,200,193
;   temperatureStabilizeAtStartup,1
;   temperatureHeatedBed,0
;   temperatureRelayBetweenLayers,0
;   temperatureRelayBetweenLoops,0
;   fanLayers,1,3
;   fanSpeeds,0,100
;   blipFanToFullPower,0
;   adjustSpeedForCooling,1
;   minSpeedLayerTime,15
;   minCoolingSpeedSlowdown,20
;   increaseFanForCooling,0
;   minFanLayerTime,45
;   maxCoolingFanSpeed,100
;   increaseFanForBridging,0
;   bridgingFanSpeed,100
;   use5D,1
;   relativeEdistances,0
;   allowEaxisZeroing,1
;   independentExtruderAxes,0
;   includeM10123,0
;   stickySupport,1
;   applyToolheadOffsets,0
;   gcodeXoffset,0
;   gcodeYoffset,0
;   gcodeZoffset,0
;   overrideMachineDefinition,1
;   machineTypeOverride,0
;   strokeXoverride,150
;   strokeYoverride,150
;   strokeZoverride,150
;   originOffsetXoverride,0
;   originOffsetYoverride,0
;   originOffsetZoverride,0
;   homeXdirOverride,-1
;   homeYdirOverride,-1
;   homeZdirOverride,-1
;   flipXoverride,1
;   flipYoverride,-1
;   flipZoverride,1
;   toolheadOffsets,0,0|0,0|0,0|0,0|0,0|0,0
;   overrideFirmwareConfiguration,0
;   firmwareTypeOverride,RepRap (Marlin/Repetier/Sprinter)
;   GPXconfigOverride,r2
;   baudRateOverride,115200
;   overridePrinterModels,0
;   printerModelsOverride
;   startingGcode,G28 ; home all axes
;   layerChangeGcode,
;   retractionGcode,
;   toolChangeGcode,
;   endingGcode,M104 S0 ; turn off extruder,M140 S0 ; turn off bed,G28 X0  ; home X axis,G28 Y0  ; home Y axis,M84 ; disable motors,M107
;   createX3G,0
;   celebration,0
;   celebrationSong,Random Song
;   createMB5G,0
;   postProcessing,
;   defaultSpeed,2400
;   outlineUnderspeed,0.5
;   solidInfillUnderspeed,0.8
;   supportUnderspeed,0.8
;   rapidXYspeed,3498
;   rapidZspeed,1002
;   minBridgingArea,50
;   bridgingExtraInflation,0
;   bridgingExtrusionMultiplier,1
;   bridgingSpeedMultiplier,1
;   filamentDiameter,1.75
;   filamentPricePerKg,46
;   filamentDensity,1.25
;   useMinPrintHeight,0
;   minPrintHeight,0
;   useMaxPrintHeight,0
;   maxPrintHeight,0
;   useDiaphragm,0
;   diaphragmLayerInterval,20
;   robustSlicing,1
;   mergeAllIntoSolid,0
;   onlyRetractWhenCrossingOutline,1
;   retractBetweenLayers,1
;   useRetractionMinTravel,0
;   retractionMinTravel,3
;   retractWhileWiping,0
;   onlyWipeOutlines,1
;   avoidCrossingOutline,0
;   maxMovementDetourFactor,10
;   toolChangeRetractionDistance,0
;   toolChangeExtraRestartDistance,0
;   toolChangeRetractionSpeed,360
;   allowThinWallGapFill,1
;   thinWallAllowedOverlapPercentage,10
;   horizontalSizeCompensation,0
G90
M82
M106 S0
M104 S207 T0
M109 S207 T0
G28 ; home all axes
G92 E0
G1 E-5.0000 F4998
G1 Z0.200 F1002
; layer 1, Z = 0.2
T0
; tool H0.200 W0.490
; skirt
G1 X74.194 Y41.860 F3498
G1 E0.0000 F1499
G92 E0
G1 X75.986 Y40.068 E0.0960 F720
G1 X76.796 Y39.732 E0.1293
G1 X80.038 Y39.732 E0.2521
G1 X84.552 Y39.732 E0.4231
G1 X85.363 Y40.068 E0.4564
G1 X87.155 Y41.860 E0.5524
G1 X87.490 Y42.670 E0.5856
G1 X87.490 Y81.137 E2.0432
G1 X87.487 Y81.216 E2.0462
G1 X87.471 Y81.440 E2.0547
G1 X87.463 Y81.519 E2.0577
G1 X87.253 Y82.960 E2.1129
G1 X87.191 Y83.197 E2.1222
G1 X86.943 Y83.843 E2.1484
G1 X86.830 Y84.061 E2.1577
G1 X85.909 Y85.440 E2.2205
G1 X85.771 Y85.607 E2.2288
G1 X85.339 Y86.039 E2.2519
G1 X85.172 Y86.176 E2.2601
G1 X83.827 Y87.075 E2.3214
G1 X83.636 Y87.177 E2.3296
G1 X83.072 Y87.411 E2.3527
G1 X82.864 Y87.474 E2.3610
G1 X81.428 Y87.760 E2.4165
G1 X81.320 Y87.775 E2.4206
G1 X81.017 Y87.805 E2.4321
G1 X80.909 Y87.811 E2.4362
G1 X75.314 Y87.811 E2.6482
G1 X75.206 Y87.805 E2.6523
G1 X74.903 Y87.776 E2.6638
G1 X74.797 Y87.760 E2.6679
G1 X73.357 Y87.474 E2.7235
G1 X73.150 Y87.411 E2.7318
G1 X72.585 Y87.178 E2.7549
G1 X72.393 Y87.075 E2.7631
G1 X70.987 Y86.136 E2.8272
G1 X70.784 Y85.961 E2.8374
G1 X70.275 Y85.402 E2.8660
G1 X70.120 Y85.184 E2.8762
G1 X69.341 Y83.745 E2.9382
G1 X69.257 Y83.544 E2.9464
G1 X69.076 Y82.959 E2.9696
G1 X69.033 Y82.746 E2.9778
G1 X68.893 Y81.383 E3.0298
G1 X68.889 Y81.327 E3.0319
G1 X68.880 Y81.169 E3.0379
G1 X68.879 Y81.113 E3.0400
G1 X68.871 Y62.654 E3.7395
G1 X68.883 Y62.488 E3.7458
G1 X68.954 Y62.023 E3.7636
G1 X68.991 Y61.861 E3.7699
G1 X69.354 Y60.696 E3.8161
G1 X69.477 Y60.432 E3.8271
G1 X69.917 Y59.739 E3.8583
G1 X70.104 Y59.516 E3.8693
G1 X71.124 Y58.581 E3.9217
G1 X71.342 Y58.425 E3.9319
G1 X72.008 Y58.063 E3.9606
G1 X72.257 Y57.964 E3.9708
G1 X73.379 Y57.672 E4.0147
G1 X73.517 Y57.645 E4.0200
G1 X73.858 Y57.601 E4.0330
G1 X73.858 Y42.670 E4.5988
G1 X74.194 Y41.860 E4.6321
G1 X74.609 Y42.137 F3498
G92 E0
G1 X76.263 Y40.483 E0.0886 F720
G1 X76.894 Y40.222 E0.1145
G1 X80.038 Y40.222 E0.2336
G1 X84.455 Y40.222 E0.4010
G1 X85.085 Y40.483 E0.4268
G1 X86.739 Y42.137 E0.5155
G1 X87.000 Y42.768 E0.5413
G1 X87.000 Y81.128 E1.9949
G1 X86.998 Y81.190 E1.9972
G1 X86.983 Y81.396 E2.0050
G1 X86.976 Y81.457 E2.0074
G1 X86.772 Y82.863 E2.0612
G1 X86.724 Y83.047 E2.0684
G1 X86.495 Y83.642 E2.0926
G1 X86.407 Y83.811 E2.0998
G1 X85.515 Y85.147 E2.1607
G1 X85.408 Y85.278 E2.1671
G1 X85.010 Y85.675 E2.1884
G1 X84.880 Y85.782 E2.1948
G1 X83.575 Y86.654 E2.2542
G1 X83.426 Y86.734 E2.2606
G1 X82.906 Y86.949 E2.2819
G1 X82.745 Y86.998 E2.2883
G1 X81.344 Y87.277 E2.3425
G1 X81.260 Y87.289 E2.3456
G1 X80.981 Y87.317 E2.3563
G1 X80.897 Y87.321 E2.3595
G1 X75.326 Y87.321 E2.5706
G1 X75.242 Y87.317 E2.5738
G1 X74.963 Y87.289 E2.5844
G1 X74.880 Y87.277 E2.5876
G1 X73.476 Y86.998 E2.6418
G1 X73.315 Y86.949 E2.6482
G1 X72.794 Y86.734 E2.6695
G1 X72.645 Y86.654 E2.6759
G1 X71.284 Y85.745 E2.7379
G1 X71.126 Y85.609 E2.7458
G1 X70.657 Y85.094 E2.7722
G1 X70.537 Y84.924 E2.7801
G1 X69.783 Y83.533 E2.8401
G1 X69.718 Y83.377 E2.8465
G1 X69.552 Y82.838 E2.8679
G1 X69.518 Y82.672 E2.8743
G1 X69.381 Y81.339 E2.9251
G1 X69.378 Y81.295 E2.9267
G1 X69.370 Y81.150 E2.9322
G1 X69.369 Y81.106 E2.9339
G1 X69.361 Y62.672 E3.6324
G1 X69.371 Y62.543 E3.6373
G1 X69.436 Y62.115 E3.6537
G1 X69.465 Y61.989 E3.6586
G1 X69.812 Y60.873 E3.7029
G1 X69.908 Y60.667 E3.7115
G1 X70.313 Y60.029 E3.7401
G1 X70.459 Y59.855 E3.7487
G1 X71.433 Y58.963 E3.7988
G1 X71.603 Y58.841 E3.8067
G1 X72.216 Y58.508 E3.8331
G1 X72.410 Y58.431 E3.8410
G1 X73.487 Y58.150 E3.8832
G1 X73.595 Y58.129 E3.8874
G1 X73.957 Y58.083 E3.9012
G1 X74.066 Y58.076 E3.9054
G1 X74.348 Y58.076 E3.9161
G1 X74.348 Y42.768 E4.4961
G1 X74.609 Y42.137 E4.5220
G1 X75.025 Y42.415 F3498
G92 E0
G1 X76.541 Y40.899 E0.0812 F720
G1 X76.991 Y40.712 E0.0997
G1 X80.038 Y40.712 E0.2152
G1 X84.357 Y40.712 E0.3788
G1 X84.808 Y40.899 E0.3973
G1 X86.324 Y42.415 E0.4785
G1 X86.510 Y42.865 E0.4970
G1 X86.510 Y81.119 E1.9465
G1 X86.509 Y81.163 E1.9482
G1 X86.495 Y81.351 E1.9553
G1 X86.490 Y81.395 E1.9570
G1 X86.291 Y82.765 E2.0095
G1 X86.256 Y82.897 E2.0146
G1 X86.047 Y83.441 E2.0367
G1 X85.985 Y83.562 E2.0419
G1 X85.121 Y84.855 E2.1008
G1 X85.044 Y84.948 E2.1054
G1 X84.681 Y85.312 E2.1249
G1 X84.587 Y85.388 E2.1294
G1 X83.322 Y86.234 E2.1871
G1 X83.216 Y86.290 E2.1916
G1 X82.741 Y86.487 E2.2111
G1 X82.626 Y86.522 E2.2157
G1 X81.260 Y86.794 E2.2684
G1 X81.201 Y86.803 E2.2707
G1 X80.945 Y86.828 E2.2804
G1 X80.885 Y86.831 E2.2827
G1 X75.338 Y86.831 E2.4929
G1 X75.278 Y86.828 E2.4952
G1 X75.023 Y86.803 E2.5049
G1 X74.964 Y86.794 E2.5072
G1 X73.595 Y86.522 E2.5600
G1 X73.480 Y86.487 E2.5646
G1 X73.004 Y86.290 E2.5841
G1 X72.898 Y86.234 E2.5887
G1 X71.581 Y85.354 E2.6487
G1 X71.469 Y85.257 E2.6543
G1 X71.040 Y84.786 E2.6784
G1 X70.953 Y84.665 E2.6841
G1 X70.226 Y83.321 E2.7420
G1 X70.179 Y83.209 E2.7466
G1 X70.027 Y82.716 E2.7661
G1 X70.003 Y82.598 E2.7707
G1 X69.869 Y81.295 E2.8203
G1 X69.867 Y81.264 E2.8215
G1 X69.860 Y81.131 E2.8266
G1 X69.859 Y81.100 E2.8277
G1 X69.851 Y62.691 E3.5253
G1 X69.858 Y62.598 E3.5288
G1 X69.917 Y62.207 E3.5438
G1 X69.938 Y62.117 E3.5473
G1 X70.271 Y61.049 E3.5897
G1 X70.339 Y60.903 E3.5958
G1 X70.710 Y60.319 E3.6220
G1 X70.813 Y60.195 E3.6281
G1 X71.742 Y59.344 E3.6759
G1 X71.863 Y59.257 E3.6815
G1 X72.424 Y58.953 E3.7057
G1 X72.562 Y58.898 E3.7113
G1 X73.596 Y58.628 E3.7518
G1 X73.672 Y58.613 E3.7548
G1 X74.003 Y58.571 E3.7674
G1 X74.081 Y58.566 E3.7704
G1 X74.838 Y58.566 E3.7990
G1 X74.838 Y42.865 E4.3940
G1 X75.025 Y42.415 E4.4124
G1 X75.440 Y42.692 F3498
G92 E0
G1 X76.819 Y41.314 E0.0739 F720
G1 X77.089 Y41.202 E0.0849
G1 X80.038 Y41.202 E0.1967
G1 X84.260 Y41.202 E0.3567
G1 X84.530 Y41.314 E0.3677
G1 X85.908 Y42.692 E0.4416
G1 X86.020 Y42.962 E0.4527
G1 X86.020 Y81.110 E1.8982
G1 X86.019 Y81.137 E1.8992
G1 X86.007 Y81.307 E1.9056
G1 X86.004 Y81.334 E1.9067
G1 X85.810 Y82.667 E1.9577
G1 X85.789 Y82.747 E1.9608
G1 X85.600 Y83.240 E1.9808
G1 X85.562 Y83.312 E1.9839
G1 X84.727 Y84.563 E2.0409
G1 X84.681 Y84.619 E2.0437
G1 X84.351 Y84.948 E2.0613
G1 X84.295 Y84.994 E2.0641
G1 X83.070 Y85.813 E2.1199
G1 X83.006 Y85.847 E2.1226
G1 X82.576 Y86.025 E2.1403
G1 X82.507 Y86.046 E2.1430
G1 X81.176 Y86.311 E2.1944
G1 X81.141 Y86.316 E2.1958
G1 X80.909 Y86.339 E2.2046
G1 X80.873 Y86.341 E2.2060
G1 X75.350 Y86.341 E2.4153
G1 X75.314 Y86.339 E2.4166
G1 X75.083 Y86.316 E2.4254
G1 X75.047 Y86.311 E2.4268
G1 X73.714 Y86.046 E2.4783
G1 X73.645 Y86.025 E2.4810
G1 X73.214 Y85.847 E2.4987
G1 X73.150 Y85.813 E2.5015
G1 X71.878 Y84.963 E2.5594
G1 X71.811 Y84.905 E2.5628
G1 X71.422 Y84.478 E2.5847
G1 X71.370 Y84.405 E2.5880
G1 X70.668 Y83.109 E2.6439
G1 X70.640 Y83.042 E2.6467
G1 X70.502 Y82.595 E2.6644
G1 X70.488 Y82.524 E2.6671
G1 X70.357 Y81.251 E2.7156
G1 X70.356 Y81.233 E2.7163
G1 X70.349 Y81.112 E2.7209
G1 X70.349 Y81.093 E2.7216
G1 X70.341 Y62.709 E3.4182
G1 X70.345 Y62.654 E3.4203
G1 X70.399 Y62.299 E3.4339
G1 X70.411 Y62.245 E3.4360
G1 X70.729 Y61.226 E3.4765
G1 X70.770 Y61.138 E3.4801
G1 X71.106 Y60.608 E3.5039
G1 X71.168 Y60.534 E3.5076
G1 X72.051 Y59.726 E3.5529
G1 X72.124 Y59.674 E3.5563
G1 X72.632 Y59.397 E3.5782
G1 X72.715 Y59.364 E3.5816
G1 X73.704 Y59.106 E3.6204
G1 X73.750 Y59.097 E3.6221
G1 X74.050 Y59.059 E3.6336
G1 X74.097 Y59.056 E3.6354
G1 X75.001 Y59.056 E3.6696
G1 X75.043 Y59.058 E3.6712
G1 X75.313 Y59.089 E3.6815
G1 X75.328 Y59.092 E3.6821
G1 X75.328 Y42.962 E4.2933
G1 X75.440 Y42.692 E4.3044
G1 X75.856 Y42.970 F3498
G92 E0
G1 X77.096 Y41.729 E0.0665 F720
G1 X77.186 Y41.692 E0.0702
G1 X80.038 Y41.692 E0.1782
G1 X84.162 Y41.692 E0.3345
G1 X84.252 Y41.729 E0.3382
G1 X85.493 Y42.970 E0.4047
G1 X85.530 Y43.060 E0.4084
G1 X85.530 Y81.101 E1.8498
G1 X85.530 Y81.110 E1.8501
G1 X85.519 Y81.263 E1.8560
G1 X85.518 Y81.272 E1.8563
G1 X85.329 Y82.570 E1.9060
G1 X85.322 Y82.596 E1.9070
G1 X85.152 Y83.038 E1.9250
G1 X85.140 Y83.063 E1.9260
G1 X84.332 Y84.271 E1.9811
G1 X84.317 Y84.289 E1.9820
G1 X84.022 Y84.585 E1.9978
G1 X84.003 Y84.600 E1.9987
G1 X82.818 Y85.392 E2.0527
G1 X82.797 Y85.403 E2.0536
G1 X82.411 Y85.563 E2.0695
G1 X82.387 Y85.570 E2.0704
G1 X81.092 Y85.828 E2.1204
G1 X81.081 Y85.830 E2.1209
G1 X80.873 Y85.850 E2.1288
G1 X80.861 Y85.851 E2.1292
G1 X75.362 Y85.851 E2.3376
G1 X75.350 Y85.850 E2.3381
G1 X75.143 Y85.830 E2.3460
G1 X75.131 Y85.828 E2.3464
G1 X73.833 Y85.571 E2.3965
G1 X73.810 Y85.564 E2.3975
G1 X73.423 Y85.403 E2.4133
G1 X73.402 Y85.392 E2.4142
G1 X72.175 Y84.572 E2.4701
G1 X72.153 Y84.553 E2.4713
G1 X71.804 Y84.170 E2.4909
G1 X71.787 Y84.146 E2.4920
G1 X71.111 Y82.897 E2.5458
G1 X71.101 Y82.874 E2.5468
G1 X70.978 Y82.474 E2.5626
G1 X70.973 Y82.450 E2.5636
G1 X70.845 Y81.207 E2.6109
G1 X70.845 Y81.201 E2.6111
G1 X70.839 Y81.093 E2.6152
G1 X70.839 Y81.087 E2.6155
G1 X70.831 Y62.727 E3.3111
G1 X70.832 Y62.709 E3.3118
G1 X70.881 Y62.391 E3.3240
G1 X70.885 Y62.373 E3.3247
G1 X71.187 Y61.403 E3.3632
G1 X71.201 Y61.373 E3.3645
G1 X71.502 Y60.898 E3.3858
G1 X71.523 Y60.874 E3.3870
G1 X72.360 Y60.107 E3.4300
G1 X72.384 Y60.090 E3.4311
G1 X72.840 Y59.842 E3.4508
G1 X72.867 Y59.831 E3.4519
G1 X73.813 Y59.584 E3.4889
G1 X73.828 Y59.581 E3.4895
G1 X74.097 Y59.547 E3.4998
G1 X74.113 Y59.546 E3.5004
G1 X74.987 Y59.546 E3.5335
G1 X75.001 Y59.547 E3.5340
G1 X75.243 Y59.575 E3.5433
G1 X75.256 Y59.577 E3.5438
G1 X75.818 Y59.708 E3.5657
G1 X75.818 Y43.060 E4.1965
G1 X75.856 Y42.970 E4.2002
G92 E0
G1 E-5.0000 F4998
; inner perimeter
G1 X74.724 Y63.016 F3498
G1 E0.0000 F4998
G92 E0
G1 X75.022 Y63.086 E0.0116 F600
G1 X75.398 Y63.316 E0.0283
G1 X75.953 Y63.842 E0.0573
G1 X74.301 Y63.842 E0.1199
G1 X74.301 Y63.016 E0.1512
G1 X74.724 Y63.016 E0.1672
G92 E0
G1 E-5.0000 F4998
G1 X80.108 Y63.071 F3498
G1 E0.0000 F4998
G92 E0
G1 X82.060 Y63.071 E0.0740 F600
G1 X82.060 Y80.936 E0.7509
G1 X81.969 Y81.562 E0.7749
G1 X81.699 Y81.966 E0.7933
G1 X81.267 Y82.255 E0.8130
G1 X80.636 Y82.381 E0.8374
G1 X75.586 Y82.381 E1.0287
G1 X74.953 Y82.255 E1.0532
G1 X74.571 Y82.000 E1.0706
G1 X74.378 Y81.644 E1.0859
G1 X74.309 Y80.969 E1.1116
G1 X74.308 Y78.850 E1.1919
G1 X74.680 Y78.831 E1.2060
G1 X74.701 Y79.039 E1.2139
G1 X74.780 Y79.466 E1.2304
G1 X74.943 Y79.921 E1.2487
G1 X75.178 Y80.344 E1.2671
G1 X75.480 Y80.723 E1.2854
G1 X75.840 Y81.047 E1.3038
G1 X76.249 Y81.306 E1.3221
G1 X76.694 Y81.496 E1.3404
G1 X77.163 Y81.610 E1.3587
G1 X77.607 Y81.646 E1.3756
G1 X78.515 Y81.630 E1.4100
G1 X78.905 Y81.559 E1.4250
G1 X79.259 Y81.449 E1.4391
G1 X79.597 Y81.297 E1.4531
G1 X79.914 Y81.105 E1.4672
G1 X80.206 Y80.877 E1.4812
G1 X80.468 Y80.615 E1.4952
G1 X80.697 Y80.324 E1.5093
G1 X80.889 Y80.007 E1.5233
G1 X81.041 Y79.669 E1.5374
G1 X81.152 Y79.315 E1.5514
G1 X81.219 Y78.951 E1.5654
G1 X81.240 Y78.617 E1.5781
G1 X81.240 Y65.102 E2.0902
G1 X80.108 Y63.071 E2.1783
G92 E0
G1 E-5.0000 F4998
; inner perimeter
G1 X78.798 Y44.672 F3498
G1 E0.0000 F4998
G92 E0
G1 X79.194 Y44.672 E0.0150 F480
G1 X79.194 Y62.438 E0.6882
