; G-Code generated by Simplify3D(R) Version 3.0.0
; Okt 2, 2017 at 7:00:16 
; Settings Summary
;   processName,Process1
;   applyToModels,Horn,LOCK,LOCK(2)
;   profileName,1.5 fein (modified)
;   profileVersion,2017-10-02 14:07:01
;   baseProfile,German RepRap NEO (modified)
;   printMaterial,
;   printQuality,
;   printExtruders,
;   extruderName,Primary Extruder
;   extruderToolheadNumber,0
;   extruderDiameter,0.5
;   extruderAutoWidth,0
;   extruderWidth,0.49
;   extrusionMultiplier,0.95
;   extruderUseRetract,1
;   extruderRetractionDistance,6.5
;   extruderExtraRestartDistance,0
;   extruderRetractionZLift,0
;   extruderRetractionSpeed,4998
;   extruderUseCoasting,0
;   extruderCoastingDistance,0.2
;   extruderUseWipe,0
;   extruderWipeDistance,5
;   primaryExtruder,0
;   layerHeight,0.2
;   topSolidLayers,4
;   bottomSolidLayers,3
;   perimeterOutlines,3
;   printPerimetersInsideOut,1
;   startPointOption,2
;   startPointOriginX,0
;   startPointOriginY,0
;   startPointOriginZ,300
;   sequentialIslands,0
;   spiralVaseMode,0
;   firstLayerHeightPercentage,100
;   firstLayerWidthPercentage,100
;   firstLayerUnderspeed,0.3
;   useRaft,0
;   raftExtruder,0
;   raftLayers,3
;   raftOffset,3
;   raftSeparationDistance,0.1
;   raftInfill,85
;   disableRaftBaseLayers,0
;   useSkirt,1
;   skirtExtruder,0
;   skirtLayers,1
;   skirtOutlines,5
;   skirtOffset,2
;   usePrimePillar,0
;   primePillarExtruder,999
;   primePillarWidth,12
;   primePillarLocation,7
;   primePillarSpeedMultiplier,1
;   useOozeShield,0
;   oozeShieldExtruder,999
;   oozeShieldOffset,2
;   oozeShieldOutlines,1
;   oozeShieldSidewallShape,1
;   oozeShieldSidewallAngle,30
;   oozeShieldSpeedMultiplier,1
;   infillExtruder,0
;   internalInfillPattern,Full Honeycomb
;   externalInfillPattern,Rectilinear
;   infillPercentage,30
;   outlineOverlapPercentage,15
;   infillExtrusionWidthPercentage,100
;   minInfillLength,3
;   infillLayerInterval,1
;   infillAngles,0,120,-120
;   overlapInfillAngles,0
;   generateSupport,1
;   supportExtruder,0
;   supportInfillPercentage,30
;   supportExtraInflation,0
;   denseSupportLayers,0
;   denseSupportInfillPercentage,75
;   supportLayerInterval,1
;   supportHorizontalPartOffset,1.5
;   supportUpperSeparationLayers,2
;   supportLowerSeparationLayers,2
;   supportType,0
;   supportGridSpacing,4
;   maxOverhangAngle,45
;   supportAngles,45
;   temperatureName,Primary Extruder
;   temperatureNumber,0
;   temperatureSetpointCount,3
;   temperatureSetpointLayers,1,2,3
;   temperatureSetpointTemperatures,207,202,197
;   temperatureStabilizeAtStartup,1
;   temperatureHeatedBed,0
;   temperatureRelayBetweenLayers,0
;   temperatureRelayBetweenLoops,0
;   fanLayers,1,3
;   fanSpeeds,0,100
;   blipFanToFullPower,0
;   adjustSpeedForCooling,1
;   minSpeedLayerTime,15
;   minCoolingSpeedSlowdown,20
;   increaseFanForCooling,0
;   minFanLayerTime,45
;   maxCoolingFanSpeed,100
;   increaseFanForBridging,0
;   bridgingFanSpeed,100
;   use5D,1
;   relativeEdistances,0
;   allowEaxisZeroing,1
;   independentExtruderAxes,0
;   includeM10123,0
;   stickySupport,1
;   applyToolheadOffsets,0
;   gcodeXoffset,0
;   gcodeYoffset,0
;   gcodeZoffset,0
;   overrideMachineDefinition,1
;   machineTypeOverride,0
;   strokeXoverride,150
;   strokeYoverride,150
;   strokeZoverride,150
;   originOffsetXoverride,0
;   originOffsetYoverride,0
;   originOffsetZoverride,0
;   homeXdirOverride,-1
;   homeYdirOverride,-1
;   homeZdirOverride,-1
;   flipXoverride,1
;   flipYoverride,-1
;   flipZoverride,1
;   toolheadOffsets,0,0|0,0|0,0|0,0|0,0|0,0
;   overrideFirmwareConfiguration,0
;   firmwareTypeOverride,RepRap (Marlin/Repetier/Sprinter)
;   GPXconfigOverride,r2
;   baudRateOverride,115200
;   overridePrinterModels,0
;   printerModelsOverride
;   startingGcode,G28 ; home all axes
;   layerChangeGcode,
;   retractionGcode,
;   toolChangeGcode,
;   endingGcode,M104 S0 ; turn off extruder,M140 S0 ; turn off bed,G28 X0  ; home X axis,G28 Y0  ; home Y axis,M84 ; disable motors,M107
;   createX3G,0
;   celebration,0
;   celebrationSong,Random Song
;   createMB5G,0
;   postProcessing,
;   defaultSpeed,2400
;   outlineUnderspeed,0.5
;   solidInfillUnderspeed,0.8
;   supportUnderspeed,0.8
;   rapidXYspeed,3498
;   rapidZspeed,1002
;   minBridgingArea,50
;   bridgingExtraInflation,0
;   bridgingExtrusionMultiplier,1
;   bridgingSpeedMultiplier,1
;   filamentDiameter,1.7
;   filamentPricePerKg,46
;   filamentDensity,1.25
;   useMinPrintHeight,0
;   minPrintHeight,0
;   useMaxPrintHeight,0
;   maxPrintHeight,0
;   useDiaphragm,0
;   diaphragmLayerInterval,20
;   robustSlicing,1
;   mergeAllIntoSolid,0
;   onlyRetractWhenCrossingOutline,1
;   retractBetweenLayers,1
;   useRetractionMinTravel,0
;   retractionMinTravel,3
;   retractWhileWiping,0
;   onlyWipeOutlines,1
;   avoidCrossingOutline,0
;   maxMovementDetourFactor,10
;   toolChangeRetractionDistance,0
;   toolChangeExtraRestartDistance,0
;   toolChangeRetractionSpeed,360
;   allowThinWallGapFill,1
;   thinWallAllowedOverlapPercentage,10
;   horizontalSizeCompensation,0
G90
M82
M106 S0
M104 S207 T0
M109 S207 T0
G28 ; home all axes
G92 E0
G1 E-6.5000 F4998
G1 Z0.200 F1002
; layer 1, Z = 0.2
T0
; tool H0.200 W0.490
; skirt
G1 X74.235 Y16.781 F3498
G1 E0.0000 F1499
G92 E0
G1 X74.442 Y16.129 E0.0281 F720
G1 X75.573 Y14.532 E0.1083
G1 X76.119 Y14.119 E0.1364
G1 X77.504 Y13.630 E0.1966
G1 X77.613 Y13.598 E0.2013
G1 X77.925 Y13.523 E0.2145
G1 X78.036 Y13.502 E0.2191
G1 X78.564 Y13.432 E0.2410
G1 X78.637 Y13.425 E0.2440
G1 X78.843 Y13.411 E0.2524
G1 X78.916 Y13.408 E0.2554
G1 X87.685 Y13.408 E0.6151
G1 X87.770 Y13.412 E0.6186
G1 X88.010 Y13.431 E0.6285
G1 X88.096 Y13.440 E0.6320
G1 X88.616 Y13.522 E0.6536
G1 X88.739 Y13.548 E0.6588
G1 X89.079 Y13.642 E0.6732
G1 X89.197 Y13.682 E0.6784
G1 X90.509 Y14.210 E0.7363
G1 X91.022 Y14.624 E0.7634
G1 X92.077 Y16.186 E0.8407
G1 X92.270 Y16.817 E0.8678
G1 X92.270 Y40.362 E1.8335
G1 X91.934 Y41.172 E1.8695
G1 X90.143 Y42.964 E1.9734
G1 X89.332 Y43.299 E2.0094
G1 X77.173 Y43.299 E2.5081
G1 X76.363 Y42.964 E2.5441
G1 X74.571 Y41.172 E2.6480
G1 X74.235 Y40.362 E2.6840
G1 X74.235 Y16.781 E3.6512
G1 X92.503 Y17.749 F3498
G92 E0
G1 X92.710 Y17.097 E0.0281 F720
G1 X93.840 Y15.500 E0.1083
G1 X94.386 Y15.087 E0.1364
G1 X95.772 Y14.598 E0.1966
G1 X95.881 Y14.566 E0.2013
G1 X96.192 Y14.491 E0.2145
G1 X96.304 Y14.470 E0.2191
G1 X96.832 Y14.400 E0.2410
G1 X96.905 Y14.393 E0.2440
G1 X97.110 Y14.379 E0.2524
G1 X97.184 Y14.377 E0.2554
G1 X105.952 Y14.377 E0.6151
G1 X106.038 Y14.380 E0.6186
G1 X106.278 Y14.399 E0.6285
G1 X106.363 Y14.409 E0.6320
G1 X106.884 Y14.490 E0.6536
G1 X107.006 Y14.516 E0.6587
G1 X107.346 Y14.610 E0.6732
G1 X107.465 Y14.650 E0.6783
G1 X108.776 Y15.178 E0.7363
G1 X109.290 Y15.592 E0.7634
G1 X110.345 Y17.154 E0.8407
G1 X110.538 Y17.785 E0.8678
G1 X110.538 Y41.330 E1.8335
G1 X110.202 Y42.140 E1.8695
G1 X108.410 Y43.932 E1.9734
G1 X107.600 Y44.268 E2.0094
G1 X95.441 Y44.268 E2.5081
G1 X94.630 Y43.932 E2.5441
G1 X92.838 Y42.140 E2.6480
G1 X92.503 Y41.330 E2.6840
G1 X92.503 Y17.749 E3.6512
G1 X88.090 Y47.357 F3498
G92 E0
G1 X88.143 Y47.367 E0.0022 F720
G1 X88.292 Y47.398 E0.0085
G1 X88.345 Y47.411 E0.0107
G1 X89.369 Y47.677 E0.0541
G1 X89.421 Y47.692 E0.0563
G1 X89.566 Y47.738 E0.0626
G1 X89.618 Y47.755 E0.0648
G1 X90.611 Y48.121 E0.1082
G1 X90.661 Y48.141 E0.1104
G1 X90.801 Y48.200 E0.1167
G1 X90.851 Y48.223 E0.1189
G1 X91.803 Y48.684 E0.1623
G1 X91.851 Y48.709 E0.1645
G1 X91.985 Y48.782 E0.1708
G1 X92.032 Y48.809 E0.1730
G1 X92.935 Y49.361 E0.2164
G1 X92.980 Y49.390 E0.2186
G1 X93.106 Y49.476 E0.2249
G1 X93.150 Y49.508 E0.2271
G1 X94.007 Y50.156 E0.2712
G1 X94.059 Y50.197 E0.2739
G1 X94.199 Y50.317 E0.2815
G1 X94.248 Y50.361 E0.2842
G1 X94.687 Y50.784 E0.3091
G1 X102.523 Y48.484 E0.6441
G1 X102.918 Y48.442 E0.6604
G1 X104.037 Y48.524 E0.7064
G1 X104.421 Y48.623 E0.7227
G1 X106.489 Y49.578 E0.8161
G1 X106.617 Y49.647 E0.8221
G1 X106.965 Y49.867 E0.8390
G1 X107.082 Y49.953 E0.8449
G1 X108.234 Y50.917 E0.9065
G1 X108.388 Y51.075 E0.9156
G1 X108.778 Y51.564 E0.9412
G1 X108.898 Y51.750 E0.9503
G1 X109.554 Y53.035 E1.0095
G1 X109.631 Y53.227 E1.0180
G1 X109.794 Y53.784 E1.0418
G1 X109.834 Y53.987 E1.0503
G1 X109.976 Y55.423 E1.1095
G1 X109.975 Y55.645 E1.1186
G1 X109.911 Y56.266 E1.1442
G1 X109.867 Y56.483 E1.1533
G1 X109.395 Y57.993 E1.2181
G1 X109.316 Y58.181 E1.2265
G1 X109.048 Y58.687 E1.2500
G1 X108.937 Y58.857 E1.2583
G1 X107.594 Y60.546 E1.3468
G1 X107.345 Y60.776 E1.3607
G1 X106.551 Y61.311 E1.4000
G1 X106.244 Y61.455 E1.4139
G1 X98.532 Y63.718 E1.7436
G1 X98.324 Y64.475 E1.7758
G1 X98.310 Y64.520 E1.7777
G1 X98.270 Y64.645 E1.7831
G1 X98.255 Y64.689 E1.7850
G1 X97.893 Y65.673 E1.8280
G1 X97.873 Y65.723 E1.8302
G1 X97.814 Y65.863 E1.8365
G1 X97.791 Y65.913 E1.8387
G1 X97.330 Y66.865 E1.8821
G1 X97.305 Y66.913 E1.8843
G1 X97.232 Y67.047 E1.8905
G1 X97.205 Y67.094 E1.8928
G1 X96.653 Y67.997 E1.9362
G1 X96.623 Y68.042 E1.9384
G1 X96.538 Y68.168 E1.9447
G1 X96.506 Y68.212 E1.9469
G1 X95.868 Y69.056 E1.9903
G1 X95.834 Y69.099 E1.9925
G1 X95.736 Y69.215 E1.9988
G1 X95.701 Y69.256 E2.0010
G1 X94.983 Y70.034 E2.0444
G1 X94.945 Y70.073 E2.0466
G1 X94.837 Y70.179 E2.0528
G1 X94.797 Y70.216 E2.0551
G1 X94.006 Y70.920 E2.0985
G1 X93.965 Y70.955 E2.1007
G1 X93.847 Y71.050 E2.1069
G1 X93.804 Y71.083 E2.1092
G1 X92.948 Y71.706 E2.1526
G1 X92.903 Y71.737 E2.1548
G1 X92.776 Y71.820 E2.1610
G1 X92.730 Y71.849 E2.1633
G1 X91.817 Y72.385 E2.2067
G1 X91.770 Y72.411 E2.2089
G1 X91.635 Y72.481 E2.2151
G1 X91.586 Y72.505 E2.2174
G1 X90.625 Y72.949 E2.2608
G1 X90.575 Y72.971 E2.2630
G1 X90.434 Y73.028 E2.2692
G1 X90.384 Y73.047 E2.2715
G1 X89.384 Y73.394 E2.3149
G1 X89.332 Y73.410 E2.3171
G1 X89.186 Y73.453 E2.3233
G1 X89.134 Y73.467 E2.3256
G1 X88.105 Y73.715 E2.3690
G1 X88.052 Y73.726 E2.3712
G1 X87.903 Y73.755 E2.3774
G1 X87.849 Y73.764 E2.3797
G1 X86.801 Y73.909 E2.4231
G1 X86.747 Y73.916 E2.4253
G1 X86.595 Y73.929 E2.4315
G1 X86.541 Y73.933 E2.4338
G1 X85.484 Y73.975 E2.4772
G1 X85.430 Y73.976 E2.4794
G1 X85.277 Y73.974 E2.4856
G1 X85.223 Y73.972 E2.4879
G1 X84.167 Y73.911 E2.5313
G1 X84.113 Y73.906 E2.5335
G1 X83.961 Y73.890 E2.5397
G1 X83.908 Y73.883 E2.5420
G1 X82.862 Y73.718 E2.5854
G1 X82.809 Y73.708 E2.5876
G1 X82.660 Y73.677 E2.5938
G1 X82.607 Y73.665 E2.5961
G1 X81.583 Y73.399 E2.6395
G1 X81.531 Y73.384 E2.6417
G1 X81.385 Y73.338 E2.6479
G1 X81.334 Y73.321 E2.6502
G1 X80.341 Y72.955 E2.6936
G1 X80.291 Y72.935 E2.6958
G1 X80.151 Y72.876 E2.7020
G1 X80.101 Y72.853 E2.7042
G1 X79.149 Y72.392 E2.7477
G1 X79.101 Y72.367 E2.7499
G1 X78.967 Y72.294 E2.7561
G1 X78.920 Y72.267 E2.7583
G1 X78.017 Y71.715 E2.8018
G1 X77.972 Y71.685 E2.8040
G1 X77.846 Y71.599 E2.8102
G1 X77.802 Y71.568 E2.8124
G1 X76.958 Y70.930 E2.8559
G1 X76.915 Y70.896 E2.8581
G1 X76.799 Y70.798 E2.8643
G1 X76.758 Y70.763 E2.8665
G1 X75.980 Y70.045 E2.9100
G1 X75.941 Y70.007 E2.9122
G1 X75.835 Y69.898 E2.9184
G1 X75.798 Y69.859 E2.9206
G1 X75.094 Y69.068 E2.9641
G1 X75.059 Y69.027 E2.9663
G1 X74.963 Y68.908 E2.9725
G1 X74.931 Y68.865 E2.9747
G1 X74.308 Y68.010 E3.0181
G1 X74.277 Y67.965 E3.0204
G1 X74.194 Y67.838 E3.0266
G1 X74.165 Y67.792 E3.0288
G1 X73.629 Y66.879 E3.0723
G1 X73.603 Y66.832 E3.0745
G1 X73.532 Y66.697 E3.0807
G1 X73.509 Y66.648 E3.0829
G1 X73.065 Y65.687 E3.1263
G1 X73.043 Y65.637 E3.1286
G1 X72.986 Y65.496 E3.1348
G1 X72.967 Y65.445 E3.1370
G1 X72.620 Y64.446 E3.1804
G1 X72.603 Y64.394 E3.1827
G1 X72.560 Y64.248 E3.1889
G1 X72.546 Y64.196 E3.1911
G1 X72.299 Y63.167 E3.2345
G1 X72.287 Y63.114 E3.2368
G1 X72.259 Y62.964 E3.2430
G1 X72.250 Y62.911 E3.2452
G1 X72.104 Y61.863 E3.2886
G1 X72.098 Y61.809 E3.2909
G1 X72.085 Y61.657 E3.2971
G1 X72.081 Y61.603 E3.2993
G1 X72.040 Y60.565 E3.3419
G1 X72.039 Y60.512 E3.3441
G1 X72.040 Y60.363 E3.3502
G1 X72.042 Y60.310 E3.3524
G1 X72.102 Y59.235 E3.3966
G1 X72.107 Y59.180 E3.3988
G1 X72.123 Y59.025 E3.4052
G1 X72.131 Y58.971 E3.4075
G1 X72.296 Y57.924 E3.4509
G1 X72.305 Y57.871 E3.4532
G1 X72.336 Y57.722 E3.4594
G1 X72.349 Y57.669 E3.4616
G1 X72.615 Y56.645 E3.5050
G1 X72.630 Y56.593 E3.5073
G1 X72.676 Y56.447 E3.5135
G1 X72.693 Y56.396 E3.5157
G1 X73.059 Y55.403 E3.5591
G1 X73.079 Y55.353 E3.5613
G1 X73.138 Y55.213 E3.5676
G1 X73.161 Y55.163 E3.5698
G1 X73.622 Y54.211 E3.6132
G1 X73.647 Y54.162 E3.6154
G1 X73.720 Y54.029 E3.6217
G1 X73.747 Y53.982 E3.6239
G1 X74.299 Y53.079 E3.6673
G1 X74.329 Y53.034 E3.6695
G1 X74.414 Y52.908 E3.6758
G1 X74.446 Y52.864 E3.6780
G1 X75.084 Y52.020 E3.7214
G1 X75.118 Y51.977 E3.7236
G1 X75.215 Y51.860 E3.7299
G1 X75.251 Y51.820 E3.7321
G1 X75.969 Y51.042 E3.7755
G1 X76.007 Y51.003 E3.7777
G1 X76.115 Y50.896 E3.7840
G1 X76.155 Y50.859 E3.7862
G1 X76.946 Y50.156 E3.8296
G1 X76.987 Y50.121 E3.8318
G1 X77.105 Y50.025 E3.8381
G1 X77.148 Y49.992 E3.8403
G1 X78.004 Y49.370 E3.8837
G1 X78.049 Y49.339 E3.8859
G1 X78.176 Y49.255 E3.8922
G1 X78.222 Y49.227 E3.8944
G1 X79.135 Y48.691 E3.9378
G1 X79.182 Y48.665 E3.9400
G1 X79.317 Y48.594 E3.9463
G1 X79.366 Y48.570 E3.9485
G1 X80.327 Y48.127 E3.9919
G1 X80.376 Y48.105 E3.9941
G1 X80.518 Y48.048 E4.0004
G1 X80.568 Y48.029 E4.0026
G1 X81.568 Y47.682 E4.0460
G1 X81.620 Y47.665 E4.0482
G1 X81.766 Y47.622 E4.0545
G1 X81.818 Y47.608 E4.0567
G1 X82.847 Y47.361 E4.1001
G1 X82.900 Y47.349 E4.1023
G1 X83.049 Y47.321 E4.1086
G1 X83.103 Y47.312 E4.1108
G1 X84.151 Y47.166 E4.1542
G1 X84.205 Y47.160 E4.1564
G1 X84.357 Y47.147 E4.1627
G1 X84.411 Y47.143 E4.1649
G1 X85.468 Y47.101 E4.2083
G1 X85.522 Y47.100 E4.2105
G1 X85.674 Y47.101 E4.2168
G1 X85.729 Y47.103 E4.2190
G1 X86.785 Y47.165 E4.2624
G1 X86.839 Y47.169 E4.2646
G1 X86.991 Y47.186 E4.2709
G1 X87.044 Y47.193 E4.2731
G1 X88.090 Y47.357 E4.3165
G1 X88.007 Y47.841 F3498
G92 E0
G1 X88.049 Y47.848 E0.0017 F720
G1 X88.186 Y47.877 E0.0075
G1 X88.227 Y47.886 E0.0092
G1 X89.240 Y48.150 E0.0521
G1 X89.280 Y48.161 E0.0538
G1 X89.414 Y48.203 E0.0596
G1 X89.454 Y48.217 E0.0613
G1 X90.436 Y48.578 E0.1043
G1 X90.475 Y48.594 E0.1060
G1 X90.604 Y48.649 E0.1117
G1 X90.642 Y48.666 E0.1135
G1 X91.584 Y49.122 E0.1564
G1 X91.622 Y49.141 E0.1581
G1 X91.745 Y49.209 E0.1639
G1 X91.781 Y49.230 E0.1656
G1 X92.674 Y49.776 E0.2085
G1 X92.709 Y49.799 E0.2102
G1 X92.825 Y49.878 E0.2160
G1 X92.859 Y49.902 E0.2177
G1 X93.706 Y50.542 E0.2612
G1 X93.746 Y50.574 E0.2633
G1 X93.876 Y50.685 E0.2703
G1 X93.914 Y50.719 E0.2724
G1 X94.552 Y51.334 E0.3088
G1 X102.619 Y48.966 E0.6536
G1 X102.926 Y48.934 E0.6663
G1 X103.957 Y49.010 E0.7087
G1 X104.256 Y49.087 E0.7213
G1 X106.269 Y50.016 E0.8123
G1 X106.369 Y50.070 E0.8170
G1 X106.689 Y50.272 E0.8325
G1 X106.780 Y50.339 E0.8371
G1 X107.900 Y51.277 E0.8970
G1 X108.021 Y51.400 E0.9041
G1 X108.379 Y51.850 E0.9277
G1 X108.473 Y51.995 E0.9348
G1 X109.108 Y53.238 E0.9920
G1 X109.167 Y53.387 E0.9986
G1 X109.318 Y53.900 E1.0206
G1 X109.348 Y54.058 E1.0271
G1 X109.486 Y55.447 E1.0844
G1 X109.485 Y55.619 E1.0915
G1 X109.427 Y56.192 E1.1151
G1 X109.392 Y56.360 E1.1221
G1 X108.934 Y57.825 E1.1851
G1 X108.873 Y57.971 E1.1916
G1 X108.626 Y58.437 E1.2132
G1 X108.539 Y58.570 E1.2197
G1 X107.234 Y60.212 E1.3057
G1 X107.040 Y60.391 E1.3165
G1 X106.308 Y60.883 E1.3527
G1 X106.070 Y60.995 E1.3636
G1 X98.130 Y63.326 E1.7029
G1 X98.130 Y63.328 E1.7030
G1 X98.120 Y63.365 E1.7046
G1 X97.853 Y64.341 E1.7461
G1 X97.842 Y64.375 E1.7476
G1 X97.805 Y64.491 E1.7526
G1 X97.794 Y64.525 E1.7540
G1 X97.435 Y65.498 E1.7966
G1 X97.420 Y65.537 E1.7983
G1 X97.365 Y65.666 E1.8040
G1 X97.348 Y65.704 E1.8058
G1 X96.892 Y66.646 E1.8487
G1 X96.872 Y66.684 E1.8504
G1 X96.805 Y66.807 E1.8562
G1 X96.784 Y66.843 E1.8579
G1 X96.238 Y67.736 E1.9008
G1 X96.215 Y67.771 E1.9025
G1 X96.136 Y67.887 E1.9083
G1 X96.112 Y67.921 E1.9100
G1 X95.481 Y68.756 E1.9529
G1 X95.454 Y68.789 E1.9547
G1 X95.364 Y68.897 E1.9604
G1 X95.337 Y68.928 E1.9621
G1 X94.627 Y69.697 E2.0051
G1 X94.598 Y69.727 E2.0068
G1 X94.498 Y69.825 E2.0125
G1 X94.467 Y69.854 E2.0143
G1 X93.685 Y70.550 E2.0572
G1 X93.653 Y70.577 E2.0589
G1 X93.544 Y70.665 E2.0647
G1 X93.510 Y70.691 E2.0664
G1 X92.664 Y71.306 E2.1093
