; G-Code generated by Simplify3D(R) Version 3.0.0
; Okt 2, 2017 at 5:03:25 
; Settings Summary
;   processName,Process1
;   applyToModels,Horn,LOCK,LOCK(2)
;   profileName,1.5 fein (modified)
;   profileVersion,2017-10-02 14:07:01
;   baseProfile,German RepRap NEO (modified)
;   printMaterial,
;   printQuality,
;   printExtruders,
;   extruderName,Primary Extruder
;   extruderToolheadNumber,0
;   extruderDiameter,0.5
;   extruderAutoWidth,0
;   extruderWidth,0.49
;   extrusionMultiplier,0.95
;   extruderUseRetract,1
;   extruderRetractionDistance,6.5
;   extruderExtraRestartDistance,0
;   extruderRetractionZLift,0
;   extruderRetractionSpeed,4998
;   extruderUseCoasting,0
;   extruderCoastingDistance,0.2
;   extruderUseWipe,0
;   extruderWipeDistance,5
;   primaryExtruder,0
;   layerHeight,0.1
;   topSolidLayers,4
;   bottomSolidLayers,3
;   perimeterOutlines,3
;   printPerimetersInsideOut,1
;   startPointOption,2
;   startPointOriginX,0
;   startPointOriginY,0
;   startPointOriginZ,300
;   sequentialIslands,0
;   spiralVaseMode,0
;   firstLayerHeightPercentage,200
;   firstLayerWidthPercentage,100
;   firstLayerUnderspeed,0.3
;   useRaft,0
;   raftExtruder,0
;   raftLayers,3
;   raftOffset,3
;   raftSeparationDistance,0.1
;   raftInfill,85
;   disableRaftBaseLayers,0
;   useSkirt,1
;   skirtExtruder,0
;   skirtLayers,1
;   skirtOutlines,5
;   skirtOffset,2
;   usePrimePillar,0
;   primePillarExtruder,999
;   primePillarWidth,12
;   primePillarLocation,7
;   primePillarSpeedMultiplier,1
;   useOozeShield,0
;   oozeShieldExtruder,999
;   oozeShieldOffset,2
;   oozeShieldOutlines,1
;   oozeShieldSidewallShape,1
;   oozeShieldSidewallAngle,30
;   oozeShieldSpeedMultiplier,1
;   infillExtruder,0
;   internalInfillPattern,Full Honeycomb
;   externalInfillPattern,Rectilinear
;   infillPercentage,20
;   outlineOverlapPercentage,15
;   infillExtrusionWidthPercentage,100
;   minInfillLength,3
;   infillLayerInterval,1
;   infillAngles,0,120,-120
;   overlapInfillAngles,0
;   generateSupport,1
;   supportExtruder,0
;   supportInfillPercentage,30
;   supportExtraInflation,0
;   denseSupportLayers,0
;   denseSupportInfillPercentage,75
;   supportLayerInterval,1
;   supportHorizontalPartOffset,1.5
;   supportUpperSeparationLayers,2
;   supportLowerSeparationLayers,2
;   supportType,0
;   supportGridSpacing,4
;   maxOverhangAngle,45
;   supportAngles,45
;   temperatureName,Primary Extruder
;   temperatureNumber,0
;   temperatureSetpointCount,3
;   temperatureSetpointLayers,1,2,3
;   temperatureSetpointTemperatures,207,202,197
;   temperatureStabilizeAtStartup,1
;   temperatureHeatedBed,0
;   temperatureRelayBetweenLayers,0
;   temperatureRelayBetweenLoops,0
;   fanLayers,1,3
;   fanSpeeds,0,100
;   blipFanToFullPower,0
;   adjustSpeedForCooling,1
;   minSpeedLayerTime,15
;   minCoolingSpeedSlowdown,20
;   increaseFanForCooling,0
;   minFanLayerTime,45
;   maxCoolingFanSpeed,100
;   increaseFanForBridging,0
;   bridgingFanSpeed,100
;   use5D,1
;   relativeEdistances,0
;   allowEaxisZeroing,1
;   independentExtruderAxes,0
;   includeM10123,0
;   stickySupport,1
;   applyToolheadOffsets,0
;   gcodeXoffset,0
;   gcodeYoffset,0
;   gcodeZoffset,0
;   overrideMachineDefinition,1
;   machineTypeOverride,0
;   strokeXoverride,150
;   strokeYoverride,150
;   strokeZoverride,150
;   originOffsetXoverride,0
;   originOffsetYoverride,0
;   originOffsetZoverride,0
;   homeXdirOverride,-1
;   homeYdirOverride,-1
;   homeZdirOverride,-1
;   flipXoverride,1
;   flipYoverride,-1
;   flipZoverride,1
;   toolheadOffsets,0,0|0,0|0,0|0,0|0,0|0,0
;   overrideFirmwareConfiguration,0
;   firmwareTypeOverride,RepRap (Marlin/Repetier/Sprinter)
;   GPXconfigOverride,r2
;   baudRateOverride,115200
;   overridePrinterModels,0
;   printerModelsOverride
;   startingGcode,G28 ; home all axes
;   layerChangeGcode,
;   retractionGcode,
;   toolChangeGcode,
;   endingGcode,M104 S0 ; turn off extruder,M140 S0 ; turn off bed,G28 X0  ; home X axis,G28 Y0  ; home Y axis,M84 ; disable motors,M107
;   createX3G,0
;   celebration,0
;   celebrationSong,Random Song
;   createMB5G,0
;   postProcessing,
;   defaultSpeed,2400
;   outlineUnderspeed,0.5
;   solidInfillUnderspeed,0.8
;   supportUnderspeed,0.8
;   rapidXYspeed,3498
;   rapidZspeed,1002
;   minBridgingArea,50
;   bridgingExtraInflation,0
;   bridgingExtrusionMultiplier,1
;   bridgingSpeedMultiplier,1
;   filamentDiameter,1.75
;   filamentPricePerKg,46
;   filamentDensity,1.25
;   useMinPrintHeight,0
;   minPrintHeight,0
;   useMaxPrintHeight,0
;   maxPrintHeight,0
;   useDiaphragm,0
;   diaphragmLayerInterval,20
;   robustSlicing,1
;   mergeAllIntoSolid,0
;   onlyRetractWhenCrossingOutline,1
;   retractBetweenLayers,1
;   useRetractionMinTravel,0
;   retractionMinTravel,3
;   retractWhileWiping,0
;   onlyWipeOutlines,1
;   avoidCrossingOutline,0
;   maxMovementDetourFactor,10
;   toolChangeRetractionDistance,0
;   toolChangeExtraRestartDistance,0
;   toolChangeRetractionSpeed,360
;   allowThinWallGapFill,1
;   thinWallAllowedOverlapPercentage,10
;   horizontalSizeCompensation,0
G90
M82
M106 S0
M104 S207 T0
M109 S207 T0
G28 ; home all axes
G92 E0
G1 E-6.5000 F4998
G1 Z0.200 F1002
; layer 1, Z = 0.2
T0
; tool H0.200 W0.490
; skirt
G1 X74.235 Y16.781 F3498
G1 E0.0000 F1499
G92 E0
G1 X74.442 Y16.129 E0.0265 F720
G1 X75.573 Y14.532 E0.1022
G1 X76.119 Y14.119 E0.1287
G1 X77.504 Y13.630 E0.1856
G1 X77.613 Y13.598 E0.1900
G1 X77.925 Y13.523 E0.2024
G1 X78.036 Y13.502 E0.2068
G1 X78.564 Y13.432 E0.2274
G1 X78.637 Y13.425 E0.2302
G1 X78.843 Y13.411 E0.2382
G1 X78.916 Y13.408 E0.2410
G1 X87.685 Y13.408 E0.5804
G1 X87.770 Y13.412 E0.5838
G1 X88.010 Y13.431 E0.5931
G1 X88.096 Y13.440 E0.5964
G1 X88.616 Y13.522 E0.6168
G1 X88.739 Y13.548 E0.6217
G1 X89.079 Y13.642 E0.6353
G1 X89.197 Y13.682 E0.6401
G1 X90.509 Y14.210 E0.6948
G1 X91.022 Y14.624 E0.7204
G1 X92.077 Y16.186 E0.7933
G1 X92.270 Y16.817 E0.8189
G1 X92.270 Y40.362 E1.7302
G1 X91.934 Y41.172 E1.7642
G1 X90.143 Y42.964 E1.8623
G1 X89.332 Y43.299 E1.8962
G1 X77.173 Y43.299 E2.3668
G1 X76.363 Y42.964 E2.4008
G1 X74.571 Y41.172 E2.4989
G1 X74.235 Y40.362 E2.5328
G1 X74.235 Y16.781 E3.4456
G1 X92.503 Y17.749 F3498
G92 E0
G1 X92.710 Y17.097 E0.0265 F720
G1 X93.840 Y15.500 E0.1022
G1 X94.386 Y15.087 E0.1287
G1 X95.772 Y14.598 E0.1856
G1 X95.881 Y14.566 E0.1900
G1 X96.192 Y14.491 E0.2024
G1 X96.304 Y14.470 E0.2068
G1 X96.832 Y14.400 E0.2274
G1 X96.905 Y14.393 E0.2302
G1 X97.110 Y14.379 E0.2382
G1 X97.184 Y14.377 E0.2410
G1 X105.952 Y14.377 E0.5804
G1 X106.038 Y14.380 E0.5837
G1 X106.278 Y14.399 E0.5931
G1 X106.363 Y14.409 E0.5964
G1 X106.884 Y14.490 E0.6168
G1 X107.006 Y14.516 E0.6216
G1 X107.346 Y14.610 E0.6353
G1 X107.465 Y14.650 E0.6401
G1 X108.776 Y15.178 E0.6948
G1 X109.290 Y15.592 E0.7204
G1 X110.345 Y17.154 E0.7933
G1 X110.538 Y17.785 E0.8189
G1 X110.538 Y41.330 E1.7302
G1 X110.202 Y42.140 E1.7642
G1 X108.410 Y43.932 E1.8623
G1 X107.600 Y44.268 E1.8962
G1 X95.441 Y44.268 E2.3668
G1 X94.630 Y43.932 E2.4008
G1 X92.838 Y42.140 E2.4989
G1 X92.503 Y41.330 E2.5328
G1 X92.503 Y17.749 E3.4456
G1 X88.090 Y47.357 F3498
G92 E0
G1 X88.143 Y47.367 E0.0021 F720
G1 X88.292 Y47.398 E0.0080
G1 X88.345 Y47.411 E0.0101
G1 X89.369 Y47.677 E0.0511
G1 X89.421 Y47.692 E0.0531
G1 X89.566 Y47.738 E0.0590
G1 X89.618 Y47.755 E0.0611
G1 X90.611 Y48.121 E0.1021
G1 X90.661 Y48.141 E0.1042
G1 X90.801 Y48.200 E0.1101
G1 X90.851 Y48.223 E0.1122
G1 X91.803 Y48.684 E0.1532
G1 X91.851 Y48.709 E0.1552
G1 X91.985 Y48.782 E0.1611
G1 X92.032 Y48.809 E0.1632
G1 X92.935 Y49.361 E0.2042
G1 X92.980 Y49.390 E0.2063
G1 X93.106 Y49.476 E0.2122
G1 X93.150 Y49.508 E0.2143
G1 X94.007 Y50.156 E0.2559
G1 X94.059 Y50.197 E0.2584
G1 X94.199 Y50.317 E0.2656
G1 X94.248 Y50.361 E0.2681
G1 X94.687 Y50.784 E0.2917
G1 X102.523 Y48.484 E0.6078
G1 X102.918 Y48.442 E0.6232
G1 X104.037 Y48.524 E0.6666
G1 X104.421 Y48.623 E0.6820
G1 X106.489 Y49.578 E0.7701
G1 X106.617 Y49.647 E0.7758
G1 X106.965 Y49.867 E0.7917
G1 X107.082 Y49.953 E0.7973
G1 X108.234 Y50.917 E0.8554
G1 X108.388 Y51.075 E0.8640
G1 X108.778 Y51.564 E0.8882
G1 X108.898 Y51.750 E0.8968
G1 X109.554 Y53.035 E0.9526
G1 X109.631 Y53.227 E0.9606
G1 X109.794 Y53.784 E0.9831
G1 X109.834 Y53.987 E0.9911
G1 X109.976 Y55.423 E1.0470
G1 X109.975 Y55.645 E1.0556
G1 X109.911 Y56.266 E1.0797
G1 X109.867 Y56.483 E1.0883
G1 X109.395 Y57.993 E1.1495
G1 X109.316 Y58.181 E1.1574
G1 X109.048 Y58.687 E1.1796
G1 X108.937 Y58.857 E1.1874
G1 X107.594 Y60.546 E1.2710
G1 X107.345 Y60.776 E1.2841
G1 X106.551 Y61.311 E1.3212
G1 X106.244 Y61.455 E1.3343
G1 X98.532 Y63.718 E1.6454
G1 X98.324 Y64.475 E1.6758
G1 X98.310 Y64.520 E1.6776
G1 X98.270 Y64.645 E1.6827
G1 X98.255 Y64.689 E1.6845
G1 X97.893 Y65.673 E1.7250
G1 X97.873 Y65.723 E1.7271
G1 X97.814 Y65.863 E1.7330
G1 X97.791 Y65.913 E1.7351
G1 X97.330 Y66.865 E1.7761
G1 X97.305 Y66.913 E1.7782
G1 X97.232 Y67.047 E1.7841
G1 X97.205 Y67.094 E1.7862
G1 X96.653 Y67.997 E1.8271
G1 X96.623 Y68.042 E1.8292
G1 X96.538 Y68.168 E1.8351
G1 X96.506 Y68.212 E1.8372
G1 X95.868 Y69.056 E1.8782
G1 X95.834 Y69.099 E1.8803
G1 X95.736 Y69.215 E1.8862
G1 X95.701 Y69.256 E1.8883
G1 X94.983 Y70.034 E1.9292
G1 X94.945 Y70.073 E1.9313
G1 X94.837 Y70.179 E1.9372
G1 X94.797 Y70.216 E1.9393
G1 X94.006 Y70.920 E1.9803
G1 X93.965 Y70.955 E1.9824
G1 X93.847 Y71.050 E1.9883
G1 X93.804 Y71.083 E1.9904
G1 X92.948 Y71.706 E2.0313
G1 X92.903 Y71.737 E2.0334
G1 X92.776 Y71.820 E2.0393
G1 X92.730 Y71.849 E2.0414
G1 X91.817 Y72.385 E2.0824
G1 X91.770 Y72.411 E2.0845
G1 X91.635 Y72.481 E2.0904
G1 X91.586 Y72.505 E2.0925
G1 X90.625 Y72.949 E2.1334
G1 X90.575 Y72.971 E2.1355
G1 X90.434 Y73.028 E2.1414
G1 X90.384 Y73.047 E2.1435
G1 X89.384 Y73.394 E2.1845
G1 X89.332 Y73.410 E2.1866
G1 X89.186 Y73.453 E2.1925
G1 X89.134 Y73.467 E2.1946
G1 X88.105 Y73.715 E2.2355
G1 X88.052 Y73.726 E2.2376
G1 X87.903 Y73.755 E2.2435
G1 X87.849 Y73.764 E2.2456
G1 X86.801 Y73.909 E2.2866
G1 X86.747 Y73.916 E2.2887
G1 X86.595 Y73.929 E2.2946
G1 X86.541 Y73.933 E2.2967
G1 X85.484 Y73.975 E2.3376
G1 X85.430 Y73.976 E2.3397
G1 X85.277 Y73.974 E2.3456
G1 X85.223 Y73.972 E2.3477
G1 X84.167 Y73.911 E2.3887
G1 X84.113 Y73.906 E2.3908
G1 X83.961 Y73.890 E2.3967
G1 X83.908 Y73.883 E2.3988
G1 X82.862 Y73.718 E2.4397
G1 X82.809 Y73.708 E2.4418
G1 X82.660 Y73.677 E2.4477
G1 X82.607 Y73.665 E2.4498
G1 X81.583 Y73.399 E2.4908
G1 X81.531 Y73.384 E2.4929
G1 X81.385 Y73.338 E2.4988
G1 X81.334 Y73.321 E2.5009
G1 X80.341 Y72.955 E2.5418
G1 X80.291 Y72.935 E2.5439
G1 X80.151 Y72.876 E2.5498
G1 X80.101 Y72.853 E2.5519
G1 X79.149 Y72.392 E2.5929
G1 X79.101 Y72.367 E2.5950
G1 X78.967 Y72.294 E2.6009
G1 X78.920 Y72.267 E2.6030
G1 X78.017 Y71.715 E2.6439
G1 X77.972 Y71.685 E2.6460
G1 X77.846 Y71.599 E2.6519
G1 X77.802 Y71.568 E2.6540
G1 X76.958 Y70.930 E2.6950
G1 X76.915 Y70.896 E2.6971
G1 X76.799 Y70.798 E2.7030
G1 X76.758 Y70.763 E2.7051
G1 X75.980 Y70.045 E2.7460
G1 X75.941 Y70.007 E2.7481
G1 X75.835 Y69.898 E2.7540
G1 X75.798 Y69.859 E2.7561
G1 X75.094 Y69.068 E2.7971
G1 X75.059 Y69.027 E2.7992
G1 X74.963 Y68.908 E2.8051
G1 X74.931 Y68.865 E2.8072
G1 X74.308 Y68.010 E2.8481
G1 X74.277 Y67.965 E2.8502
G1 X74.194 Y67.838 E2.8561
G1 X74.165 Y67.792 E2.8582
G1 X73.629 Y66.879 E2.8992
G1 X73.603 Y66.832 E2.9013
G1 X73.532 Y66.697 E2.9072
G1 X73.509 Y66.648 E2.9093
G1 X73.065 Y65.687 E2.9503
G1 X73.043 Y65.637 E2.9524
G1 X72.986 Y65.496 E2.9582
G1 X72.967 Y65.445 E2.9603
G1 X72.620 Y64.446 E3.0013
G1 X72.603 Y64.394 E3.0034
G1 X72.560 Y64.248 E3.0093
G1 X72.546 Y64.196 E3.0114
G1 X72.299 Y63.167 E3.0524
G1 X72.287 Y63.114 E3.0544
G1 X72.259 Y62.964 E3.0603
G1 X72.250 Y62.911 E3.0624
G1 X72.104 Y61.863 E3.1034
G1 X72.098 Y61.809 E3.1055
G1 X72.085 Y61.657 E3.1114
G1 X72.081 Y61.603 E3.1135
G1 X72.040 Y60.565 E3.1537
G1 X72.039 Y60.512 E3.1558
G1 X72.040 Y60.363 E3.1615
G1 X72.042 Y60.310 E3.1636
G1 X72.102 Y59.235 E3.2053
G1 X72.107 Y59.180 E3.2074
G1 X72.123 Y59.025 E3.2134
G1 X72.131 Y58.971 E3.2155
G1 X72.296 Y57.924 E3.2566
G1 X72.305 Y57.871 E3.2586
G1 X72.336 Y57.722 E3.2645
G1 X72.349 Y57.669 E3.2666
G1 X72.615 Y56.645 E3.3076
G1 X72.630 Y56.593 E3.3097
G1 X72.676 Y56.447 E3.3156
G1 X72.693 Y56.396 E3.3177
G1 X73.059 Y55.403 E3.3587
G1 X73.079 Y55.353 E3.3607
G1 X73.138 Y55.213 E3.3666
G1 X73.161 Y55.163 E3.3687
G1 X73.622 Y54.211 E3.4097
G1 X73.647 Y54.162 E3.4118
G1 X73.720 Y54.029 E3.4177
G1 X73.747 Y53.982 E3.4198
G1 X74.299 Y53.079 E3.4608
G1 X74.329 Y53.034 E3.4629
G1 X74.414 Y52.908 E3.4687
G1 X74.446 Y52.864 E3.4708
G1 X75.084 Y52.020 E3.5118
G1 X75.118 Y51.977 E3.5139
G1 X75.215 Y51.860 E3.5198
G1 X75.251 Y51.820 E3.5219
G1 X75.969 Y51.042 E3.5629
G1 X76.007 Y51.003 E3.5650
G1 X76.115 Y50.896 E3.5708
G1 X76.155 Y50.859 E3.5729
G1 X76.946 Y50.156 E3.6139
G1 X76.987 Y50.121 E3.6160
G1 X77.105 Y50.025 E3.6219
G1 X77.148 Y49.992 E3.6240
G1 X78.004 Y49.370 E3.6650
G1 X78.049 Y49.339 E3.6671
G1 X78.176 Y49.255 E3.6730
G1 X78.222 Y49.227 E3.6750
G1 X79.135 Y48.691 E3.7160
G1 X79.182 Y48.665 E3.7181
G1 X79.317 Y48.594 E3.7240
G1 X79.366 Y48.570 E3.7261
G1 X80.327 Y48.127 E3.7671
G1 X80.376 Y48.105 E3.7692
G1 X80.518 Y48.048 E3.7751
G1 X80.568 Y48.029 E3.7772
G1 X81.568 Y47.682 E3.8181
G1 X81.620 Y47.665 E3.8202
G1 X81.766 Y47.622 E3.8261
G1 X81.818 Y47.608 E3.8282
G1 X82.847 Y47.361 E3.8692
G1 X82.900 Y47.349 E3.8713
G1 X83.049 Y47.321 E3.8772
G1 X83.103 Y47.312 E3.8793
G1 X84.151 Y47.166 E3.9202
G1 X84.205 Y47.160 E3.9223
G1 X84.357 Y47.147 E3.9282
G1 X84.411 Y47.143 E3.9303
G1 X85.468 Y47.101 E3.9713
G1 X85.522 Y47.100 E3.9734
G1 X85.674 Y47.101 E3.9793
G1 X85.729 Y47.103 E3.9814
G1 X86.785 Y47.165 E4.0223
G1 X86.839 Y47.169 E4.0244
G1 X86.991 Y47.186 E4.0303
G1 X87.044 Y47.193 E4.0324
G1 X88.090 Y47.357 E4.0734
G1 X88.007 Y47.841 F3498
G92 E0
G1 X88.049 Y47.848 E0.0016 F720
G1 X88.186 Y47.877 E0.0071
G1 X88.227 Y47.886 E0.0087
G1 X89.240 Y48.150 E0.0492
G1 X89.280 Y48.161 E0.0508
G1 X89.414 Y48.203 E0.0562
G1 X89.454 Y48.217 E0.0579
G1 X90.436 Y48.578 E0.0984
G1 X90.475 Y48.594 E0.1000
G1 X90.604 Y48.649 E0.1054
G1 X90.642 Y48.666 E0.1071
G1 X91.584 Y49.122 E0.1476
G1 X91.622 Y49.141 E0.1492
G1 X91.745 Y49.209 E0.1546
G1 X91.781 Y49.230 E0.1563
G1 X92.674 Y49.776 E0.1968
G1 X92.709 Y49.799 E0.1984
G1 X92.825 Y49.878 E0.2038
G1 X92.859 Y49.902 E0.2054
G1 X93.706 Y50.542 E0.2465
G1 X93.746 Y50.574 E0.2485
G1 X93.876 Y50.685 E0.2551
G1 X93.914 Y50.719 E0.2571
G1 X94.552 Y51.334 E0.2914
G1 X102.619 Y48.966 E0.6168
G1 X102.926 Y48.934 E0.6287
G1 X103.957 Y49.010 E0.6688
G1 X104.256 Y49.087 E0.6807
G1 X106.269 Y50.016 E0.7665
G1 X106.369 Y50.070 E0.7709
G1 X106.689 Y50.272 E0.7856
G1 X106.780 Y50.339 E0.7900
G1 X107.900 Y51.277 E0.8465
G1 X108.021 Y51.400 E0.8532
G1 X108.379 Y51.850 E0.8754
G1 X108.473 Y51.995 E0.8821
G1 X109.108 Y53.238 E0.9361
G1 X109.167 Y53.387 E0.9424
G1 X109.318 Y53.900 E0.9631
G1 X109.348 Y54.058 E0.9693
G1 X109.486 Y55.447 E1.0233
G1 X109.485 Y55.619 E1.0300
G1 X109.427 Y56.192 E1.0523
G1 X109.392 Y56.360 E1.0589
G1 X108.934 Y57.825 E1.1183
G1 X108.873 Y57.971 E1.1245
G1 X108.626 Y58.437 E1.1449
G1 X108.539 Y58.570 E1.1510
G1 X107.234 Y60.212 E1.2322
G1 X107.040 Y60.391 E1.2424
G1 X106.308 Y60.883 E1.2765
G1 X106.070 Y60.995 E1.2867
G1 X98.130 Y63.326 E1.6070
G1 X98.130 Y63.328 E1.6071
G1 X98.120 Y63.365 E1.6086
G1 X97.853 Y64.341 E1.6477
G1 X97.842 Y64.375 E1.6492
G1 X97.805 Y64.491 E1.6538
G1 X97.794 Y64.525 E1.6552
G1 X97.435 Y65.498 E1.6954
G1 X97.420 Y65.537 E1.6970
G1 X97.365 Y65.666 E1.7024
G1 X97.348 Y65.704 E1.7041
G1 X96.892 Y66.646 E1.7446
G1 X96.872 Y66.684 E1.7462
G1 X96.805 Y66.807 E1.7516
G1 X96.784 Y66.843 E1.7532
G1 X96.238 Y67.736 E1.7937
G1 X96.215 Y67.771 E1.7954
G1 X96.136 Y67.887 E1.8008
G1 X96.112 Y67.921 E1.8024
G1 X95.481 Y68.756 E1.8429
G1 X95.454 Y68.789 E1.8446
G1 X95.364 Y68.897 E1.8500
G1 X95.337 Y68.928 E1.8516
G1 X94.627 Y69.697 E1.8921
G1 X94.598 Y69.727 E1.8938
G1 X94.498 Y69.825 E1.8992
G1 X94.467 Y69.854 E1.9008
G1 X93.685 Y70.550 E1.9413
G1 X93.653 Y70.577 E1.9429
G1 X93.544 Y70.665 E1.9484
G1 X93.510 Y70.691 E1.9500
G1 X92.664 Y71.306 E1.9905
