; G-Code generated by Simplify3D(R) Version 3.0.0
; Sep 30, 2017 at 1:20:59 
; Settings Summary
;   processName,Process1
;   applyToModels,RotzelBoard
;   profileName,1.5 fein (modified)
;   profileVersion,2017-09-21 12:38:00
;   baseProfile,German RepRap NEO (modified)
;   printMaterial,
;   printQuality,
;   printExtruders,
;   extruderName,Primary Extruder
;   extruderToolheadNumber,0
;   extruderDiameter,0.5
;   extruderAutoWidth,0
;   extruderWidth,0.49
;   extrusionMultiplier,0.92
;   extruderUseRetract,1
;   extruderRetractionDistance,6.5
;   extruderExtraRestartDistance,0
;   extruderRetractionZLift,0
;   extruderRetractionSpeed,4998
;   extruderUseCoasting,0
;   extruderCoastingDistance,0.2
;   extruderUseWipe,0
;   extruderWipeDistance,5
;   primaryExtruder,0
;   layerHeight,0.15
;   topSolidLayers,4
;   bottomSolidLayers,3
;   perimeterOutlines,3
;   printPerimetersInsideOut,1
;   startPointOption,2
;   startPointOriginX,0
;   startPointOriginY,0
;   startPointOriginZ,300
;   sequentialIslands,0
;   spiralVaseMode,0
;   firstLayerHeightPercentage,140
;   firstLayerWidthPercentage,100
;   firstLayerUnderspeed,0.3
;   useRaft,0
;   raftExtruder,0
;   raftLayers,3
;   raftOffset,3
;   raftSeparationDistance,0.1
;   raftInfill,85
;   disableRaftBaseLayers,0
;   useSkirt,1
;   skirtExtruder,0
;   skirtLayers,1
;   skirtOutlines,4
;   skirtOffset,4
;   usePrimePillar,0
;   primePillarExtruder,999
;   primePillarWidth,12
;   primePillarLocation,7
;   primePillarSpeedMultiplier,1
;   useOozeShield,0
;   oozeShieldExtruder,999
;   oozeShieldOffset,2
;   oozeShieldOutlines,1
;   oozeShieldSidewallShape,1
;   oozeShieldSidewallAngle,30
;   oozeShieldSpeedMultiplier,1
;   infillExtruder,0
;   internalInfillPattern,Full Honeycomb
;   externalInfillPattern,Rectilinear
;   infillPercentage,20
;   outlineOverlapPercentage,15
;   infillExtrusionWidthPercentage,100
;   minInfillLength,3
;   infillLayerInterval,1
;   infillAngles,0,120,-120
;   overlapInfillAngles,0
;   generateSupport,0
;   supportExtruder,0
;   supportInfillPercentage,30
;   supportExtraInflation,0
;   denseSupportLayers,0
;   denseSupportInfillPercentage,75
;   supportLayerInterval,1
;   supportHorizontalPartOffset,1.5
;   supportUpperSeparationLayers,2
;   supportLowerSeparationLayers,2
;   supportType,0
;   supportGridSpacing,4
;   maxOverhangAngle,45
;   supportAngles,45
;   temperatureName,Primary Extruder
;   temperatureNumber,0
;   temperatureSetpointCount,3
;   temperatureSetpointLayers,1,2,3
;   temperatureSetpointTemperatures,207,199,195
;   temperatureStabilizeAtStartup,1
;   temperatureHeatedBed,0
;   temperatureRelayBetweenLayers,0
;   temperatureRelayBetweenLoops,0
;   fanLayers,1,3
;   fanSpeeds,0,100
;   blipFanToFullPower,0
;   adjustSpeedForCooling,1
;   minSpeedLayerTime,15
;   minCoolingSpeedSlowdown,20
;   increaseFanForCooling,0
;   minFanLayerTime,45
;   maxCoolingFanSpeed,100
;   increaseFanForBridging,0
;   bridgingFanSpeed,100
;   use5D,1
;   relativeEdistances,0
;   allowEaxisZeroing,1
;   independentExtruderAxes,0
;   includeM10123,0
;   stickySupport,1
;   applyToolheadOffsets,0
;   gcodeXoffset,0
;   gcodeYoffset,0
;   gcodeZoffset,0
;   overrideMachineDefinition,1
;   machineTypeOverride,0
;   strokeXoverride,150
;   strokeYoverride,150
;   strokeZoverride,150
;   originOffsetXoverride,0
;   originOffsetYoverride,0
;   originOffsetZoverride,0
;   homeXdirOverride,-1
;   homeYdirOverride,-1
;   homeZdirOverride,-1
;   flipXoverride,1
;   flipYoverride,-1
;   flipZoverride,1
;   toolheadOffsets,0,0|0,0|0,0|0,0|0,0|0,0
;   overrideFirmwareConfiguration,0
;   firmwareTypeOverride,RepRap (Marlin/Repetier/Sprinter)
;   GPXconfigOverride,r2
;   baudRateOverride,115200
;   overridePrinterModels,0
;   printerModelsOverride
;   startingGcode,G28 ; home all axes
;   layerChangeGcode,
;   retractionGcode,
;   toolChangeGcode,
;   endingGcode,M104 S0 ; turn off extruder,M140 S0 ; turn off bed,G28 X0  ; home X axis,G28 Y0  ; home Y axis,M84 ; disable motors,M107
;   createX3G,0
;   celebration,0
;   celebrationSong,Random Song
;   createMB5G,0
;   postProcessing,
;   defaultSpeed,2400
;   outlineUnderspeed,0.5
;   solidInfillUnderspeed,0.8
;   supportUnderspeed,0.8
;   rapidXYspeed,3498
;   rapidZspeed,1002
;   minBridgingArea,50
;   bridgingExtraInflation,0
;   bridgingExtrusionMultiplier,1
;   bridgingSpeedMultiplier,1
;   filamentDiameter,1.75
;   filamentPricePerKg,46
;   filamentDensity,1.25
;   useMinPrintHeight,0
;   minPrintHeight,0
;   useMaxPrintHeight,0
;   maxPrintHeight,0
;   useDiaphragm,0
;   diaphragmLayerInterval,20
;   robustSlicing,1
;   mergeAllIntoSolid,0
;   onlyRetractWhenCrossingOutline,1
;   retractBetweenLayers,1
;   useRetractionMinTravel,0
;   retractionMinTravel,3
;   retractWhileWiping,0
;   onlyWipeOutlines,1
;   avoidCrossingOutline,0
;   maxMovementDetourFactor,10
;   toolChangeRetractionDistance,0
;   toolChangeExtraRestartDistance,0
;   toolChangeRetractionSpeed,360
;   allowThinWallGapFill,1
;   thinWallAllowedOverlapPercentage,10
;   horizontalSizeCompensation,0
G90
M82
M106 S0
M104 S207 T0
M109 S207 T0
G28 ; home all axes
G92 E0
G1 E-6.5000 F4998
G1 Z0.210 F1002
; layer 1, Z = 0.21
T0
; tool H0.210 W0.490
; skirt
G1 X53.316 Y26.735 F3498
G1 E0.0000 F1499
G92 E0
G1 X55.663 Y23.139 E0.1690 F720
G1 X56.108 Y22.790 E0.1913
G1 X56.164 Y22.770 E0.1936
G1 X56.181 Y22.712 E0.1960
G1 X56.500 Y22.246 E0.2182
G1 X59.936 Y19.669 E0.3873
G1 X60.473 Y19.493 E0.4095
G1 X60.533 Y19.494 E0.4119
G1 X60.568 Y19.445 E0.4142
G1 X61.028 Y19.116 E0.4365
G1 X65.137 Y17.870 E0.6055
G1 X65.702 Y17.888 E0.6278
G1 X65.751 Y17.907 E0.6298
G1 X66.240 Y17.760 E0.6499
G1 X68.414 Y17.824 E0.7355
G1 X68.436 Y17.825 E0.7363
G1 X68.559 Y17.831 E0.7412
G1 X68.581 Y17.833 E0.7421
G1 X70.749 Y18.007 E0.8277
G1 X71.219 Y18.206 E0.8478
G1 X71.269 Y18.193 E0.8498
G1 X71.833 Y18.237 E0.8721
G1 X75.782 Y19.924 E1.0411
G1 X76.203 Y20.301 E1.0633
G1 X76.232 Y20.353 E1.0657
G1 X76.292 Y20.359 E1.0680
G1 X76.807 Y20.593 E1.0903
G1 X79.941 Y23.529 E1.2593
G1 X80.207 Y24.027 E1.2816
G1 X80.217 Y24.087 E1.2839
G1 X80.271 Y24.113 E1.2863
G1 X80.675 Y24.508 E1.3086
G1 X82.616 Y28.339 E1.4776
G1 X82.696 Y28.899 E1.4998
G1 X82.685 Y28.958 E1.5022
G1 X82.727 Y29.001 E1.5045
G1 X82.971 Y29.511 E1.5268
G1 X83.485 Y33.774 E1.6958
G1 X83.368 Y34.327 E1.7181
G1 X83.338 Y34.379 E1.7204
G1 X83.363 Y34.434 E1.7228
G1 X83.418 Y34.996 E1.7450
G1 X82.442 Y39.178 E1.9141
G1 X82.144 Y39.658 E1.9363
G1 X82.097 Y39.697 E1.9387
G1 X82.102 Y39.757 E1.9410
G1 X81.961 Y40.304 E1.9633
G1 X79.614 Y43.900 E2.1323
G1 X79.169 Y44.249 E2.1546
G1 X79.112 Y44.269 E2.1569
G1 X79.096 Y44.327 E2.1593
G1 X78.777 Y44.794 E2.1815
G1 X75.341 Y47.370 E2.3505
G1 X74.804 Y47.546 E2.3728
G1 X74.744 Y47.545 E2.3752
G1 X74.709 Y47.594 E2.3775
G1 X74.249 Y47.923 E2.3998
G1 X70.140 Y49.169 E2.5688
G1 X69.575 Y49.151 E2.5910
G1 X69.526 Y49.132 E2.5931
G1 X69.037 Y49.279 E2.6132
G1 X66.863 Y49.215 E2.6988
G1 X66.841 Y49.214 E2.6996
G1 X66.718 Y49.208 E2.7045
G1 X66.696 Y49.206 E2.7054
G1 X64.528 Y49.032 E2.7910
G1 X64.058 Y48.833 E2.8110
G1 X64.008 Y48.846 E2.8131
G1 X63.444 Y48.803 E2.8354
G1 X59.495 Y47.115 E3.0044
G1 X59.074 Y46.738 E3.0266
G1 X59.044 Y46.686 E3.0290
G1 X58.985 Y46.680 E3.0313
G1 X58.470 Y46.446 E3.0536
G1 X55.336 Y43.510 E3.2226
G1 X55.069 Y43.012 E3.2449
G1 X55.060 Y42.953 E3.2472
G1 X55.005 Y42.926 E3.2496
G1 X54.602 Y42.531 E3.2718
G1 X52.661 Y38.700 E3.4409
G1 X52.581 Y38.141 E3.4631
G1 X52.592 Y38.081 E3.4655
G1 X52.550 Y38.038 E3.4678
G1 X52.306 Y37.528 E3.4901
G1 X51.792 Y33.265 E3.6591
G1 X51.909 Y32.712 E3.6814
G1 X51.939 Y32.660 E3.6837
G1 X51.914 Y32.605 E3.6861
G1 X51.859 Y32.043 E3.7083
G1 X52.835 Y27.861 E3.8773
G1 X53.133 Y27.381 E3.8996
G1 X53.180 Y27.342 E3.9020
G1 X53.175 Y27.283 E3.9043
G1 X53.316 Y26.735 E3.9266
G1 X53.770 Y26.935 F3498
G92 E0
G1 X56.029 Y23.475 E0.1626 F720
G1 X56.347 Y23.225 E0.1785
G1 X56.567 Y23.147 E0.1877
G1 X56.631 Y22.922 E0.1969
G1 X56.859 Y22.589 E0.2128
G1 X60.165 Y20.110 E0.3755
G1 X60.549 Y19.984 E0.3914
G1 X60.783 Y19.986 E0.4006
G1 X60.919 Y19.796 E0.4098
G1 X61.247 Y19.561 E0.4257
G1 X65.202 Y18.362 E0.5883
G1 X65.606 Y18.375 E0.6042
G1 X65.805 Y18.450 E0.6126
G1 X65.925 Y18.366 E0.6184
G1 X66.305 Y18.252 E0.6340
G1 X68.397 Y18.313 E0.7163
G1 X68.412 Y18.314 E0.7170
G1 X68.529 Y18.320 E0.7216
G1 X68.545 Y18.322 E0.7222
G1 X70.631 Y18.489 E0.8046
G1 X70.995 Y18.643 E0.8201
G1 X71.106 Y18.740 E0.8259
G1 X71.312 Y18.688 E0.8343
G1 X71.715 Y18.719 E0.8502
G1 X75.515 Y20.342 E1.0128
G1 X75.816 Y20.612 E1.0287
G1 X75.931 Y20.816 E1.0379
G1 X76.163 Y20.839 E1.0471
G1 X76.531 Y21.006 E1.0630
G1 X79.547 Y23.831 E1.2257
G1 X79.737 Y24.187 E1.2416
G1 X79.776 Y24.418 E1.2508
G1 X79.986 Y24.519 E1.2600
G1 X80.275 Y24.802 E1.2759
G1 X82.142 Y28.488 E1.4385
G1 X82.199 Y28.888 E1.4544
G1 X82.157 Y29.118 E1.4636
G1 X82.320 Y29.285 E1.4728
G1 X82.494 Y29.649 E1.4887
G1 X82.988 Y33.752 E1.6514
G1 X82.905 Y34.148 E1.6673
G1 X82.787 Y34.349 E1.6765
G1 X82.883 Y34.562 E1.6857
G1 X82.922 Y34.964 E1.7016
G1 X81.983 Y38.988 E1.8642
G1 X81.770 Y39.331 E1.8801
G1 X81.589 Y39.480 E1.8893
G1 X81.607 Y39.713 E1.8985
G1 X81.506 Y40.104 E1.9144
G1 X79.248 Y43.565 E2.0771
G1 X78.930 Y43.814 E2.0930
G1 X78.710 Y43.892 E2.1022
G1 X78.646 Y44.117 E2.1114
G1 X78.418 Y44.450 E2.1273
G1 X75.112 Y46.929 E2.2899
G1 X74.728 Y47.055 E2.3058
G1 X74.494 Y47.053 E2.3150
G1 X74.358 Y47.243 E2.3242
G1 X74.030 Y47.478 E2.3401
G1 X70.075 Y48.677 E2.5027
G1 X69.671 Y48.664 E2.5186
G1 X69.472 Y48.589 E2.5270
G1 X69.352 Y48.673 E2.5328
G1 X68.972 Y48.787 E2.5484
G1 X66.880 Y48.726 E2.6308
G1 X66.865 Y48.725 E2.6314
G1 X66.748 Y48.719 E2.6360
G1 X66.732 Y48.718 E2.6366
G1 X64.646 Y48.550 E2.7190
G1 X64.281 Y48.396 E2.7346
G1 X64.171 Y48.299 E2.7403
G1 X63.965 Y48.351 E2.7487
G1 X63.562 Y48.320 E2.7646
G1 X59.762 Y46.697 E2.9273
G1 X59.461 Y46.427 E2.9432
G1 X59.346 Y46.224 E2.9524
G1 X59.114 Y46.200 E2.9616
G1 X58.746 Y46.033 E2.9775
G1 X55.730 Y43.208 E3.1401
G1 X55.540 Y42.852 E3.1560
G1 X55.501 Y42.621 E3.1652
G1 X55.291 Y42.520 E3.1744
G1 X55.002 Y42.237 E3.1903
G1 X53.135 Y38.551 E3.3529
G1 X53.077 Y38.151 E3.3688
G1 X53.120 Y37.921 E3.3780
G1 X52.957 Y37.754 E3.3872
G1 X52.782 Y37.390 E3.4031
G1 X52.288 Y33.287 E3.5658
G1 X52.371 Y32.891 E3.5817
G1 X52.490 Y32.690 E3.5909
G1 X52.394 Y32.477 E3.6001
G1 X52.355 Y32.075 E3.6160
G1 X53.294 Y28.051 E3.7786
G1 X53.507 Y27.708 E3.7945
G1 X53.688 Y27.559 E3.8037
G1 X53.670 Y27.326 E3.8129
G1 X53.770 Y26.935 E3.8288
G1 X54.225 Y27.135 F3498
G92 E0
G1 X56.395 Y23.810 E0.1563 F720
G1 X56.586 Y23.660 E0.1658
G1 X56.970 Y23.525 E0.1819
G1 X57.080 Y23.133 E0.1979
G1 X57.217 Y22.933 E0.2074
G1 X60.394 Y20.550 E0.3637
G1 X60.625 Y20.475 E0.3733
G1 X61.032 Y20.479 E0.3893
G1 X61.270 Y20.148 E0.4053
G1 X61.467 Y20.007 E0.4149
G1 X65.267 Y18.855 E0.5712
G1 X65.509 Y18.863 E0.5807
G1 X65.875 Y19.000 E0.5961
G1 X66.142 Y18.813 E0.6089
G1 X66.369 Y18.744 E0.6183
G1 X68.379 Y18.803 E0.6974
G1 X68.388 Y18.804 E0.6978
G1 X68.499 Y18.810 E0.7021
G1 X68.509 Y18.810 E0.7025
G1 X70.513 Y18.971 E0.7816
G1 X70.731 Y19.064 E0.7910
G1 X70.977 Y19.279 E0.8038
G1 X71.355 Y19.183 E0.8192
G1 X71.597 Y19.201 E0.8287
G1 X75.248 Y20.761 E0.9850
G1 X75.429 Y20.923 E0.9946
G1 X75.629 Y21.278 E1.0106
G1 X76.034 Y21.318 E1.0266
G1 X76.255 Y21.418 E1.0362
G1 X79.153 Y24.133 E1.1925
G1 X79.267 Y24.347 E1.2020
G1 X79.334 Y24.749 E1.2180
G1 X79.701 Y24.926 E1.2341
G1 X79.874 Y25.095 E1.2436
G1 X81.669 Y28.638 E1.3999
G1 X81.703 Y28.878 E1.4094
G1 X81.628 Y29.278 E1.4255
G1 X81.913 Y29.570 E1.4415
G1 X82.018 Y29.788 E1.4511
G1 X82.492 Y33.731 E1.6073
G1 X82.442 Y33.968 E1.6169
G1 X82.235 Y34.319 E1.6329
G1 X82.403 Y34.690 E1.6490
G1 X82.427 Y34.931 E1.6585
G1 X81.524 Y38.798 E1.8148
G1 X81.396 Y39.004 E1.8243
G1 X81.082 Y39.263 E1.8404
G1 X81.112 Y39.669 E1.8564
G1 X81.052 Y39.904 E1.8659
G1 X78.881 Y43.229 E2.0222
G1 X78.691 Y43.379 E2.0318
G1 X78.307 Y43.514 E2.0478
G1 X78.196 Y43.907 E2.0638
G1 X78.059 Y44.106 E2.0734
G1 X74.883 Y46.489 E2.2297
G1 X74.652 Y46.564 E2.2392
G1 X74.245 Y46.560 E2.2552
G1 X74.007 Y46.891 E2.2713
G1 X73.810 Y47.032 E2.2808
G1 X70.010 Y48.184 E2.4371
G1 X69.768 Y48.177 E2.4466
G1 X69.402 Y48.039 E2.4620
G1 X69.135 Y48.227 E2.4749
G1 X68.907 Y48.295 E2.4842
G1 X66.898 Y48.236 E2.5633
G1 X66.888 Y48.236 E2.5637
G1 X66.778 Y48.229 E2.5681
G1 X66.768 Y48.229 E2.5684
G1 X64.764 Y48.068 E2.6476
G1 X64.545 Y47.975 E2.6569
G1 X64.300 Y47.760 E2.6698
G1 X63.922 Y47.857 E2.6851
G1 X63.680 Y47.838 E2.6947
G1 X60.029 Y46.278 E2.8510
G1 X59.848 Y46.116 E2.8605
G1 X59.648 Y45.761 E2.8765
G1 X59.243 Y45.721 E2.8926
G1 X59.022 Y45.621 E2.9021
G1 X56.124 Y42.906 E3.0584
G1 X56.010 Y42.692 E3.0679
G1 X55.943 Y42.290 E3.0840
G1 X55.576 Y42.113 E3.1000
G1 X55.403 Y41.944 E3.1096
G1 X53.608 Y38.401 E3.2658
G1 X53.574 Y38.162 E3.2754
G1 X53.649 Y37.761 E3.2914
G1 X53.364 Y37.469 E3.3075
G1 X53.259 Y37.251 E3.3170
G1 X52.785 Y33.308 E3.4733
G1 X52.834 Y33.071 E3.4828
G1 X53.042 Y32.720 E3.4989
G1 X52.874 Y32.349 E3.5149
G1 X52.850 Y32.108 E3.5244
G1 X53.753 Y28.241 E3.6807
G1 X53.880 Y28.035 E3.6903
G1 X54.195 Y27.776 E3.7063
G1 X54.165 Y27.370 E3.7223
G1 X54.225 Y27.135 E3.7319
G1 X54.679 Y27.335 F3498
G92 E0
G1 X56.762 Y24.145 E0.1499 F720
G1 X56.825 Y24.096 E0.1531
G1 X57.373 Y23.902 E0.1760
G1 X57.530 Y23.343 E0.1989
G1 X57.576 Y23.276 E0.2020
G1 X60.624 Y20.991 E0.3520
G1 X60.700 Y20.966 E0.3551
G1 X61.282 Y20.971 E0.3780
G1 X61.621 Y20.499 E0.4009
G1 X61.686 Y20.452 E0.4041
G1 X65.332 Y19.347 E0.5540
G1 X65.413 Y19.350 E0.5572
G1 X65.945 Y19.549 E0.5796
G1 X66.358 Y19.259 E0.5994
G1 X66.434 Y19.236 E0.6026
G1 X68.362 Y19.293 E0.6785
G1 X68.365 Y19.293 E0.6786
G1 X68.469 Y19.299 E0.6827
G1 X68.473 Y19.299 E0.6828
G1 X70.395 Y19.453 E0.7587
G1 X70.468 Y19.484 E0.7618
G1 X70.847 Y19.818 E0.7817
G1 X71.398 Y19.677 E0.8041
G1 X71.478 Y19.684 E0.8073
G1 X74.981 Y21.180 E0.9572
G1 X75.041 Y21.234 E0.9604
G1 X75.327 Y21.740 E0.9833
G1 X75.905 Y21.798 E1.0061
G1 X75.979 Y21.831 E1.0093
G1 X78.759 Y24.436 E1.1592
G1 X78.797 Y24.507 E1.1624
G1 X78.892 Y25.080 E1.1853
G1 X79.416 Y25.332 E1.2082
G1 X79.474 Y25.389 E1.2113
G1 X81.195 Y28.787 E1.3613
G1 X81.206 Y28.867 E1.3645
G1 X81.100 Y29.438 E1.3873
G1 X81.506 Y29.854 E1.4102
G1 X81.541 Y29.927 E1.4134
G1 X81.996 Y33.709 E1.5633
G1 X81.980 Y33.788 E1.5665
G1 X81.684 Y34.288 E1.5894
G1 X81.923 Y34.818 E1.6122
G1 X81.931 Y34.898 E1.6154
G1 X81.065 Y38.608 E1.7654
G1 X81.023 Y38.677 E1.7685
G1 X80.574 Y39.046 E1.7914
G1 X80.618 Y39.625 E1.8143
G1 X80.597 Y39.704 E1.8175
G1 X78.515 Y42.894 E1.9674
G1 X78.452 Y42.944 E1.9706
G1 X77.904 Y43.137 E1.9934
G1 X77.746 Y43.696 E2.0163
G1 X77.701 Y43.763 E2.0195
G1 X74.653 Y46.048 E2.1694
G1 X74.576 Y46.074 E2.1726
G1 X73.995 Y46.068 E2.1955
G1 X73.656 Y46.540 E2.2184
G1 X73.591 Y46.587 E2.2215
G1 X69.945 Y47.692 E2.3715
G1 X69.864 Y47.689 E2.3746
G1 X69.332 Y47.490 E2.3970
G1 X68.919 Y47.780 E2.4169
G1 X68.843 Y47.803 E2.4200
G1 X66.915 Y47.746 E2.4959
G1 X66.912 Y47.746 E2.4960
G1 X66.807 Y47.740 E2.5002
G1 X66.804 Y47.740 E2.5003
G1 X64.882 Y47.586 E2.5762
G1 X64.809 Y47.555 E2.5793
G1 X64.430 Y47.221 E2.5992
G1 X63.879 Y47.362 E2.6216
G1 X63.799 Y47.356 E2.6247
G1 X60.296 Y45.859 E2.7747
G1 X60.235 Y45.805 E2.7778
G1 X59.950 Y45.299 E2.8007
G1 X59.372 Y45.241 E2.8236
G1 X59.298 Y45.208 E2.8268
G1 X56.518 Y42.603 E2.9767
G1 X56.480 Y42.532 E2.9799
G1 X56.385 Y41.959 E3.0028
G1 X55.861 Y41.707 E3.0256
G1 X55.803 Y41.650 E3.0288
G1 X54.082 Y38.252 E3.1787
G1 X54.070 Y38.172 E3.1819
G1 X54.177 Y37.601 E3.2048
G1 X53.771 Y37.185 E3.2277
G1 X53.736 Y37.112 E3.2308
G1 X53.281 Y33.330 E3.3808
G1 X53.297 Y33.251 E3.3840
G1 X53.593 Y32.751 E3.4068
G1 X53.354 Y32.221 E3.4297
G1 X53.346 Y32.141 E3.4329
G1 X54.211 Y28.431 E3.5828
G1 X54.254 Y28.362 E3.5860
G1 X54.703 Y27.993 E3.6089
G1 X54.659 Y27.414 E3.6317
G1 X54.679 Y27.335 E3.6349
G92 E0
G1 E-6.5000 F4998
; inner perimeter
G1 X61.409 Y30.858 F3498
G1 E0.0000 F4998
G92 E0
G1 X61.923 Y29.789 E0.0467 F600
