; G-Code generated by Simplify3D(R) Version 3.0.0
; Sep 30, 2017 at 11:26:25 
; Settings Summary
;   processName,Process1
;   applyToModels,slidestop(2),slidestop(2)(2),slidestop(2)(3),slidestop(2)(4)
;   profileName,1.5 fein (modified)
;   profileVersion,2017-09-21 12:38:00
;   baseProfile,German RepRap NEO (modified)
;   printMaterial,
;   printQuality,
;   printExtruders,
;   extruderName,Primary Extruder
;   extruderToolheadNumber,0
;   extruderDiameter,0.5
;   extruderAutoWidth,0
;   extruderWidth,0.49
;   extrusionMultiplier,0.92
;   extruderUseRetract,1
;   extruderRetractionDistance,6.5
;   extruderExtraRestartDistance,0
;   extruderRetractionZLift,0
;   extruderRetractionSpeed,4998
;   extruderUseCoasting,0
;   extruderCoastingDistance,0.2
;   extruderUseWipe,0
;   extruderWipeDistance,5
;   primaryExtruder,0
;   layerHeight,0.15
;   topSolidLayers,4
;   bottomSolidLayers,3
;   perimeterOutlines,3
;   printPerimetersInsideOut,1
;   startPointOption,2
;   startPointOriginX,0
;   startPointOriginY,0
;   startPointOriginZ,300
;   sequentialIslands,0
;   spiralVaseMode,0
;   firstLayerHeightPercentage,80
;   firstLayerWidthPercentage,100
;   firstLayerUnderspeed,0.3
;   useRaft,0
;   raftExtruder,0
;   raftLayers,3
;   raftOffset,3
;   raftSeparationDistance,0.1
;   raftInfill,85
;   disableRaftBaseLayers,0
;   useSkirt,1
;   skirtExtruder,0
;   skirtLayers,1
;   skirtOutlines,2
;   skirtOffset,2
;   usePrimePillar,0
;   primePillarExtruder,999
;   primePillarWidth,12
;   primePillarLocation,7
;   primePillarSpeedMultiplier,1
;   useOozeShield,0
;   oozeShieldExtruder,999
;   oozeShieldOffset,2
;   oozeShieldOutlines,1
;   oozeShieldSidewallShape,1
;   oozeShieldSidewallAngle,30
;   oozeShieldSpeedMultiplier,1
;   infillExtruder,0
;   internalInfillPattern,Full Honeycomb
;   externalInfillPattern,Rectilinear
;   infillPercentage,30
;   outlineOverlapPercentage,15
;   infillExtrusionWidthPercentage,100
;   minInfillLength,3
;   infillLayerInterval,1
;   infillAngles,0,120,-120
;   overlapInfillAngles,0
;   generateSupport,0
;   supportExtruder,0
;   supportInfillPercentage,30
;   supportExtraInflation,0
;   denseSupportLayers,0
;   denseSupportInfillPercentage,75
;   supportLayerInterval,1
;   supportHorizontalPartOffset,1.5
;   supportUpperSeparationLayers,2
;   supportLowerSeparationLayers,2
;   supportType,0
;   supportGridSpacing,4
;   maxOverhangAngle,45
;   supportAngles,45
;   temperatureName,Primary Extruder
;   temperatureNumber,0
;   temperatureSetpointCount,3
;   temperatureSetpointLayers,1,2,3
;   temperatureSetpointTemperatures,207,199,195
;   temperatureStabilizeAtStartup,1
;   temperatureHeatedBed,0
;   temperatureRelayBetweenLayers,0
;   temperatureRelayBetweenLoops,0
;   fanLayers,1,3
;   fanSpeeds,0,100
;   blipFanToFullPower,0
;   adjustSpeedForCooling,1
;   minSpeedLayerTime,15
;   minCoolingSpeedSlowdown,20
;   increaseFanForCooling,0
;   minFanLayerTime,45
;   maxCoolingFanSpeed,100
;   increaseFanForBridging,0
;   bridgingFanSpeed,100
;   use5D,1
;   relativeEdistances,0
;   allowEaxisZeroing,1
;   independentExtruderAxes,0
;   includeM10123,0
;   stickySupport,1
;   applyToolheadOffsets,0
;   gcodeXoffset,0
;   gcodeYoffset,0
;   gcodeZoffset,0
;   overrideMachineDefinition,1
;   machineTypeOverride,0
;   strokeXoverride,150
;   strokeYoverride,150
;   strokeZoverride,150
;   originOffsetXoverride,0
;   originOffsetYoverride,0
;   originOffsetZoverride,0
;   homeXdirOverride,-1
;   homeYdirOverride,-1
;   homeZdirOverride,-1
;   flipXoverride,1
;   flipYoverride,-1
;   flipZoverride,1
;   toolheadOffsets,0,0|0,0|0,0|0,0|0,0|0,0
;   overrideFirmwareConfiguration,0
;   firmwareTypeOverride,RepRap (Marlin/Repetier/Sprinter)
;   GPXconfigOverride,r2
;   baudRateOverride,115200
;   overridePrinterModels,0
;   printerModelsOverride
;   startingGcode,G28 ; home all axes
;   layerChangeGcode,
;   retractionGcode,
;   toolChangeGcode,
;   endingGcode,M104 S0 ; turn off extruder,M140 S0 ; turn off bed,G28 X0  ; home X axis,G28 Y0  ; home Y axis,M84 ; disable motors,M107
;   createX3G,0
;   celebration,0
;   celebrationSong,Random Song
;   createMB5G,0
;   postProcessing,
;   defaultSpeed,2400
;   outlineUnderspeed,0.5
;   solidInfillUnderspeed,0.8
;   supportUnderspeed,0.8
;   rapidXYspeed,3498
;   rapidZspeed,1002
;   minBridgingArea,50
;   bridgingExtraInflation,0
;   bridgingExtrusionMultiplier,1
;   bridgingSpeedMultiplier,1
;   filamentDiameter,1.75
;   filamentPricePerKg,46
;   filamentDensity,1.25
;   useMinPrintHeight,0
;   minPrintHeight,0
;   useMaxPrintHeight,0
;   maxPrintHeight,0
;   useDiaphragm,0
;   diaphragmLayerInterval,20
;   robustSlicing,1
;   mergeAllIntoSolid,0
;   onlyRetractWhenCrossingOutline,1
;   retractBetweenLayers,1
;   useRetractionMinTravel,0
;   retractionMinTravel,3
;   retractWhileWiping,0
;   onlyWipeOutlines,1
;   avoidCrossingOutline,0
;   maxMovementDetourFactor,10
;   toolChangeRetractionDistance,0
;   toolChangeExtraRestartDistance,0
;   toolChangeRetractionSpeed,360
;   allowThinWallGapFill,1
;   thinWallAllowedOverlapPercentage,10
;   horizontalSizeCompensation,0
G90
M82
M106 S0
M104 S207 T0
M109 S207 T0
G28 ; home all axes
G92 E0
G1 E-6.5000 F4998
G1 Z0.120 F1002
; layer 1, Z = 0.12
T0
; tool H0.150 W0.490
; skirt
G1 X19.630 Y14.987 F3498
G1 E0.0000 F1499
G92 E0
G1 X21.008 Y13.609 E0.0548 F720
G1 X21.278 Y13.497 E0.0630
G1 X35.127 Y13.497 E0.4524
G1 X35.398 Y13.609 E0.4606
G1 X36.776 Y14.987 E0.5154
G1 X36.888 Y15.257 E0.5236
G1 X36.888 Y24.206 E0.7752
G1 X36.776 Y24.476 E0.7834
G1 X35.521 Y25.732 E0.8333
G1 X36.776 Y26.987 E0.8832
G1 X36.888 Y27.257 E0.8914
G1 X36.888 Y36.206 E1.1430
G1 X36.776 Y36.476 E1.1513
G1 X35.521 Y37.732 E1.2012
G1 X36.776 Y38.987 E1.2511
G1 X36.888 Y39.257 E1.2593
G1 X36.888 Y48.206 E1.5109
G1 X36.776 Y48.476 E1.5191
G1 X35.521 Y49.732 E1.5690
G1 X36.776 Y50.987 E1.6189
G1 X36.888 Y51.257 E1.6271
G1 X36.888 Y60.206 E1.8787
G1 X36.776 Y60.476 E1.8869
G1 X35.398 Y61.855 E1.9417
G1 X35.127 Y61.967 E1.9500
G1 X21.278 Y61.967 E2.3393
G1 X21.008 Y61.855 E2.3475
G1 X19.630 Y60.476 E2.4023
G1 X19.518 Y60.206 E2.4106
G1 X19.518 Y51.257 E2.6621
G1 X19.630 Y50.987 E2.6704
G1 X20.885 Y49.732 E2.7203
G1 X19.630 Y48.476 E2.7702
G1 X19.518 Y48.206 E2.7784
G1 X19.518 Y39.257 E3.0300
G1 X19.630 Y38.987 E3.0382
G1 X20.885 Y37.732 E3.0881
G1 X19.630 Y36.476 E3.1380
G1 X19.518 Y36.206 E3.1462
G1 X19.518 Y27.257 E3.3978
G1 X19.630 Y26.987 E3.4061
G1 X20.885 Y25.732 E3.4560
G1 X19.630 Y24.476 E3.5059
G1 X19.518 Y24.206 E3.5141
G1 X19.518 Y15.257 E3.7657
G1 X19.630 Y14.987 E3.7739
G1 X20.045 Y15.264 F3498
G92 E0
G1 X21.286 Y14.024 E0.0493 F720
G1 X21.376 Y13.987 E0.0521
G1 X35.030 Y13.987 E0.4359
G1 X35.120 Y14.024 E0.4387
G1 X36.361 Y15.264 E0.4880
G1 X36.398 Y15.354 E0.4907
G1 X36.398 Y24.109 E0.7368
G1 X36.361 Y24.199 E0.7396
G1 X35.120 Y25.439 E0.7889
G1 X35.030 Y25.477 E0.7916
G1 X21.376 Y25.477 E1.1755
G1 X21.286 Y25.439 E1.1782
G1 X20.045 Y24.199 E1.2276
G1 X20.008 Y24.109 E1.2303
G1 X20.008 Y15.354 E1.4764
G1 X20.045 Y15.264 E1.4792
G1 X21.376 Y25.987 F3498
G92 E0
G1 X35.030 Y25.987 E0.3839 F720
G1 X35.120 Y26.024 E0.3866
G1 X36.361 Y27.264 E0.4359
G1 X36.398 Y27.354 E0.4387
G1 X36.398 Y36.109 E0.6848
G1 X36.361 Y36.199 E0.6875
G1 X35.120 Y37.439 E0.7368
G1 X35.030 Y37.477 E0.7396
G1 X21.376 Y37.477 E1.1234
G1 X21.286 Y37.439 E1.1262
G1 X20.045 Y36.199 E1.1755
G1 X20.008 Y36.109 E1.1782
G1 X20.008 Y27.354 E1.4244
G1 X20.045 Y27.264 E1.4271
G1 X21.286 Y26.024 E1.4764
G1 X21.376 Y25.987 E1.4792
G1 X21.376 Y37.987 F3498
G92 E0
G1 X35.030 Y37.987 E0.3839 F720
G1 X35.120 Y38.024 E0.3866
G1 X36.361 Y39.264 E0.4359
G1 X36.398 Y39.354 E0.4387
G1 X36.398 Y48.109 E0.6848
G1 X36.361 Y48.199 E0.6875
G1 X35.120 Y49.439 E0.7368
G1 X35.030 Y49.477 E0.7396
G1 X21.376 Y49.477 E1.1234
G1 X21.286 Y49.439 E1.1262
G1 X20.045 Y48.199 E1.1755
G1 X20.008 Y48.109 E1.1782
G1 X20.008 Y39.354 E1.4244
G1 X20.045 Y39.264 E1.4271
G1 X21.286 Y38.024 E1.4764
G1 X21.376 Y37.987 E1.4792
G1 X21.376 Y49.987 F3498
G92 E0
G1 X35.030 Y49.987 E0.3839 F720
G1 X35.120 Y50.024 E0.3866
G1 X36.361 Y51.264 E0.4359
G1 X36.398 Y51.354 E0.4387
G1 X36.398 Y60.109 E0.6848
G1 X36.361 Y60.199 E0.6875
G1 X35.120 Y61.439 E0.7368
G1 X35.030 Y61.477 E0.7396
G1 X21.376 Y61.477 E1.1234
G1 X21.286 Y61.439 E1.1262
G1 X20.045 Y60.199 E1.1755
G1 X20.008 Y60.109 E1.1782
G1 X20.008 Y51.354 E1.4244
G1 X20.045 Y51.264 E1.4271
G1 X21.286 Y50.024 E1.4764
G1 X21.376 Y49.987 E1.4792
G92 E0
G1 E-6.5000 F4998
; inner perimeter
G1 X23.478 Y53.457 F3498
G1 E0.0000 F4998
G92 E0
G1 X32.928 Y53.457 E0.2657 F600
G1 X32.928 Y58.007 E0.3936
G1 X23.478 Y58.007 E0.6593
G1 X23.478 Y57.457 E0.6747
G1 X32.378 Y57.457 E0.9249
G1 X32.378 Y53.957 E1.0233
G1 X23.478 Y53.957 E1.2735
G1 X23.478 Y53.457 E1.2876
; inner perimeter
G1 X22.988 Y52.967 F3498
G92 E0
G1 X33.418 Y52.967 E0.2932 F480
G1 X33.418 Y58.497 E0.4487
G1 X22.988 Y58.497 E0.7419
G1 X22.988 Y56.967 E0.7849
G1 X31.888 Y56.967 E1.0351
G1 X31.888 Y54.447 E1.1060
G1 X22.988 Y54.447 E1.3562
G1 X22.988 Y52.967 E1.3978
; outer perimeter
G1 X22.498 Y52.477 F3498
G92 E0
G1 X33.908 Y52.477 E0.3208 F360
G1 X33.908 Y58.987 E0.5038
G1 X22.498 Y58.987 E0.8246
G1 X22.498 Y56.477 E0.8951
G1 X31.398 Y56.477 E1.1453
G1 X31.398 Y54.937 E1.1886
G1 X22.498 Y54.937 E1.4388
G1 X22.498 Y52.477 E1.5080
G92 E0
G1 E-6.5000 F4998
; inner perimeter
G1 X23.478 Y46.007 F3498
G1 E0.0000 F4998
G92 E0
G1 X23.478 Y45.457 E0.0155 F600
G1 X32.378 Y45.457 E0.2657
G1 X32.378 Y41.957 E0.3641
G1 X23.478 Y41.957 E0.6143
G1 X23.478 Y41.457 E0.6283
G1 X32.928 Y41.457 E0.8940
G1 X32.928 Y46.007 E1.0219
G1 X23.478 Y46.007 E1.2876
; inner perimeter
G1 X22.988 Y46.497 F3498
G92 E0
G1 X22.988 Y44.967 E0.0430 F480
G1 X31.888 Y44.967 E0.2932
G1 X31.888 Y42.447 E0.3641
G1 X22.988 Y42.447 E0.6143
G1 X22.988 Y40.967 E0.6559
G1 X33.418 Y40.967 E0.9491
G1 X33.418 Y46.497 E1.1046
G1 X22.988 Y46.497 E1.3978
; outer perimeter
G1 X22.498 Y46.987 F3498
G92 E0
G1 X22.498 Y44.477 E0.0706 F360
G1 X31.398 Y44.477 E0.3208
G1 X31.398 Y42.937 E0.3641
G1 X22.498 Y42.937 E0.6143
G1 X22.498 Y40.477 E0.6834
G1 X33.908 Y40.477 E1.0042
G1 X33.908 Y46.987 E1.1872
G1 X22.498 Y46.987 E1.5080
G92 E0
G1 E-6.5000 F4998
; inner perimeter
G1 X23.478 Y34.007 F3498
G1 E0.0000 F4998
G92 E0
G1 X23.478 Y33.457 E0.0155 F600
G1 X32.378 Y33.457 E0.2657
G1 X32.378 Y29.957 E0.3641
G1 X23.478 Y29.957 E0.6143
G1 X23.478 Y29.457 E0.6283
G1 X32.928 Y29.457 E0.8940
G1 X32.928 Y34.007 E1.0219
G1 X23.478 Y34.007 E1.2876
; inner perimeter
G1 X22.988 Y34.497 F3498
G92 E0
G1 X22.988 Y32.967 E0.0430 F480
G1 X31.888 Y32.967 E0.2932
G1 X31.888 Y30.447 E0.3641
G1 X22.988 Y30.447 E0.6143
G1 X22.988 Y28.967 E0.6559
G1 X33.418 Y28.967 E0.9491
G1 X33.418 Y34.497 E1.1046
G1 X22.988 Y34.497 E1.3978
; outer perimeter
G1 X22.498 Y34.987 F3498
G92 E0
G1 X22.498 Y32.477 E0.0706 F360
G1 X31.398 Y32.477 E0.3208
G1 X31.398 Y30.937 E0.3641
G1 X22.498 Y30.937 E0.6143
G1 X22.498 Y28.477 E0.6834
G1 X33.908 Y28.477 E1.0042
G1 X33.908 Y34.987 E1.1872
G1 X22.498 Y34.987 E1.5080
G92 E0
G1 E-6.5000 F4998
; inner perimeter
G1 X23.478 Y22.007 F3498
G1 E0.0000 F4998
G92 E0
G1 X23.478 Y21.457 E0.0155 F600
G1 X32.378 Y21.457 E0.2657
G1 X32.378 Y17.957 E0.3641
G1 X23.478 Y17.957 E0.6143
G1 X23.478 Y17.457 E0.6283
G1 X32.928 Y17.457 E0.8940
G1 X32.928 Y22.007 E1.0219
G1 X23.478 Y22.007 E1.2876
; inner perimeter
G1 X22.988 Y22.497 F3498
G92 E0
G1 X22.988 Y20.967 E0.0430 F480
G1 X31.888 Y20.967 E0.2932
G1 X31.888 Y18.447 E0.3641
G1 X22.988 Y18.447 E0.6143
G1 X22.988 Y16.967 E0.6559
G1 X33.418 Y16.967 E0.9491
G1 X33.418 Y22.497 E1.1046
G1 X22.988 Y22.497 E1.3978
; outer perimeter
G1 X22.498 Y22.987 F3498
G92 E0
G1 X22.498 Y20.477 E0.0706 F360
G1 X31.398 Y20.477 E0.3208
G1 X31.398 Y18.937 E0.3641
G1 X22.498 Y18.937 E0.6143
G1 X22.498 Y16.477 E0.6834
G1 X33.908 Y16.477 E1.0042
G1 X33.908 Y22.987 E1.1872
G1 X22.498 Y22.987 E1.5080
G92 E0
G1 E-6.5000 F4998
; layer 2, Z = 0.27
M104 S199 T0
; inner perimeter
G1 X23.478 Y22.007 F3498
G1 Z0.270 F1002
G1 E0.0000 F4998
G92 E0
G1 X23.478 Y21.457 E0.0155 F2000
G1 X32.378 Y21.457 E0.2657
G1 X32.378 Y17.957 E0.3641
G1 X23.478 Y17.957 E0.6143
G1 X23.478 Y17.457 E0.6283
G1 X32.928 Y17.457 E0.8940
G1 X32.928 Y22.007 E1.0219
G1 X23.478 Y22.007 E1.2876
; inner perimeter
G1 X22.988 Y22.497 F3498
G92 E0
G1 X22.988 Y20.967 E0.0430 F1600
G1 X31.888 Y20.967 E0.2932
G1 X31.888 Y18.447 E0.3641
G1 X22.988 Y18.447 E0.6143
G1 X22.988 Y16.967 E0.6559
G1 X33.418 Y16.967 E0.9491
G1 X33.418 Y22.497 E1.1046
G1 X22.988 Y22.497 E1.3978
; outer perimeter
G1 X22.498 Y22.987 F3498
G92 E0
G1 X22.498 Y20.477 E0.0706 F1200
G1 X31.398 Y20.477 E0.3208
G1 X31.398 Y18.937 E0.3641
G1 X22.498 Y18.937 E0.6143
G1 X22.498 Y16.477 E0.6834
G1 X33.908 Y16.477 E1.0042
G1 X33.908 Y22.987 E1.1872
G1 X22.498 Y22.987 E1.5080
G92 E0
G1 E-6.5000 F4998
; inner perimeter
G1 X23.478 Y29.457 F3498
G1 E0.0000 F4998
G92 E0
G1 X32.928 Y29.457 E0.2657 F2000
G1 X32.928 Y34.007 E0.3936
G1 X23.478 Y34.007 E0.6593
G1 X23.478 Y33.457 E0.6747
G1 X32.378 Y33.457 E0.9249
G1 X32.378 Y29.957 E1.0233
G1 X23.478 Y29.957 E1.2735
G1 X23.478 Y29.457 E1.2876
; inner perimeter
G1 X22.988 Y28.967 F3498
G92 E0
G1 X33.418 Y28.967 E0.2932 F1600
G1 X33.418 Y34.497 E0.4487
G1 X22.988 Y34.497 E0.7419
G1 X22.988 Y32.967 E0.7849
G1 X31.888 Y32.967 E1.0351
G1 X31.888 Y30.447 E1.1060
G1 X22.988 Y30.447 E1.3562
G1 X22.988 Y28.967 E1.3978
; outer perimeter
G1 X22.498 Y28.477 F3498
G92 E0
G1 X33.908 Y28.477 E0.3208 F1200
G1 X33.908 Y34.987 E0.5038
G1 X22.498 Y34.987 E0.8246
G1 X22.498 Y32.477 E0.8951
G1 X31.398 Y32.477 E1.1453
G1 X31.398 Y30.937 E1.1886
G1 X22.498 Y30.937 E1.4388
G1 X22.498 Y28.477 E1.5080
G92 E0
G1 E-6.5000 F4998
; inner perimeter
G1 X23.478 Y41.457 F3498
G1 E0.0000 F4998
G92 E0
G1 X32.928 Y41.457 E0.2657 F2000
G1 X32.928 Y46.007 E0.3936
G1 X23.478 Y46.007 E0.6593
G1 X23.478 Y45.457 E0.6747
G1 X32.378 Y45.457 E0.9249
G1 X32.378 Y41.957 E1.0233
G1 X23.478 Y41.957 E1.2735
G1 X23.478 Y41.457 E1.2876
; inner perimeter
G1 X22.988 Y40.967 F3498
G92 E0
G1 X33.418 Y40.967 E0.2932 F1600
G1 X33.418 Y46.497 E0.4487
G1 X22.988 Y46.497 E0.7419
G1 X22.988 Y44.967 E0.7849
G1 X31.888 Y44.967 E1.0351
G1 X31.888 Y42.447 E1.1060
G1 X22.988 Y42.447 E1.3562
G1 X22.988 Y40.967 E1.3978
; outer perimeter
G1 X22.498 Y40.477 F3498
G92 E0
G1 X33.908 Y40.477 E0.3208 F1200
G1 X33.908 Y46.987 E0.5038
G1 X22.498 Y46.987 E0.8246
G1 X22.498 Y44.477 E0.8951
G1 X31.398 Y44.477 E1.1453
G1 X31.398 Y42.937 E1.1886
G1 X22.498 Y42.937 E1.4388
G1 X22.498 Y40.477 E1.5080
G92 E0
G1 E-6.5000 F4998
; inner perimeter
G1 X23.478 Y53.457 F3498
G1 E0.0000 F4998
G92 E0
G1 X32.928 Y53.457 E0.2657 F2000
G1 X32.928 Y58.007 E0.3936
G1 X23.478 Y58.007 E0.6593
G1 X23.478 Y57.457 E0.6747
G1 X32.378 Y57.457 E0.9249
G1 X32.378 Y53.957 E1.0233
G1 X23.478 Y53.957 E1.2735
G1 X23.478 Y53.457 E1.2876
; inner perimeter
G1 X22.988 Y52.967 F3498
G92 E0
G1 X33.418 Y52.967 E0.2932 F1600
G1 X33.418 Y58.497 E0.4487
G1 X22.988 Y58.497 E0.7419
G1 X22.988 Y56.967 E0.7849
G1 X31.888 Y56.967 E1.0351
G1 X31.888 Y54.447 E1.1060
G1 X22.988 Y54.447 E1.3562
G1 X22.988 Y52.967 E1.3978
; outer perimeter
G1 X22.498 Y52.477 F3498
G92 E0
G1 X33.908 Y52.477 E0.3208 F1200
G1 X33.908 Y58.987 E0.5038
G1 X22.498 Y58.987 E0.8246
G1 X22.498 Y56.477 E0.8951
G1 X31.398 Y56.477 E1.1453
G1 X31.398 Y54.937 E1.1886
G1 X22.498 Y54.937 E1.4388
G1 X22.498 Y52.477 E1.5080
G92 E0
G1 E-6.5000 F4998
; layer 3, Z = 0.42
M104 S195 T0
M106 S255
; inner perimeter
G1 X23.478 Y53.457 F3498
G1 Z0.420 F1002
G1 E0.0000 F4998
G92 E0
G1 X32.928 Y53.457 E0.2657 F2000
G1 X32.928 Y58.007 E0.3936
G1 X23.478 Y58.007 E0.6593
G1 X23.478 Y57.457 E0.6747
G1 X32.378 Y57.457 E0.9249
G1 X32.378 Y53.957 E1.0233
G1 X23.478 Y53.957 E1.2735
G1 X23.478 Y53.457 E1.2876
; inner perimeter
G1 X22.988 Y52.967 F3498
G92 E0
G1 X33.418 Y52.967 E0.2932 F1600
G1 X33.418 Y58.497 E0.4487
G1 X22.988 Y58.497 E0.7419
G1 X22.988 Y56.967 E0.7849
G1 X31.888 Y56.967 E1.0351
G1 X31.888 Y54.447 E1.1060
G1 X22.988 Y54.447 E1.3562
G1 X22.988 Y52.967 E1.3978
