; G-Code generated by Simplify3D(R) Version 3.0.0
; Sep 30, 2017 at 5:27:52 
; Settings Summary
;   processName,Process1
;   applyToModels,XY_resonance_1.0mm_walls
;   profileName,1.5 fein (modified)
;   profileVersion,2017-09-21 12:38:00
;   baseProfile,German RepRap NEO (modified)
;   printMaterial,
;   printQuality,
;   printExtruders,
;   extruderName,Primary Extruder
;   extruderToolheadNumber,0
;   extruderDiameter,0.5
;   extruderAutoWidth,0
;   extruderWidth,0.49
;   extrusionMultiplier,0.96
;   extruderUseRetract,1
;   extruderRetractionDistance,6.5
;   extruderExtraRestartDistance,0
;   extruderRetractionZLift,0
;   extruderRetractionSpeed,4998
;   extruderUseCoasting,0
;   extruderCoastingDistance,0.2
;   extruderUseWipe,0
;   extruderWipeDistance,5
;   primaryExtruder,0
;   layerHeight,0.2
;   topSolidLayers,4
;   bottomSolidLayers,3
;   perimeterOutlines,3
;   printPerimetersInsideOut,1
;   startPointOption,2
;   startPointOriginX,0
;   startPointOriginY,0
;   startPointOriginZ,300
;   sequentialIslands,0
;   spiralVaseMode,0
;   firstLayerHeightPercentage,100
;   firstLayerWidthPercentage,100
;   firstLayerUnderspeed,0.3
;   useRaft,0
;   raftExtruder,0
;   raftLayers,3
;   raftOffset,3
;   raftSeparationDistance,0.1
;   raftInfill,85
;   disableRaftBaseLayers,0
;   useSkirt,1
;   skirtExtruder,0
;   skirtLayers,1
;   skirtOutlines,4
;   skirtOffset,2
;   usePrimePillar,0
;   primePillarExtruder,999
;   primePillarWidth,12
;   primePillarLocation,7
;   primePillarSpeedMultiplier,1
;   useOozeShield,0
;   oozeShieldExtruder,999
;   oozeShieldOffset,2
;   oozeShieldOutlines,1
;   oozeShieldSidewallShape,1
;   oozeShieldSidewallAngle,30
;   oozeShieldSpeedMultiplier,1
;   infillExtruder,0
;   internalInfillPattern,Full Honeycomb
;   externalInfillPattern,Rectilinear
;   infillPercentage,20
;   outlineOverlapPercentage,15
;   infillExtrusionWidthPercentage,100
;   minInfillLength,3
;   infillLayerInterval,1
;   infillAngles,0,120,-120
;   overlapInfillAngles,0
;   generateSupport,0
;   supportExtruder,0
;   supportInfillPercentage,30
;   supportExtraInflation,0
;   denseSupportLayers,0
;   denseSupportInfillPercentage,75
;   supportLayerInterval,1
;   supportHorizontalPartOffset,1.5
;   supportUpperSeparationLayers,2
;   supportLowerSeparationLayers,2
;   supportType,0
;   supportGridSpacing,4
;   maxOverhangAngle,45
;   supportAngles,45
;   temperatureName,Primary Extruder
;   temperatureNumber,0
;   temperatureSetpointCount,3
;   temperatureSetpointLayers,1,2,3
;   temperatureSetpointTemperatures,207,199,195
;   temperatureStabilizeAtStartup,1
;   temperatureHeatedBed,0
;   temperatureRelayBetweenLayers,0
;   temperatureRelayBetweenLoops,0
;   fanLayers,1,3
;   fanSpeeds,0,100
;   blipFanToFullPower,0
;   adjustSpeedForCooling,1
;   minSpeedLayerTime,15
;   minCoolingSpeedSlowdown,20
;   increaseFanForCooling,0
;   minFanLayerTime,45
;   maxCoolingFanSpeed,100
;   increaseFanForBridging,0
;   bridgingFanSpeed,100
;   use5D,1
;   relativeEdistances,0
;   allowEaxisZeroing,1
;   independentExtruderAxes,0
;   includeM10123,0
;   stickySupport,1
;   applyToolheadOffsets,0
;   gcodeXoffset,0
;   gcodeYoffset,0
;   gcodeZoffset,0
;   overrideMachineDefinition,1
;   machineTypeOverride,0
;   strokeXoverride,150
;   strokeYoverride,150
;   strokeZoverride,150
;   originOffsetXoverride,0
;   originOffsetYoverride,0
;   originOffsetZoverride,0
;   homeXdirOverride,-1
;   homeYdirOverride,-1
;   homeZdirOverride,-1
;   flipXoverride,1
;   flipYoverride,-1
;   flipZoverride,1
;   toolheadOffsets,0,0|0,0|0,0|0,0|0,0|0,0
;   overrideFirmwareConfiguration,0
;   firmwareTypeOverride,RepRap (Marlin/Repetier/Sprinter)
;   GPXconfigOverride,r2
;   baudRateOverride,115200
;   overridePrinterModels,0
;   printerModelsOverride
;   startingGcode,G28 ; home all axes
;   layerChangeGcode,
;   retractionGcode,
;   toolChangeGcode,
;   endingGcode,M104 S0 ; turn off extruder,M140 S0 ; turn off bed,G28 X0  ; home X axis,G28 Y0  ; home Y axis,M84 ; disable motors,M107
;   createX3G,0
;   celebration,0
;   celebrationSong,Random Song
;   createMB5G,0
;   postProcessing,
;   defaultSpeed,2400
;   outlineUnderspeed,0.5
;   solidInfillUnderspeed,0.8
;   supportUnderspeed,0.8
;   rapidXYspeed,3498
;   rapidZspeed,1002
;   minBridgingArea,50
;   bridgingExtraInflation,0
;   bridgingExtrusionMultiplier,1
;   bridgingSpeedMultiplier,1
;   filamentDiameter,1.75
;   filamentPricePerKg,46
;   filamentDensity,1.25
;   useMinPrintHeight,0
;   minPrintHeight,0
;   useMaxPrintHeight,0
;   maxPrintHeight,0
;   useDiaphragm,0
;   diaphragmLayerInterval,20
;   robustSlicing,1
;   mergeAllIntoSolid,0
;   onlyRetractWhenCrossingOutline,1
;   retractBetweenLayers,1
;   useRetractionMinTravel,0
;   retractionMinTravel,3
;   retractWhileWiping,0
;   onlyWipeOutlines,1
;   avoidCrossingOutline,0
;   maxMovementDetourFactor,10
;   toolChangeRetractionDistance,0
;   toolChangeExtraRestartDistance,0
;   toolChangeRetractionSpeed,360
;   allowThinWallGapFill,1
;   thinWallAllowedOverlapPercentage,10
;   horizontalSizeCompensation,0
G90
M82
M106 S0
M104 S207 T0
M109 S207 T0
G28 ; home all axes
G92 E0
G1 E-6.5000 F4998
G1 Z0.200 F1002
; layer 1, Z = 0.2
T0
; tool H0.200 W0.490
; skirt
G1 X46.946 Y48.600 F3498
G1 E0.0000 F1499
G92 E0
G1 X48.600 Y46.946 E0.0915 F720
G1 X49.230 Y46.685 E0.1182
G1 X100.770 Y46.685 E2.1341
G1 X101.400 Y46.946 E2.1608
G1 X103.054 Y48.600 E2.2523
G1 X103.315 Y49.230 E2.2789
G1 X103.315 Y100.770 E4.2948
G1 X103.054 Y101.400 E4.3215
G1 X101.400 Y103.054 E4.4130
G1 X100.770 Y103.315 E4.4397
G1 X49.230 Y103.315 E6.4556
G1 X48.600 Y103.054 E6.4823
G1 X46.946 Y101.400 E6.5738
G1 X46.685 Y100.770 E6.6005
G1 X46.685 Y49.230 E8.6164
G1 X46.946 Y48.600 E8.6430
G1 X47.361 Y48.878 F3498
G92 E0
G1 X48.878 Y47.361 E0.0839 F720
G1 X49.328 Y47.175 E0.1029
G1 X100.672 Y47.175 E2.1112
G1 X101.122 Y47.361 E2.1303
G1 X102.638 Y48.878 E2.2141
G1 X102.825 Y49.328 E2.2332
G1 X102.825 Y100.672 E4.2415
G1 X102.638 Y101.122 E4.2605
G1 X101.122 Y102.638 E4.3444
G1 X100.672 Y102.825 E4.3635
G1 X49.328 Y102.825 E6.3717
G1 X48.878 Y102.638 E6.3908
G1 X47.361 Y101.122 E6.4747
G1 X47.175 Y100.672 E6.4937
G1 X47.175 Y49.328 E8.5020
G1 X47.361 Y48.878 E8.5211
G1 X47.777 Y49.155 F3498
G92 E0
G1 X49.155 Y47.777 E0.0762 F720
G1 X49.425 Y47.665 E0.0877
G1 X100.575 Y47.665 E2.0883
G1 X100.845 Y47.777 E2.0998
G1 X102.223 Y49.155 E2.1760
G1 X102.335 Y49.425 E2.1874
G1 X102.335 Y100.575 E4.1881
G1 X102.223 Y100.845 E4.1995
G1 X100.845 Y102.223 E4.2758
G1 X100.575 Y102.335 E4.2872
G1 X49.425 Y102.335 E6.2879
G1 X49.155 Y102.223 E6.2993
G1 X47.777 Y100.845 E6.3755
G1 X47.665 Y100.575 E6.3870
G1 X47.665 Y49.425 E8.3876
G1 X47.777 Y49.155 E8.3991
G1 X48.192 Y49.433 F3498
G92 E0
G1 X49.433 Y48.192 E0.0686 F720
G1 X49.523 Y48.155 E0.0724
G1 X100.477 Y48.155 E2.0655
G1 X100.567 Y48.192 E2.0693
G1 X101.808 Y49.433 E2.1379
G1 X101.845 Y49.523 E2.1417
G1 X101.845 Y100.477 E4.1347
G1 X101.808 Y100.567 E4.1385
G1 X100.567 Y101.808 E4.2072
G1 X100.477 Y101.845 E4.2110
G1 X49.523 Y101.845 E6.2040
G1 X49.433 Y101.808 E6.2078
G1 X48.192 Y100.567 E6.2764
G1 X48.155 Y100.477 E6.2802
G1 X48.155 Y49.523 E8.2733
G1 X48.192 Y49.433 E8.2771
G92 E0
G1 E-6.5000 F4998
; inner perimeter
G1 X51.625 Y51.625 F3498
G1 E0.0000 F4998
G92 E0
G1 X98.375 Y51.625 E1.8286 F600
G1 X98.375 Y98.375 E3.6572
G1 X51.625 Y98.375 E5.4857
G1 X51.625 Y51.625 E7.3143
; inner perimeter
G1 X51.135 Y51.135 F3498
G92 E0
G1 X98.865 Y51.135 E1.8669 F480
G1 X98.865 Y98.865 E3.7338
G1 X51.135 Y98.865 E5.6007
G1 X51.135 Y51.135 E7.4676
; outer perimeter
G1 X50.645 Y50.645 F3498
G92 E0
G1 X99.355 Y50.645 E1.9052 F360
G1 X99.355 Y99.355 E3.8105
G1 X50.645 Y99.355 E5.7157
G1 X50.645 Y50.645 E7.6210
; inner perimeter
G1 X58.775 Y58.775 F3498
G92 E0
G1 X58.775 Y91.225 E1.2692 F600
G1 X91.225 Y91.225 E2.5385
G1 X91.225 Y58.775 E3.8077
G1 X58.775 Y58.775 E5.0770
; inner perimeter
G1 X59.265 Y59.265 F3498
G92 E0
G1 X59.265 Y90.735 E1.2309 F480
G1 X90.735 Y90.735 E2.4618
G1 X90.735 Y59.265 E3.6927
G1 X59.265 Y59.265 E4.9237
; outer perimeter
G1 X59.755 Y59.755 F3498
G92 E0
G1 X59.755 Y90.245 E1.1926 F360
G1 X90.245 Y90.245 E2.3852
G1 X90.245 Y59.755 E3.5778
G1 X59.755 Y59.755 E4.7703
; solid layer
G1 X58.379 Y58.359 F3498
G92 E0
G1 X64.696 Y52.041 E0.3494 F576
G1 X65.389 Y52.041 E0.3765
G1 X59.072 Y58.358 E0.7260
G1 X59.765 Y58.359 E0.7531
G1 X66.082 Y52.041 E1.1025
G1 X66.775 Y52.041 E1.1296
G1 X60.458 Y58.358 E1.4790
G1 X61.151 Y58.358 E1.5061
G1 X67.468 Y52.041 E1.8556
G1 X68.161 Y52.041 E1.8827
G1 X61.844 Y58.358 E2.2321
G1 X62.537 Y58.358 E2.2592
G1 X68.854 Y52.041 E2.6086
G1 X69.547 Y52.041 E2.6357
G1 X63.230 Y58.358 E2.9852
G1 X63.923 Y58.358 E3.0123
G1 X70.240 Y52.041 E3.3617
G1 X70.933 Y52.041 E3.3888
G1 X64.616 Y58.358 E3.7382
G1 X65.309 Y58.358 E3.7653
G1 X71.626 Y52.041 E4.1147
G1 X72.319 Y52.041 E4.1419
G1 X66.002 Y58.359 E4.4913
G1 X66.695 Y58.358 E4.5184
G1 X73.012 Y52.041 E4.8678
G1 X73.705 Y52.041 E4.8949
G1 X67.388 Y58.358 E5.2443
G1 X68.081 Y58.358 E5.2715
G1 X74.398 Y52.042 E5.6209
G1 X75.091 Y52.041 E5.6480
G1 X68.774 Y58.358 E5.9974
G1 X69.467 Y58.359 E6.0245
G1 X75.784 Y52.041 E6.3739
G1 X76.477 Y52.041 E6.4010
G1 X70.160 Y58.358 E6.7505
G1 X70.853 Y58.359 E6.7776
G1 X77.170 Y52.042 E7.1270
G1 X77.863 Y52.041 E7.1541
G1 X71.546 Y58.358 E7.5035
G1 X72.239 Y58.358 E7.5306
G1 X78.556 Y52.041 E7.8801
G1 X79.248 Y52.041 E7.9072
G1 X72.931 Y58.358 E8.2566
G1 X73.624 Y58.358 E8.2837
G1 X79.941 Y52.041 E8.6331
G1 X80.634 Y52.041 E8.6602
G1 X74.317 Y58.358 E9.0097
G1 X75.010 Y58.358 E9.0368
G1 X81.327 Y52.042 E9.3862
G1 X82.020 Y52.041 E9.4133
G1 X75.703 Y58.358 E9.7627
G1 X76.396 Y58.358 E9.7898
G1 X82.713 Y52.041 E10.1393
G1 X83.406 Y52.041 E10.1664
G1 X77.089 Y58.358 E10.5158
G1 X77.782 Y58.358 E10.5429
G1 X84.099 Y52.041 E10.8923
G1 X84.792 Y52.041 E10.9194
G1 X78.475 Y58.358 E11.2689
G1 X79.168 Y58.358 E11.2960
G1 X85.485 Y52.041 E11.6454
G1 X86.178 Y52.041 E11.6725
G1 X79.861 Y58.359 E12.0219
G1 X80.554 Y58.358 E12.0490
G1 X86.871 Y52.041 E12.3985
G1 X87.564 Y52.041 E12.4256
G1 X81.247 Y58.358 E12.7750
G1 X81.940 Y58.358 E12.8021
G1 X88.257 Y52.041 E13.1515
G1 X88.950 Y52.041 E13.1786
G1 X82.633 Y58.358 E13.5281
G1 X83.326 Y58.358 E13.5552
G1 X89.643 Y52.041 E13.9046
G1 X90.336 Y52.042 E13.9317
G1 X84.019 Y58.358 E14.2811
G1 X84.712 Y58.358 E14.3082
G1 X91.029 Y52.042 E14.6576
G1 X91.722 Y52.041 E14.6848
G1 X85.405 Y58.358 E15.0342
G1 X86.098 Y58.358 E15.0613
G1 X92.415 Y52.041 E15.4107
G1 X93.108 Y52.042 E15.4378
G1 X86.791 Y58.358 E15.7872
G1 X87.484 Y58.358 E15.8144
G1 X93.801 Y52.041 E16.1638
G1 X94.494 Y52.042 E16.1909
G1 X88.177 Y58.358 E16.5403
G1 X88.870 Y58.358 E16.5674
G1 X95.187 Y52.042 E16.9168
G1 X95.880 Y52.041 E16.9439
G1 X89.563 Y58.358 E17.2934
G1 X90.256 Y58.358 E17.3205
G1 X96.573 Y52.041 E17.6699
G1 X97.266 Y52.041 E17.6970
G1 X90.949 Y58.359 E18.0464
G1 X91.641 Y58.358 E18.0735
G1 X91.641 Y58.359 E18.0735
G1 X97.959 Y52.042 E18.4230
G1 X97.959 Y52.735 E18.4501
G1 X91.642 Y59.052 E18.7995
G1 X91.641 Y59.744 E18.8266
G1 X97.959 Y53.427 E19.1760
G1 X97.959 Y54.120 E19.2031
G1 X91.641 Y60.437 E19.5526
G1 X91.641 Y61.130 E19.5797
G1 X97.959 Y54.813 E19.9291
G1 X97.959 Y55.506 E19.9562
G1 X91.641 Y61.823 E20.3056
G1 X91.641 Y62.516 E20.3327
G1 X97.959 Y56.199 E20.6822
G1 X97.959 Y56.892 E20.7093
G1 X91.641 Y63.209 E21.0587
G1 X91.641 Y63.902 E21.0858
G1 X97.959 Y57.585 E21.4352
G1 X97.959 Y58.278 E21.4623
G1 X91.641 Y64.595 E21.8118
G1 X91.641 Y65.288 E21.8389
G1 X97.959 Y58.971 E22.1883
G1 X97.959 Y59.664 E22.2154
G1 X91.642 Y65.981 E22.5648
G1 X91.641 Y66.674 E22.5919
G1 X97.959 Y60.357 E22.9414
G1 X97.959 Y61.050 E22.9685
G1 X91.641 Y67.367 E23.3179
G1 X91.641 Y68.060 E23.3450
G1 X97.959 Y61.743 E23.6944
G1 X97.959 Y62.436 E23.7215
G1 X91.641 Y68.753 E24.0710
G1 X91.642 Y69.446 E24.0981
G1 X97.958 Y63.129 E24.4475
G1 X97.959 Y63.822 E24.4746
G1 X91.641 Y70.139 E24.8240
G1 X91.641 Y70.832 E24.8511
G1 X97.959 Y64.515 E25.2006
G1 X97.959 Y65.208 E25.2277
G1 X91.642 Y71.525 E25.5771
G1 X91.641 Y72.218 E25.6042
G1 X97.959 Y65.901 E25.9536
G1 X97.959 Y66.594 E25.9807
G1 X91.641 Y72.911 E26.3301
G1 X91.641 Y73.604 E26.3573
G1 X97.959 Y67.287 E26.7067
G1 X97.959 Y67.980 E26.7338
G1 X91.641 Y74.297 E27.0832
G1 X91.642 Y74.990 E27.1103
G1 X97.958 Y68.673 E27.4597
G1 X97.959 Y69.366 E27.4868
G1 X91.641 Y75.683 E27.8363
G1 X91.641 Y76.376 E27.8634
G1 X97.959 Y70.059 E28.2128
G1 X97.959 Y70.752 E28.2399
G1 X91.642 Y77.069 E28.5893
G1 X91.641 Y77.762 E28.6164
G1 X97.959 Y71.445 E28.9659
G1 X97.959 Y72.138 E28.9930
G1 X91.642 Y78.455 E29.3424
G1 X91.641 Y79.147 E29.3695
G1 X97.959 Y72.830 E29.7189
G1 X97.959 Y73.523 E29.7460
G1 X91.641 Y79.840 E30.0955
G1 X91.641 Y80.533 E30.1226
G1 X97.959 Y74.216 E30.4720
G1 X97.959 Y74.909 E30.4991
G1 X91.641 Y81.226 E30.8485
G1 X91.641 Y81.919 E30.8756
G1 X97.959 Y75.602 E31.2251
G1 X97.959 Y76.295 E31.2522
G1 X91.641 Y82.612 E31.6016
G1 X91.641 Y83.305 E31.6287
G1 X97.959 Y76.988 E31.9781
G1 X97.959 Y77.681 E32.0052
G1 X91.641 Y83.998 E32.3547
G1 X91.641 Y84.691 E32.3818
G1 X97.959 Y78.374 E32.7312
G1 X97.959 Y79.067 E32.7583
G1 X91.641 Y85.384 E33.1077
G1 X91.641 Y86.077 E33.1348
G1 X97.959 Y79.760 E33.4843
G1 X97.959 Y80.453 E33.5114
G1 X91.641 Y86.770 E33.8608
G1 X91.641 Y87.463 E33.8879
G1 X97.959 Y81.146 E34.2373
G1 X97.959 Y81.839 E34.2644
G1 X91.641 Y88.156 E34.6139
G1 X91.641 Y88.849 E34.6410
G1 X97.959 Y82.532 E34.9904
G1 X97.959 Y83.225 E35.0175
G1 X91.641 Y89.542 E35.3669
G1 X91.641 Y90.235 E35.3940
G1 X97.959 Y83.918 E35.7435
G1 X97.959 Y84.611 E35.7706
G1 X91.641 Y90.928 E36.1200
G1 X97.959 Y97.777 F3498
G92 E0
G1 X97.777 Y97.959 E0.0100 F576
G1 X97.084 Y97.959 E0.0371
G1 X97.959 Y97.084 E0.0855
G1 X97.959 Y96.391 E0.1126
G1 X96.391 Y97.959 E0.1993
G1 X95.698 Y97.959 E0.2264
G1 X97.959 Y95.698 E0.3514
G1 X97.959 Y95.005 E0.3785
G1 X95.005 Y97.959 E0.5419
G1 X94.312 Y97.959 E0.5690
G1 X97.959 Y94.312 E0.7707
G1 X97.959 Y93.619 E0.7978
G1 X93.619 Y97.959 E1.0378
G1 X92.926 Y97.959 E1.0649
G1 X97.959 Y92.926 E1.3432
G1 X97.959 Y92.233 E1.3704
G1 X92.233 Y97.959 E1.6870
G1 X91.541 Y97.959 E1.7141
G1 X97.959 Y91.541 E2.0692
G1 X97.959 Y90.848 E2.0963
G1 X90.848 Y97.959 E2.4896
G1 X90.155 Y97.959 E2.5167
G1 X97.959 Y90.155 E2.9484
G1 X97.959 Y89.462 E2.9755
G1 X89.462 Y97.959 E3.4455
G1 X88.769 Y97.959 E3.4726
G1 X97.959 Y88.769 E3.9809
G1 X97.959 Y88.076 E4.0080
G1 X88.076 Y97.959 E4.5547
G1 X87.383 Y97.959 E4.5818
G1 X97.959 Y87.383 E5.1668
G1 X97.959 Y86.690 E5.1939
G1 X86.690 Y97.959 E5.8173
G1 X85.997 Y97.959 E5.8444
G1 X97.959 Y85.997 E6.5060
G1 X97.959 Y85.304 E6.5331
G1 X91.641 Y91.621 E6.8826
G1 X91.641 Y91.641 E6.8834
G1 X91.621 Y91.641 E6.8842
G1 X85.304 Y97.959 E7.2336
G1 X84.611 Y97.959 E7.2607
G1 X90.928 Y91.641 E7.6101
G1 X90.235 Y91.641 E7.6372
G1 X83.918 Y97.959 E7.9867
G1 X83.225 Y97.959 E8.0138
G1 X89.542 Y91.641 E8.3632
G1 X88.849 Y91.641 E8.3903
G1 X82.532 Y97.959 E8.7397
G1 X81.839 Y97.959 E8.7668
G1 X88.156 Y91.641 E9.1163
G1 X87.463 Y91.641 E9.1434
G1 X81.146 Y97.959 E9.4928
G1 X80.453 Y97.959 E9.5199
G1 X86.770 Y91.641 E9.8693
G1 X86.077 Y91.641 E9.8964
G1 X79.760 Y97.959 E10.2459
G1 X79.067 Y97.959 E10.2730
G1 X85.384 Y91.641 E10.6224
G1 X84.691 Y91.641 E10.6495
G1 X78.374 Y97.959 E10.9989
G1 X77.681 Y97.959 E11.0260
G1 X83.998 Y91.641 E11.3755
G1 X83.305 Y91.641 E11.4026
G1 X76.988 Y97.959 E11.7520
G1 X76.295 Y97.959 E11.7791
G1 X82.612 Y91.641 E12.1285
G1 X81.919 Y91.641 E12.1556
G1 X75.602 Y97.959 E12.5051
G1 X74.909 Y97.959 E12.5322
G1 X81.226 Y91.641 E12.8816
G1 X80.533 Y91.641 E12.9087
G1 X74.216 Y97.959 E13.2581
G1 X73.523 Y97.959 E13.2852
G1 X79.840 Y91.641 E13.6347
G1 X79.147 Y91.641 E13.6618
G1 X72.830 Y97.959 E14.0112
G1 X72.138 Y97.959 E14.0383
G1 X78.455 Y91.641 E14.3877
G1 X77.762 Y91.641 E14.4148
G1 X71.445 Y97.959 E14.7643
G1 X70.752 Y97.959 E14.7914
G1 X77.069 Y91.641 E15.1408
G1 X76.376 Y91.641 E15.1679
G1 X70.059 Y97.959 E15.5173
G1 X69.366 Y97.959 E15.5444
G1 X75.683 Y91.641 E15.8938
