; G-Code generated by Simplify3D(R) Version 3.0.0
; Okt 17, 2017 at 11:52:05 
; Settings Summary
;   processName,Process1
;   applyToModels,blende,camera_back,camera_front
;   profileName,Renkforce (modified)
;   profileVersion,2017-10-17 11:10:50
;   baseProfile,German RepRap NEO (modified)
;   printMaterial,
;   printQuality,
;   printExtruders,
;   extruderName,Primary Extruder
;   extruderToolheadNumber,0
;   extruderDiameter,0.5
;   extruderAutoWidth,0
;   extruderWidth,0.49
;   extrusionMultiplier,0.96
;   extruderUseRetract,1
;   extruderRetractionDistance,6.5
;   extruderExtraRestartDistance,0
;   extruderRetractionZLift,0
;   extruderRetractionSpeed,4998
;   extruderUseCoasting,0
;   extruderCoastingDistance,0.2
;   extruderUseWipe,0
;   extruderWipeDistance,5
;   primaryExtruder,0
;   layerHeight,0.15
;   topSolidLayers,4
;   bottomSolidLayers,3
;   perimeterOutlines,3
;   printPerimetersInsideOut,1
;   startPointOption,2
;   startPointOriginX,0
;   startPointOriginY,0
;   startPointOriginZ,300
;   sequentialIslands,0
;   spiralVaseMode,0
;   firstLayerHeightPercentage,150
;   firstLayerWidthPercentage,100
;   firstLayerUnderspeed,0.28
;   useRaft,0
;   raftExtruder,0
;   raftLayers,3
;   raftOffset,3
;   raftSeparationDistance,0.1
;   raftInfill,85
;   disableRaftBaseLayers,0
;   useSkirt,1
;   skirtExtruder,0
;   skirtLayers,1
;   skirtOutlines,5
;   skirtOffset,2
;   usePrimePillar,0
;   primePillarExtruder,999
;   primePillarWidth,12
;   primePillarLocation,7
;   primePillarSpeedMultiplier,1
;   useOozeShield,0
;   oozeShieldExtruder,999
;   oozeShieldOffset,2
;   oozeShieldOutlines,1
;   oozeShieldSidewallShape,1
;   oozeShieldSidewallAngle,30
;   oozeShieldSpeedMultiplier,1
;   infillExtruder,0
;   internalInfillPattern,Full Honeycomb
;   externalInfillPattern,Rectilinear
;   infillPercentage,30
;   outlineOverlapPercentage,15
;   infillExtrusionWidthPercentage,100
;   minInfillLength,3
;   infillLayerInterval,1
;   infillAngles,0,120,-120
;   overlapInfillAngles,0
;   generateSupport,0
;   supportExtruder,0
;   supportInfillPercentage,30
;   supportExtraInflation,0
;   denseSupportLayers,0
;   denseSupportInfillPercentage,75
;   supportLayerInterval,1
;   supportHorizontalPartOffset,1.5
;   supportUpperSeparationLayers,2
;   supportLowerSeparationLayers,2
;   supportType,0
;   supportGridSpacing,4
;   maxOverhangAngle,45
;   supportAngles,45
;   temperatureName,Primary Extruder
;   temperatureNumber,0
;   temperatureSetpointCount,3
;   temperatureSetpointLayers,1,2,3
;   temperatureSetpointTemperatures,197,192,188
;   temperatureStabilizeAtStartup,1
;   temperatureHeatedBed,0
;   temperatureRelayBetweenLayers,0
;   temperatureRelayBetweenLoops,0
;   fanLayers,1,3
;   fanSpeeds,0,50
;   blipFanToFullPower,0
;   adjustSpeedForCooling,1
;   minSpeedLayerTime,15
;   minCoolingSpeedSlowdown,20
;   increaseFanForCooling,0
;   minFanLayerTime,45
;   maxCoolingFanSpeed,100
;   increaseFanForBridging,0
;   bridgingFanSpeed,100
;   use5D,1
;   relativeEdistances,0
;   allowEaxisZeroing,1
;   independentExtruderAxes,0
;   includeM10123,0
;   stickySupport,1
;   applyToolheadOffsets,0
;   gcodeXoffset,0
;   gcodeYoffset,0
;   gcodeZoffset,0
;   overrideMachineDefinition,1
;   machineTypeOverride,0
;   strokeXoverride,150
;   strokeYoverride,150
;   strokeZoverride,150
;   originOffsetXoverride,0
;   originOffsetYoverride,0
;   originOffsetZoverride,0
;   homeXdirOverride,-1
;   homeYdirOverride,-1
;   homeZdirOverride,-1
;   flipXoverride,1
;   flipYoverride,-1
;   flipZoverride,1
;   toolheadOffsets,0,0|0,0|0,0|0,0|0,0|0,0
;   overrideFirmwareConfiguration,0
;   firmwareTypeOverride,RepRap (Marlin/Repetier/Sprinter)
;   GPXconfigOverride,r2
;   baudRateOverride,115200
;   overridePrinterModels,0
;   printerModelsOverride
;   startingGcode,G28 ; home all axes
;   layerChangeGcode,
;   retractionGcode,
;   toolChangeGcode,
;   endingGcode,M104 S0 ; turn off extruder,M140 S0 ; turn off bed,G28 X0  ; home X axis,G28 Y0  ; home Y axis,M84 ; disable motors,M107
;   createX3G,0
;   celebration,0
;   celebrationSong,Random Song
;   createMB5G,0
;   postProcessing,
;   defaultSpeed,3600
;   outlineUnderspeed,0.5
;   solidInfillUnderspeed,0.8
;   supportUnderspeed,0.8
;   rapidXYspeed,3498
;   rapidZspeed,1002
;   minBridgingArea,50
;   bridgingExtraInflation,0
;   bridgingExtrusionMultiplier,1
;   bridgingSpeedMultiplier,1
;   filamentDiameter,1.75
;   filamentPricePerKg,46
;   filamentDensity,1.25
;   useMinPrintHeight,0
;   minPrintHeight,0
;   useMaxPrintHeight,0
;   maxPrintHeight,0
;   useDiaphragm,0
;   diaphragmLayerInterval,20
;   robustSlicing,1
;   mergeAllIntoSolid,0
;   onlyRetractWhenCrossingOutline,1
;   retractBetweenLayers,1
;   useRetractionMinTravel,0
;   retractionMinTravel,3
;   retractWhileWiping,0
;   onlyWipeOutlines,1
;   avoidCrossingOutline,0
;   maxMovementDetourFactor,10
;   toolChangeRetractionDistance,0
;   toolChangeExtraRestartDistance,0
;   toolChangeRetractionSpeed,360
;   allowThinWallGapFill,1
;   thinWallAllowedOverlapPercentage,10
;   horizontalSizeCompensation,0
G90
M82
M106 S0
M104 S197 T0
M109 S197 T0
G28 ; home all axes
G92 E0
G1 E-6.5000 F4998
G1 Z0.225 F1002
; layer 1, Z = 0.225
T0
; tool H0.225 W0.490
; skirt
G1 X5.400 Y4.565 F3498
G1 E0.0000 F1499
G92 E0
G1 X5.457 Y4.501 E0.0038 F1008
G1 X5.974 Y3.975 E0.0362
G1 X6.036 Y3.916 E0.0400
G1 X6.218 Y3.757 E0.0506
G1 X6.285 Y3.704 E0.0544
G1 X6.877 Y3.264 E0.0869
G1 X6.948 Y3.215 E0.0906
G1 X7.152 Y3.087 E0.1012
G1 X7.226 Y3.044 E0.1050
G1 X7.879 Y2.701 E0.1375
G1 X7.957 Y2.664 E0.1413
G1 X8.178 Y2.569 E0.1519
G1 X8.258 Y2.538 E0.1556
G1 X8.957 Y2.300 E0.1881
G1 X9.039 Y2.275 E0.1919
G1 X9.272 Y2.215 E0.2025
G1 X9.356 Y2.197 E0.2063
G1 X10.093 Y2.069 E0.2392
G1 X10.185 Y2.056 E0.2433
G1 X10.446 Y2.033 E0.2548
G1 X10.539 Y2.029 E0.2589
G1 X11.157 Y2.026 E0.2861
G1 X11.164 Y2.026 E0.2864
G1 X11.169 Y2.026 E0.2866
G1 X42.326 Y2.028 E1.6576
G1 X42.422 Y2.032 E1.6618
G1 X42.689 Y2.056 E1.6736
G1 X42.784 Y2.068 E1.6778
G1 X43.524 Y2.197 E1.7109
G1 X43.608 Y2.215 E1.7147
G1 X43.841 Y2.275 E1.7253
G1 X43.924 Y2.300 E1.7291
G1 X44.622 Y2.538 E1.7615
G1 X44.702 Y2.569 E1.7653
G1 X44.923 Y2.664 E1.7759
G1 X45.001 Y2.701 E1.7797
G1 X45.654 Y3.044 E1.8121
G1 X45.728 Y3.087 E1.8159
G1 X45.932 Y3.215 E1.8265
G1 X46.003 Y3.264 E1.8303
G1 X46.595 Y3.704 E1.8628
G1 X46.662 Y3.757 E1.8665
G1 X46.844 Y3.916 E1.8771
G1 X46.906 Y3.975 E1.8809
G1 X47.423 Y4.501 E1.9134
G1 X47.481 Y4.565 E1.9172
G1 X47.636 Y4.749 E1.9278
G1 X47.688 Y4.817 E1.9315
G1 X48.117 Y5.417 E1.9640
G1 X48.164 Y5.489 E1.9678
G1 X48.289 Y5.695 E1.9784
G1 X48.302 Y5.720 E1.9796
G1 X48.636 Y5.254 E2.0048
G1 X48.688 Y5.186 E2.0086
G1 X48.843 Y5.001 E2.0192
G1 X48.901 Y4.938 E2.0230
G1 X49.418 Y4.411 E2.0554
G1 X49.480 Y4.353 E2.0592
G1 X49.662 Y4.194 E2.0698
G1 X49.728 Y4.141 E2.0736
G1 X50.321 Y3.700 E2.1060
G1 X50.391 Y3.652 E2.1098
G1 X50.595 Y3.523 E2.1204
G1 X50.670 Y3.481 E2.1242
G1 X51.323 Y3.137 E2.1567
G1 X51.400 Y3.101 E2.1604
G1 X51.622 Y3.005 E2.1710
G1 X51.702 Y2.975 E2.1748
G1 X52.394 Y2.739 E2.2070
G1 X52.475 Y2.714 E2.2107
G1 X52.706 Y2.655 E2.2212
G1 X52.789 Y2.637 E2.2250
G1 X53.534 Y2.506 E2.2583
G1 X53.630 Y2.493 E2.2625
G1 X53.900 Y2.469 E2.2744
G1 X53.996 Y2.465 E2.2787
G1 X85.770 Y2.465 E3.6768
G1 X85.865 Y2.469 E3.6810
G1 X86.133 Y2.492 E3.6928
G1 X86.227 Y2.505 E3.6970
G1 X86.968 Y2.634 E3.7301
G1 X87.051 Y2.652 E3.7339
G1 X87.285 Y2.712 E3.7445
G1 X87.367 Y2.737 E3.7482
G1 X88.065 Y2.975 E3.7807
G1 X88.145 Y3.005 E3.7845
G1 X88.367 Y3.101 E3.7951
G1 X88.444 Y3.137 E3.7989
G1 X89.097 Y3.481 E3.8313
G1 X89.172 Y3.523 E3.8351
G1 X89.376 Y3.652 E3.8457
G1 X89.446 Y3.700 E3.8495
G1 X90.039 Y4.141 E3.8819
G1 X90.105 Y4.194 E3.8857
G1 X90.287 Y4.353 E3.8963
G1 X90.349 Y4.411 E3.9001
G1 X90.866 Y4.938 E3.9326
G1 X90.924 Y5.001 E3.9363
G1 X91.079 Y5.186 E3.9469
G1 X91.132 Y5.254 E3.9507
G1 X91.561 Y5.854 E3.9832
G1 X91.608 Y5.926 E3.9870
G1 X91.733 Y6.132 E3.9976
G1 X91.774 Y6.207 E4.0013
G1 X92.105 Y6.867 E4.0338
G1 X92.140 Y6.944 E4.0376
G1 X92.232 Y7.168 E4.0482
G1 X92.261 Y7.248 E4.0520
G1 X92.492 Y7.969 E4.0853
G1 X92.518 Y8.064 E4.0896
G1 X92.579 Y8.337 E4.1019
G1 X92.596 Y8.434 E4.1062
G1 X92.757 Y9.660 E4.1607
G1 X92.764 Y9.732 E4.1638
G1 X92.777 Y9.933 E4.1727
G1 X92.779 Y10.005 E4.1759
G1 X92.779 Y39.100 E5.4561
G1 X92.777 Y39.172 E5.4593
G1 X92.764 Y39.374 E5.4682
G1 X92.757 Y39.445 E5.4714
G1 X92.596 Y40.671 E5.5258
G1 X92.579 Y40.769 E5.5301
G1 X92.518 Y41.041 E5.5424
G1 X92.492 Y41.136 E5.5468
G1 X92.261 Y41.857 E5.5800
G1 X92.232 Y41.937 E5.5838
G1 X92.141 Y42.161 E5.5944
G1 X92.105 Y42.239 E5.5982
G1 X91.774 Y42.898 E5.6307
G1 X91.733 Y42.973 E5.6344
G1 X91.608 Y43.180 E5.6451
G1 X91.561 Y43.251 E5.6488
G1 X91.132 Y43.851 E5.6813
G1 X91.079 Y43.919 E5.6851
G1 X90.924 Y44.104 E5.6957
G1 X90.866 Y44.167 E5.6994
G1 X90.349 Y44.694 E5.7319
G1 X90.287 Y44.752 E5.7357
G1 X90.105 Y44.911 E5.7463
G1 X90.039 Y44.965 E5.7501
G1 X89.447 Y45.405 E5.7825
G1 X89.376 Y45.453 E5.7863
G1 X89.172 Y45.582 E5.7969
G1 X89.097 Y45.624 E5.8007
G1 X88.444 Y45.968 E5.8332
G1 X88.367 Y46.005 E5.8369
G1 X88.145 Y46.100 E5.8475
G1 X88.065 Y46.131 E5.8513
G1 X87.367 Y46.369 E5.8838
G1 X87.285 Y46.393 E5.8875
G1 X87.051 Y46.453 E5.8982
G1 X86.968 Y46.471 E5.9019
G1 X86.244 Y46.597 E5.9342
G1 X86.162 Y46.609 E5.9379
G1 X85.930 Y46.631 E5.9482
G1 X85.847 Y46.636 E5.9518
G1 X85.186 Y46.651 E5.9809
G1 X85.173 Y46.652 E5.9815
G1 X85.138 Y46.652 E5.9830
G1 X85.125 Y46.652 E5.9836
G1 X53.996 Y46.640 E7.3533
G1 X53.901 Y46.636 E7.3575
G1 X53.634 Y46.613 E7.3693
G1 X53.540 Y46.600 E7.3735
G1 X52.800 Y46.471 E7.4066
G1 X52.716 Y46.453 E7.4104
G1 X52.482 Y46.393 E7.4210
G1 X52.400 Y46.369 E7.4247
G1 X51.702 Y46.131 E7.4572
G1 X51.622 Y46.100 E7.4610
G1 X51.400 Y46.005 E7.4716
G1 X51.323 Y45.968 E7.4753
G1 X50.670 Y45.624 E7.5078
G1 X50.595 Y45.582 E7.5116
G1 X50.391 Y45.453 E7.5222
G1 X50.321 Y45.405 E7.5260
G1 X49.728 Y44.965 E7.5584
G1 X49.662 Y44.911 E7.5622
G1 X49.480 Y44.752 E7.5728
G1 X49.418 Y44.694 E7.5766
G1 X48.901 Y44.167 E7.6091
G1 X48.843 Y44.104 E7.6128
G1 X48.688 Y43.919 E7.6234
G1 X48.636 Y43.851 E7.6272
G1 X48.206 Y43.251 E7.6597
G1 X48.159 Y43.180 E7.6634
G1 X48.035 Y42.973 E7.6741
G1 X48.021 Y42.949 E7.6753
G1 X47.688 Y43.415 E7.7005
G1 X47.636 Y43.482 E7.7042
G1 X47.481 Y43.667 E7.7149
G1 X47.423 Y43.730 E7.7186
G1 X46.906 Y44.257 E7.7511
G1 X46.844 Y44.316 E7.7549
G1 X46.662 Y44.474 E7.7655
G1 X46.616 Y44.511 E7.7681
G1 X46.662 Y44.548 E7.7706
G1 X46.844 Y44.706 E7.7813
G1 X46.906 Y44.765 E7.7850
G1 X47.423 Y45.292 E7.8175
G1 X47.481 Y45.355 E7.8213
G1 X47.636 Y45.540 E7.8319
G1 X47.688 Y45.608 E7.8357
G1 X48.117 Y46.208 E7.8681
G1 X48.164 Y46.279 E7.8719
G1 X48.289 Y46.486 E7.8825
G1 X48.330 Y46.561 E7.8863
G1 X48.662 Y47.220 E7.9187
G1 X48.697 Y47.298 E7.9225
G1 X48.788 Y47.521 E7.9331
G1 X48.817 Y47.602 E7.9369
G1 X49.048 Y48.323 E7.9702
G1 X49.074 Y48.418 E7.9745
G1 X49.135 Y48.690 E7.9868
G1 X49.152 Y48.788 E7.9912
G1 X49.313 Y50.014 E8.0456
G1 X49.320 Y50.085 E8.0488
G1 X49.333 Y50.287 E8.0576
G1 X49.336 Y50.359 E8.0608
G1 X49.336 Y79.454 E9.3411
G1 X49.333 Y79.525 E9.3442
G1 X49.320 Y79.727 E9.3531
G1 X49.313 Y79.799 E9.3563
G1 X49.152 Y81.025 E9.4107
G1 X49.135 Y81.122 E9.4151
G1 X49.074 Y81.395 E9.4273
G1 X49.048 Y81.490 E9.4317
G1 X48.817 Y82.211 E9.4650
G1 X48.788 Y82.291 E9.4688
G1 X48.697 Y82.514 E9.4794
G1 X48.662 Y82.592 E9.4831
G1 X48.330 Y83.252 E9.5156
G1 X48.289 Y83.327 E9.5194
G1 X48.164 Y83.533 E9.5300
G1 X48.117 Y83.605 E9.5338
G1 X47.688 Y84.205 E9.5662
G1 X47.636 Y84.273 E9.5700
G1 X47.481 Y84.457 E9.5806
G1 X47.423 Y84.521 E9.5844
G1 X46.906 Y85.047 E9.6168
G1 X46.844 Y85.106 E9.6206
G1 X46.662 Y85.265 E9.6312
G1 X46.595 Y85.318 E9.6350
G1 X46.003 Y85.759 E9.6675
G1 X45.932 Y85.807 E9.6712
G1 X45.728 Y85.935 E9.6818
G1 X45.654 Y85.978 E9.6856
G1 X45.001 Y86.321 E9.7181
G1 X44.923 Y86.358 E9.7219
G1 X44.702 Y86.454 E9.7325
G1 X44.622 Y86.484 E9.7362
G1 X43.924 Y86.722 E9.7687
G1 X43.841 Y86.747 E9.7725
G1 X43.608 Y86.807 E9.7831
G1 X43.524 Y86.825 E9.7869
G1 X42.802 Y86.951 E9.8191
G1 X42.721 Y86.962 E9.8227
G1 X42.490 Y86.985 E9.8329
G1 X42.408 Y86.990 E9.8365
G1 X41.777 Y87.005 E9.8643
G1 X41.763 Y87.005 E9.8649
G1 X41.725 Y87.006 E9.8666
G1 X41.712 Y87.006 E9.8672
G1 X10.553 Y86.994 E11.2383
G1 X10.457 Y86.990 E11.2425
G1 X10.190 Y86.966 E11.2543
G1 X10.096 Y86.954 E11.2585
G1 X9.356 Y86.825 E11.2915
G1 X9.272 Y86.807 E11.2953
G1 X9.039 Y86.747 E11.3059
G1 X8.957 Y86.722 E11.3097
G1 X8.258 Y86.484 E11.3421
G1 X8.178 Y86.454 E11.3459
G1 X7.957 Y86.358 E11.3565
G1 X7.879 Y86.321 E11.3603
G1 X7.226 Y85.978 E11.3928
G1 X7.152 Y85.935 E11.3965
G1 X6.948 Y85.807 E11.4071
G1 X6.877 Y85.759 E11.4109
G1 X6.285 Y85.318 E11.4434
G1 X6.218 Y85.265 E11.4471
G1 X6.036 Y85.106 E11.4578
G1 X5.974 Y85.047 E11.4615
G1 X5.457 Y84.521 E11.4940
G1 X5.400 Y84.457 E11.4978
G1 X5.245 Y84.273 E11.5084
G1 X5.192 Y84.205 E11.5121
G1 X4.763 Y83.605 E11.5446
G1 X4.716 Y83.533 E11.5484
G1 X4.591 Y83.327 E11.5590
G1 X4.550 Y83.252 E11.5628
G1 X4.219 Y82.592 E11.5952
G1 X4.183 Y82.514 E11.5990
G1 X4.092 Y82.291 E11.6096
G1 X4.063 Y82.211 E11.6134
G1 X3.801 Y81.393 E11.6511
G1 X3.761 Y81.227 E11.6587
G1 X3.687 Y80.751 E11.6799
G1 X3.674 Y80.580 E11.6874
G1 X3.680 Y50.808 E12.9975
G1 X3.614 Y50.410 E13.0153
G1 X3.599 Y50.234 E13.0230
G1 X3.596 Y49.737 E13.0449
G1 X3.609 Y49.561 E13.0526
G1 X3.743 Y48.706 E13.0907
G1 X3.759 Y48.622 E13.0945
G1 X3.815 Y48.387 E13.1051
G1 X3.838 Y48.305 E13.1089
G1 X4.063 Y47.602 E13.1413
G1 X4.092 Y47.521 E13.1451
G1 X4.183 Y47.298 E13.1557
G1 X4.219 Y47.220 E13.1595
G1 X4.550 Y46.561 E13.1920
G1 X4.591 Y46.486 E13.1957
G1 X4.716 Y46.279 E13.2063
G1 X4.763 Y46.208 E13.2101
G1 X5.192 Y45.608 E13.2426
G1 X5.245 Y45.540 E13.2464
G1 X5.400 Y45.355 E13.2570
G1 X5.457 Y45.292 E13.2607
G1 X5.974 Y44.765 E13.2932
G1 X6.036 Y44.706 E13.2970
G1 X6.218 Y44.548 E13.3076
G1 X6.264 Y44.511 E13.3102
G1 X6.218 Y44.474 E13.3128
G1 X6.036 Y44.316 E13.3234
G1 X5.974 Y44.257 E13.3271
G1 X5.457 Y43.730 E13.3596
G1 X5.400 Y43.667 E13.3634
G1 X5.245 Y43.482 E13.3740
G1 X5.192 Y43.415 E13.3778
G1 X4.763 Y42.814 E13.4102
G1 X4.716 Y42.743 E13.4140
G1 X4.591 Y42.536 E13.4246
G1 X4.550 Y42.461 E13.4284
G1 X4.219 Y41.802 E13.4608
G1 X4.183 Y41.724 E13.4646
G1 X4.092 Y41.501 E13.4752
G1 X4.063 Y41.420 E13.4790
G1 X3.838 Y40.718 E13.5115
G1 X3.815 Y40.635 E13.5152
G1 X3.759 Y40.400 E13.5258
G1 X3.743 Y40.316 E13.5296
G1 X3.618 Y39.518 E13.5652
G1 X3.606 Y39.384 E13.5711
G1 X3.594 Y39.003 E13.5879
G1 X3.597 Y38.868 E13.5938
G1 X3.643 Y38.371 E13.6158
G1 X3.643 Y9.123 E14.9028
G1 X3.643 Y9.088 E14.9043
G1 X3.646 Y8.989 E14.9086
G1 X3.648 Y8.954 E14.9102
G1 X3.695 Y8.223 E14.9424
G1 X3.712 Y8.089 E14.9484
G1 X3.783 Y7.713 E14.9652
G1 X3.816 Y7.581 E14.9712
G1 X4.063 Y6.811 E15.0068
G1 X4.092 Y6.731 E15.0105
G1 X4.183 Y6.508 E15.0212
G1 X4.219 Y6.430 E15.0249
G1 X4.550 Y5.770 E15.0574
G1 X4.591 Y5.695 E15.0612
G1 X4.716 Y5.489 E15.0718
G1 X4.763 Y5.417 E15.0755
G1 X5.192 Y4.817 E15.1080
G1 X5.245 Y4.749 E15.1118
G1 X5.400 Y4.565 E15.1224
G1 X5.769 Y4.887 F3498
G92 E0
G1 X5.814 Y4.838 E0.0029 F1008
G1 X6.317 Y4.325 E0.0346
G1 X6.366 Y4.279 E0.0375
G1 X6.533 Y4.133 E0.0473
G1 X6.585 Y4.091 E0.0502
G1 X7.162 Y3.662 E0.0818
G1 X7.217 Y3.625 E0.0848
G1 X7.405 Y3.507 E0.0945
G1 X7.463 Y3.473 E0.0975
G1 X8.099 Y3.139 E0.1291
G1 X8.159 Y3.110 E0.1320
G1 X8.363 Y3.022 E0.1418
G1 X8.425 Y2.999 E0.1447
G1 X9.106 Y2.767 E0.1764
G1 X9.169 Y2.748 E0.1793
G1 X9.385 Y2.693 E0.1891
G1 X9.450 Y2.679 E0.1920
G1 X10.167 Y2.553 E0.2241
G1 X10.239 Y2.544 E0.2272
G1 X10.479 Y2.522 E0.2379
G1 X10.552 Y2.519 E0.2410
G1 X11.159 Y2.516 E0.2678
G1 X11.165 Y2.516 E0.2681
G1 X11.169 Y2.516 E0.2682
G1 X42.316 Y2.518 E1.6388
G1 X42.390 Y2.522 E1.6420
G1 X42.636 Y2.543 E1.6529
G1 X42.710 Y2.553 E1.6562
G1 X43.430 Y2.679 E1.6884
G1 X43.495 Y2.693 E1.6913
G1 X43.711 Y2.748 E1.7011
G1 X43.774 Y2.767 E1.7040
G1 X44.455 Y2.999 E1.7356
G1 X44.517 Y3.022 E1.7386
G1 X44.721 Y3.110 E1.7483
