; G-Code generated by Simplify3D(R) Version 3.0.0
; Dez 4, 2017 at 5:39:33 
; Settings Summary
;   processName,Process1
;   applyToModels,camerablendemitkabel
;   profileName,Renkforce (modified)
;   profileVersion,2017-10-17 11:10:50
;   baseProfile,German RepRap NEO (modified)
;   printMaterial,
;   printQuality,
;   printExtruders,
;   extruderName,Primary Extruder
;   extruderToolheadNumber,0
;   extruderDiameter,0.5
;   extruderAutoWidth,0
;   extruderWidth,0.49
;   extrusionMultiplier,0.94
;   extruderUseRetract,1
;   extruderRetractionDistance,6.5
;   extruderExtraRestartDistance,0
;   extruderRetractionZLift,0
;   extruderRetractionSpeed,4998
;   extruderUseCoasting,0
;   extruderCoastingDistance,0.2
;   extruderUseWipe,0
;   extruderWipeDistance,5
;   primaryExtruder,0
;   layerHeight,0.1
;   topSolidLayers,4
;   bottomSolidLayers,3
;   perimeterOutlines,3
;   printPerimetersInsideOut,1
;   startPointOption,2
;   startPointOriginX,0
;   startPointOriginY,0
;   startPointOriginZ,300
;   sequentialIslands,0
;   spiralVaseMode,0
;   firstLayerHeightPercentage,150
;   firstLayerWidthPercentage,100
;   firstLayerUnderspeed,0.28
;   useRaft,0
;   raftExtruder,0
;   raftLayers,3
;   raftOffset,3
;   raftSeparationDistance,0.1
;   raftInfill,85
;   disableRaftBaseLayers,0
;   useSkirt,1
;   skirtExtruder,0
;   skirtLayers,1
;   skirtOutlines,4
;   skirtOffset,2
;   usePrimePillar,0
;   primePillarExtruder,999
;   primePillarWidth,12
;   primePillarLocation,7
;   primePillarSpeedMultiplier,1
;   useOozeShield,0
;   oozeShieldExtruder,999
;   oozeShieldOffset,2
;   oozeShieldOutlines,1
;   oozeShieldSidewallShape,1
;   oozeShieldSidewallAngle,30
;   oozeShieldSpeedMultiplier,1
;   infillExtruder,0
;   internalInfillPattern,Full Honeycomb
;   externalInfillPattern,Rectilinear
;   infillPercentage,10
;   outlineOverlapPercentage,15
;   infillExtrusionWidthPercentage,100
;   minInfillLength,3
;   infillLayerInterval,1
;   infillAngles,0,120,-120
;   overlapInfillAngles,0
;   generateSupport,0
;   supportExtruder,0
;   supportInfillPercentage,30
;   supportExtraInflation,0
;   denseSupportLayers,0
;   denseSupportInfillPercentage,75
;   supportLayerInterval,1
;   supportHorizontalPartOffset,1.5
;   supportUpperSeparationLayers,2
;   supportLowerSeparationLayers,2
;   supportType,0
;   supportGridSpacing,5
;   maxOverhangAngle,45
;   supportAngles,45
;   temperatureName,Primary Extruder
;   temperatureNumber,0
;   temperatureSetpointCount,3
;   temperatureSetpointLayers,1,2,3
;   temperatureSetpointTemperatures,197,193,189
;   temperatureStabilizeAtStartup,1
;   temperatureHeatedBed,0
;   temperatureRelayBetweenLayers,0
;   temperatureRelayBetweenLoops,0
;   fanLayers,1,3
;   fanSpeeds,0,80
;   blipFanToFullPower,0
;   adjustSpeedForCooling,1
;   minSpeedLayerTime,15
;   minCoolingSpeedSlowdown,20
;   increaseFanForCooling,0
;   minFanLayerTime,45
;   maxCoolingFanSpeed,100
;   increaseFanForBridging,0
;   bridgingFanSpeed,100
;   use5D,1
;   relativeEdistances,0
;   allowEaxisZeroing,1
;   independentExtruderAxes,0
;   includeM10123,0
;   stickySupport,1
;   applyToolheadOffsets,0
;   gcodeXoffset,0
;   gcodeYoffset,0
;   gcodeZoffset,0
;   overrideMachineDefinition,1
;   machineTypeOverride,0
;   strokeXoverride,150
;   strokeYoverride,150
;   strokeZoverride,150
;   originOffsetXoverride,0
;   originOffsetYoverride,0
;   originOffsetZoverride,0
;   homeXdirOverride,-1
;   homeYdirOverride,-1
;   homeZdirOverride,-1
;   flipXoverride,1
;   flipYoverride,-1
;   flipZoverride,1
;   toolheadOffsets,0,0|0,0|0,0|0,0|0,0|0,0
;   overrideFirmwareConfiguration,0
;   firmwareTypeOverride,RepRap (Marlin/Repetier/Sprinter)
;   GPXconfigOverride,r2
;   baudRateOverride,115200
;   overridePrinterModels,0
;   printerModelsOverride
;   startingGcode,G28 ; home all axes
;   layerChangeGcode,
;   retractionGcode,
;   toolChangeGcode,
;   endingGcode,M104 S0 ; turn off extruder,M140 S0 ; turn off bed,G28 X0  ; home X axis,G28 Y0  ; home Y axis,M84 ; disable motors,M107
;   createX3G,0
;   celebration,0
;   celebrationSong,Random Song
;   createMB5G,0
;   postProcessing,
;   defaultSpeed,2400
;   outlineUnderspeed,0.5
;   solidInfillUnderspeed,0.8
;   supportUnderspeed,0.8
;   rapidXYspeed,3498
;   rapidZspeed,1002
;   minBridgingArea,50
;   bridgingExtraInflation,0
;   bridgingExtrusionMultiplier,1
;   bridgingSpeedMultiplier,1
;   filamentDiameter,1.75
;   filamentPricePerKg,46
;   filamentDensity,1.25
;   useMinPrintHeight,0
;   minPrintHeight,0
;   useMaxPrintHeight,0
;   maxPrintHeight,0
;   useDiaphragm,0
;   diaphragmLayerInterval,20
;   robustSlicing,1
;   mergeAllIntoSolid,0
;   onlyRetractWhenCrossingOutline,1
;   retractBetweenLayers,1
;   useRetractionMinTravel,0
;   retractionMinTravel,3
;   retractWhileWiping,0
;   onlyWipeOutlines,1
;   avoidCrossingOutline,1
;   maxMovementDetourFactor,20
;   toolChangeRetractionDistance,0
;   toolChangeExtraRestartDistance,0
;   toolChangeRetractionSpeed,360
;   allowThinWallGapFill,1
;   thinWallAllowedOverlapPercentage,10
;   horizontalSizeCompensation,0
G90
M82
M106 S0
M104 S197 T0
M109 S197 T0
G28 ; home all axes
G92 E0
G1 E-6.5000 F4998
G1 Z0.150 F1002
; layer 1, Z = 0.15
T0
; tool H0.150 W0.490
; skirt
G1 X54.851 Y55.215 F3498
G1 E0.0000 F1499
G92 E0
G1 X54.899 Y55.169 E0.0019 F672
G1 X55.066 Y55.023 E0.0083
G1 X55.118 Y54.981 E0.0102
G1 X55.695 Y54.553 E0.0309
G1 X55.750 Y54.515 E0.0328
G1 X55.938 Y54.397 E0.0391
G1 X55.996 Y54.363 E0.0411
G1 X56.632 Y54.029 E0.0617
G1 X56.692 Y54.000 E0.0636
G1 X56.896 Y53.913 E0.0700
G1 X56.959 Y53.889 E0.0719
G1 X57.639 Y53.657 E0.0926
G1 X57.703 Y53.638 E0.0945
G1 X57.918 Y53.583 E0.1009
G1 X57.983 Y53.569 E0.1028
G1 X58.703 Y53.443 E0.1238
G1 X58.777 Y53.433 E0.1259
G1 X59.023 Y53.412 E0.1330
G1 X59.097 Y53.408 E0.1351
G1 X90.244 Y53.397 E1.0298
G1 X90.255 Y53.397 E1.0301
G1 X90.289 Y53.397 E1.0311
G1 X90.300 Y53.397 E1.0314
G1 X90.921 Y53.412 E1.0492
G1 X90.984 Y53.416 E1.0511
G1 X91.197 Y53.437 E1.0572
G1 X91.260 Y53.446 E1.0590
G1 X91.964 Y53.569 E1.0796
G1 X92.029 Y53.583 E1.0815
G1 X92.244 Y53.638 E1.0879
G1 X92.308 Y53.657 E1.0898
G1 X92.988 Y53.889 E1.1104
G1 X93.051 Y53.913 E1.1123
G1 X93.255 Y54.000 E1.1187
G1 X93.315 Y54.029 E1.1206
G1 X93.951 Y54.363 E1.1413
G1 X94.009 Y54.397 E1.1432
G1 X94.197 Y54.515 E1.1496
G1 X94.252 Y54.553 E1.1515
G1 X94.829 Y54.981 E1.1721
G1 X94.881 Y55.023 E1.1740
G1 X95.048 Y55.169 E1.1804
G1 X95.096 Y55.215 E1.1823
G1 X95.600 Y55.728 E1.2030
G1 X95.645 Y55.777 E1.2049
G1 X95.788 Y55.947 E1.2113
G1 X95.828 Y56.000 E1.2132
G1 X96.247 Y56.585 E1.2338
G1 X96.283 Y56.640 E1.2358
G1 X96.398 Y56.830 E1.2421
G1 X96.430 Y56.889 E1.2441
G1 X96.753 Y57.531 E1.2647
G1 X96.780 Y57.592 E1.2666
G1 X96.864 Y57.797 E1.2730
G1 X96.887 Y57.860 E1.2749
G1 X97.112 Y58.561 E1.2961
G1 X97.132 Y58.636 E1.2983
G1 X97.188 Y58.886 E1.3056
G1 X97.201 Y58.962 E1.3079
G1 X97.360 Y60.169 E1.3428
G1 X97.365 Y60.225 E1.3444
G1 X97.377 Y60.411 E1.3498
G1 X97.379 Y60.467 E1.3514
G1 X97.379 Y89.545 E2.1867
G1 X97.377 Y89.601 E2.1883
G1 X97.365 Y89.787 E2.1936
G1 X97.360 Y89.843 E2.1952
G1 X97.201 Y91.050 E2.2302
G1 X97.188 Y91.126 E2.2324
G1 X97.132 Y91.376 E2.2398
G1 X97.112 Y91.451 E2.2420
G1 X96.887 Y92.152 E2.2631
G1 X96.864 Y92.215 E2.2651
G1 X96.780 Y92.420 E2.2714
G1 X96.753 Y92.481 E2.2733
G1 X96.430 Y93.123 E2.2940
G1 X96.398 Y93.181 E2.2959
G1 X96.283 Y93.372 E2.3023
G1 X96.247 Y93.427 E2.3042
G1 X95.828 Y94.012 E2.3249
G1 X95.788 Y94.065 E2.3268
G1 X95.645 Y94.235 E2.3331
G1 X95.600 Y94.284 E2.3351
G1 X95.096 Y94.797 E2.3557
G1 X95.048 Y94.843 E2.3576
G1 X94.881 Y94.989 E2.3640
G1 X94.829 Y95.030 E2.3659
G1 X94.252 Y95.459 E2.3866
G1 X94.197 Y95.497 E2.3885
G1 X94.009 Y95.615 E2.3949
G1 X93.951 Y95.648 E2.3968
G1 X93.315 Y95.983 E2.4174
G1 X93.255 Y96.012 E2.4193
G1 X93.051 Y96.099 E2.4257
G1 X92.988 Y96.123 E2.4276
G1 X92.308 Y96.355 E2.4483
G1 X92.244 Y96.374 E2.4502
G1 X92.029 Y96.429 E2.4566
G1 X91.964 Y96.443 E2.4585
G1 X91.243 Y96.569 E2.4795
G1 X91.170 Y96.579 E2.4816
G1 X90.923 Y96.600 E2.4887
G1 X90.849 Y96.603 E2.4909
G1 X59.098 Y96.603 E3.4029
G1 X59.024 Y96.600 E3.4050
G1 X58.777 Y96.579 E3.4121
G1 X58.704 Y96.569 E3.4143
G1 X57.983 Y96.443 E3.4353
G1 X57.918 Y96.429 E3.4372
G1 X57.703 Y96.374 E3.4436
G1 X57.639 Y96.355 E3.4455
G1 X56.959 Y96.123 E3.4661
G1 X56.896 Y96.099 E3.4680
G1 X56.692 Y96.012 E3.4744
G1 X56.632 Y95.983 E3.4763
G1 X55.996 Y95.648 E3.4970
G1 X55.938 Y95.615 E3.4989
G1 X55.750 Y95.497 E3.5053
G1 X55.695 Y95.459 E3.5072
G1 X55.118 Y95.030 E3.5278
G1 X55.066 Y94.989 E3.5298
G1 X54.899 Y94.843 E3.5361
G1 X54.851 Y94.797 E3.5380
G1 X54.347 Y94.284 E3.5587
G1 X54.302 Y94.235 E3.5606
G1 X54.159 Y94.065 E3.5670
G1 X54.119 Y94.012 E3.5689
G1 X53.700 Y93.427 E3.5895
G1 X53.664 Y93.372 E3.5915
G1 X53.549 Y93.181 E3.5978
G1 X53.517 Y93.123 E3.5998
G1 X53.194 Y92.481 E3.6204
G1 X53.167 Y92.420 E3.6223
G1 X53.083 Y92.215 E3.6287
G1 X53.060 Y92.152 E3.6306
G1 X52.841 Y91.467 E3.6513
G1 X52.823 Y91.403 E3.6532
G1 X52.772 Y91.187 E3.6596
G1 X52.759 Y91.122 E3.6615
G1 X52.630 Y90.295 E3.6855
G1 X52.620 Y90.158 E3.6894
G1 X52.622 Y89.701 E3.7026
G1 X52.634 Y89.564 E3.7065
G1 X52.704 Y89.145 E3.7187
G1 X52.697 Y59.351 E4.5745
G1 X52.708 Y59.218 E4.5784
G1 X52.776 Y58.780 E4.5911
G1 X52.807 Y58.650 E4.5949
G1 X53.060 Y57.860 E4.6188
G1 X53.083 Y57.797 E4.6207
G1 X53.167 Y57.592 E4.6271
G1 X53.194 Y57.531 E4.6290
G1 X53.517 Y56.889 E4.6496
G1 X53.549 Y56.830 E4.6515
G1 X53.664 Y56.640 E4.6579
G1 X53.700 Y56.585 E4.6598
G1 X54.119 Y56.000 E4.6805
G1 X54.159 Y55.947 E4.6824
G1 X54.302 Y55.777 E4.6888
G1 X54.347 Y55.728 E4.6907
G1 X54.851 Y55.215 E4.7113
G1 X55.194 Y55.565 F3498
G92 E0
G1 X55.228 Y55.532 E0.0014 F672
G1 X55.381 Y55.399 E0.0072
G1 X55.418 Y55.369 E0.0086
G1 X55.980 Y54.951 E0.0287
G1 X56.019 Y54.925 E0.0300
G1 X56.191 Y54.816 E0.0359
G1 X56.232 Y54.793 E0.0372
G1 X56.852 Y54.467 E0.0573
G1 X56.895 Y54.447 E0.0587
G1 X57.081 Y54.366 E0.0645
G1 X57.126 Y54.349 E0.0659
G1 X57.788 Y54.124 E0.0860
G1 X57.834 Y54.110 E0.0874
G1 X58.030 Y54.060 E0.0932
G1 X58.077 Y54.050 E0.0946
G1 X58.777 Y53.927 E0.1150
G1 X58.830 Y53.920 E0.1165
G1 X59.055 Y53.901 E0.1230
G1 X59.108 Y53.898 E0.1245
G1 X90.243 Y53.887 E1.0189
G1 X90.251 Y53.887 E1.0191
G1 X90.282 Y53.887 E1.0200
G1 X90.290 Y53.887 E1.0202
G1 X90.900 Y53.902 E1.0377
G1 X90.945 Y53.904 E1.0390
G1 X91.139 Y53.924 E1.0446
G1 X91.185 Y53.930 E1.0460
G1 X91.870 Y54.050 E1.0659
G1 X91.917 Y54.060 E1.0673
G1 X92.113 Y54.110 E1.0731
G1 X92.159 Y54.124 E1.0745
G1 X92.821 Y54.349 E1.0946
G1 X92.866 Y54.366 E1.0960
G1 X93.052 Y54.447 E1.1018
G1 X93.095 Y54.467 E1.1032
G1 X93.715 Y54.793 E1.1233
G1 X93.756 Y54.816 E1.1246
G1 X93.928 Y54.925 E1.1305
G1 X93.967 Y54.951 E1.1318
G1 X94.529 Y55.369 E1.1519
G1 X94.566 Y55.399 E1.1533
G1 X94.719 Y55.532 E1.1591
G1 X94.753 Y55.565 E1.1605
G1 X95.244 Y56.064 E1.1806
G1 X95.276 Y56.100 E1.1820
G1 X95.406 Y56.255 E1.1878
G1 X95.435 Y56.293 E1.1892
G1 X95.843 Y56.862 E1.2093
G1 X95.869 Y56.902 E1.2107
G1 X95.974 Y57.076 E1.2165
G1 X95.997 Y57.117 E1.2179
G1 X96.311 Y57.743 E1.2380
G1 X96.330 Y57.786 E1.2393
G1 X96.407 Y57.974 E1.2451
G1 X96.423 Y58.019 E1.2465
G1 X96.642 Y58.700 E1.2671
G1 X96.656 Y58.753 E1.2687
G1 X96.707 Y58.982 E1.2754
G1 X96.717 Y59.037 E1.2770
G1 X96.873 Y60.225 E1.3114
G1 X96.877 Y60.265 E1.3126
G1 X96.888 Y60.435 E1.3174
G1 X96.889 Y60.475 E1.3186
G1 X96.889 Y89.537 E2.1534
G1 X96.888 Y89.577 E2.1545
G1 X96.877 Y89.747 E2.1594
G1 X96.873 Y89.787 E2.1606
G1 X96.717 Y90.975 E2.1950
G1 X96.707 Y91.029 E2.1966
G1 X96.656 Y91.259 E2.2033
G1 X96.642 Y91.312 E2.2049
G1 X96.423 Y91.993 E2.2255
G1 X96.407 Y92.038 E2.2268
G1 X96.330 Y92.226 E2.2327
G1 X96.311 Y92.269 E2.2340
G1 X95.997 Y92.895 E2.2541
G1 X95.974 Y92.936 E2.2555
G1 X95.869 Y93.110 E2.2613
G1 X95.843 Y93.150 E2.2627
G1 X95.435 Y93.719 E2.2828
G1 X95.406 Y93.757 E2.2842
G1 X95.276 Y93.912 E2.2900
G1 X95.244 Y93.948 E2.2914
G1 X94.753 Y94.447 E2.3115
G1 X94.719 Y94.480 E2.3129
G1 X94.566 Y94.613 E2.3187
G1 X94.529 Y94.643 E2.3200
G1 X93.967 Y95.060 E2.3402
G1 X93.928 Y95.087 E2.3415
G1 X93.756 Y95.195 E2.3474
G1 X93.715 Y95.219 E2.3487
G1 X93.095 Y95.545 E2.3688
G1 X93.052 Y95.565 E2.3702
G1 X92.866 Y95.645 E2.3760
G1 X92.821 Y95.662 E2.3774
G1 X92.159 Y95.888 E2.3975
G1 X92.113 Y95.902 E2.3989
G1 X91.917 Y95.952 E2.4047
G1 X91.870 Y95.962 E2.4061
G1 X91.169 Y96.085 E2.4265
G1 X91.117 Y96.092 E2.4280
G1 X90.891 Y96.111 E2.4345
G1 X90.838 Y96.113 E2.4360
G1 X59.109 Y96.113 E3.3474
G1 X59.056 Y96.111 E3.3490
G1 X58.830 Y96.092 E3.3555
G1 X58.778 Y96.085 E3.3570
G1 X58.077 Y95.962 E3.3774
G1 X58.030 Y95.952 E3.3788
G1 X57.834 Y95.902 E3.3846
G1 X57.788 Y95.888 E3.3860
G1 X57.126 Y95.662 E3.4061
G1 X57.081 Y95.645 E3.4075
G1 X56.895 Y95.565 E3.4133
G1 X56.852 Y95.545 E3.4147
G1 X56.232 Y95.219 E3.4348
G1 X56.191 Y95.195 E3.4361
G1 X56.019 Y95.087 E3.4420
G1 X55.980 Y95.060 E3.4433
G1 X55.418 Y94.643 E3.4634
G1 X55.381 Y94.613 E3.4648
G1 X55.228 Y94.480 E3.4706
G1 X55.194 Y94.447 E3.4720
G1 X54.703 Y93.948 E3.4921
G1 X54.671 Y93.912 E3.4935
G1 X54.541 Y93.757 E3.4993
G1 X54.512 Y93.719 E3.5007
G1 X54.105 Y93.150 E3.5208
G1 X54.078 Y93.110 E3.5221
G1 X53.973 Y92.936 E3.5280
G1 X53.950 Y92.895 E3.5293
G1 X53.636 Y92.269 E3.5494
G1 X53.617 Y92.226 E3.5508
G1 X53.540 Y92.038 E3.5566
G1 X53.524 Y91.993 E3.5580
G1 X53.310 Y91.327 E3.5781
G1 X53.297 Y91.281 E3.5795
G1 X53.251 Y91.083 E3.5853
G1 X53.242 Y91.037 E3.5867
G1 X53.117 Y90.239 E3.6099
G1 X53.110 Y90.141 E3.6127
G1 X53.112 Y89.723 E3.6247
G1 X53.120 Y89.625 E3.6275
G1 X53.194 Y89.186 E3.6403
G1 X53.187 Y59.370 E4.4967
G1 X53.195 Y59.275 E4.4995
G1 X53.257 Y58.874 E4.5111
G1 X53.279 Y58.782 E4.5139
G1 X53.524 Y58.019 E4.5369
G1 X53.540 Y57.974 E4.5382
G1 X53.617 Y57.786 E4.5441
G1 X53.636 Y57.743 E4.5454
G1 X53.950 Y57.117 E4.5655
G1 X53.973 Y57.076 E4.5669
G1 X54.078 Y56.902 E4.5727
G1 X54.105 Y56.862 E4.5741
G1 X54.512 Y56.293 E4.5942
G1 X54.541 Y56.255 E4.5956
G1 X54.671 Y56.100 E4.6014
G1 X54.703 Y56.064 E4.6028
G1 X55.194 Y55.565 E4.6229
G1 X55.537 Y55.915 F3498
G92 E0
G1 X55.557 Y55.895 E0.0008 F672
G1 X55.696 Y55.774 E0.0061
G1 X55.718 Y55.757 E0.0069
G1 X56.265 Y55.350 E0.0265
G1 X56.288 Y55.334 E0.0273
G1 X56.444 Y55.236 E0.0326
G1 X56.469 Y55.222 E0.0334
G1 X57.071 Y54.905 E0.0530
G1 X57.097 Y54.893 E0.0538
G1 X57.266 Y54.820 E0.0591
G1 X57.293 Y54.810 E0.0599
G1 X57.937 Y54.590 E0.0794
G1 X57.965 Y54.582 E0.0803
G1 X58.143 Y54.537 E0.0855
G1 X58.171 Y54.531 E0.0864
G1 X58.851 Y54.412 E0.1062
G1 X58.883 Y54.408 E0.1071
G1 X59.087 Y54.390 E0.1130
G1 X59.118 Y54.388 E0.1139
G1 X90.242 Y54.377 E1.0079
G1 X90.246 Y54.377 E1.0080
G1 X90.275 Y54.377 E1.0089
G1 X90.280 Y54.377 E1.0090
G1 X90.879 Y54.391 E1.0262
G1 X90.906 Y54.393 E1.0270
G1 X91.082 Y54.410 E1.0321
G1 X91.109 Y54.414 E1.0329
G1 X91.776 Y54.531 E1.0523
G1 X91.804 Y54.537 E1.0531
G1 X91.982 Y54.582 E1.0584
G1 X92.010 Y54.590 E1.0592
G1 X92.654 Y54.810 E1.0788
G1 X92.681 Y54.820 E1.0796
G1 X92.850 Y54.893 E1.0849
G1 X92.876 Y54.905 E1.0857
G1 X93.478 Y55.222 E1.1053
G1 X93.503 Y55.236 E1.1061
G1 X93.659 Y55.334 E1.1114
G1 X93.682 Y55.350 E1.1122
G1 X94.229 Y55.757 E1.1318
G1 X94.251 Y55.774 E1.1326
G1 X94.390 Y55.895 E1.1379
G1 X94.410 Y55.915 E1.1387
G1 X94.887 Y56.401 E1.1582
G1 X94.907 Y56.422 E1.1591
G1 X95.025 Y56.563 E1.1643
G1 X95.042 Y56.585 E1.1652
G1 X95.438 Y57.139 E1.1847
G1 X95.454 Y57.163 E1.1855
G1 X95.549 Y57.321 E1.1908
G1 X95.563 Y57.346 E1.1917
G1 X95.868 Y57.954 E1.2112
G1 X95.880 Y57.980 E1.2120
G1 X95.950 Y58.150 E1.2173
G1 X95.960 Y58.177 E1.2181
G1 X96.172 Y58.839 E1.2381
G1 X96.180 Y58.871 E1.2390
G1 X96.227 Y59.079 E1.2452
G1 X96.233 Y59.111 E1.2461
G1 X96.386 Y60.281 E1.2800
G1 X96.388 Y60.305 E1.2807
G1 X96.398 Y60.459 E1.2851
G1 X96.399 Y60.483 E1.2858
G1 X96.399 Y89.529 E2.1201
G1 X96.398 Y89.553 E2.1208
G1 X96.388 Y89.707 E2.1253
G1 X96.386 Y89.731 E2.1260
G1 X96.233 Y90.901 E2.1598
G1 X96.227 Y90.933 E2.1608
G1 X96.180 Y91.141 E2.1669
G1 X96.172 Y91.173 E2.1679
G1 X95.960 Y91.835 E2.1878
