; G-Code generated by Simplify3D(R) Version 3.0.0
; Okt 17, 2017 at 12:57:14 
; Settings Summary
;   processName,Process1
;   applyToModels,camera_back,camera_front
;   profileName,Renkforce (modified)
;   profileVersion,2017-10-17 11:10:50
;   baseProfile,German RepRap NEO (modified)
;   printMaterial,
;   printQuality,
;   printExtruders,
;   extruderName,Primary Extruder
;   extruderToolheadNumber,0
;   extruderDiameter,0.5
;   extruderAutoWidth,0
;   extruderWidth,0.49
;   extrusionMultiplier,0.94
;   extruderUseRetract,1
;   extruderRetractionDistance,6.5
;   extruderExtraRestartDistance,0
;   extruderRetractionZLift,0
;   extruderRetractionSpeed,4998
;   extruderUseCoasting,0
;   extruderCoastingDistance,0.2
;   extruderUseWipe,0
;   extruderWipeDistance,5
;   primaryExtruder,0
;   layerHeight,0.2
;   topSolidLayers,4
;   bottomSolidLayers,3
;   perimeterOutlines,3
;   printPerimetersInsideOut,1
;   startPointOption,2
;   startPointOriginX,0
;   startPointOriginY,0
;   startPointOriginZ,300
;   sequentialIslands,0
;   spiralVaseMode,0
;   firstLayerHeightPercentage,100
;   firstLayerWidthPercentage,100
;   firstLayerUnderspeed,0.28
;   useRaft,0
;   raftExtruder,0
;   raftLayers,3
;   raftOffset,3
;   raftSeparationDistance,0.1
;   raftInfill,85
;   disableRaftBaseLayers,0
;   useSkirt,1
;   skirtExtruder,0
;   skirtLayers,1
;   skirtOutlines,5
;   skirtOffset,2
;   usePrimePillar,0
;   primePillarExtruder,999
;   primePillarWidth,12
;   primePillarLocation,7
;   primePillarSpeedMultiplier,1
;   useOozeShield,0
;   oozeShieldExtruder,999
;   oozeShieldOffset,2
;   oozeShieldOutlines,1
;   oozeShieldSidewallShape,1
;   oozeShieldSidewallAngle,30
;   oozeShieldSpeedMultiplier,1
;   infillExtruder,0
;   internalInfillPattern,Full Honeycomb
;   externalInfillPattern,Rectilinear
;   infillPercentage,30
;   outlineOverlapPercentage,15
;   infillExtrusionWidthPercentage,100
;   minInfillLength,3
;   infillLayerInterval,1
;   infillAngles,0,120,-120
;   overlapInfillAngles,0
;   generateSupport,0
;   supportExtruder,0
;   supportInfillPercentage,30
;   supportExtraInflation,0
;   denseSupportLayers,0
;   denseSupportInfillPercentage,75
;   supportLayerInterval,1
;   supportHorizontalPartOffset,1.5
;   supportUpperSeparationLayers,2
;   supportLowerSeparationLayers,2
;   supportType,0
;   supportGridSpacing,4
;   maxOverhangAngle,45
;   supportAngles,45
;   temperatureName,Primary Extruder
;   temperatureNumber,0
;   temperatureSetpointCount,3
;   temperatureSetpointLayers,1,2,3
;   temperatureSetpointTemperatures,197,192,188
;   temperatureStabilizeAtStartup,1
;   temperatureHeatedBed,0
;   temperatureRelayBetweenLayers,0
;   temperatureRelayBetweenLoops,0
;   fanLayers,1,3
;   fanSpeeds,0,80
;   blipFanToFullPower,0
;   adjustSpeedForCooling,1
;   minSpeedLayerTime,15
;   minCoolingSpeedSlowdown,20
;   increaseFanForCooling,0
;   minFanLayerTime,45
;   maxCoolingFanSpeed,100
;   increaseFanForBridging,0
;   bridgingFanSpeed,100
;   use5D,1
;   relativeEdistances,0
;   allowEaxisZeroing,1
;   independentExtruderAxes,0
;   includeM10123,0
;   stickySupport,1
;   applyToolheadOffsets,0
;   gcodeXoffset,0
;   gcodeYoffset,0
;   gcodeZoffset,0
;   overrideMachineDefinition,1
;   machineTypeOverride,0
;   strokeXoverride,150
;   strokeYoverride,150
;   strokeZoverride,150
;   originOffsetXoverride,0
;   originOffsetYoverride,0
;   originOffsetZoverride,0
;   homeXdirOverride,-1
;   homeYdirOverride,-1
;   homeZdirOverride,-1
;   flipXoverride,1
;   flipYoverride,-1
;   flipZoverride,1
;   toolheadOffsets,0,0|0,0|0,0|0,0|0,0|0,0
;   overrideFirmwareConfiguration,0
;   firmwareTypeOverride,RepRap (Marlin/Repetier/Sprinter)
;   GPXconfigOverride,r2
;   baudRateOverride,115200
;   overridePrinterModels,0
;   printerModelsOverride
;   startingGcode,G28 ; home all axes
;   layerChangeGcode,
;   retractionGcode,
;   toolChangeGcode,
;   endingGcode,M104 S0 ; turn off extruder,M140 S0 ; turn off bed,G28 X0  ; home X axis,G28 Y0  ; home Y axis,M84 ; disable motors,M107
;   createX3G,0
;   celebration,0
;   celebrationSong,Random Song
;   createMB5G,0
;   postProcessing,
;   defaultSpeed,3000
;   outlineUnderspeed,0.5
;   solidInfillUnderspeed,0.8
;   supportUnderspeed,0.8
;   rapidXYspeed,3498
;   rapidZspeed,1002
;   minBridgingArea,50
;   bridgingExtraInflation,0
;   bridgingExtrusionMultiplier,1
;   bridgingSpeedMultiplier,1
;   filamentDiameter,1.75
;   filamentPricePerKg,46
;   filamentDensity,1.25
;   useMinPrintHeight,0
;   minPrintHeight,0
;   useMaxPrintHeight,0
;   maxPrintHeight,0
;   useDiaphragm,0
;   diaphragmLayerInterval,20
;   robustSlicing,1
;   mergeAllIntoSolid,0
;   onlyRetractWhenCrossingOutline,1
;   retractBetweenLayers,1
;   useRetractionMinTravel,0
;   retractionMinTravel,3
;   retractWhileWiping,0
;   onlyWipeOutlines,1
;   avoidCrossingOutline,0
;   maxMovementDetourFactor,10
;   toolChangeRetractionDistance,0
;   toolChangeExtraRestartDistance,0
;   toolChangeRetractionSpeed,360
;   allowThinWallGapFill,1
;   thinWallAllowedOverlapPercentage,10
;   horizontalSizeCompensation,0
G90
M82
M106 S0
M104 S197 T0
M109 S197 T0
G28 ; home all axes
G92 E0
G1 E-6.5000 F4998
G1 Z0.200 F1002
; layer 1, Z = 0.2
T0
; tool H0.200 W0.490
; skirt
G1 X5.400 Y4.565 F3498
G1 E0.0000 F1499
G92 E0
G1 X5.457 Y4.501 E0.0033 F840
G1 X5.974 Y3.975 E0.0315
G1 X6.036 Y3.916 E0.0348
G1 X6.218 Y3.757 E0.0441
G1 X6.285 Y3.704 E0.0473
G1 X6.877 Y3.264 E0.0756
G1 X6.948 Y3.215 E0.0789
G1 X7.152 Y3.087 E0.0881
G1 X7.226 Y3.044 E0.0914
G1 X7.879 Y2.701 E0.1197
G1 X7.957 Y2.664 E0.1229
G1 X8.178 Y2.569 E0.1322
G1 X8.258 Y2.538 E0.1355
G1 X8.957 Y2.300 E0.1637
G1 X9.039 Y2.275 E0.1670
G1 X9.272 Y2.215 E0.1762
G1 X9.356 Y2.197 E0.1795
G1 X10.093 Y2.069 E0.2082
G1 X10.185 Y2.056 E0.2117
G1 X10.446 Y2.033 E0.2218
G1 X10.539 Y2.029 E0.2253
G1 X11.158 Y2.026 E0.2490
G1 X11.165 Y2.026 E0.2493
G1 X11.170 Y2.026 E0.2495
G1 X42.326 Y2.028 E1.4427
G1 X42.422 Y2.032 E1.4464
G1 X42.689 Y2.056 E1.4567
G1 X42.784 Y2.068 E1.4603
G1 X43.524 Y2.197 E1.4891
G1 X43.608 Y2.215 E1.4924
G1 X43.841 Y2.275 E1.5016
G1 X43.924 Y2.300 E1.5049
G1 X44.622 Y2.538 E1.5332
G1 X44.702 Y2.569 E1.5365
G1 X44.923 Y2.664 E1.5457
G1 X45.001 Y2.701 E1.5490
G1 X45.654 Y3.044 E1.5772
G1 X45.728 Y3.087 E1.5805
G1 X45.932 Y3.215 E1.5898
G1 X46.003 Y3.264 E1.5930
G1 X46.595 Y3.704 E1.6213
G1 X46.662 Y3.757 E1.6246
G1 X46.844 Y3.916 E1.6338
G1 X46.906 Y3.975 E1.6371
G1 X47.423 Y4.501 E1.6654
G1 X47.481 Y4.565 E1.6686
G1 X47.636 Y4.749 E1.6779
G1 X47.688 Y4.817 E1.6811
G1 X48.117 Y5.417 E1.7094
G1 X48.164 Y5.489 E1.7127
G1 X48.289 Y5.695 E1.7219
G1 X48.330 Y5.770 E1.7252
G1 X48.662 Y6.430 E1.7535
G1 X48.697 Y6.508 E1.7567
G1 X48.788 Y6.731 E1.7660
G1 X48.817 Y6.811 E1.7693
G1 X49.042 Y7.511 E1.7974
G1 X49.064 Y7.592 E1.8006
G1 X49.119 Y7.821 E1.8096
G1 X49.135 Y7.903 E1.8128
G1 X49.251 Y8.631 E1.8411
G1 X49.262 Y8.718 E1.8444
G1 X49.281 Y8.963 E1.8538
G1 X49.285 Y9.050 E1.8572
G1 X49.283 Y39.179 E3.0111
G1 X49.279 Y39.264 E3.0144
G1 X49.261 Y39.503 E3.0235
G1 X49.251 Y39.588 E3.0268
G1 X49.137 Y40.316 E3.0550
G1 X49.121 Y40.400 E3.0583
G1 X49.065 Y40.635 E3.0676
G1 X49.042 Y40.718 E3.0708
G1 X48.817 Y41.420 E3.0991
G1 X48.788 Y41.501 E3.1024
G1 X48.697 Y41.724 E3.1116
G1 X48.662 Y41.802 E3.1149
G1 X48.330 Y42.461 E3.1431
G1 X48.289 Y42.536 E3.1464
G1 X48.164 Y42.743 E3.1557
G1 X48.117 Y42.814 E3.1589
G1 X47.688 Y43.415 E3.1872
G1 X47.636 Y43.482 E3.1905
G1 X47.481 Y43.667 E3.1997
G1 X47.423 Y43.730 E3.2030
G1 X46.906 Y44.257 E3.2313
G1 X46.844 Y44.316 E3.2345
G1 X46.662 Y44.474 E3.2438
G1 X46.616 Y44.511 E3.2460
G1 X46.662 Y44.548 E3.2483
G1 X46.844 Y44.706 E3.2575
G1 X46.906 Y44.765 E3.2608
G1 X47.423 Y45.292 E3.2891
G1 X47.481 Y45.355 E3.2923
G1 X47.636 Y45.540 E3.3016
G1 X47.688 Y45.608 E3.3049
G1 X48.117 Y46.208 E3.3331
G1 X48.164 Y46.279 E3.3364
G1 X48.289 Y46.486 E3.3456
G1 X48.330 Y46.561 E3.3489
G1 X48.662 Y47.220 E3.3772
G1 X48.697 Y47.298 E3.3805
G1 X48.788 Y47.521 E3.3897
G1 X48.817 Y47.602 E3.3930
G1 X49.048 Y48.323 E3.4220
G1 X49.074 Y48.418 E3.4257
G1 X49.135 Y48.690 E3.4364
G1 X49.152 Y48.788 E3.4402
G1 X49.313 Y50.014 E3.4876
G1 X49.320 Y50.085 E3.4903
G1 X49.333 Y50.287 E3.4981
G1 X49.336 Y50.359 E3.5008
G1 X49.336 Y79.454 E4.6151
G1 X49.333 Y79.525 E4.6179
G1 X49.320 Y79.727 E4.6256
G1 X49.313 Y79.799 E4.6284
G1 X49.152 Y81.025 E4.6757
G1 X49.135 Y81.122 E4.6795
G1 X49.074 Y81.395 E4.6902
G1 X49.048 Y81.490 E4.6940
G1 X48.817 Y82.211 E4.7230
G1 X48.788 Y82.291 E4.7263
G1 X48.697 Y82.514 E4.7355
G1 X48.662 Y82.592 E4.7388
G1 X48.330 Y83.252 E4.7670
G1 X48.289 Y83.327 E4.7703
G1 X48.164 Y83.533 E4.7796
G1 X48.117 Y83.605 E4.7828
G1 X47.688 Y84.205 E4.8111
G1 X47.636 Y84.273 E4.8144
G1 X47.481 Y84.457 E4.8236
G1 X47.423 Y84.521 E4.8269
G1 X46.906 Y85.047 E4.8552
G1 X46.844 Y85.106 E4.8584
G1 X46.662 Y85.265 E4.8677
G1 X46.595 Y85.318 E4.8710
G1 X46.003 Y85.759 E4.8992
G1 X45.932 Y85.807 E4.9025
G1 X45.728 Y85.935 E4.9117
G1 X45.654 Y85.978 E4.9150
G1 X45.001 Y86.321 E4.9433
G1 X44.923 Y86.358 E4.9466
G1 X44.702 Y86.454 E4.9558
G1 X44.622 Y86.484 E4.9591
G1 X43.924 Y86.722 E4.9873
G1 X43.841 Y86.747 E4.9906
G1 X43.608 Y86.807 E4.9998
G1 X43.524 Y86.825 E5.0031
G1 X42.802 Y86.951 E5.0312
G1 X42.721 Y86.962 E5.0344
G1 X42.490 Y86.985 E5.0432
G1 X42.408 Y86.990 E5.0464
G1 X41.777 Y87.005 E5.0706
G1 X41.763 Y87.005 E5.0711
G1 X41.725 Y87.006 E5.0725
G1 X41.712 Y87.006 E5.0730
G1 X10.553 Y86.994 E6.2664
G1 X10.457 Y86.990 E6.2701
G1 X10.190 Y86.966 E6.2803
G1 X10.096 Y86.954 E6.2840
G1 X9.356 Y86.825 E6.3127
G1 X9.272 Y86.807 E6.3160
G1 X9.039 Y86.747 E6.3253
G1 X8.957 Y86.722 E6.3285
G1 X8.258 Y86.484 E6.3568
G1 X8.178 Y86.454 E6.3601
G1 X7.957 Y86.358 E6.3693
G1 X7.879 Y86.321 E6.3726
G1 X7.226 Y85.978 E6.4009
G1 X7.152 Y85.935 E6.4041
G1 X6.948 Y85.807 E6.4134
G1 X6.877 Y85.759 E6.4167
G1 X6.285 Y85.318 E6.4449
G1 X6.218 Y85.265 E6.4482
G1 X6.036 Y85.106 E6.4574
G1 X5.974 Y85.047 E6.4607
G1 X5.457 Y84.521 E6.4890
G1 X5.400 Y84.457 E6.4923
G1 X5.245 Y84.273 E6.5015
G1 X5.192 Y84.205 E6.5048
G1 X4.763 Y83.605 E6.5330
G1 X4.716 Y83.533 E6.5363
G1 X4.591 Y83.327 E6.5455
G1 X4.550 Y83.252 E6.5488
G1 X4.219 Y82.592 E6.5771
G1 X4.183 Y82.514 E6.5804
G1 X4.092 Y82.291 E6.5896
G1 X4.063 Y82.211 E6.5929
G1 X3.801 Y81.393 E6.6258
G1 X3.761 Y81.227 E6.6323
G1 X3.687 Y80.751 E6.6508
G1 X3.674 Y80.580 E6.6573
G1 X3.680 Y50.808 E7.7976
G1 X3.614 Y50.410 E7.8130
G1 X3.599 Y50.234 E7.8198
G1 X3.596 Y49.737 E7.8388
G1 X3.609 Y49.561 E7.8456
G1 X3.743 Y48.706 E7.8787
G1 X3.759 Y48.622 E7.8820
G1 X3.815 Y48.387 E7.8912
G1 X3.838 Y48.305 E7.8945
G1 X4.063 Y47.602 E7.9228
G1 X4.092 Y47.521 E7.9261
G1 X4.183 Y47.298 E7.9353
G1 X4.219 Y47.220 E7.9386
G1 X4.550 Y46.561 E7.9668
G1 X4.591 Y46.486 E7.9701
G1 X4.716 Y46.279 E7.9794
G1 X4.763 Y46.208 E7.9826
G1 X5.192 Y45.608 E8.0109
G1 X5.245 Y45.540 E8.0142
G1 X5.400 Y45.355 E8.0234
G1 X5.457 Y45.292 E8.0267
G1 X5.974 Y44.765 E8.0549
G1 X6.036 Y44.706 E8.0582
G1 X6.218 Y44.548 E8.0675
G1 X6.264 Y44.511 E8.0697
G1 X6.218 Y44.474 E8.0720
G1 X6.036 Y44.316 E8.0812
G1 X5.974 Y44.257 E8.0845
G1 X5.457 Y43.730 E8.1127
G1 X5.400 Y43.667 E8.1160
G1 X5.245 Y43.482 E8.1253
G1 X5.192 Y43.415 E8.1285
G1 X4.763 Y42.814 E8.1568
G1 X4.716 Y42.743 E8.1601
G1 X4.591 Y42.536 E8.1693
G1 X4.550 Y42.461 E8.1726
G1 X4.219 Y41.802 E8.2009
G1 X4.183 Y41.724 E8.2041
G1 X4.092 Y41.501 E8.2134
G1 X4.063 Y41.420 E8.2167
G1 X3.838 Y40.718 E8.2449
G1 X3.815 Y40.635 E8.2482
G1 X3.759 Y40.400 E8.2574
G1 X3.743 Y40.316 E8.2607
G1 X3.618 Y39.518 E8.2916
G1 X3.606 Y39.384 E8.2968
G1 X3.594 Y39.003 E8.3114
G1 X3.597 Y38.868 E8.3166
G1 X3.643 Y38.371 E8.3357
G1 X3.643 Y9.123 E9.4559
G1 X3.643 Y9.088 E9.4572
G1 X3.646 Y8.989 E9.4610
G1 X3.648 Y8.954 E9.4623
G1 X3.695 Y8.223 E9.4904
G1 X3.712 Y8.089 E9.4956
G1 X3.783 Y7.713 E9.5102
G1 X3.816 Y7.581 E9.5154
G1 X4.063 Y6.811 E9.5464
G1 X4.092 Y6.731 E9.5497
G1 X4.183 Y6.508 E9.5589
G1 X4.219 Y6.430 E9.5622
G1 X4.550 Y5.770 E9.5905
G1 X4.591 Y5.695 E9.5937
G1 X4.716 Y5.489 E9.6030
G1 X4.763 Y5.417 E9.6062
G1 X5.192 Y4.817 E9.6345
G1 X5.245 Y4.749 E9.6378
G1 X5.400 Y4.565 E9.6470
G1 X5.769 Y4.887 F3498
G92 E0
G1 X5.814 Y4.838 E0.0026 F840
G1 X6.317 Y4.325 E0.0301
G1 X6.366 Y4.279 E0.0326
G1 X6.533 Y4.133 E0.0411
G1 X6.585 Y4.091 E0.0437
G1 X7.162 Y3.662 E0.0712
G1 X7.217 Y3.625 E0.0738
G1 X7.405 Y3.507 E0.0823
G1 X7.463 Y3.473 E0.0848
G1 X8.099 Y3.139 E0.1124
G1 X8.159 Y3.110 E0.1149
G1 X8.363 Y3.022 E0.1234
G1 X8.425 Y2.999 E0.1260
G1 X9.106 Y2.767 E0.1535
G1 X9.169 Y2.748 E0.1561
G1 X9.385 Y2.693 E0.1646
G1 X9.450 Y2.679 E0.1671
G1 X10.167 Y2.553 E0.1950
G1 X10.239 Y2.544 E0.1978
G1 X10.479 Y2.522 E0.2070
G1 X10.552 Y2.519 E0.2098
G1 X11.160 Y2.516 E0.2331
G1 X11.167 Y2.516 E0.2334
G1 X11.171 Y2.516 E0.2335
G1 X42.316 Y2.518 E1.4263
G1 X42.390 Y2.522 E1.4292
G1 X42.636 Y2.543 E1.4386
G1 X42.710 Y2.553 E1.4415
G1 X43.430 Y2.679 E1.4695
G1 X43.495 Y2.693 E1.4721
G1 X43.711 Y2.748 E1.4806
G1 X43.774 Y2.767 E1.4831
G1 X44.455 Y2.999 E1.5106
G1 X44.517 Y3.022 E1.5132
G1 X44.721 Y3.110 E1.5217
G1 X44.781 Y3.139 E1.5243
G1 X45.418 Y3.473 E1.5518
G1 X45.475 Y3.507 E1.5543
G1 X45.663 Y3.625 E1.5628
G1 X45.718 Y3.662 E1.5654
G1 X46.295 Y4.091 E1.5929
G1 X46.347 Y4.133 E1.5955
G1 X46.514 Y4.279 E1.6040
G1 X46.563 Y4.325 E1.6065
G1 X47.067 Y4.838 E1.6341
G1 X47.111 Y4.887 E1.6366
G1 X47.254 Y5.057 E1.6451
G1 X47.295 Y5.110 E1.6477
G1 X47.713 Y5.695 E1.6752
G1 X47.750 Y5.750 E1.6778
G1 X47.865 Y5.940 E1.6863
G1 X47.897 Y5.999 E1.6888
G1 X48.219 Y6.641 E1.7163
G1 X48.247 Y6.702 E1.7189
G1 X48.331 Y6.907 E1.7274
G1 X48.354 Y6.970 E1.7300
G1 X48.572 Y7.652 E1.7574
G1 X48.590 Y7.715 E1.7599
G1 X48.640 Y7.925 E1.7682
G1 X48.653 Y7.989 E1.7707
G1 X48.766 Y8.699 E1.7982
G1 X48.774 Y8.766 E1.8008
G1 X48.792 Y8.992 E1.8095
G1 X48.795 Y9.060 E1.8121
G1 X48.793 Y39.170 E2.9652
G1 X48.790 Y39.236 E2.9678
G1 X48.773 Y39.456 E2.9762
G1 X48.765 Y39.522 E2.9788
G1 X48.655 Y40.231 E3.0063
G1 X48.642 Y40.297 E3.0088
G1 X48.591 Y40.513 E3.0173
G1 X48.573 Y40.577 E3.0199
G1 X48.354 Y41.262 E3.0474
G1 X48.331 Y41.324 E3.0500
G1 X48.247 Y41.530 E3.0585
G1 X48.219 Y41.591 E3.0610
G1 X47.897 Y42.233 E3.0886
G1 X47.865 Y42.291 E3.0911
G1 X47.750 Y42.481 E3.0996
G1 X47.713 Y42.537 E3.1022
G1 X47.295 Y43.122 E3.1297
G1 X47.254 Y43.175 E3.1323
G1 X47.111 Y43.345 E3.1408
G1 X47.067 Y43.394 E3.1433
G1 X46.563 Y43.907 E3.1708
G1 X46.514 Y43.953 E3.1734
G1 X46.347 Y44.099 E3.1819
G1 X46.295 Y44.140 E3.1845
G1 X45.796 Y44.511 E3.2083
G1 X46.295 Y44.882 E3.2320
G1 X46.347 Y44.924 E3.2346
G1 X46.514 Y45.070 E3.2431
G1 X46.563 Y45.115 E3.2457
G1 X47.067 Y45.628 E3.2732
G1 X47.111 Y45.678 E3.2757
G1 X47.254 Y45.848 E3.2843
G1 X47.295 Y45.900 E3.2868
G1 X47.713 Y46.485 E3.3143
G1 X47.750 Y46.541 E3.3169
G1 X47.865 Y46.731 E3.3254
G1 X47.897 Y46.789 E3.3279
G1 X48.219 Y47.432 E3.3555
G1 X48.247 Y47.492 E3.3580
G1 X48.331 Y47.698 E3.3665
G1 X48.354 Y47.760 E3.3691
G1 X48.578 Y48.462 E3.3973
G1 X48.598 Y48.536 E3.4002
G1 X48.655 Y48.787 E3.4101
G1 X48.668 Y48.862 E3.4130
G1 X48.826 Y50.070 E3.4596
G1 X48.832 Y50.125 E3.4618
G1 X48.844 Y50.311 E3.4689
G1 X48.846 Y50.367 E3.4711
G1 X48.846 Y79.446 E4.5847
G1 X48.844 Y79.502 E4.5869
G1 X48.832 Y79.687 E4.5940
G1 X48.826 Y79.743 E4.5962
G1 X48.668 Y80.950 E4.6428
G1 X48.655 Y81.026 E4.6457
G1 X48.598 Y81.277 E4.6556
G1 X48.578 Y81.351 E4.6585
G1 X48.354 Y82.052 E4.6867
G1 X48.331 Y82.115 E4.6893
G1 X48.247 Y82.320 E4.6978
G1 X48.219 Y82.381 E4.7003
G1 X47.897 Y83.023 E4.7279
G1 X47.865 Y83.082 E4.7304
G1 X47.750 Y83.272 E4.7389
G1 X47.713 Y83.328 E4.7415
G1 X47.295 Y83.912 E4.7690
G1 X47.254 Y83.965 E4.7716
G1 X47.111 Y84.135 E4.7801
G1 X47.067 Y84.184 E4.7826
G1 X46.563 Y84.697 E4.8102
G1 X46.515 Y84.743 E4.8127
G1 X46.347 Y84.889 E4.8212
G1 X46.295 Y84.931 E4.8238
G1 X45.718 Y85.360 E4.8513
G1 X45.663 Y85.397 E4.8538
G1 X45.475 Y85.516 E4.8623
G1 X45.418 Y85.549 E4.8649
G1 X44.781 Y85.883 E4.8924
G1 X44.721 Y85.912 E4.8950
G1 X44.517 Y86.000 E4.9035
G1 X44.455 Y86.024 E4.9060
G1 X43.774 Y86.256 E4.9336
