; G-Code generated by Simplify3D(R) Version 3.0.0
; Mrz 30, 2018 at 3:12:06 
; Settings Summary
;   processName,Process1
;   applyToModels,board_vbohr
;   profileName,Renkforce (modified)
;   profileVersion,2017-10-17 11:10:50
;   baseProfile,German RepRap NEO (modified)
;   printMaterial,
;   printQuality,
;   printExtruders,
;   extruderName,Primary Extruder
;   extruderToolheadNumber,0
;   extruderDiameter,0.5
;   extruderAutoWidth,0
;   extruderWidth,0.49
;   extrusionMultiplier,0.94
;   extruderUseRetract,1
;   extruderRetractionDistance,6.5
;   extruderExtraRestartDistance,0
;   extruderRetractionZLift,0
;   extruderRetractionSpeed,4998
;   extruderUseCoasting,0
;   extruderCoastingDistance,0.2
;   extruderUseWipe,0
;   extruderWipeDistance,5
;   primaryExtruder,0
;   layerHeight,0.25
;   topSolidLayers,4
;   bottomSolidLayers,3
;   perimeterOutlines,3
;   printPerimetersInsideOut,1
;   startPointOption,2
;   startPointOriginX,0
;   startPointOriginY,0
;   startPointOriginZ,300
;   sequentialIslands,0
;   spiralVaseMode,0
;   firstLayerHeightPercentage,80
;   firstLayerWidthPercentage,100
;   firstLayerUnderspeed,0.28
;   useRaft,0
;   raftExtruder,0
;   raftLayers,3
;   raftOffset,3
;   raftSeparationDistance,0.1
;   raftInfill,85
;   disableRaftBaseLayers,0
;   useSkirt,1
;   skirtExtruder,0
;   skirtLayers,1
;   skirtOutlines,6
;   skirtOffset,0
;   usePrimePillar,0
;   primePillarExtruder,999
;   primePillarWidth,12
;   primePillarLocation,7
;   primePillarSpeedMultiplier,1
;   useOozeShield,0
;   oozeShieldExtruder,999
;   oozeShieldOffset,2
;   oozeShieldOutlines,1
;   oozeShieldSidewallShape,1
;   oozeShieldSidewallAngle,30
;   oozeShieldSpeedMultiplier,1
;   infillExtruder,0
;   internalInfillPattern,Full Honeycomb
;   externalInfillPattern,Rectilinear
;   infillPercentage,15
;   outlineOverlapPercentage,15
;   infillExtrusionWidthPercentage,100
;   minInfillLength,3
;   infillLayerInterval,1
;   infillAngles,0,120,-120
;   overlapInfillAngles,0
;   generateSupport,1
;   supportExtruder,0
;   supportInfillPercentage,30
;   supportExtraInflation,1
;   denseSupportLayers,0
;   denseSupportInfillPercentage,75
;   supportLayerInterval,1
;   supportHorizontalPartOffset,1.5
;   supportUpperSeparationLayers,1
;   supportLowerSeparationLayers,1
;   supportType,0
;   supportGridSpacing,5
;   maxOverhangAngle,45
;   supportAngles,45
;   temperatureName,Primary Extruder
;   temperatureNumber,0
;   temperatureSetpointCount,3
;   temperatureSetpointLayers,1,2,3
;   temperatureSetpointTemperatures,197,193,189
;   temperatureStabilizeAtStartup,1
;   temperatureHeatedBed,0
;   temperatureRelayBetweenLayers,0
;   temperatureRelayBetweenLoops,0
;   fanLayers,1,3
;   fanSpeeds,0,80
;   blipFanToFullPower,0
;   adjustSpeedForCooling,1
;   minSpeedLayerTime,15
;   minCoolingSpeedSlowdown,20
;   increaseFanForCooling,0
;   minFanLayerTime,45
;   maxCoolingFanSpeed,100
;   increaseFanForBridging,0
;   bridgingFanSpeed,100
;   use5D,1
;   relativeEdistances,0
;   allowEaxisZeroing,1
;   independentExtruderAxes,0
;   includeM10123,0
;   stickySupport,1
;   applyToolheadOffsets,0
;   gcodeXoffset,0
;   gcodeYoffset,0
;   gcodeZoffset,0
;   overrideMachineDefinition,1
;   machineTypeOverride,0
;   strokeXoverride,150
;   strokeYoverride,150
;   strokeZoverride,150
;   originOffsetXoverride,0
;   originOffsetYoverride,0
;   originOffsetZoverride,0
;   homeXdirOverride,-1
;   homeYdirOverride,-1
;   homeZdirOverride,-1
;   flipXoverride,1
;   flipYoverride,-1
;   flipZoverride,1
;   toolheadOffsets,0,0|0,0|0,0|0,0|0,0|0,0
;   overrideFirmwareConfiguration,0
;   firmwareTypeOverride,RepRap (Marlin/Repetier/Sprinter)
;   GPXconfigOverride,r2
;   baudRateOverride,115200
;   overridePrinterModels,0
;   printerModelsOverride
;   startingGcode,G28 ; home all axes
;   layerChangeGcode,
;   retractionGcode,
;   toolChangeGcode,
;   endingGcode,M104 S0 ; turn off extruder,M140 S0 ; turn off bed,G28 X0  ; home X axis,G28 Y0  ; home Y axis,M84 ; disable motors,M107
;   createX3G,0
;   celebration,0
;   celebrationSong,Random Song
;   createMB5G,0
;   postProcessing,
;   defaultSpeed,2400
;   outlineUnderspeed,0.5
;   solidInfillUnderspeed,0.8
;   supportUnderspeed,0.8
;   rapidXYspeed,3498
;   rapidZspeed,1002
;   minBridgingArea,50
;   bridgingExtraInflation,0
;   bridgingExtrusionMultiplier,1
;   bridgingSpeedMultiplier,1
;   filamentDiameter,1.75
;   filamentPricePerKg,46
;   filamentDensity,1.25
;   useMinPrintHeight,0
;   minPrintHeight,0
;   useMaxPrintHeight,0
;   maxPrintHeight,0
;   useDiaphragm,0
;   diaphragmLayerInterval,20
;   robustSlicing,1
;   mergeAllIntoSolid,0
;   onlyRetractWhenCrossingOutline,1
;   retractBetweenLayers,1
;   useRetractionMinTravel,0
;   retractionMinTravel,3
;   retractWhileWiping,0
;   onlyWipeOutlines,1
;   avoidCrossingOutline,0
;   maxMovementDetourFactor,10
;   toolChangeRetractionDistance,0
;   toolChangeExtraRestartDistance,0
;   toolChangeRetractionSpeed,360
;   allowThinWallGapFill,1
;   thinWallAllowedOverlapPercentage,10
;   horizontalSizeCompensation,0
G90
M82
M106 S0
M104 S197 T0
M109 S197 T0
G28 ; home all axes
G92 E0
G1 E-6.5000 F4998
G1 Z0.200 F1002
; layer 1, Z = 0.2
T0
; tool H0.250 W0.490
; skirt
G1 X38.391 Y8.621 F3498
G1 E0.0000 F1499
G92 E0
G1 X39.970 Y7.042 E0.1069 F672
G1 X80.588 Y7.042 E2.0514
G1 X82.167 Y8.621 E2.1583
G1 X82.167 Y40.854 E3.7014
G1 X80.588 Y42.432 E3.8083
G1 X39.970 Y42.432 E5.7528
G1 X38.392 Y40.854 E5.8597
G1 X38.392 Y8.621 E7.4028
G1 X38.882 Y8.824 F3498
G92 E0
G1 X40.173 Y7.532 E0.0875 F672
G1 X80.385 Y7.532 E2.0126
G1 X81.677 Y8.824 E2.1000
G1 X81.677 Y40.651 E3.6237
G1 X80.385 Y41.942 E3.7111
G1 X40.173 Y41.942 E5.6362
G1 X38.882 Y40.651 E5.7237
G1 X38.882 Y8.824 E7.2473
G1 X39.371 Y9.027 F3498
G92 E0
G1 X40.376 Y8.022 E0.0680 F672
G1 X80.182 Y8.022 E1.9737
G1 X81.187 Y9.027 E2.0417
G1 X81.187 Y40.448 E3.5459
G1 X80.182 Y41.452 E3.6139
G1 X40.376 Y41.452 E5.5196
G1 X39.371 Y40.448 E5.5876
G1 X39.371 Y9.027 E7.0919
G1 X39.861 Y9.230 F3498
G92 E0
G1 X40.579 Y8.512 E0.0486 F672
G1 X79.979 Y8.512 E1.9348
G1 X80.697 Y9.230 E1.9834
G1 X80.697 Y40.245 E3.4682
G1 X79.979 Y40.962 E3.5168
G1 X40.579 Y40.962 E5.4030
G1 X39.861 Y40.245 E5.4516
G1 X39.861 Y9.230 E6.9364
G1 X40.352 Y9.433 F3498
G92 E0
G1 X40.782 Y9.002 E0.0291 F672
G1 X79.776 Y9.002 E1.8960
G1 X80.207 Y9.433 E1.9251
G1 X80.207 Y40.042 E3.3905
G1 X79.776 Y40.472 E3.4196
G1 X40.782 Y40.472 E5.2864
G1 X40.352 Y40.042 E5.3156
G1 X40.352 Y9.433 E6.7809
G1 X40.841 Y9.636 F3498
G92 E0
G1 X40.985 Y9.492 E0.0097 F672
G1 X79.573 Y9.492 E1.8571
G1 X79.717 Y9.636 E1.8668
G1 X79.717 Y39.839 E3.3127
G1 X79.573 Y39.982 E3.3224
G1 X40.985 Y39.982 E5.1698
G1 X40.842 Y39.839 E5.1795
G1 X40.842 Y9.636 E6.6255
G92 E0
G1 E-6.5000 F4998
; inner perimeter
G1 X42.312 Y10.962 F3498
G1 E0.0000 F4998
G92 E0
G1 X56.472 Y10.962 E0.6779 F560
G1 X56.522 Y11.297 E0.6941
G1 X55.557 Y11.590 E0.7424
G1 X53.096 Y12.905 E0.8760
G1 X50.940 Y14.675 E1.0095
G1 X49.170 Y16.831 E1.1431
G1 X47.855 Y19.292 E1.2766
G1 X47.045 Y21.962 E1.4102
G1 X46.773 Y24.750 E1.5444
G1 X47.045 Y27.514 E1.6773
G1 X47.857 Y30.188 E1.8111
G1 X49.170 Y32.644 E1.9444
G1 X50.940 Y34.800 E2.0780
G1 X53.096 Y36.570 E2.2115
G1 X55.557 Y37.885 E2.3451
G1 X56.522 Y38.178 E2.3934
G1 X56.472 Y38.512 E2.4096
G1 X42.312 Y38.512 E3.0875
G1 X42.312 Y10.962 E4.4064
G1 X65.483 Y11.297 F3498
G92 E0
G1 X65.533 Y10.962 E0.0162 F560
G1 X78.247 Y10.962 E0.6249
G1 X78.247 Y38.512 E1.9438
G1 X65.533 Y38.512 E2.5525
G1 X65.483 Y38.178 E2.5686
G1 X66.449 Y37.885 E2.6169
G1 X68.909 Y36.570 E2.7505
G1 X71.065 Y34.800 E2.8841
G1 X72.835 Y32.644 E3.0176
G1 X74.150 Y30.183 E3.1512
G1 X74.960 Y27.513 E3.2847
G1 X75.232 Y24.725 E3.4189
G1 X74.960 Y21.961 E3.5518
G1 X74.150 Y19.292 E3.6854
G1 X72.835 Y16.831 E3.8189
G1 X71.065 Y14.675 E3.9525
G1 X68.909 Y12.905 E4.0860
G1 X66.449 Y11.590 E4.2196
G1 X65.483 Y11.297 E4.2679
; inner perimeter
G1 X41.821 Y10.472 F3498
G92 E0
G1 X78.737 Y10.472 E1.7673 F448
G1 X78.737 Y39.002 E3.1331
G1 X41.822 Y39.002 E4.9004
G1 X41.822 Y10.472 E6.2662
; outer perimeter
G1 X41.332 Y9.982 F3498
G92 E0
G1 X79.227 Y9.982 E1.8142 F336
G1 X79.227 Y39.492 E3.2269
G1 X41.331 Y39.492 E5.0411
G1 X41.331 Y9.982 E6.4539
; inner perimeter
; inner perimeter
G1 X49.579 Y17.105 F3498
G92 E0
G1 X48.310 Y19.480 E0.1289 F448
G1 X47.528 Y22.058 E0.2579
G1 X47.265 Y24.750 E0.3874
G1 X47.528 Y27.418 E0.5157
G1 X48.312 Y29.999 E0.6449
G1 X49.579 Y32.370 E0.7736
G1 X51.288 Y34.452 E0.9025
G1 X53.370 Y36.161 E1.0315
G1 X55.745 Y37.430 E1.1604
G1 X58.323 Y38.212 E1.2893
G1 X61.008 Y38.475 E1.4185
G1 X63.683 Y38.212 E1.5472
G1 X66.260 Y37.430 E1.6761
G1 X68.635 Y36.161 E1.8051
G1 X70.717 Y34.452 E1.9340
G1 X72.426 Y32.370 E2.0629
G1 X73.695 Y29.995 E2.1919
G1 X74.477 Y27.417 E2.3208
G1 X74.740 Y24.725 E2.4503
G1 X74.477 Y22.057 E2.5787
G1 X73.695 Y19.480 E2.7076
G1 X72.426 Y17.105 E2.8365
G1 X70.717 Y15.023 E2.9655
G1 X68.635 Y13.314 E3.0944
G1 X66.260 Y12.045 E3.2233
G1 X63.683 Y11.263 E3.3523
G1 X60.997 Y10.999 E3.4815
G1 X58.322 Y11.263 E3.6101
G1 X55.745 Y12.045 E3.7391
G1 X53.370 Y13.314 E3.8680
G1 X51.288 Y15.023 E3.9970
G1 X49.579 Y17.105 E4.1259
; outer perimeter
G1 X49.989 Y17.378 F3498
G92 E0
G1 X48.765 Y19.668 E0.1243 F336
G1 X48.011 Y22.153 E0.2486
G1 X47.758 Y24.750 E0.3735
G1 X48.011 Y27.322 E0.4972
G1 X48.767 Y29.811 E0.6218
G1 X49.989 Y32.097 E0.7459
G1 X51.636 Y34.104 E0.8702
G1 X53.643 Y35.751 E0.9945
G1 X55.934 Y36.975 E1.1188
G1 X58.418 Y37.729 E1.2431
G1 X61.008 Y37.983 E1.3677
G1 X63.587 Y37.729 E1.4918
G1 X66.072 Y36.975 E1.6161
G1 X68.362 Y35.751 E1.7404
G1 X70.369 Y34.104 E1.8647
G1 X72.016 Y32.097 E1.9890
G1 X73.240 Y29.807 E2.1133
G1 X73.994 Y27.322 E2.2376
G1 X74.248 Y24.725 E2.3625
G1 X73.994 Y22.153 E2.4863
G1 X73.240 Y19.668 E2.6106
G1 X72.016 Y17.378 E2.7349
G1 X70.369 Y15.371 E2.8592
G1 X68.362 Y13.724 E2.9835
G1 X66.072 Y12.500 E3.1078
G1 X63.587 Y11.746 E3.2321
G1 X60.997 Y11.492 E3.3567
G1 X58.418 Y11.746 E3.4808
G1 X55.934 Y12.500 E3.6051
G1 X53.643 Y13.724 E3.7294
G1 X51.636 Y15.371 E3.8537
G1 X49.989 Y17.378 E3.9780
G92 E0
G1 E-6.5000 F4998
; gap fill
G1 X57.232 Y11.153 F3498
G1 E0.0000 F4998
G92 E0
G1 X57.492 Y10.894 E0.0176 F672
G1 X64.304 Y11.011 F3498
G92 E0
G1 X64.421 Y10.894 E0.0079 F672
G1 X65.114 Y10.894 E0.0411
G1 X64.836 Y11.172 E0.0600
G92 E0
G1 E-6.5000 F4998
G1 X64.686 Y38.348 F3498
G1 E0.0000 F4998
G92 E0
G1 X64.453 Y38.581 E0.0158 F672
G1 X57.523 Y38.581 F3498
G92 E0
G1 X57.654 Y38.450 E0.0089 F672
G1 X57.123 Y38.288 E0.0355
G1 X56.893 Y38.518 E0.0511
; solid layer
G1 X54.543 Y38.096 F3498
G92 E0
G1 X54.726 Y37.913 E0.0124 F538
G1 X54.274 Y37.672 E0.0369
G1 X53.850 Y38.096 E0.0656
G1 X53.157 Y38.096 E0.0988
G1 X53.823 Y37.431 E0.1438
G1 X53.371 Y37.189 E0.1683
G1 X52.464 Y38.096 E0.2297
G1 X51.771 Y38.096 E0.2629
G1 X52.920 Y36.948 E0.3406
G1 X52.864 Y36.918 E0.3436
G1 X52.530 Y36.644 E0.3643
G1 X51.078 Y38.096 E0.4626
G1 X50.386 Y38.096 E0.4958
G1 X52.150 Y36.332 E0.6152
G1 X51.769 Y36.020 E0.6388
G1 X49.693 Y38.096 E0.7794
G1 X49.000 Y38.096 E0.8125
G1 X51.388 Y35.707 E0.9743
G1 X51.008 Y35.395 E0.9978
G1 X48.307 Y38.096 E1.1807
G1 X47.614 Y38.096 E1.2139
G1 X50.630 Y35.079 E1.4181
G1 X50.318 Y34.699 E1.4417
G1 X46.921 Y38.096 E1.6717
G1 X46.228 Y38.096 E1.7049
G1 X50.005 Y34.318 E1.9606
G1 X49.693 Y33.938 E1.9842
G1 X45.535 Y38.096 E2.2657
G1 X44.842 Y38.096 E2.2989
G1 X49.381 Y33.557 E2.6062
G1 X49.068 Y33.176 E2.6298
G1 X44.149 Y38.096 E2.9629
G1 X43.456 Y38.096 E2.9960
G1 X48.771 Y32.781 E3.3559
G1 X48.530 Y32.329 E3.3804
G1 X42.763 Y38.096 E3.7708
G1 X42.728 Y38.096 E3.7725
G1 X42.728 Y37.438 E3.8040
G1 X48.288 Y31.878 E4.1805
G1 X48.047 Y31.426 E4.2050
G1 X42.728 Y36.745 E4.5651
G1 X42.728 Y36.052 E4.5983
G1 X47.806 Y30.974 E4.9420
G1 X47.564 Y30.523 E4.9665
G1 X42.728 Y35.359 E5.2940
G1 X42.728 Y34.666 E5.3271
G1 X47.372 Y30.022 E5.6415
G1 X47.210 Y29.491 E5.6681
G1 X42.728 Y33.973 E5.9716
G1 X42.728 Y33.280 E6.0048
G1 X47.049 Y28.959 E6.2973
G1 X46.887 Y28.428 E6.3239
G1 X42.728 Y32.587 E6.6055
G1 X42.728 Y31.894 E6.6387
G1 X46.726 Y27.896 E6.9094
G1 X46.635 Y27.596 E6.9244
G1 X46.608 Y27.322 E6.9376
G1 X42.728 Y31.201 E7.2003
G1 X42.728 Y30.508 E7.2334
G1 X46.546 Y26.691 E7.4919
G1 X46.483 Y26.060 E7.5222
G1 X42.728 Y29.815 E7.7765
G1 X42.728 Y29.122 E7.8097
G1 X46.421 Y25.429 E8.0597
G1 X46.359 Y24.798 E8.0901
G1 X42.728 Y28.429 E8.3359
G1 X42.728 Y27.736 E8.3691
G1 X46.424 Y24.041 E8.6193
G1 X46.499 Y23.273 E8.6562
G1 X42.728 Y27.043 E8.9115
G1 X42.728 Y26.350 E8.9447
G1 X46.573 Y22.505 E9.2050
G1 X46.634 Y21.880 E9.2351
G1 X46.691 Y21.695 E9.2444
G1 X42.728 Y25.658 E9.5127
G1 X42.728 Y24.965 E9.5458
G1 X46.992 Y20.700 E9.8345
G1 X47.294 Y19.705 E9.8843
G1 X42.728 Y24.272 E10.1934
G1 X42.728 Y23.579 E10.2266
G1 X47.805 Y18.502 E10.5703
G1 X48.600 Y17.013 E10.6511
G1 X42.728 Y22.886 E11.0487
G1 X42.728 Y22.193 E11.0819
G1 X53.542 Y11.379 E11.8140
G1 X52.849 Y11.379 E11.8472
G1 X42.728 Y21.500 E12.5324
G1 X42.728 Y20.807 E12.5656
G1 X52.156 Y11.379 E13.2039
G1 X51.463 Y11.379 E13.2371
G1 X42.728 Y20.114 E13.8285
G1 X42.728 Y19.421 E13.8616
G1 X50.770 Y11.379 E14.4061
G1 X50.077 Y11.379 E14.4393
G1 X42.728 Y18.728 E14.9368
G1 X42.728 Y18.035 E14.9700
G1 X49.384 Y11.379 E15.4206
G1 X48.691 Y11.379 E15.4538
G1 X42.728 Y17.342 E15.8575
G1 X42.728 Y16.649 E15.8907
G1 X47.998 Y11.379 E16.2475
G1 X47.305 Y11.379 E16.2807
G1 X42.728 Y15.956 E16.5905
G1 X42.728 Y15.263 E16.6237
G1 X46.612 Y11.379 E16.8867
G1 X45.919 Y11.379 E16.9199
G1 X42.728 Y14.570 E17.1359
G1 X42.728 Y13.877 E17.1691
G1 X45.226 Y11.379 E17.3382
G1 X44.533 Y11.379 E17.3714
G1 X42.728 Y13.184 E17.4936
G1 X42.728 Y12.491 E17.5268
G1 X43.840 Y11.379 E17.6021
G1 X43.147 Y11.379 E17.6353
G1 X42.728 Y11.798 E17.6637
G1 X53.278 Y12.335 F3498
G92 E0
G1 X54.235 Y11.379 E0.0647 F538
G1 X54.928 Y11.379 E0.0979
G1 X54.767 Y11.540 E0.1088
G1 X67.240 Y11.540 F3498
G92 E0
G1 X67.401 Y11.379 E0.0109 F538
G1 X68.094 Y11.379 E0.0441
G1 X67.691 Y11.782 E0.0714
G1 X68.143 Y12.023 E0.0959
G1 X68.787 Y11.379 E0.1395
G1 X69.480 Y11.379 E0.1727
G1 X68.594 Y12.265 E0.2326
G1 X69.046 Y12.506 E0.2571
G1 X70.173 Y11.379 E0.3334
G1 X70.866 Y11.379 E0.3666
G1 X69.442 Y12.803 E0.4630
G1 X69.822 Y13.116 E0.4866
G1 X71.559 Y11.379 E0.6042
G1 X72.252 Y11.379 E0.6374
G1 X70.203 Y13.428 E0.7761
G1 X70.583 Y13.740 E0.7997
G1 X72.945 Y11.379 E0.9595
G1 X73.638 Y11.379 E0.9927
G1 X70.964 Y14.053 E1.1737
G1 X71.345 Y14.365 E1.1973
G1 X74.331 Y11.379 E1.3995
G1 X75.024 Y11.379 E1.4326
G1 X71.660 Y14.743 E1.6604
G1 X71.972 Y15.123 E1.6839
G1 X75.717 Y11.379 E1.9374
G1 X76.410 Y11.379 E1.9706
G1 X72.285 Y15.504 E2.2499
G1 X72.597 Y15.884 E2.2735
G1 X77.103 Y11.379 E2.5785
G1 X77.795 Y11.379 E2.6117
G1 X72.909 Y16.265 E2.9425
G1 X73.183 Y16.599 E2.9631
G1 X73.213 Y16.654 E2.9662
G1 X77.830 Y12.037 E3.2788
G1 X77.830 Y12.730 E3.3120
G1 X73.454 Y17.106 E3.6082
G1 X73.696 Y17.558 E3.6327
G1 X77.830 Y13.423 E3.9127
G1 X77.830 Y14.116 E3.9458
G1 X73.937 Y18.009 E4.2094
G1 X74.179 Y18.461 E4.2339
G1 X77.830 Y14.809 E4.4812
G1 X77.830 Y15.502 E4.5144
G1 X74.420 Y18.912 E4.7453
G1 X74.537 Y19.131 E4.7571
G1 X74.620 Y19.405 E4.7708
G1 X77.830 Y16.195 E4.9882
G1 X77.830 Y16.888 E5.0214
G1 X74.781 Y19.937 E5.2278
G1 X74.943 Y20.469 E5.2544
G1 X77.830 Y17.581 E5.4499
G1 X77.830 Y18.274 E5.4831
G1 X75.104 Y21.000 E5.6677
G1 X75.265 Y21.532 E5.6943
G1 X77.830 Y18.967 E5.8679
G1 X77.830 Y19.660 E5.9011
G1 X75.392 Y22.098 E6.0662
G1 X75.454 Y22.729 E6.0965
G1 X77.830 Y20.353 E6.2574
G1 X77.830 Y21.046 E6.2906
G1 X75.516 Y23.360 E6.4472
G1 X75.578 Y23.990 E6.4776
G1 X77.830 Y21.739 E6.6301
G1 X77.830 Y22.432 E6.6632
G1 X75.641 Y24.621 E6.8115
G1 X75.651 Y24.725 E6.8165
G1 X75.588 Y25.367 E6.8473
G1 X77.830 Y23.125 E6.9991
G1 X77.830 Y23.818 E7.0323
G1 X75.513 Y26.135 E7.1892
G1 X75.438 Y26.902 E7.2261
G1 X77.830 Y24.510 E7.3881
G1 X77.830 Y25.203 E7.4212
G1 X75.341 Y27.693 E7.5898
G1 X75.039 Y28.687 E7.6395
G1 X77.830 Y25.896 E7.8285
G1 X77.830 Y26.589 E7.8617
G1 X74.738 Y29.682 E8.0711
