; G-Code generated by Simplify3D(R) Version 3.0.0
; Mrz 30, 2018 at 12:54:52 
; Settings Summary
;   processName,Process1
;   applyToModels,board_v2
;   profileName,Renkforce (modified)
;   profileVersion,2017-10-17 11:10:50
;   baseProfile,German RepRap NEO (modified)
;   printMaterial,
;   printQuality,
;   printExtruders,
;   extruderName,Primary Extruder
;   extruderToolheadNumber,0
;   extruderDiameter,0.5
;   extruderAutoWidth,0
;   extruderWidth,0.49
;   extrusionMultiplier,0.94
;   extruderUseRetract,1
;   extruderRetractionDistance,6.5
;   extruderExtraRestartDistance,0
;   extruderRetractionZLift,0
;   extruderRetractionSpeed,4998
;   extruderUseCoasting,0
;   extruderCoastingDistance,0.2
;   extruderUseWipe,0
;   extruderWipeDistance,5
;   primaryExtruder,0
;   layerHeight,0.2
;   topSolidLayers,4
;   bottomSolidLayers,3
;   perimeterOutlines,3
;   printPerimetersInsideOut,1
;   startPointOption,2
;   startPointOriginX,0
;   startPointOriginY,0
;   startPointOriginZ,300
;   sequentialIslands,0
;   spiralVaseMode,0
;   firstLayerHeightPercentage,100
;   firstLayerWidthPercentage,100
;   firstLayerUnderspeed,0.28
;   useRaft,0
;   raftExtruder,0
;   raftLayers,3
;   raftOffset,3
;   raftSeparationDistance,0.1
;   raftInfill,85
;   disableRaftBaseLayers,0
;   useSkirt,1
;   skirtExtruder,0
;   skirtLayers,1
;   skirtOutlines,6
;   skirtOffset,0
;   usePrimePillar,0
;   primePillarExtruder,999
;   primePillarWidth,12
;   primePillarLocation,7
;   primePillarSpeedMultiplier,1
;   useOozeShield,0
;   oozeShieldExtruder,999
;   oozeShieldOffset,2
;   oozeShieldOutlines,1
;   oozeShieldSidewallShape,1
;   oozeShieldSidewallAngle,30
;   oozeShieldSpeedMultiplier,1
;   infillExtruder,0
;   internalInfillPattern,Full Honeycomb
;   externalInfillPattern,Rectilinear
;   infillPercentage,15
;   outlineOverlapPercentage,15
;   infillExtrusionWidthPercentage,100
;   minInfillLength,3
;   infillLayerInterval,1
;   infillAngles,0,120,-120
;   overlapInfillAngles,0
;   generateSupport,1
;   supportExtruder,0
;   supportInfillPercentage,30
;   supportExtraInflation,1
;   denseSupportLayers,0
;   denseSupportInfillPercentage,75
;   supportLayerInterval,1
;   supportHorizontalPartOffset,1.5
;   supportUpperSeparationLayers,1
;   supportLowerSeparationLayers,1
;   supportType,0
;   supportGridSpacing,5
;   maxOverhangAngle,45
;   supportAngles,45
;   temperatureName,Primary Extruder
;   temperatureNumber,0
;   temperatureSetpointCount,3
;   temperatureSetpointLayers,1,2,3
;   temperatureSetpointTemperatures,197,193,189
;   temperatureStabilizeAtStartup,1
;   temperatureHeatedBed,0
;   temperatureRelayBetweenLayers,0
;   temperatureRelayBetweenLoops,0
;   fanLayers,1,3
;   fanSpeeds,0,80
;   blipFanToFullPower,0
;   adjustSpeedForCooling,1
;   minSpeedLayerTime,15
;   minCoolingSpeedSlowdown,20
;   increaseFanForCooling,0
;   minFanLayerTime,45
;   maxCoolingFanSpeed,100
;   increaseFanForBridging,0
;   bridgingFanSpeed,100
;   use5D,1
;   relativeEdistances,0
;   allowEaxisZeroing,1
;   independentExtruderAxes,0
;   includeM10123,0
;   stickySupport,1
;   applyToolheadOffsets,0
;   gcodeXoffset,0
;   gcodeYoffset,0
;   gcodeZoffset,0
;   overrideMachineDefinition,1
;   machineTypeOverride,0
;   strokeXoverride,150
;   strokeYoverride,150
;   strokeZoverride,150
;   originOffsetXoverride,0
;   originOffsetYoverride,0
;   originOffsetZoverride,0
;   homeXdirOverride,-1
;   homeYdirOverride,-1
;   homeZdirOverride,-1
;   flipXoverride,1
;   flipYoverride,-1
;   flipZoverride,1
;   toolheadOffsets,0,0|0,0|0,0|0,0|0,0|0,0
;   overrideFirmwareConfiguration,0
;   firmwareTypeOverride,RepRap (Marlin/Repetier/Sprinter)
;   GPXconfigOverride,r2
;   baudRateOverride,115200
;   overridePrinterModels,0
;   printerModelsOverride
;   startingGcode,G28 ; home all axes
;   layerChangeGcode,
;   retractionGcode,
;   toolChangeGcode,
;   endingGcode,M104 S0 ; turn off extruder,M140 S0 ; turn off bed,G28 X0  ; home X axis,G28 Y0  ; home Y axis,M84 ; disable motors,M107
;   createX3G,0
;   celebration,0
;   celebrationSong,Random Song
;   createMB5G,0
;   postProcessing,
;   defaultSpeed,2400
;   outlineUnderspeed,0.5
;   solidInfillUnderspeed,0.8
;   supportUnderspeed,0.8
;   rapidXYspeed,3498
;   rapidZspeed,1002
;   minBridgingArea,50
;   bridgingExtraInflation,0
;   bridgingExtrusionMultiplier,1
;   bridgingSpeedMultiplier,1
;   filamentDiameter,1.75
;   filamentPricePerKg,46
;   filamentDensity,1.25
;   useMinPrintHeight,0
;   minPrintHeight,0
;   useMaxPrintHeight,0
;   maxPrintHeight,0
;   useDiaphragm,0
;   diaphragmLayerInterval,20
;   robustSlicing,1
;   mergeAllIntoSolid,0
;   onlyRetractWhenCrossingOutline,1
;   retractBetweenLayers,1
;   useRetractionMinTravel,0
;   retractionMinTravel,3
;   retractWhileWiping,0
;   onlyWipeOutlines,1
;   avoidCrossingOutline,0
;   maxMovementDetourFactor,10
;   toolChangeRetractionDistance,0
;   toolChangeExtraRestartDistance,0
;   toolChangeRetractionSpeed,360
;   allowThinWallGapFill,1
;   thinWallAllowedOverlapPercentage,10
;   horizontalSizeCompensation,0
G90
M82
M106 S0
M104 S197 T0
M109 S197 T0
G28 ; home all axes
G92 E0
G1 E-6.5000 F4998
G1 Z0.200 F1002
; layer 1, Z = 0.2
T0
; tool H0.200 W0.490
; skirt
G1 X19.596 Y18.019 F3498
G1 E0.0000 F1499
G92 E0
G1 X21.174 Y16.440 E0.0855 F672
G1 X111.871 Y16.440 E3.5591
G1 X113.449 Y18.019 E3.6446
G1 X113.449 Y24.135 E3.8788
G1 X111.871 Y25.713 E3.9643
G1 X110.686 Y25.713 E4.0097
G1 X110.686 Y25.803 E4.0131
G1 X111.871 Y25.803 E4.0585
G1 X113.449 Y27.382 E4.1440
G1 X113.449 Y50.251 E5.0199
G1 X111.871 Y51.830 E5.1054
G1 X21.174 Y51.830 E8.5790
G1 X19.596 Y50.251 E8.6645
G1 X19.596 Y18.019 E9.8990
G1 X20.086 Y18.222 F3498
G92 E0
G1 X21.377 Y16.930 E0.0700 F672
G1 X111.668 Y16.930 E3.5280
G1 X112.959 Y18.222 E3.5979
G1 X112.959 Y23.932 E3.8166
G1 X111.668 Y25.223 E3.8866
G1 X110.196 Y25.223 E3.9430
G1 X110.196 Y26.293 E3.9839
G1 X111.668 Y26.293 E4.0403
G1 X112.959 Y27.585 E4.1103
G1 X112.959 Y50.048 E4.9706
G1 X111.668 Y51.340 E5.0406
G1 X21.377 Y51.340 E8.4986
G1 X20.086 Y50.048 E8.5685
G1 X20.086 Y18.222 E9.7875
G1 X20.576 Y18.425 F3498
G92 E0
G1 X21.580 Y17.420 E0.0544 F672
G1 X111.465 Y17.420 E3.4969
G1 X112.469 Y18.425 E3.5513
G1 X112.469 Y23.729 E3.7544
G1 X111.465 Y24.733 E3.8089
G1 X109.706 Y24.733 E3.8762
G1 X109.706 Y26.783 E3.9547
G1 X111.465 Y26.783 E4.0221
G1 X112.469 Y27.788 E4.0765
G1 X112.469 Y49.845 E4.9213
G1 X111.465 Y50.850 E4.9757
G1 X21.580 Y50.850 E8.4182
G1 X20.576 Y49.845 E8.4726
G1 X20.576 Y18.425 E9.6760
G1 X21.066 Y18.628 F3498
G92 E0
G1 X21.783 Y17.910 E0.0389 F672
G1 X111.262 Y17.910 E3.4658
G1 X111.979 Y18.628 E3.5047
G1 X111.979 Y23.526 E3.6923
G1 X111.262 Y24.243 E3.7311
G1 X109.216 Y24.243 E3.8095
G1 X109.216 Y27.273 E3.9255
G1 X111.262 Y27.273 E4.0039
G1 X111.979 Y27.991 E4.0427
G1 X111.979 Y49.643 E4.8720
G1 X111.262 Y50.360 E4.9108
G1 X21.783 Y50.360 E8.3378
G1 X21.066 Y49.643 E8.3766
G1 X21.066 Y18.628 E9.5645
G1 X21.556 Y18.831 F3498
G92 E0
G1 X21.986 Y18.400 E0.0233 F672
G1 X111.059 Y18.400 E3.4347
G1 X111.489 Y18.831 E3.4580
G1 X111.489 Y23.323 E3.6301
G1 X111.059 Y23.753 E3.6534
G1 X108.726 Y23.753 E3.7427
G1 X108.726 Y27.763 E3.8963
G1 X111.059 Y27.763 E3.9857
G1 X111.489 Y28.194 E4.0090
G1 X111.489 Y49.440 E4.8227
G1 X111.059 Y49.870 E4.8460
G1 X21.986 Y49.870 E8.2574
G1 X21.556 Y49.440 E8.2807
G1 X21.556 Y18.831 E9.4530
G1 X22.046 Y19.034 F3498
G92 E0
G1 X22.189 Y18.890 E0.0078 F672
G1 X110.856 Y18.890 E3.4036
G1 X110.999 Y19.034 E3.4114
G1 X110.999 Y23.120 E3.5679
G1 X110.856 Y23.263 E3.5757
G1 X108.236 Y23.263 E3.6760
G1 X108.236 Y28.253 E3.8671
G1 X110.856 Y28.253 E3.9674
G1 X110.999 Y28.397 E3.9752
G1 X110.999 Y49.237 E4.7734
G1 X110.856 Y49.380 E4.7811
G1 X22.189 Y49.380 E8.1770
G1 X22.046 Y49.237 E8.1847
G1 X22.046 Y19.034 E9.3415
G92 E0
G1 E-6.5000 F4998
; inner perimeter
G1 X23.516 Y20.360 F3498
G1 E0.0000 F4998
G92 E0
G1 X88.881 Y20.360 E2.5034 F560
G1 X88.930 Y20.695 E2.5164
G1 X87.965 Y20.987 E2.5550
G1 X85.504 Y22.303 E2.6618
G1 X83.348 Y24.072 E2.7687
G1 X81.578 Y26.229 E2.8755
G1 X80.419 Y28.397 E2.9697
G1 X80.123 Y28.323 E2.9814
G1 X80.123 Y21.793 E3.2315
G1 X53.440 Y21.793 E4.2534
G1 X53.440 Y29.723 E4.5571
G1 X72.255 Y29.723 E5.2777
G1 X72.255 Y38.602 E5.6178
G1 X77.284 Y38.602 E5.8104
G1 X77.284 Y29.723 E6.1504
G1 X79.949 Y29.723 E6.2525
G1 X79.453 Y31.359 E6.3180
G1 X79.180 Y34.135 E6.4248
G1 X79.453 Y36.911 E6.5316
G1 X80.263 Y39.581 E6.6385
G1 X81.578 Y42.041 E6.7453
G1 X83.348 Y44.198 E6.8522
G1 X85.504 Y45.968 E6.9590
G1 X87.965 Y47.283 E7.0659
G1 X88.930 Y47.576 E7.1045
G1 X88.881 Y47.910 E7.1175
G1 X23.516 Y47.910 E9.6209
G1 X23.516 Y20.360 E10.6760
G1 X97.891 Y20.695 F3498
G92 E0
G1 X97.941 Y20.360 E0.0130 F560
G1 X109.529 Y20.360 E0.4568
G1 X109.529 Y21.793 E0.5117
G1 X106.766 Y21.793 E0.6175
G1 X106.766 Y28.448 E0.8724
G1 X106.469 Y28.522 E0.8841
G1 X105.243 Y26.229 E0.9837
G1 X103.474 Y24.072 E1.0905
G1 X101.317 Y22.303 E1.1974
G1 X98.857 Y20.987 E1.3042
G1 X97.891 Y20.695 E1.3428
G92 E0
G1 E-6.5000 F4998
G1 X106.872 Y29.723 F3498
G1 E0.0000 F4998
G92 E0
G1 X109.529 Y29.723 E0.1018 F560
G1 X109.529 Y47.910 E0.7983
G1 X97.941 Y47.910 E1.2421
G1 X97.891 Y47.576 E1.2551
G1 X98.857 Y47.283 E1.2937
G1 X101.317 Y45.968 E1.4006
G1 X103.474 Y44.198 E1.5074
G1 X105.243 Y42.041 E1.6142
G1 X106.558 Y39.581 E1.7211
G1 X107.368 Y36.911 E1.8279
G1 X107.642 Y34.135 E1.9348
G1 X107.368 Y31.359 E2.0416
G1 X106.872 Y29.723 E2.1071
G92 E0
G1 E-6.5000 F4998
; inner perimeter
G1 X23.026 Y19.870 F3498
G1 E0.0000 F4998
G92 E0
G1 X110.019 Y19.870 E3.3318 F448
G1 X110.019 Y22.283 E3.4242
G1 X107.256 Y22.283 E3.5300
G1 X107.256 Y29.233 E3.7962
G1 X110.019 Y29.233 E3.9020
G1 X110.019 Y48.400 E4.6361
G1 X23.026 Y48.400 E7.9679
G1 X23.026 Y19.870 E9.0605
; outer perimeter
G1 X22.536 Y19.380 F3498
G92 E0
G1 X110.509 Y19.380 E3.3693 F336
G1 X110.509 Y22.773 E3.4993
G1 X107.746 Y22.773 E3.6051
G1 X107.746 Y28.743 E3.8337
G1 X110.509 Y28.743 E3.9396
G1 X110.509 Y48.890 E4.7112
G1 X22.536 Y48.890 E8.0805
G1 X22.536 Y19.380 E9.2107
; inner perimeter
G1 X25.558 Y26.758 F3498
G92 E0
G1 X25.558 Y41.213 E0.5536 F560
G1 X50.998 Y41.213 E1.5279
G1 X50.998 Y26.758 E2.0816
G1 X25.558 Y26.758 E3.0559
; inner perimeter
G1 X26.048 Y27.248 F3498
G92 E0
G1 X26.048 Y40.723 E0.5161 F448
G1 X50.508 Y40.723 E1.4529
G1 X50.508 Y27.248 E1.9690
G1 X26.048 Y27.248 E2.9058
; outer perimeter
G1 X26.538 Y27.738 F3498
G92 E0
G1 X26.538 Y40.233 E0.4786 F336
G1 X50.018 Y40.233 E1.3778
G1 X50.018 Y27.738 E1.8564
G1 X26.538 Y27.738 E2.7556
; inner perimeter
; inner perimeter
G1 X53.930 Y22.283 F3498
G92 E0
G1 X53.930 Y29.233 E0.2662 F448
G1 X79.633 Y29.233 E1.2506
G1 X79.633 Y22.283 E1.5167
G1 X53.930 Y22.283 E2.5011
; outer perimeter
G1 X54.420 Y22.773 F3498
G92 E0
G1 X54.420 Y28.743 E0.2286 F336
G1 X79.143 Y28.743 E1.1755
G1 X79.143 Y22.773 E1.4041
G1 X54.420 Y22.773 E2.3510
G92 E0
G1 E-6.5000 F4998
; inner perimeter
G1 X60.305 Y32.849 F3498
G1 E0.0000 F4998
G92 E0
G1 X60.114 Y33.479 E0.0252 F560
G1 X60.049 Y34.135 E0.0505
G1 X60.114 Y34.791 E0.0757
G1 X60.305 Y35.421 E0.1010
G1 X60.616 Y36.003 E0.1262
G1 X61.034 Y36.512 E0.1514
G1 X61.543 Y36.930 E0.1767
G1 X62.124 Y37.241 E0.2019
G1 X62.755 Y37.432 E0.2271
G1 X63.411 Y37.497 E0.2524
G1 X64.067 Y37.432 E0.2776
G1 X64.697 Y37.241 E0.3029
G1 X65.278 Y36.930 E0.3281
G1 X65.788 Y36.512 E0.3533
G1 X66.206 Y36.003 E0.3786
G1 X66.516 Y35.421 E0.4038
G1 X66.708 Y34.791 E0.4290
G1 X66.772 Y34.135 E0.4543
G1 X66.708 Y33.479 E0.4795
G1 X66.516 Y32.849 E0.5048
G1 X66.206 Y32.268 E0.5300
G1 X65.788 Y31.758 E0.5552
G1 X65.278 Y31.340 E0.5805
G1 X64.697 Y31.029 E0.6057
G1 X64.067 Y30.838 E0.6309
G1 X63.411 Y30.774 E0.6562
G1 X62.755 Y30.838 E0.6814
G1 X62.124 Y31.029 E0.7067
G1 X61.543 Y31.340 E0.7319
G1 X61.034 Y31.758 E0.7571
G1 X60.616 Y32.268 E0.7824
G1 X60.305 Y32.849 E0.8076
; inner perimeter
G1 X60.760 Y33.037 F3498
G92 E0
G1 X60.597 Y33.575 E0.0215 F448
G1 X60.542 Y34.135 E0.0431
G1 X60.597 Y34.695 E0.0646
G1 X60.760 Y35.233 E0.0862
G1 X61.025 Y35.729 E0.1077
G1 X61.382 Y36.164 E0.1292
G1 X61.817 Y36.521 E0.1508
G1 X62.313 Y36.786 E0.1723
G1 X62.851 Y36.949 E0.1939
G1 X63.411 Y37.004 E0.2154
G1 X63.971 Y36.949 E0.2370
G1 X64.509 Y36.786 E0.2585
G1 X65.005 Y36.521 E0.2800
G1 X65.440 Y36.164 E0.3016
G1 X65.796 Y35.729 E0.3231
G1 X66.061 Y35.233 E0.3447
G1 X66.225 Y34.695 E0.3662
G1 X66.280 Y34.135 E0.3877
G1 X66.225 Y33.575 E0.4093
G1 X66.061 Y33.037 E0.4308
G1 X65.796 Y32.541 E0.4524
G1 X65.440 Y32.106 E0.4739
G1 X65.005 Y31.750 E0.4954
G1 X64.509 Y31.484 E0.5170
G1 X63.970 Y31.321 E0.5385
G1 X63.411 Y31.266 E0.5601
G1 X62.851 Y31.321 E0.5816
G1 X62.313 Y31.484 E0.6032
G1 X61.817 Y31.750 E0.6247
G1 X61.382 Y32.106 E0.6462
G1 X61.025 Y32.541 E0.6678
G1 X60.760 Y33.037 E0.6893
; outer perimeter
G1 X61.215 Y33.226 F3498
G92 E0
G1 X61.080 Y33.671 E0.0178 F336
G1 X61.034 Y34.135 E0.0357
G1 X61.080 Y34.599 E0.0535
G1 X61.215 Y35.045 E0.0714
G1 X61.435 Y35.456 E0.0892
G1 X61.730 Y35.816 E0.1071
G1 X62.090 Y36.111 E0.1249
G1 X62.501 Y36.331 E0.1428
G1 X62.947 Y36.466 E0.1606
G1 X63.411 Y36.512 E0.1784
G1 X63.874 Y36.466 E0.1963
G1 X64.320 Y36.331 E0.2141
G1 X64.731 Y36.111 E0.2320
G1 X65.091 Y35.816 E0.2498
G1 X65.387 Y35.456 E0.2677
G1 X65.607 Y35.045 E0.2855
G1 X65.742 Y34.599 E0.3034
G1 X65.787 Y34.135 E0.3212
G1 X65.742 Y33.671 E0.3390
G1 X65.607 Y33.226 E0.3569
G1 X65.387 Y32.815 E0.3747
G1 X65.091 Y32.455 E0.3926
G1 X64.731 Y32.159 E0.4104
G1 X64.320 Y31.939 E0.4283
G1 X63.874 Y31.804 E0.4461
G1 X63.411 Y31.758 E0.4640
G1 X62.947 Y31.804 E0.4818
G1 X62.501 Y31.939 E0.4996
G1 X62.090 Y32.159 E0.5175
G1 X61.730 Y32.455 E0.5353
G1 X61.435 Y32.815 E0.5532
G1 X61.215 Y33.226 E0.5710
G92 E0
G1 E-6.5000 F4998
; inner perimeter
; inner perimeter
G1 X72.745 Y30.192 F3498
G1 E0.0000 F4998
G92 E0
G1 X72.745 Y38.112 E0.3033 F448
G1 X76.794 Y38.112 E0.4584
G1 X76.794 Y30.192 E0.7617
G1 X72.745 Y30.192 E0.9168
; outer perimeter
G1 X73.235 Y30.682 F3498
G92 E0
G1 X73.235 Y37.622 E0.2658 F336
G1 X76.304 Y37.622 E0.3833
G1 X76.304 Y30.682 E0.6491
G1 X73.235 Y30.682 E0.7667
G92 E0
G1 E-6.5000 F4998
; inner perimeter
; inner perimeter
G1 X79.936 Y31.455 F3498
G1 E0.0000 F4998
G92 E0
G1 X79.672 Y34.135 E0.1031 F448
G1 X79.936 Y36.815 E0.2063
G1 X80.718 Y39.393 E0.3094
G1 X81.988 Y41.768 E0.4126
G1 X83.696 Y43.850 E0.5157
G1 X85.778 Y45.558 E0.6189
G1 X88.153 Y46.828 E0.7220
G1 X90.731 Y47.610 E0.8252
G1 X93.437 Y47.871 E0.9293
G1 X96.091 Y47.610 E1.0315
G1 X98.668 Y46.828 E1.1346
G1 X101.043 Y45.558 E1.2378
G1 X103.125 Y43.850 E1.3409
G1 X104.834 Y41.768 E1.4441
G1 X106.104 Y39.393 E1.5472
G1 X106.885 Y36.815 E1.6503
G1 X107.149 Y34.135 E1.7535
G1 X106.885 Y31.455 E1.8566
G1 X106.104 Y28.878 E1.9598
G1 X104.834 Y26.502 E2.0629
G1 X103.125 Y24.420 E2.1661
G1 X101.043 Y22.712 E2.2692
G1 X98.668 Y21.442 E2.3724
G1 X96.090 Y20.660 E2.4756
G1 X93.385 Y20.399 E2.5797
G1 X90.730 Y20.661 E2.6818
G1 X88.153 Y21.442 E2.7850
G1 X85.778 Y22.712 E2.8881
G1 X83.696 Y24.420 E2.9913
G1 X81.988 Y26.502 E3.0944
G1 X80.718 Y28.878 E3.1976
G1 X79.936 Y31.455 E3.3007
; outer perimeter
G1 X80.419 Y31.551 F3498
G92 E0
G1 X80.165 Y34.135 E0.0995 F336
G1 X80.419 Y36.719 E0.1989
G1 X81.173 Y39.204 E0.2984
G1 X82.397 Y41.494 E0.3978
G1 X84.044 Y43.502 E0.4973
G1 X86.052 Y45.149 E0.5967
G1 X88.342 Y46.373 E0.6962
G1 X90.827 Y47.127 E0.7956
G1 X93.436 Y47.379 E0.8960
G1 X95.995 Y47.127 E0.9945
G1 X98.480 Y46.373 E1.0939
G1 X100.770 Y45.149 E1.1934
G1 X102.777 Y43.502 E1.2928
G1 X104.425 Y41.494 E1.3923
G1 X105.649 Y39.204 E1.4918
G1 X106.402 Y36.719 E1.5912
G1 X106.657 Y34.135 E1.6907
G1 X106.402 Y31.551 E1.7901
G1 X105.649 Y29.066 E1.8896
G1 X104.425 Y26.776 E1.9890
G1 X102.777 Y24.769 E2.0885
G1 X100.770 Y23.121 E2.1879
G1 X98.480 Y21.897 E2.2874
G1 X95.995 Y21.143 E2.3868
G1 X93.385 Y20.891 E2.4872
G1 X90.827 Y21.143 E2.5857
G1 X88.342 Y21.897 E2.6852
G1 X86.052 Y23.121 E2.7846
G1 X84.044 Y24.769 E2.8841
G1 X82.397 Y26.776 E2.9835
G1 X81.173 Y29.066 E3.0830
G1 X80.419 Y31.551 E3.1824
; gap fill
G1 X80.054 Y28.919 F3498
