; G-Code generated by Simplify3D(R) Version 3.0.0
; Mrz 28, 2018 at 1:02:43 
; Settings Summary
;   processName,Process1
;   applyToModels,bohrassistent
;   profileName,Renkforce (modified)
;   profileVersion,2017-10-17 11:10:50
;   baseProfile,German RepRap NEO (modified)
;   printMaterial,
;   printQuality,
;   printExtruders,
;   extruderName,Primary Extruder
;   extruderToolheadNumber,0
;   extruderDiameter,0.5
;   extruderAutoWidth,0
;   extruderWidth,0.49
;   extrusionMultiplier,0.94
;   extruderUseRetract,1
;   extruderRetractionDistance,6.5
;   extruderExtraRestartDistance,0
;   extruderRetractionZLift,0
;   extruderRetractionSpeed,4998
;   extruderUseCoasting,0
;   extruderCoastingDistance,0.2
;   extruderUseWipe,0
;   extruderWipeDistance,5
;   primaryExtruder,0
;   layerHeight,0.2
;   topSolidLayers,4
;   bottomSolidLayers,3
;   perimeterOutlines,3
;   printPerimetersInsideOut,1
;   startPointOption,2
;   startPointOriginX,0
;   startPointOriginY,0
;   startPointOriginZ,300
;   sequentialIslands,0
;   spiralVaseMode,0
;   firstLayerHeightPercentage,100
;   firstLayerWidthPercentage,100
;   firstLayerUnderspeed,0.28
;   useRaft,0
;   raftExtruder,0
;   raftLayers,3
;   raftOffset,3
;   raftSeparationDistance,0.1
;   raftInfill,85
;   disableRaftBaseLayers,0
;   useSkirt,1
;   skirtExtruder,0
;   skirtLayers,1
;   skirtOutlines,10
;   skirtOffset,0
;   usePrimePillar,0
;   primePillarExtruder,999
;   primePillarWidth,12
;   primePillarLocation,7
;   primePillarSpeedMultiplier,1
;   useOozeShield,0
;   oozeShieldExtruder,999
;   oozeShieldOffset,2
;   oozeShieldOutlines,1
;   oozeShieldSidewallShape,1
;   oozeShieldSidewallAngle,30
;   oozeShieldSpeedMultiplier,1
;   infillExtruder,0
;   internalInfillPattern,Full Honeycomb
;   externalInfillPattern,Rectilinear
;   infillPercentage,15
;   outlineOverlapPercentage,15
;   infillExtrusionWidthPercentage,100
;   minInfillLength,3
;   infillLayerInterval,1
;   infillAngles,0,120,-120
;   overlapInfillAngles,0
;   generateSupport,0
;   supportExtruder,0
;   supportInfillPercentage,30
;   supportExtraInflation,1
;   denseSupportLayers,0
;   denseSupportInfillPercentage,75
;   supportLayerInterval,1
;   supportHorizontalPartOffset,1.5
;   supportUpperSeparationLayers,1
;   supportLowerSeparationLayers,1
;   supportType,0
;   supportGridSpacing,5
;   maxOverhangAngle,45
;   supportAngles,45
;   temperatureName,Primary Extruder
;   temperatureNumber,0
;   temperatureSetpointCount,3
;   temperatureSetpointLayers,1,2,3
;   temperatureSetpointTemperatures,197,193,189
;   temperatureStabilizeAtStartup,1
;   temperatureHeatedBed,0
;   temperatureRelayBetweenLayers,0
;   temperatureRelayBetweenLoops,0
;   fanLayers,1,3
;   fanSpeeds,0,80
;   blipFanToFullPower,0
;   adjustSpeedForCooling,1
;   minSpeedLayerTime,15
;   minCoolingSpeedSlowdown,20
;   increaseFanForCooling,0
;   minFanLayerTime,45
;   maxCoolingFanSpeed,100
;   increaseFanForBridging,0
;   bridgingFanSpeed,100
;   use5D,1
;   relativeEdistances,0
;   allowEaxisZeroing,1
;   independentExtruderAxes,0
;   includeM10123,0
;   stickySupport,1
;   applyToolheadOffsets,0
;   gcodeXoffset,0
;   gcodeYoffset,0
;   gcodeZoffset,0
;   overrideMachineDefinition,1
;   machineTypeOverride,0
;   strokeXoverride,150
;   strokeYoverride,150
;   strokeZoverride,150
;   originOffsetXoverride,0
;   originOffsetYoverride,0
;   originOffsetZoverride,0
;   homeXdirOverride,-1
;   homeYdirOverride,-1
;   homeZdirOverride,-1
;   flipXoverride,1
;   flipYoverride,-1
;   flipZoverride,1
;   toolheadOffsets,0,0|0,0|0,0|0,0|0,0|0,0
;   overrideFirmwareConfiguration,0
;   firmwareTypeOverride,RepRap (Marlin/Repetier/Sprinter)
;   GPXconfigOverride,r2
;   baudRateOverride,115200
;   overridePrinterModels,0
;   printerModelsOverride
;   startingGcode,G28 ; home all axes
;   layerChangeGcode,
;   retractionGcode,
;   toolChangeGcode,
;   endingGcode,M104 S0 ; turn off extruder,M140 S0 ; turn off bed,G28 X0  ; home X axis,G28 Y0  ; home Y axis,M84 ; disable motors,M107
;   createX3G,0
;   celebration,0
;   celebrationSong,Random Song
;   createMB5G,0
;   postProcessing,
;   defaultSpeed,2400
;   outlineUnderspeed,0.5
;   solidInfillUnderspeed,0.8
;   supportUnderspeed,0.8
;   rapidXYspeed,3498
;   rapidZspeed,1002
;   minBridgingArea,50
;   bridgingExtraInflation,0
;   bridgingExtrusionMultiplier,1
;   bridgingSpeedMultiplier,1
;   filamentDiameter,1.75
;   filamentPricePerKg,46
;   filamentDensity,1.25
;   useMinPrintHeight,0
;   minPrintHeight,0
;   useMaxPrintHeight,0
;   maxPrintHeight,0
;   useDiaphragm,0
;   diaphragmLayerInterval,20
;   robustSlicing,1
;   mergeAllIntoSolid,0
;   onlyRetractWhenCrossingOutline,1
;   retractBetweenLayers,1
;   useRetractionMinTravel,0
;   retractionMinTravel,3
;   retractWhileWiping,0
;   onlyWipeOutlines,1
;   avoidCrossingOutline,0
;   maxMovementDetourFactor,10
;   toolChangeRetractionDistance,0
;   toolChangeExtraRestartDistance,0
;   toolChangeRetractionSpeed,360
;   allowThinWallGapFill,1
;   thinWallAllowedOverlapPercentage,10
;   horizontalSizeCompensation,0
G90
M82
M106 S0
M104 S197 T0
M109 S197 T0
G28 ; home all axes
G92 E0
G1 E-6.5000 F4998
G1 Z0.200 F1002
; layer 1, Z = 0.2
T0
; tool H0.200 W0.490
; skirt
G1 X50.572 Y52.845 F3498
G1 E0.0000 F1499
G92 E0
G1 X99.428 Y52.845 E1.8712 F672
G1 X102.155 Y55.572 E2.0188
G1 X102.155 Y94.428 E3.5070
G1 X99.428 Y97.155 E3.6547
G1 X50.572 Y97.155 E5.5258
G1 X47.845 Y94.428 E5.6735
G1 X47.845 Y55.572 E7.1617
G1 X50.572 Y52.845 E7.3094
G1 X50.775 Y53.335 F3498
G92 E0
G1 X99.225 Y53.335 E1.8556 F672
G1 X101.665 Y55.775 E1.9878
G1 X101.665 Y94.225 E3.4604
G1 X99.225 Y96.665 E3.5925
G1 X50.775 Y96.665 E5.4481
G1 X48.335 Y94.225 E5.5803
G1 X48.335 Y55.775 E7.0529
G1 X50.775 Y53.335 E7.1850
G1 X50.978 Y53.825 F3498
G92 E0
G1 X99.022 Y53.825 E1.8401 F672
G1 X101.175 Y55.978 E1.9567
G1 X101.175 Y94.022 E3.4137
G1 X99.022 Y96.175 E3.5303
G1 X50.978 Y96.175 E5.3704
G1 X48.825 Y94.022 E5.4870
G1 X48.825 Y55.978 E6.9440
G1 X50.978 Y53.825 E7.0606
G1 X51.181 Y54.315 F3498
G92 E0
G1 X98.819 Y54.315 E1.8245 F672
G1 X100.685 Y56.181 E1.9256
G1 X100.685 Y93.819 E3.3671
G1 X98.819 Y95.685 E3.4681
G1 X51.181 Y95.685 E5.2926
G1 X49.315 Y93.819 E5.3937
G1 X49.315 Y56.181 E6.8352
G1 X51.181 Y54.315 E6.9363
G1 X51.384 Y54.805 F3498
G92 E0
G1 X98.616 Y54.805 E1.8090 F672
G1 X100.195 Y56.384 E1.8945
G1 X100.195 Y93.616 E3.3204
G1 X98.616 Y95.195 E3.4060
G1 X51.384 Y95.195 E5.2149
G1 X49.805 Y93.616 E5.3004
G1 X49.805 Y56.384 E6.7264
G1 X51.384 Y54.805 E6.8119
G1 X51.587 Y55.295 F3498
G92 E0
G1 X98.413 Y55.295 E1.7934 F672
G1 X99.705 Y56.587 E1.8634
G1 X99.705 Y93.413 E3.2738
G1 X98.413 Y94.705 E3.3438
G1 X51.587 Y94.705 E5.1372
G1 X50.295 Y93.413 E5.2071
G1 X50.295 Y56.587 E6.6176
G1 X51.587 Y55.295 E6.6875
G1 X51.790 Y55.785 F3498
G92 E0
G1 X98.210 Y55.785 E1.7779 F672
G1 X99.215 Y56.790 E1.8323
G1 X99.215 Y93.210 E3.2272
G1 X98.210 Y94.215 E3.2816
G1 X51.790 Y94.215 E5.0594
G1 X50.785 Y93.210 E5.1139
G1 X50.785 Y56.790 E6.5087
G1 X51.790 Y55.785 E6.5632
G1 X51.993 Y56.275 F3498
G92 E0
G1 X98.007 Y56.275 E1.7623 F672
G1 X98.725 Y56.993 E1.8012
G1 X98.725 Y93.007 E3.1805
G1 X98.007 Y93.725 E3.2194
G1 X51.993 Y93.725 E4.9817
G1 X51.275 Y93.007 E5.0206
G1 X51.275 Y56.993 E6.3999
G1 X51.993 Y56.275 E6.4388
G1 X52.196 Y56.765 F3498
G92 E0
G1 X97.804 Y56.765 E1.7468 F672
G1 X98.235 Y57.196 E1.7701
G1 X98.235 Y92.804 E3.1339
G1 X97.804 Y93.235 E3.1572
G1 X52.196 Y93.235 E4.9040
G1 X51.765 Y92.804 E4.9273
G1 X51.765 Y57.196 E6.2911
G1 X52.196 Y56.765 E6.3144
G1 X52.399 Y57.255 F3498
G92 E0
G1 X97.601 Y57.255 E1.7312 F672
G1 X97.745 Y57.399 E1.7390
G1 X97.745 Y92.601 E3.0872
G1 X97.601 Y92.745 E3.0950
G1 X52.399 Y92.745 E4.8262
G1 X52.255 Y92.601 E4.8340
G1 X52.255 Y57.399 E6.1823
G1 X52.399 Y57.255 E6.1900
G92 E0
G1 E-6.5000 F4998
; inner perimeter
G1 X53.725 Y58.725 F3498
G1 E0.0000 F4998
G92 E0
G1 X96.275 Y58.725 E1.6296 F560
G1 X96.275 Y91.275 E2.8763
G1 X53.725 Y91.275 E4.5059
G1 X53.725 Y58.725 E5.7525
; inner perimeter
G1 X53.235 Y58.235 F3498
G92 E0
G1 X96.765 Y58.235 E1.6672 F448
G1 X96.765 Y91.765 E2.9513
G1 X53.235 Y91.765 E4.6185
G1 X53.235 Y58.235 E5.9026
; outer perimeter
G1 X52.745 Y57.745 F3498
G92 E0
G1 X97.255 Y57.745 E1.7047 F336
G1 X97.255 Y92.255 E3.0264
G1 X52.745 Y92.255 E4.7311
G1 X52.745 Y57.745 E6.0528
; inner perimeter
G1 X64.182 Y66.111 F3498
G92 E0
G1 X63.363 Y67.214 E0.0526 F560
G1 X62.656 Y68.393 E0.1052
G1 X62.068 Y69.634 E0.1579
G1 X61.604 Y70.928 E0.2105
G1 X61.265 Y72.286 E0.2641
G1 X61.066 Y73.628 E0.3161
G1 X60.999 Y75.000 E0.3687
G1 X61.066 Y76.372 E0.4213
G1 X61.268 Y77.732 E0.4739
G1 X61.599 Y79.057 E0.5262
G1 X62.061 Y80.350 E0.5789
G1 X62.648 Y81.593 E0.6315
G1 X63.354 Y82.772 E0.6841
G1 X64.172 Y83.876 E0.7367
G1 X65.094 Y84.894 E0.7893
G1 X66.111 Y85.818 E0.8420
G1 X67.215 Y86.637 E0.8946
G1 X68.392 Y87.344 E0.9472
G1 X69.634 Y87.932 E0.9998
G1 X70.928 Y88.396 E1.0525
G1 X72.260 Y88.730 E1.1051
G1 X73.619 Y88.933 E1.1577
G1 X75.000 Y89.001 E1.2106
G1 X76.362 Y88.935 E1.2629
G1 X77.723 Y88.734 E1.3156
G1 X79.056 Y88.401 E1.3682
G1 X80.350 Y87.939 E1.4208
G1 X81.593 Y87.352 E1.4734
G1 X82.772 Y86.646 E1.5261
G1 X83.876 Y85.828 E1.5787
G1 X84.894 Y84.906 E1.6313
G1 X85.818 Y83.889 E1.6839
G1 X86.637 Y82.786 E1.7366
G1 X87.344 Y81.607 E1.7892
G1 X87.932 Y80.366 E1.8418
G1 X88.396 Y79.072 E1.8944
G1 X88.730 Y77.740 E1.9471
G1 X88.934 Y76.373 E2.0000
G1 X89.001 Y75.000 E2.0526
G1 X88.934 Y73.628 E2.1052
G1 X88.732 Y72.268 E2.1579
G1 X88.400 Y70.943 E2.2102
G1 X87.939 Y69.650 E2.2628
G1 X87.352 Y68.407 E2.3154
G1 X86.646 Y67.228 E2.3680
G1 X85.828 Y66.124 E2.4207
G1 X84.906 Y65.106 E2.4733
G1 X83.889 Y64.182 E2.5259
G1 X82.786 Y63.363 E2.5785
G1 X81.607 Y62.656 E2.6312
G1 X80.366 Y62.068 E2.6838
G1 X79.072 Y61.604 E2.7364
G1 X77.740 Y61.270 E2.7890
G1 X76.381 Y61.067 E2.8417
G1 X75.000 Y60.998 E2.8946
G1 X73.638 Y61.065 E2.9468
G1 X72.277 Y61.266 E2.9995
G1 X70.944 Y61.599 E3.0521
G1 X69.650 Y62.061 E3.1048
G1 X68.407 Y62.648 E3.1574
G1 X67.228 Y63.354 E3.2100
G1 X66.124 Y64.172 E3.2626
G1 X65.106 Y65.094 E3.3153
G1 X64.182 Y66.111 E3.3679
; inner perimeter
G1 X64.561 Y66.423 F3498
G92 E0
G1 X63.771 Y67.487 E0.0508 F448
G1 X63.089 Y68.624 E0.1016
G1 X62.521 Y69.822 E0.1523
G1 X62.073 Y71.071 E0.2031
G1 X61.746 Y72.381 E0.2549
G1 X61.554 Y73.676 E0.3050
G1 X61.489 Y75.000 E0.3558
G1 X61.554 Y76.324 E0.4065
G1 X61.749 Y77.636 E0.4573
G1 X62.069 Y78.914 E0.5078
G1 X62.515 Y80.163 E0.5586
G1 X63.081 Y81.362 E0.6094
G1 X63.762 Y82.499 E0.6601
G1 X64.551 Y83.565 E0.7109
G1 X65.441 Y84.548 E0.7617
G1 X66.423 Y85.439 E0.8125
G1 X67.487 Y86.229 E0.8633
G1 X68.624 Y86.911 E0.9140
G1 X69.822 Y87.479 E0.9648
G1 X71.070 Y87.926 E1.0156
G1 X72.356 Y88.249 E1.0664
G1 X73.668 Y88.445 E1.1171
G1 X75.000 Y88.511 E1.1682
G1 X76.314 Y88.446 E1.2186
G1 X77.628 Y88.252 E1.2695
G1 X78.914 Y87.931 E1.3203
G1 X80.163 Y87.485 E1.3710
G1 X81.362 Y86.919 E1.4218
G1 X82.499 Y86.238 E1.4726
G1 X83.565 Y85.449 E1.5234
G1 X84.548 Y84.559 E1.5742
G1 X85.439 Y83.577 E1.6249
G1 X86.229 Y82.513 E1.6757
G1 X86.911 Y81.376 E1.7265
G1 X87.479 Y80.178 E1.7773
G1 X87.926 Y78.930 E1.8281
G1 X88.249 Y77.644 E1.8788
G1 X88.446 Y76.324 E1.9299
G1 X88.511 Y75.000 E1.9807
G1 X88.446 Y73.676 E2.0315
G1 X88.251 Y72.364 E2.0823
G1 X87.931 Y71.086 E2.1327
G1 X87.485 Y69.837 E2.1835
G1 X86.919 Y68.638 E2.2343
G1 X86.238 Y67.501 E2.2851
G1 X85.449 Y66.435 E2.3359
G1 X84.559 Y65.452 E2.3866
G1 X83.577 Y64.561 E2.4374
G1 X82.513 Y63.771 E2.4882
G1 X81.376 Y63.089 E2.5390
G1 X80.178 Y62.521 E2.5897
G1 X78.930 Y62.074 E2.6405
G1 X77.644 Y61.751 E2.6913
G1 X76.332 Y61.555 E2.7421
G1 X75.000 Y61.489 E2.7932
G1 X73.686 Y61.554 E2.8436
G1 X72.372 Y61.748 E2.8944
G1 X71.086 Y62.069 E2.9452
G1 X69.837 Y62.515 E2.9960
G1 X68.638 Y63.081 E3.0468
G1 X67.501 Y63.762 E3.0975
G1 X66.435 Y64.551 E3.1483
G1 X65.452 Y65.441 E3.1991
G1 X64.561 Y66.423 E3.2499
; outer perimeter
G1 X64.940 Y66.734 F3498
G92 E0
G1 X64.179 Y67.760 E0.0489 F336
G1 X63.521 Y68.856 E0.0979
G1 X62.974 Y70.010 E0.1468
G1 X62.543 Y71.213 E0.1957
G1 X62.227 Y72.477 E0.2456
G1 X62.042 Y73.724 E0.2939
G1 X61.980 Y75.000 E0.3428
G1 X62.042 Y76.276 E0.3918
G1 X62.230 Y77.540 E0.4407
G1 X62.538 Y78.772 E0.4894
G1 X62.968 Y79.975 E0.5383
G1 X63.514 Y81.131 E0.5872
G1 X64.170 Y82.227 E0.6362
G1 X64.931 Y83.254 E0.6851
G1 X65.788 Y84.201 E0.7340
G1 X66.734 Y85.060 E0.7830
G1 X67.760 Y85.821 E0.8319
G1 X68.856 Y86.479 E0.8808
G1 X70.010 Y87.026 E0.9298
G1 X71.213 Y87.457 E0.9787
G1 X72.452 Y87.768 E1.0276
G1 X73.716 Y87.956 E1.0766
G1 X75.000 Y88.020 E1.1258
G1 X76.266 Y87.958 E1.1744
G1 X77.532 Y87.771 E1.2234
G1 X78.772 Y87.462 E1.2723
G1 X79.975 Y87.032 E1.3213
G1 X81.131 Y86.486 E1.3702
G1 X82.227 Y85.830 E1.4191
G1 X83.254 Y85.069 E1.4681
G1 X84.201 Y84.212 E1.5170
G1 X85.060 Y83.266 E1.5659
G1 X85.821 Y82.240 E1.6149
G1 X86.479 Y81.144 E1.6638
G1 X87.026 Y79.990 E1.7127
G1 X87.457 Y78.787 E1.7617
G1 X87.768 Y77.548 E1.8106
G1 X87.958 Y76.276 E1.8598
G1 X88.020 Y75.000 E1.9088
G1 X87.958 Y73.724 E1.9577
G1 X87.770 Y72.460 E2.0067
G1 X87.462 Y71.228 E2.0553
G1 X87.032 Y70.025 E2.1042
G1 X86.486 Y68.869 E2.1532
G1 X85.830 Y67.773 E2.2021
G1 X85.069 Y66.746 E2.2510
G1 X84.212 Y65.799 E2.3000
G1 X83.266 Y64.940 E2.3489
G1 X82.240 Y64.179 E2.3978
G1 X81.144 Y63.521 E2.4468
G1 X79.990 Y62.974 E2.4957
G1 X78.787 Y62.543 E2.5446
G1 X77.548 Y62.232 E2.5936
G1 X76.284 Y62.044 E2.6425
G1 X75.000 Y61.980 E2.6917
G1 X73.734 Y62.042 E2.7403
G1 X72.468 Y62.229 E2.7893
G1 X71.228 Y62.538 E2.8383
G1 X70.025 Y62.968 E2.8872
G1 X68.869 Y63.514 E2.9361
G1 X67.773 Y64.170 E2.9851
G1 X66.746 Y64.931 E3.0340
G1 X65.799 Y65.788 E3.0829
G1 X64.940 Y66.734 E3.1319
; solid layer
G1 X68.411 Y62.186 F3498
G92 E0
G1 X71.456 Y59.142 E0.1649 F538
G1 X72.148 Y59.142 E0.1914
G1 X69.682 Y61.608 E0.3250
G1 X70.760 Y61.223 E0.3688
G1 X72.841 Y59.142 E0.4815
G1 X73.534 Y59.142 E0.5081
G1 X71.693 Y60.983 E0.6078
G1 X72.196 Y60.857 E0.6276
G1 X72.566 Y60.803 E0.6420
G1 X74.227 Y59.141 E0.7320
G1 X74.920 Y59.142 E0.7585
G1 X73.379 Y60.683 E0.8420
G1 X73.598 Y60.650 E0.8504
G1 X74.131 Y60.624 E0.8709
G1 X75.613 Y59.142 E0.9512
G1 X76.306 Y59.142 E0.9777
G1 X74.859 Y60.588 E1.0561
G1 X75.000 Y60.581 E1.0615
G1 X75.533 Y60.608 E1.0819
G1 X76.999 Y59.142 E1.1613
G1 X77.692 Y59.142 E1.1879
G1 X76.193 Y60.641 E1.2691
G1 X76.422 Y60.652 E1.2779
G1 X76.816 Y60.711 E1.2931
G1 X78.385 Y59.142 E1.3781
G1 X79.078 Y59.141 E1.4047
G1 X77.419 Y60.801 E1.4945
G1 X77.821 Y60.861 E1.5101
G1 X78.006 Y60.907 E1.5174
G1 X79.771 Y59.142 E1.6130
G1 X80.464 Y59.141 E1.6395
G1 X78.560 Y61.046 E1.7427
G1 X79.113 Y61.185 E1.7646
G1 X81.157 Y59.142 E1.8753
G1 X81.850 Y59.142 E1.9018
G1 X79.630 Y61.362 E2.0220
G1 X80.140 Y61.544 E2.0428
G1 X82.543 Y59.142 E2.1729
G1 X83.236 Y59.142 E2.1995
G1 X80.640 Y61.737 E2.3401
G1 X81.111 Y61.960 E2.3600
G1 X83.929 Y59.142 E2.5126
G1 X84.622 Y59.142 E2.5392
G1 X81.581 Y62.183 E2.7039
G1 X81.804 Y62.288 E2.7134
G1 X82.031 Y62.425 E2.7235
G1 X85.315 Y59.142 E2.9014
G1 X86.008 Y59.142 E2.9279
G1 X82.465 Y62.685 E3.1198
G1 X82.898 Y62.945 E3.1392
G1 X86.701 Y59.142 E3.3451
G1 X87.394 Y59.142 E3.3717
G1 X83.305 Y63.230 E3.5931
G1 X83.703 Y63.525 E3.6121
G1 X88.087 Y59.142 E3.8496
G1 X88.780 Y59.142 E3.8761
G1 X84.100 Y63.821 E4.1295
G1 X84.153 Y63.860 E4.1321
G1 X84.468 Y64.146 E4.1484
G1 X89.473 Y59.142 E4.4194
G1 X90.166 Y59.142 E4.4459
G1 X84.832 Y64.476 E4.7348
G1 X85.195 Y64.805 E4.7536
G1 X90.859 Y59.142 E5.0604
G1 X91.551 Y59.142 E5.0869
G1 X85.525 Y65.168 E5.4134
G1 X85.854 Y65.532 E5.4322
G1 X92.244 Y59.142 E5.7783
G1 X92.937 Y59.141 E5.8048
G1 X86.180 Y65.899 E6.1708
G1 X86.475 Y66.297 E6.1898
G1 X93.630 Y59.142 E6.5774
G1 X94.323 Y59.142 E6.6039
G1 X86.770 Y66.695 E7.0131
G1 X86.993 Y66.997 E7.0274
G1 X87.056 Y67.102 E7.0321
G1 X95.016 Y59.142 E7.4633
G1 X95.709 Y59.142 E7.4898
G1 X87.315 Y67.535 E7.9445
G1 X87.575 Y67.969 E7.9638
G1 X95.859 Y59.685 E8.4125
G1 X95.859 Y60.378 E8.4390
G1 X87.818 Y68.419 E8.8745
G1 X88.040 Y68.890 E8.8945
