; G-Code generated by Simplify3D(R) Version 3.0.0
; Mrz 27, 2018 at 3:19:25 
; Settings Summary
;   processName,Process1
;   applyToModels,cam_lead
;   profileName,Renkforce (modified)
;   profileVersion,2017-10-17 11:10:50
;   baseProfile,German RepRap NEO (modified)
;   printMaterial,
;   printQuality,
;   printExtruders,
;   extruderName,Primary Extruder
;   extruderToolheadNumber,0
;   extruderDiameter,0.5
;   extruderAutoWidth,0
;   extruderWidth,0.49
;   extrusionMultiplier,0.94
;   extruderUseRetract,1
;   extruderRetractionDistance,6.5
;   extruderExtraRestartDistance,0
;   extruderRetractionZLift,0
;   extruderRetractionSpeed,4998
;   extruderUseCoasting,0
;   extruderCoastingDistance,0.2
;   extruderUseWipe,0
;   extruderWipeDistance,5
;   primaryExtruder,0
;   layerHeight,0.2
;   topSolidLayers,4
;   bottomSolidLayers,3
;   perimeterOutlines,3
;   printPerimetersInsideOut,1
;   startPointOption,2
;   startPointOriginX,0
;   startPointOriginY,0
;   startPointOriginZ,300
;   sequentialIslands,0
;   spiralVaseMode,0
;   firstLayerHeightPercentage,100
;   firstLayerWidthPercentage,100
;   firstLayerUnderspeed,0.28
;   useRaft,0
;   raftExtruder,0
;   raftLayers,3
;   raftOffset,3
;   raftSeparationDistance,0.1
;   raftInfill,85
;   disableRaftBaseLayers,0
;   useSkirt,1
;   skirtExtruder,0
;   skirtLayers,1
;   skirtOutlines,8
;   skirtOffset,3
;   usePrimePillar,0
;   primePillarExtruder,999
;   primePillarWidth,12
;   primePillarLocation,7
;   primePillarSpeedMultiplier,1
;   useOozeShield,0
;   oozeShieldExtruder,999
;   oozeShieldOffset,2
;   oozeShieldOutlines,1
;   oozeShieldSidewallShape,1
;   oozeShieldSidewallAngle,30
;   oozeShieldSpeedMultiplier,1
;   infillExtruder,0
;   internalInfillPattern,Full Honeycomb
;   externalInfillPattern,Rectilinear
;   infillPercentage,8
;   outlineOverlapPercentage,15
;   infillExtrusionWidthPercentage,100
;   minInfillLength,3
;   infillLayerInterval,1
;   infillAngles,0,120,-120
;   overlapInfillAngles,0
;   generateSupport,1
;   supportExtruder,0
;   supportInfillPercentage,30
;   supportExtraInflation,1
;   denseSupportLayers,0
;   denseSupportInfillPercentage,75
;   supportLayerInterval,1
;   supportHorizontalPartOffset,1.5
;   supportUpperSeparationLayers,1
;   supportLowerSeparationLayers,1
;   supportType,0
;   supportGridSpacing,5
;   maxOverhangAngle,45
;   supportAngles,45
;   temperatureName,Primary Extruder
;   temperatureNumber,0
;   temperatureSetpointCount,3
;   temperatureSetpointLayers,1,2,3
;   temperatureSetpointTemperatures,197,193,189
;   temperatureStabilizeAtStartup,1
;   temperatureHeatedBed,0
;   temperatureRelayBetweenLayers,0
;   temperatureRelayBetweenLoops,0
;   fanLayers,1,3
;   fanSpeeds,0,80
;   blipFanToFullPower,0
;   adjustSpeedForCooling,1
;   minSpeedLayerTime,15
;   minCoolingSpeedSlowdown,20
;   increaseFanForCooling,0
;   minFanLayerTime,45
;   maxCoolingFanSpeed,100
;   increaseFanForBridging,0
;   bridgingFanSpeed,100
;   use5D,1
;   relativeEdistances,0
;   allowEaxisZeroing,1
;   independentExtruderAxes,0
;   includeM10123,0
;   stickySupport,1
;   applyToolheadOffsets,0
;   gcodeXoffset,0
;   gcodeYoffset,0
;   gcodeZoffset,0
;   overrideMachineDefinition,1
;   machineTypeOverride,0
;   strokeXoverride,150
;   strokeYoverride,150
;   strokeZoverride,150
;   originOffsetXoverride,0
;   originOffsetYoverride,0
;   originOffsetZoverride,0
;   homeXdirOverride,-1
;   homeYdirOverride,-1
;   homeZdirOverride,-1
;   flipXoverride,1
;   flipYoverride,-1
;   flipZoverride,1
;   toolheadOffsets,0,0|0,0|0,0|0,0|0,0|0,0
;   overrideFirmwareConfiguration,0
;   firmwareTypeOverride,RepRap (Marlin/Repetier/Sprinter)
;   GPXconfigOverride,r2
;   baudRateOverride,115200
;   overridePrinterModels,0
;   printerModelsOverride
;   startingGcode,G28 ; home all axes
;   layerChangeGcode,
;   retractionGcode,
;   toolChangeGcode,
;   endingGcode,M104 S0 ; turn off extruder,M140 S0 ; turn off bed,G28 X0  ; home X axis,G28 Y0  ; home Y axis,M84 ; disable motors,M107
;   createX3G,0
;   celebration,0
;   celebrationSong,Random Song
;   createMB5G,0
;   postProcessing,
;   defaultSpeed,2400
;   outlineUnderspeed,0.5
;   solidInfillUnderspeed,0.8
;   supportUnderspeed,0.8
;   rapidXYspeed,3498
;   rapidZspeed,1002
;   minBridgingArea,50
;   bridgingExtraInflation,0
;   bridgingExtrusionMultiplier,1
;   bridgingSpeedMultiplier,1
;   filamentDiameter,1.75
;   filamentPricePerKg,46
;   filamentDensity,1.25
;   useMinPrintHeight,0
;   minPrintHeight,0
;   useMaxPrintHeight,0
;   maxPrintHeight,0
;   useDiaphragm,0
;   diaphragmLayerInterval,20
;   robustSlicing,1
;   mergeAllIntoSolid,0
;   onlyRetractWhenCrossingOutline,1
;   retractBetweenLayers,1
;   useRetractionMinTravel,0
;   retractionMinTravel,3
;   retractWhileWiping,0
;   onlyWipeOutlines,1
;   avoidCrossingOutline,0
;   maxMovementDetourFactor,10
;   toolChangeRetractionDistance,0
;   toolChangeExtraRestartDistance,0
;   toolChangeRetractionSpeed,360
;   allowThinWallGapFill,1
;   thinWallAllowedOverlapPercentage,10
;   horizontalSizeCompensation,0
G90
M82
M106 S0
M104 S197 T0
M109 S197 T0
G28 ; home all axes
G92 E0
G1 E-6.5000 F4998
G1 Z0.200 F1002
; layer 1, Z = 0.2
T0
; tool H0.200 W0.490
; skirt
G1 X24.819 Y58.530 F3498
G1 E0.0000 F1499
G92 E0
G1 X49.607 Y58.530 E0.9493 F672
G1 X50.957 Y59.090 E1.0053
G1 X53.749 Y61.881 E1.1565
G1 X54.308 Y63.232 E1.2125
G1 X54.308 Y79.679 E1.8424
G1 X53.749 Y81.030 E1.8984
G1 X50.957 Y83.821 E2.0496
G1 X49.607 Y84.380 E2.1056
G1 X24.819 Y84.380 E3.0549
G1 X23.469 Y83.821 E3.1109
G1 X20.678 Y81.030 E3.2621
G1 X20.118 Y79.679 E3.3181
G1 X20.118 Y73.892 E3.5397
G1 X20.678 Y72.541 E3.5957
G1 X21.784 Y71.435 E3.6556
G1 X20.678 Y70.329 E3.7155
G1 X20.118 Y68.978 E3.7715
G1 X20.118 Y63.232 E3.9916
G1 X20.678 Y61.881 E4.0476
G1 X23.469 Y59.090 E4.1988
G1 X24.819 Y58.530 E4.2548
G1 X24.917 Y59.020 F3498
G92 E0
G1 X49.509 Y59.020 E0.9419 F672
G1 X50.680 Y59.505 E0.9904
G1 X53.333 Y62.159 E1.1341
G1 X53.818 Y63.329 E1.1826
G1 X53.818 Y79.582 E1.8051
G1 X53.333 Y80.752 E1.8536
G1 X50.680 Y83.406 E1.9973
G1 X49.509 Y83.890 E2.0458
G1 X24.917 Y83.890 E2.9877
G1 X23.746 Y83.406 E3.0362
G1 X21.093 Y80.752 E3.1799
G1 X20.608 Y79.582 E3.2285
G1 X20.608 Y73.989 E3.4427
G1 X21.093 Y72.819 E3.4912
G1 X22.477 Y71.435 E3.5661
G1 X21.093 Y70.051 E3.6411
G1 X20.608 Y68.881 E3.6896
G1 X20.608 Y63.329 E3.9022
G1 X21.093 Y62.159 E3.9507
G1 X23.746 Y59.505 E4.0944
G1 X24.917 Y59.020 E4.1430
G1 X25.014 Y59.510 F3498
G92 E0
G1 X49.412 Y59.510 E0.9344 F672
G1 X50.402 Y59.921 E0.9755
G1 X52.918 Y62.436 E1.1117
G1 X53.328 Y63.427 E1.1528
G1 X53.328 Y79.484 E1.7677
G1 X52.918 Y80.475 E1.8088
G1 X50.402 Y82.990 E1.9451
G1 X49.412 Y83.400 E1.9861
G1 X25.014 Y83.400 E2.9205
G1 X24.024 Y82.990 E2.9616
G1 X21.508 Y80.475 E3.0978
G1 X21.098 Y79.484 E3.1389
G1 X21.098 Y74.087 E3.3456
G1 X21.508 Y73.096 E3.3867
G1 X23.170 Y71.435 E3.4766
G1 X21.508 Y69.774 E3.5666
G1 X21.098 Y68.783 E3.6077
G1 X21.098 Y63.427 E3.8128
G1 X21.508 Y62.436 E3.8539
G1 X24.024 Y59.921 E3.9901
G1 X25.014 Y59.510 E4.0312
G1 X25.112 Y60.000 F3498
G92 E0
G1 X49.314 Y60.000 E0.9269 F672
G1 X50.125 Y60.336 E0.9605
G1 X52.502 Y62.714 E1.0893
G1 X52.838 Y63.524 E1.1229
G1 X52.838 Y79.387 E1.7304
G1 X52.502 Y80.197 E1.7640
G1 X50.125 Y82.575 E1.8928
G1 X49.314 Y82.910 E1.9264
G1 X25.112 Y82.910 E2.8533
G1 X24.301 Y82.575 E2.8869
G1 X21.924 Y80.197 E3.0157
G1 X21.588 Y79.387 E3.0493
G1 X21.588 Y74.184 E3.2485
G1 X21.924 Y73.374 E3.2821
G1 X23.863 Y71.435 E3.3871
G1 X21.924 Y69.496 E3.4922
G1 X21.588 Y68.686 E3.5257
G1 X21.588 Y63.524 E3.7234
G1 X21.924 Y62.714 E3.7570
G1 X24.301 Y60.336 E3.8858
G1 X25.112 Y60.000 E3.9194
G1 X25.209 Y60.490 F3498
G92 E0
G1 X49.217 Y60.490 E0.9195 F672
G1 X49.847 Y60.752 E0.9456
G1 X52.087 Y62.991 E1.0669
G1 X52.348 Y63.622 E1.0930
G1 X52.348 Y79.289 E1.6931
G1 X52.087 Y79.920 E1.7192
G1 X49.847 Y82.159 E1.8405
G1 X49.217 Y82.420 E1.8667
G1 X25.209 Y82.420 E2.7861
G1 X24.579 Y82.159 E2.8123
G1 X22.339 Y79.920 E2.9336
G1 X22.078 Y79.289 E2.9597
G1 X22.078 Y74.282 E3.1515
G1 X22.339 Y73.651 E3.1776
G1 X24.555 Y71.435 E3.2977
G1 X22.339 Y69.219 E3.4177
G1 X22.078 Y68.588 E3.4438
G1 X22.078 Y63.622 E3.6341
G1 X22.339 Y62.991 E3.6602
G1 X24.579 Y60.752 E3.7815
G1 X25.209 Y60.490 E3.8076
G1 X25.307 Y60.980 F3498
G92 E0
G1 X49.119 Y60.980 E0.9120 F672
G1 X49.570 Y61.167 E0.9307
G1 X51.672 Y63.269 E1.0445
G1 X51.858 Y63.719 E1.0632
G1 X51.858 Y79.192 E1.6558
G1 X51.672 Y79.642 E1.6744
G1 X49.570 Y81.744 E1.7883
G1 X49.119 Y81.930 E1.8069
G1 X25.307 Y81.930 E2.7189
G1 X24.857 Y81.744 E2.7376
G1 X22.755 Y79.642 E2.8515
G1 X22.568 Y79.192 E2.8701
G1 X22.568 Y74.379 E3.0544
G1 X22.755 Y73.929 E3.0731
G1 X24.857 Y71.827 E3.1869
G1 X25.307 Y71.640 E3.2056
G1 X30.921 Y71.640 E3.4206
G1 X30.921 Y71.230 E3.4364
G1 X25.307 Y71.230 E3.6514
G1 X24.857 Y71.043 E3.6700
G1 X22.755 Y68.941 E3.7839
G1 X22.568 Y68.491 E3.8025
G1 X22.568 Y63.719 E3.9853
G1 X22.755 Y63.269 E4.0040
G1 X24.857 Y61.167 E4.1178
G1 X25.307 Y60.980 E4.1365
G1 X25.404 Y61.470 F3498
G92 E0
G1 X49.022 Y61.470 E0.9045 F672
G1 X49.292 Y61.582 E0.9157
G1 X51.256 Y63.546 E1.0221
G1 X51.368 Y63.817 E1.0333
G1 X51.368 Y79.094 E1.6184
G1 X51.256 Y79.364 E1.6296
G1 X49.292 Y81.329 E1.7360
G1 X49.022 Y81.440 E1.7472
G1 X25.404 Y81.440 E2.6517
G1 X25.134 Y81.329 E2.6629
G1 X23.170 Y79.364 E2.7693
G1 X23.058 Y79.094 E2.7805
G1 X23.058 Y74.477 E2.9574
G1 X23.170 Y74.206 E2.9686
G1 X25.134 Y72.242 E3.0750
G1 X25.404 Y72.130 E3.0862
G1 X31.411 Y72.130 E3.3162
G1 X31.411 Y70.740 E3.3695
G1 X25.404 Y70.740 E3.5995
G1 X25.134 Y70.628 E3.6107
G1 X23.170 Y68.664 E3.7171
G1 X23.058 Y68.394 E3.7283
G1 X23.058 Y63.817 E3.9036
G1 X23.170 Y63.546 E3.9148
G1 X25.134 Y61.582 E4.0212
G1 X25.404 Y61.470 E4.0324
G1 X25.502 Y61.960 F3498
G92 E0
G1 X48.924 Y61.960 E0.8971 F672
G1 X49.014 Y61.998 E0.9008
G1 X50.841 Y63.824 E0.9997
G1 X50.878 Y63.914 E1.0034
G1 X50.878 Y78.997 E1.5811
G1 X50.841 Y79.087 E1.5848
G1 X49.014 Y80.913 E1.6838
G1 X48.924 Y80.950 E1.6875
G1 X25.502 Y80.950 E2.5846
G1 X25.412 Y80.913 E2.5883
G1 X23.585 Y79.087 E2.6872
G1 X23.548 Y78.997 E2.6909
G1 X23.548 Y74.574 E2.8603
G1 X23.585 Y74.484 E2.8641
G1 X25.412 Y72.658 E2.9630
G1 X25.502 Y72.620 E2.9667
G1 X31.901 Y72.620 E3.2118
G1 X31.901 Y70.250 E3.3026
G1 X25.502 Y70.250 E3.5477
G1 X25.412 Y70.212 E3.5514
G1 X23.585 Y68.386 E3.6503
G1 X23.548 Y68.296 E3.6540
G1 X23.548 Y63.914 E3.8219
G1 X23.585 Y63.824 E3.8256
G1 X25.412 Y61.998 E3.9245
G1 X25.502 Y61.960 E3.9283
G92 E0
G1 E-6.5000 F4998
; inner perimeter
G1 X36.371 Y66.430 F3498
G1 E0.0000 F4998
G92 E0
G1 X46.408 Y66.430 E0.3844 F560
G1 X46.408 Y76.480 E0.7693
G1 X36.371 Y76.480 E1.1537
G1 X36.371 Y66.430 E1.5386
; inner perimeter
G1 X35.407 Y65.940 F3498
G92 E0
G1 X46.898 Y65.940 E0.4401 F448
G1 X46.898 Y76.970 E0.8626
G1 X35.881 Y76.970 E1.2845
G1 X35.881 Y66.353 E1.6911
G1 X35.393 Y66.319 E1.7099
G1 X35.407 Y65.940 E1.7244
; outer perimeter
G1 X27.038 Y65.450 F3498
G92 E0
G1 X47.388 Y65.450 E0.7794 F336
G1 X47.388 Y77.460 E1.2394
G1 X27.038 Y77.460 E2.0187
G1 X27.038 Y76.110 E2.0704
G1 X34.275 Y76.110 E2.3476
G1 X35.391 Y76.154 E2.3904
G1 X35.391 Y66.810 E2.7482
G1 X34.742 Y66.764 E2.7732
G1 X34.238 Y66.760 E2.7925
G1 X27.038 Y66.760 E3.0682
G1 X27.038 Y65.450 E3.1183
G92 E0
G1 E-6.5000 F4998
; inner perimeter
G1 X37.199 Y70.220 F3498
G1 E0.0000 F4998
G92 E0
G1 X36.994 Y70.605 E0.0167 F560
G1 X36.867 Y71.022 E0.0334
G1 X36.824 Y71.455 E0.0501
G1 X36.867 Y71.889 E0.0668
G1 X36.994 Y72.306 E0.0835
G1 X37.199 Y72.691 E0.1002
G1 X37.476 Y73.028 E0.1169
G1 X37.813 Y73.304 E0.1336
G1 X38.197 Y73.510 E0.1503
G1 X38.614 Y73.636 E0.1669
G1 X39.048 Y73.679 E0.1836
G1 X39.482 Y73.636 E0.2003
G1 X39.899 Y73.510 E0.2170
G1 X40.284 Y73.304 E0.2337
G1 X40.621 Y73.028 E0.2504
G1 X40.897 Y72.691 E0.2671
G1 X41.103 Y72.306 E0.2838
G1 X41.229 Y71.889 E0.3005
G1 X41.272 Y71.455 E0.3172
G1 X41.229 Y71.022 E0.3339
G1 X41.103 Y70.604 E0.3506
G1 X40.897 Y70.220 E0.3673
G1 X40.621 Y69.883 E0.3840
G1 X40.284 Y69.607 E0.4007
G1 X39.899 Y69.401 E0.4174
G1 X39.482 Y69.275 E0.4341
G1 X39.048 Y69.232 E0.4508
G1 X38.614 Y69.275 E0.4675
G1 X38.197 Y69.401 E0.4842
G1 X37.813 Y69.607 E0.5009
G1 X37.476 Y69.883 E0.5176
G1 X37.199 Y70.220 E0.5342
; inner perimeter
G1 X37.609 Y70.494 F3498
G92 E0
G1 X37.449 Y70.793 E0.0130 F448
G1 X37.350 Y71.118 E0.0260
G1 X37.317 Y71.455 E0.0390
G1 X37.350 Y71.793 E0.0520
G1 X37.449 Y72.118 E0.0650
G1 X37.609 Y72.417 E0.0780
G1 X37.824 Y72.680 E0.0910
G1 X38.086 Y72.895 E0.1040
G1 X38.386 Y73.055 E0.1170
G1 X38.710 Y73.153 E0.1300
G1 X39.048 Y73.187 E0.1430
G1 X39.386 Y73.153 E0.1560
G1 X39.711 Y73.055 E0.1690
G1 X40.010 Y72.895 E0.1820
G1 X40.272 Y72.680 E0.1950
G1 X40.488 Y72.417 E0.2080
G1 X40.648 Y72.118 E0.2210
G1 X40.746 Y71.793 E0.2340
G1 X40.779 Y71.455 E0.2470
G1 X40.746 Y71.118 E0.2600
G1 X40.648 Y70.793 E0.2730
G1 X40.488 Y70.494 E0.2860
G1 X40.272 Y70.231 E0.2990
G1 X40.010 Y70.016 E0.3120
G1 X39.711 Y69.856 E0.3250
G1 X39.386 Y69.757 E0.3380
G1 X39.048 Y69.724 E0.3510
G1 X38.710 Y69.757 E0.3640
G1 X38.386 Y69.856 E0.3770
G1 X38.086 Y70.016 E0.3900
G1 X37.824 Y70.231 E0.4030
G1 X37.609 Y70.494 E0.4160
; outer perimeter
G1 X38.018 Y70.767 F3498
G92 E0
G1 X37.904 Y70.981 E0.0093 F336
G1 X37.833 Y71.214 E0.0186
G1 X37.809 Y71.455 E0.0279
G1 X37.833 Y71.697 E0.0372
G1 X37.904 Y71.930 E0.0465
G1 X38.018 Y72.144 E0.0558
G1 X38.172 Y72.332 E0.0651
G1 X38.360 Y72.486 E0.0744
G1 X38.574 Y72.600 E0.0837
G1 X38.806 Y72.671 E0.0930
G1 X39.048 Y72.694 E0.1023
G1 X39.290 Y72.671 E0.1116
G1 X39.522 Y72.600 E0.1209
G1 X39.736 Y72.486 E0.1302
G1 X39.924 Y72.332 E0.1395
G1 X40.078 Y72.144 E0.1488
G1 X40.193 Y71.930 E0.1581
G1 X40.263 Y71.697 E0.1674
G1 X40.287 Y71.455 E0.1767
G1 X40.263 Y71.214 E0.1860
G1 X40.193 Y70.981 E0.1953
G1 X40.078 Y70.767 E0.2046
G1 X39.924 Y70.579 E0.2139
G1 X39.736 Y70.425 E0.2232
G1 X39.522 Y70.311 E0.2325
G1 X39.290 Y70.240 E0.2418
G1 X39.048 Y70.217 E0.2511
G1 X38.806 Y70.240 E0.2604
G1 X38.574 Y70.311 E0.2698
G1 X38.360 Y70.425 E0.2791
G1 X38.172 Y70.579 E0.2884
G1 X38.018 Y70.767 E0.2977
; gap fill
G1 X34.939 Y65.872 F3498
G92 E0
G1 X34.470 Y66.340 E0.0254 F672
G1 X34.240 Y66.338 E0.0342
G1 X33.780 Y66.338 E0.0518
G1 X34.246 Y65.872 E0.0771
G1 X33.553 Y65.872 E0.1036
G1 X33.087 Y66.338 E0.1289
G1 X32.394 Y66.338 E0.1554
G1 X32.860 Y65.872 E0.1807
G1 X32.167 Y65.872 E0.2072
G1 X31.701 Y66.338 E0.2325
G1 X31.008 Y66.338 E0.2590
G1 X31.474 Y65.872 E0.2843
G1 X30.781 Y65.872 E0.3108
G1 X30.315 Y66.338 E0.3361
G1 X29.622 Y66.338 E0.3627
G1 X30.088 Y65.872 E0.3879
G1 X29.395 Y65.872 E0.4145
G1 X28.929 Y66.338 E0.4397
G1 X28.236 Y66.338 E0.4663
G1 X28.702 Y65.872 E0.4915
G1 X28.009 Y65.872 E0.5181
G1 X27.543 Y66.338 E0.5433
G92 E0
G1 E-6.5000 F4998
G1 X27.460 Y76.816 F3498
G1 E0.0000 F4998
G92 E0
G1 X27.744 Y76.532 E0.0154 F672
G1 X28.437 Y76.532 E0.0419
G1 X27.930 Y77.039 E0.0694
G1 X28.622 Y77.039 E0.0959
G1 X29.130 Y76.532 E0.1234
G1 X29.823 Y76.532 E0.1500
G1 X29.315 Y77.039 E0.1774
G1 X30.008 Y77.039 E0.2040
G1 X30.516 Y76.532 E0.2314
G1 X31.209 Y76.532 E0.2580
G1 X30.701 Y77.039 E0.2854
G1 X31.394 Y77.039 E0.3120
G1 X31.902 Y76.532 E0.3395
G1 X32.594 Y76.532 E0.3660
G1 X32.087 Y77.039 E0.3935
G1 X32.780 Y77.039 E0.4200
G1 X33.287 Y76.532 E0.4475
G1 X33.980 Y76.532 E0.4740
G1 X33.473 Y77.039 E0.5015
G1 X34.166 Y77.039 E0.5280
G1 X34.658 Y76.547 E0.5547
G1 X35.325 Y76.573 E0.5802
G1 X34.859 Y77.039 E0.6055
; solid layer
G1 X39.299 Y76.064 F3498
G92 E0
G1 X45.992 Y69.371 E0.3625 F538
G1 X45.992 Y70.064 E0.3890
G1 X39.992 Y76.064 E0.7140
G1 X40.685 Y76.064 E0.7405
G1 X45.992 Y70.757 E1.0279
G1 X45.992 Y71.450 E1.0545
G1 X41.378 Y76.064 E1.3044
G1 X42.071 Y76.064 E1.3309
G1 X45.992 Y72.143 E1.5432
G1 X45.992 Y72.836 E1.5698
G1 X42.764 Y76.064 E1.7446
G1 X43.457 Y76.064 E1.7711
G1 X45.992 Y73.529 E1.9084
G1 X45.992 Y74.222 E1.9350
G1 X44.150 Y76.064 E2.0347
G1 X44.843 Y76.064 E2.0613
G1 X45.992 Y74.915 E2.1235
G1 X45.992 Y75.608 E2.1500
G1 X45.536 Y76.064 E2.1747
G1 X36.871 Y72.948 F3498
G92 E0
