; G-Code generated by Simplify3D(R) Version 3.0.0
; Mrz 27, 2018 at 5:23:10 
; Settings Summary
;   processName,Process1
;   applyToModels,cam_lead_02
;   profileName,Renkforce (modified)
;   profileVersion,2017-10-17 11:10:50
;   baseProfile,German RepRap NEO (modified)
;   printMaterial,
;   printQuality,
;   printExtruders,
;   extruderName,Primary Extruder
;   extruderToolheadNumber,0
;   extruderDiameter,0.5
;   extruderAutoWidth,0
;   extruderWidth,0.49
;   extrusionMultiplier,0.94
;   extruderUseRetract,1
;   extruderRetractionDistance,6.5
;   extruderExtraRestartDistance,0
;   extruderRetractionZLift,0
;   extruderRetractionSpeed,4998
;   extruderUseCoasting,0
;   extruderCoastingDistance,0.2
;   extruderUseWipe,0
;   extruderWipeDistance,5
;   primaryExtruder,0
;   layerHeight,0.2
;   topSolidLayers,4
;   bottomSolidLayers,3
;   perimeterOutlines,3
;   printPerimetersInsideOut,1
;   startPointOption,2
;   startPointOriginX,0
;   startPointOriginY,0
;   startPointOriginZ,300
;   sequentialIslands,0
;   spiralVaseMode,0
;   firstLayerHeightPercentage,100
;   firstLayerWidthPercentage,100
;   firstLayerUnderspeed,0.28
;   useRaft,0
;   raftExtruder,0
;   raftLayers,3
;   raftOffset,3
;   raftSeparationDistance,0.1
;   raftInfill,85
;   disableRaftBaseLayers,0
;   useSkirt,1
;   skirtExtruder,0
;   skirtLayers,1
;   skirtOutlines,8
;   skirtOffset,3
;   usePrimePillar,0
;   primePillarExtruder,999
;   primePillarWidth,12
;   primePillarLocation,7
;   primePillarSpeedMultiplier,1
;   useOozeShield,0
;   oozeShieldExtruder,999
;   oozeShieldOffset,2
;   oozeShieldOutlines,1
;   oozeShieldSidewallShape,1
;   oozeShieldSidewallAngle,30
;   oozeShieldSpeedMultiplier,1
;   infillExtruder,0
;   internalInfillPattern,Full Honeycomb
;   externalInfillPattern,Rectilinear
;   infillPercentage,8
;   outlineOverlapPercentage,15
;   infillExtrusionWidthPercentage,100
;   minInfillLength,3
;   infillLayerInterval,1
;   infillAngles,0,120,-120
;   overlapInfillAngles,0
;   generateSupport,1
;   supportExtruder,0
;   supportInfillPercentage,30
;   supportExtraInflation,1
;   denseSupportLayers,0
;   denseSupportInfillPercentage,75
;   supportLayerInterval,1
;   supportHorizontalPartOffset,1.5
;   supportUpperSeparationLayers,1
;   supportLowerSeparationLayers,1
;   supportType,0
;   supportGridSpacing,5
;   maxOverhangAngle,45
;   supportAngles,45
;   temperatureName,Primary Extruder
;   temperatureNumber,0
;   temperatureSetpointCount,3
;   temperatureSetpointLayers,1,2,3
;   temperatureSetpointTemperatures,197,193,189
;   temperatureStabilizeAtStartup,1
;   temperatureHeatedBed,0
;   temperatureRelayBetweenLayers,0
;   temperatureRelayBetweenLoops,0
;   fanLayers,1,3
;   fanSpeeds,0,80
;   blipFanToFullPower,0
;   adjustSpeedForCooling,1
;   minSpeedLayerTime,15
;   minCoolingSpeedSlowdown,20
;   increaseFanForCooling,0
;   minFanLayerTime,45
;   maxCoolingFanSpeed,100
;   increaseFanForBridging,0
;   bridgingFanSpeed,100
;   use5D,1
;   relativeEdistances,0
;   allowEaxisZeroing,1
;   independentExtruderAxes,0
;   includeM10123,0
;   stickySupport,1
;   applyToolheadOffsets,0
;   gcodeXoffset,0
;   gcodeYoffset,0
;   gcodeZoffset,0
;   overrideMachineDefinition,1
;   machineTypeOverride,0
;   strokeXoverride,150
;   strokeYoverride,150
;   strokeZoverride,150
;   originOffsetXoverride,0
;   originOffsetYoverride,0
;   originOffsetZoverride,0
;   homeXdirOverride,-1
;   homeYdirOverride,-1
;   homeZdirOverride,-1
;   flipXoverride,1
;   flipYoverride,-1
;   flipZoverride,1
;   toolheadOffsets,0,0|0,0|0,0|0,0|0,0|0,0
;   overrideFirmwareConfiguration,0
;   firmwareTypeOverride,RepRap (Marlin/Repetier/Sprinter)
;   GPXconfigOverride,r2
;   baudRateOverride,115200
;   overridePrinterModels,0
;   printerModelsOverride
;   startingGcode,G28 ; home all axes
;   layerChangeGcode,
;   retractionGcode,
;   toolChangeGcode,
;   endingGcode,M104 S0 ; turn off extruder,M140 S0 ; turn off bed,G28 X0  ; home X axis,G28 Y0  ; home Y axis,M84 ; disable motors,M107
;   createX3G,0
;   celebration,0
;   celebrationSong,Random Song
;   createMB5G,0
;   postProcessing,
;   defaultSpeed,2400
;   outlineUnderspeed,0.5
;   solidInfillUnderspeed,0.8
;   supportUnderspeed,0.8
;   rapidXYspeed,3498
;   rapidZspeed,1002
;   minBridgingArea,50
;   bridgingExtraInflation,0
;   bridgingExtrusionMultiplier,1
;   bridgingSpeedMultiplier,1
;   filamentDiameter,1.75
;   filamentPricePerKg,46
;   filamentDensity,1.25
;   useMinPrintHeight,0
;   minPrintHeight,0
;   useMaxPrintHeight,0
;   maxPrintHeight,0
;   useDiaphragm,0
;   diaphragmLayerInterval,20
;   robustSlicing,1
;   mergeAllIntoSolid,0
;   onlyRetractWhenCrossingOutline,1
;   retractBetweenLayers,1
;   useRetractionMinTravel,0
;   retractionMinTravel,3
;   retractWhileWiping,0
;   onlyWipeOutlines,1
;   avoidCrossingOutline,0
;   maxMovementDetourFactor,10
;   toolChangeRetractionDistance,0
;   toolChangeExtraRestartDistance,0
;   toolChangeRetractionSpeed,360
;   allowThinWallGapFill,1
;   thinWallAllowedOverlapPercentage,10
;   horizontalSizeCompensation,0
G90
M82
M106 S0
M104 S197 T0
M109 S197 T0
G28 ; home all axes
G92 E0
G1 E-6.5000 F4998
G1 Z0.200 F1002
; layer 1, Z = 0.2
T0
; tool H0.200 W0.490
; skirt
G1 X10.603 Y9.748 F3498
G1 E0.0000 F1499
G92 E0
G1 X13.394 Y6.956 E0.1512 F672
G1 X14.745 Y6.397 E0.2072
G1 X28.292 Y6.397 E0.7260
G1 X29.643 Y6.956 E0.7820
G1 X32.434 Y9.748 E0.9332
G1 X32.993 Y11.098 E0.9892
G1 X32.993 Y31.720 E1.7789
G1 X32.434 Y33.071 E1.8349
G1 X29.643 Y35.862 E1.9861
G1 X28.292 Y36.421 E2.0421
G1 X14.745 Y36.421 E2.5609
G1 X13.394 Y35.862 E2.6169
G1 X10.603 Y33.071 E2.7681
G1 X10.044 Y31.720 E2.8241
G1 X10.044 Y23.851 E3.1255
G1 X10.603 Y22.500 E3.1815
G1 X11.694 Y21.409 E3.2406
G1 X10.603 Y20.318 E3.2996
G1 X10.044 Y18.968 E3.3556
G1 X10.044 Y11.098 E3.6570
G1 X10.603 Y9.748 E3.7130
G1 X11.019 Y10.025 F3498
G92 E0
G1 X13.672 Y7.372 E0.1437 F672
G1 X14.843 Y6.887 E0.1922
G1 X28.194 Y6.887 E0.7036
G1 X29.365 Y7.372 E0.7521
G1 X32.018 Y10.025 E0.8958
G1 X32.503 Y11.196 E0.9444
G1 X32.503 Y31.622 E1.7267
G1 X32.018 Y32.793 E1.7752
G1 X29.365 Y35.446 E1.9189
G1 X28.194 Y35.931 E1.9675
G1 X14.843 Y35.931 E2.4788
G1 X13.672 Y35.446 E2.5273
G1 X11.019 Y32.793 E2.6710
G1 X10.534 Y31.622 E2.7196
G1 X10.534 Y23.948 E3.0135
G1 X11.019 Y22.778 E3.0620
G1 X12.387 Y21.409 E3.1361
G1 X11.019 Y20.041 E3.2103
G1 X10.534 Y18.870 E3.2588
G1 X10.534 Y11.196 E3.5527
G1 X11.019 Y10.025 E3.6012
G1 X11.434 Y10.303 F3498
G92 E0
G1 X13.950 Y7.787 E0.1362 F672
G1 X14.940 Y7.377 E0.1773
G1 X28.097 Y7.377 E0.6812
G1 X29.087 Y7.787 E0.7223
G1 X31.603 Y10.303 E0.8585
G1 X32.013 Y11.293 E0.8996
G1 X32.013 Y31.525 E1.6744
G1 X31.603 Y32.516 E1.7155
G1 X29.087 Y35.031 E1.8517
G1 X28.097 Y35.441 E1.8928
G1 X14.940 Y35.441 E2.3967
G1 X13.950 Y35.031 E2.4377
G1 X11.434 Y32.516 E2.5740
G1 X11.024 Y31.525 E2.6151
G1 X11.024 Y24.046 E2.9015
G1 X11.434 Y23.055 E2.9426
G1 X13.080 Y21.409 E3.0317
G1 X11.434 Y19.763 E3.1209
G1 X11.024 Y18.773 E3.1619
G1 X11.024 Y11.293 E3.4484
G1 X11.434 Y10.303 E3.4895
G1 X11.850 Y10.580 F3498
G92 E0
G1 X14.227 Y8.203 E0.1288 F672
G1 X15.038 Y7.867 E0.1624
G1 X27.999 Y7.867 E0.6588
G1 X28.810 Y8.203 E0.6924
G1 X31.187 Y10.580 E0.8212
G1 X31.523 Y11.391 E0.8548
G1 X31.523 Y31.428 E1.6222
G1 X31.187 Y32.238 E1.6558
G1 X28.810 Y34.616 E1.7845
G1 X27.999 Y34.951 E1.8181
G1 X15.038 Y34.951 E2.3146
G1 X14.227 Y34.616 E2.3482
G1 X11.850 Y32.238 E2.4769
G1 X11.514 Y31.428 E2.5105
G1 X11.514 Y24.143 E2.7895
G1 X11.850 Y23.333 E2.8231
G1 X13.773 Y21.409 E2.9273
G1 X11.850 Y19.486 E3.0315
G1 X11.514 Y18.675 E3.0651
G1 X11.514 Y11.391 E3.3441
G1 X11.850 Y10.580 E3.3777
G1 X12.265 Y10.858 F3498
G92 E0
G1 X14.505 Y8.618 E0.1213 F672
G1 X15.135 Y8.357 E0.1474
G1 X27.902 Y8.357 E0.6364
G1 X28.532 Y8.618 E0.6625
G1 X30.772 Y10.858 E0.7838
G1 X31.033 Y11.488 E0.8100
G1 X31.033 Y31.330 E1.5699
G1 X30.772 Y31.960 E1.5960
G1 X28.532 Y34.200 E1.7173
G1 X27.902 Y34.461 E1.7435
G1 X15.135 Y34.461 E2.2324
G1 X14.505 Y34.200 E2.2586
G1 X12.265 Y31.960 E2.3799
G1 X12.004 Y31.330 E2.4060
G1 X12.004 Y24.241 E2.6775
G1 X12.265 Y23.610 E2.7037
G1 X14.466 Y21.409 E2.8229
G1 X12.265 Y19.208 E2.9421
G1 X12.004 Y18.578 E2.9682
G1 X12.004 Y11.488 E3.2398
G1 X12.265 Y10.858 E3.2659
G1 X19.103 Y21.409 F3498
G92 E0
G1 X20.270 Y21.980 E0.0498 F672
G1 X20.508 Y22.174 E0.0615
G1 X20.508 Y20.644 E0.1201
G1 X20.270 Y20.838 E0.1319
G1 X19.103 Y21.409 E0.1817
G1 X18.506 Y21.156 F3498
G92 E0
G1 X18.233 Y21.219 E0.0107 F672
G1 X15.233 Y21.219 E0.1256
G1 X14.782 Y21.032 E0.1443
G1 X12.680 Y18.930 E0.2581
G1 X12.494 Y18.480 E0.2768
G1 X12.494 Y11.586 E0.5409
G1 X12.680 Y11.135 E0.5595
G1 X14.782 Y9.033 E0.6734
G1 X15.233 Y8.847 E0.6920
G1 X27.804 Y8.847 E1.1735
G1 X28.255 Y9.033 E1.1922
G1 X30.357 Y11.135 E1.3060
G1 X30.543 Y11.586 E1.3247
G1 X30.543 Y31.233 E2.0772
G1 X30.357 Y31.683 E2.0958
G1 X28.255 Y33.785 E2.2097
G1 X27.804 Y33.971 E2.2283
G1 X15.233 Y33.971 E2.7098
G1 X14.782 Y33.785 E2.7285
G1 X12.680 Y31.683 E2.8424
G1 X12.494 Y31.233 E2.8610
G1 X12.494 Y24.338 E3.1251
G1 X12.680 Y23.888 E3.1437
G1 X14.782 Y21.786 E3.2576
G1 X15.233 Y21.599 E3.2763
G1 X18.233 Y21.599 E3.3912
G1 X18.506 Y21.663 E3.4019
G1 X20.005 Y22.396 E3.4658
G1 X20.222 Y22.572 E3.4765
G1 X20.998 Y23.571 E3.5250
G1 X20.998 Y19.247 E3.6906
G1 X20.222 Y20.246 E3.7390
G1 X20.005 Y20.422 E3.7498
G1 X18.506 Y21.156 E3.8137
G1 X18.341 Y20.691 F3498
G92 E0
G1 X18.177 Y20.729 E0.0064 F672
G1 X15.330 Y20.729 E0.1155
G1 X15.060 Y20.617 E0.1267
G1 X13.096 Y18.653 E0.2331
G1 X12.984 Y18.383 E0.2442
G1 X12.984 Y11.683 E0.5008
G1 X13.096 Y11.413 E0.5120
G1 X15.060 Y9.449 E0.6184
G1 X15.330 Y9.337 E0.6296
G1 X27.707 Y9.337 E1.1036
G1 X27.977 Y9.449 E1.1148
G1 X29.941 Y11.413 E1.2212
G1 X30.053 Y11.683 E1.2324
G1 X30.053 Y31.135 E1.9774
G1 X29.941 Y31.405 E1.9886
G1 X27.977 Y33.369 E2.0950
G1 X27.707 Y33.481 E2.1062
G1 X15.330 Y33.481 E2.5802
G1 X15.060 Y33.369 E2.5914
G1 X13.096 Y31.405 E2.6978
G1 X12.984 Y31.135 E2.7090
G1 X12.984 Y24.436 E2.9656
G1 X13.096 Y24.165 E2.9768
G1 X15.060 Y22.201 E3.0832
G1 X15.330 Y22.089 E3.0944
G1 X18.177 Y22.089 E3.2034
G1 X18.341 Y22.127 E3.2098
G1 X19.739 Y22.811 E3.2695
G1 X19.869 Y22.917 E3.2759
G1 X21.109 Y24.511 E3.3532
G1 X21.488 Y24.511 E3.3678
G1 X21.488 Y18.307 E3.6054
G1 X21.109 Y18.307 E3.6199
G1 X19.869 Y19.901 E3.6973
G1 X19.739 Y20.007 E3.7037
G1 X18.341 Y20.691 E3.7633
G1 X18.176 Y20.226 F3498
G92 E0
G1 X18.121 Y20.239 E0.0021 F672
G1 X15.427 Y20.239 E0.1053
G1 X15.337 Y20.202 E0.1090
G1 X13.511 Y18.375 E0.2080
G1 X13.474 Y18.285 E0.2117
G1 X13.474 Y11.781 E0.4608
G1 X13.511 Y11.691 E0.4645
G1 X15.337 Y9.864 E0.5635
G1 X15.427 Y9.827 E0.5672
G1 X27.610 Y9.827 E1.0338
G1 X27.700 Y9.864 E1.0375
G1 X29.526 Y11.691 E1.1364
G1 X29.563 Y11.781 E1.1401
G1 X29.563 Y31.038 E1.8777
G1 X29.526 Y31.128 E1.8814
G1 X27.700 Y32.954 E1.9803
G1 X27.610 Y32.991 E1.9840
G1 X15.427 Y32.991 E2.4506
G1 X15.337 Y32.954 E2.4543
G1 X13.511 Y31.128 E2.5533
G1 X13.474 Y31.038 E2.5570
G1 X13.474 Y24.533 E2.8061
G1 X13.511 Y24.443 E2.8098
G1 X15.337 Y22.617 E2.9088
G1 X15.427 Y22.579 E2.9125
G1 X18.121 Y22.579 E3.0157
G1 X18.176 Y22.592 E3.0178
G1 X19.473 Y23.227 E3.0731
G1 X19.517 Y23.262 E3.0753
G1 X20.869 Y25.001 E3.1597
G1 X21.978 Y25.001 E3.2021
G1 X21.978 Y17.817 E3.4773
G1 X20.869 Y17.817 E3.5198
G1 X19.517 Y19.556 E3.6042
G1 X19.473 Y19.591 E3.6063
G1 X18.176 Y20.226 E3.6616
G92 E0
G1 E-6.5000 F4998
; inner perimeter
; inner perimeter
; outer perimeter
G1 X17.279 Y16.749 F3498
G1 E0.0000 F4998
G92 E0
G1 X16.964 Y16.749 E0.0121 F336
G1 X16.964 Y13.317 E0.1435
G1 X26.073 Y13.317 E0.4924
G1 X26.073 Y29.501 E1.1122
G1 X16.964 Y29.501 E1.4611
G1 X16.964 Y26.069 E1.5925
G1 X17.279 Y26.069 E1.6046
G1 X17.978 Y26.969 E1.6482
G1 X17.978 Y28.491 E1.7065
G1 X25.468 Y28.491 E1.9934
G1 X25.468 Y14.327 E2.5359
G1 X17.978 Y14.327 E2.8228
G1 X17.978 Y15.850 E2.8811
G1 X17.279 Y16.749 E2.9247
; gap fill
G1 X17.385 Y15.885 F3498
G92 E0
G1 X17.526 Y15.744 E0.0076 F672
G1 X17.557 Y15.705 E0.0095
G1 X17.557 Y15.021 E0.0357
G1 X17.385 Y15.192 E0.0450
G1 X17.385 Y14.499 E0.0716
G1 X17.557 Y14.328 E0.0808
G1 X17.557 Y13.906 E0.0970
G1 X17.979 Y13.906 E0.1132
G1 X18.146 Y13.738 E0.1222
G1 X17.453 Y13.738 E0.1488
G1 X17.385 Y13.806 E0.1525
G1 X18.672 Y13.906 F3498
G92 E0
G1 X18.839 Y13.738 E0.0091 F672
G1 X19.532 Y13.738 E0.0356
G1 X19.365 Y13.906 E0.0447
G1 X20.058 Y13.906 E0.0712
G1 X20.225 Y13.738 E0.0802
G1 X20.918 Y13.738 E0.1068
G1 X20.751 Y13.906 E0.1158
G1 X21.444 Y13.906 E0.1424
G1 X21.611 Y13.738 E0.1514
G1 X22.304 Y13.738 E0.1780
G1 X22.137 Y13.906 E0.1870
G1 X22.830 Y13.906 E0.2136
G1 X22.997 Y13.738 E0.2226
G1 X23.690 Y13.738 E0.2492
G1 X23.523 Y13.906 E0.2582
G1 X24.216 Y13.906 E0.2848
G1 X24.383 Y13.738 E0.2938
G1 X25.076 Y13.738 E0.3204
G1 X24.908 Y13.906 E0.3294
G1 X25.601 Y13.906 E0.3560
G1 X25.652 Y13.855 E0.3587
G92 E0
G1 E-6.5000 F4998
G1 X25.147 Y28.913 F3498
G1 E0.0000 F4998
G92 E0
G1 X24.979 Y29.080 E0.0091 F672
G1 X24.286 Y29.080 E0.0356
G1 X24.454 Y28.913 E0.0447
G1 X23.761 Y28.913 E0.0712
G1 X23.593 Y29.080 E0.0802
G1 X22.900 Y29.080 E0.1068
G1 X23.068 Y28.913 E0.1158
G1 X22.375 Y28.913 E0.1424
G1 X22.207 Y29.080 E0.1514
G1 X21.515 Y29.080 E0.1780
G1 X21.682 Y28.913 E0.1870
G1 X20.989 Y28.913 E0.2136
G1 X20.822 Y29.080 E0.2226
G1 X20.129 Y29.080 E0.2492
G1 X20.296 Y28.913 E0.2582
G1 X19.603 Y28.913 E0.2848
G1 X19.436 Y29.080 E0.2938
G1 X18.743 Y29.080 E0.3204
G1 X18.910 Y28.913 E0.3294
G1 X18.217 Y28.913 E0.3560
G1 X18.050 Y29.080 E0.3650
G1 X17.385 Y29.080 E0.3905
G1 X17.385 Y29.051 E0.3916
G1 X17.557 Y28.880 E0.4008
G1 X17.557 Y28.187 E0.4274
G1 X17.385 Y28.358 E0.4367
G1 X17.385 Y27.666 E0.4632
G1 X17.557 Y27.494 E0.4725
G1 X17.557 Y27.113 E0.4871
G1 X17.420 Y26.938 E0.4956
G1 X17.385 Y26.973 E0.4975
G92 E0
G1 E-6.5000 F4998
; layer 2, Z = 0.4
M104 S193 T0
; inner perimeter
; inner perimeter
; outer perimeter
G1 X17.978 Y26.969 F3498
G1 Z0.400 F1002
G1 E0.0000 F4998
G92 E0
G1 X17.978 Y28.491 E0.0583 F355
G1 X25.285 Y28.491 E0.3382
G1 X25.285 Y14.327 E0.8807
G1 X17.978 Y14.327 E1.1605
G1 X17.978 Y15.850 E1.2188
G1 X17.279 Y16.749 E1.2625
G1 X16.964 Y16.749 E1.2745
G1 X16.964 Y13.317 E1.4060
G1 X25.890 Y13.317 E1.7478
G1 X25.890 Y29.501 E2.3677
G1 X16.964 Y29.501 E2.7095
G1 X16.964 Y26.069 E2.8410
G1 X17.279 Y26.069 E2.8530
G1 X17.978 Y26.969 E2.8966
; gap fill
G1 X17.526 Y27.074 F3498
G92 E0
G1 X17.385 Y26.933 E0.0076 F710
G1 X17.385 Y27.626 E0.0342
G1 X17.557 Y27.798 E0.0434
G1 X17.557 Y28.490 E0.0700
G1 X17.385 Y28.319 E0.0793
G1 X17.385 Y29.012 E0.1058
G1 X17.453 Y29.080 E0.1095
G1 X18.146 Y29.080 E0.1360
G1 X17.979 Y28.913 E0.1451
G1 X18.672 Y28.913 E0.1716
G1 X18.839 Y29.080 E0.1807
G1 X19.532 Y29.080 E0.2072
G1 X19.365 Y28.913 E0.2163
G1 X20.058 Y28.913 E0.2428
G1 X20.225 Y29.080 E0.2519
G1 X20.918 Y29.080 E0.2784
G1 X20.751 Y28.913 E0.2875
G1 X21.444 Y28.913 E0.3140
G1 X21.611 Y29.080 E0.3231
G1 X22.304 Y29.080 E0.3496
G1 X22.137 Y28.913 E0.3587
G1 X22.830 Y28.913 E0.3852
G1 X22.997 Y29.080 E0.3942
G1 X23.690 Y29.080 E0.4208
G1 X23.523 Y28.913 E0.4298
G1 X24.215 Y28.913 E0.4564
G1 X24.383 Y29.080 E0.4654
G1 X25.076 Y29.080 E0.4920
G1 X24.908 Y28.913 E0.5010
G92 E0
G1 E-6.5000 F4998
G1 X17.420 Y15.881 F3498
G1 E0.0000 F4998
G92 E0
G1 X17.385 Y15.846 E0.0019 F710
G1 X17.385 Y15.153 E0.0284
G1 X17.557 Y15.324 E0.0377
G1 X17.557 Y14.631 E0.0642
G1 X17.385 Y14.460 E0.0735
G1 X17.385 Y13.767 E0.1001
G1 X17.557 Y13.938 E0.1093
G1 X17.557 Y13.906 E0.1106
G1 X18.217 Y13.906 E0.1359
G1 X18.050 Y13.738 E0.1449
G1 X18.743 Y13.738 E0.1715
G1 X18.910 Y13.906 E0.1805
G1 X19.603 Y13.906 E0.2071
G1 X19.436 Y13.738 E0.2161
G1 X20.129 Y13.738 E0.2427
G1 X20.296 Y13.906 E0.2517
G1 X20.989 Y13.906 E0.2783
G1 X20.822 Y13.738 E0.2873
G1 X21.515 Y13.738 E0.3139
G1 X21.682 Y13.906 E0.3229
G1 X22.375 Y13.906 E0.3495
G1 X22.207 Y13.738 E0.3585
G1 X22.900 Y13.738 E0.3851
G1 X23.068 Y13.906 E0.3941
G1 X23.761 Y13.906 E0.4207
G1 X23.593 Y13.738 E0.4297
G1 X24.286 Y13.738 E0.4563
G1 X24.454 Y13.906 E0.4653
G1 X25.147 Y13.906 E0.4918
