; G-Code generated by Simplify3D(R) Version 3.0.0
; Mrz 27, 2018 at 2:33:23 
; Settings Summary
;   processName,Process1
;   applyToModels,controllerbox
;   profileName,Renkforce (modified)
;   profileVersion,2017-10-17 11:10:50
;   baseProfile,German RepRap NEO (modified)
;   printMaterial,
;   printQuality,
;   printExtruders,
;   extruderName,Primary Extruder
;   extruderToolheadNumber,0
;   extruderDiameter,0.5
;   extruderAutoWidth,0
;   extruderWidth,0.49
;   extrusionMultiplier,0.94
;   extruderUseRetract,1
;   extruderRetractionDistance,6.5
;   extruderExtraRestartDistance,0
;   extruderRetractionZLift,0
;   extruderRetractionSpeed,4998
;   extruderUseCoasting,0
;   extruderCoastingDistance,0.2
;   extruderUseWipe,0
;   extruderWipeDistance,5
;   primaryExtruder,0
;   layerHeight,0.2
;   topSolidLayers,4
;   bottomSolidLayers,3
;   perimeterOutlines,3
;   printPerimetersInsideOut,1
;   startPointOption,2
;   startPointOriginX,0
;   startPointOriginY,0
;   startPointOriginZ,300
;   sequentialIslands,0
;   spiralVaseMode,0
;   firstLayerHeightPercentage,100
;   firstLayerWidthPercentage,100
;   firstLayerUnderspeed,0.28
;   useRaft,0
;   raftExtruder,0
;   raftLayers,3
;   raftOffset,3
;   raftSeparationDistance,0.1
;   raftInfill,85
;   disableRaftBaseLayers,0
;   useSkirt,1
;   skirtExtruder,0
;   skirtLayers,1
;   skirtOutlines,6
;   skirtOffset,0
;   usePrimePillar,0
;   primePillarExtruder,999
;   primePillarWidth,12
;   primePillarLocation,7
;   primePillarSpeedMultiplier,1
;   useOozeShield,0
;   oozeShieldExtruder,999
;   oozeShieldOffset,2
;   oozeShieldOutlines,1
;   oozeShieldSidewallShape,1
;   oozeShieldSidewallAngle,30
;   oozeShieldSpeedMultiplier,1
;   infillExtruder,0
;   internalInfillPattern,Full Honeycomb
;   externalInfillPattern,Rectilinear
;   infillPercentage,8
;   outlineOverlapPercentage,15
;   infillExtrusionWidthPercentage,100
;   minInfillLength,3
;   infillLayerInterval,1
;   infillAngles,0,120,-120
;   overlapInfillAngles,0
;   generateSupport,1
;   supportExtruder,0
;   supportInfillPercentage,30
;   supportExtraInflation,1
;   denseSupportLayers,0
;   denseSupportInfillPercentage,75
;   supportLayerInterval,1
;   supportHorizontalPartOffset,1.5
;   supportUpperSeparationLayers,1
;   supportLowerSeparationLayers,1
;   supportType,0
;   supportGridSpacing,5
;   maxOverhangAngle,45
;   supportAngles,45
;   temperatureName,Primary Extruder
;   temperatureNumber,0
;   temperatureSetpointCount,3
;   temperatureSetpointLayers,1,2,3
;   temperatureSetpointTemperatures,197,193,189
;   temperatureStabilizeAtStartup,1
;   temperatureHeatedBed,0
;   temperatureRelayBetweenLayers,0
;   temperatureRelayBetweenLoops,0
;   fanLayers,1,3
;   fanSpeeds,0,80
;   blipFanToFullPower,0
;   adjustSpeedForCooling,1
;   minSpeedLayerTime,15
;   minCoolingSpeedSlowdown,20
;   increaseFanForCooling,0
;   minFanLayerTime,45
;   maxCoolingFanSpeed,100
;   increaseFanForBridging,0
;   bridgingFanSpeed,100
;   use5D,1
;   relativeEdistances,0
;   allowEaxisZeroing,1
;   independentExtruderAxes,0
;   includeM10123,0
;   stickySupport,1
;   applyToolheadOffsets,0
;   gcodeXoffset,0
;   gcodeYoffset,0
;   gcodeZoffset,0
;   overrideMachineDefinition,1
;   machineTypeOverride,0
;   strokeXoverride,150
;   strokeYoverride,150
;   strokeZoverride,150
;   originOffsetXoverride,0
;   originOffsetYoverride,0
;   originOffsetZoverride,0
;   homeXdirOverride,-1
;   homeYdirOverride,-1
;   homeZdirOverride,-1
;   flipXoverride,1
;   flipYoverride,-1
;   flipZoverride,1
;   toolheadOffsets,0,0|0,0|0,0|0,0|0,0|0,0
;   overrideFirmwareConfiguration,0
;   firmwareTypeOverride,RepRap (Marlin/Repetier/Sprinter)
;   GPXconfigOverride,r2
;   baudRateOverride,115200
;   overridePrinterModels,0
;   printerModelsOverride
;   startingGcode,G28 ; home all axes
;   layerChangeGcode,
;   retractionGcode,
;   toolChangeGcode,
;   endingGcode,M104 S0 ; turn off extruder,M140 S0 ; turn off bed,G28 X0  ; home X axis,G28 Y0  ; home Y axis,M84 ; disable motors,M107
;   createX3G,0
;   celebration,0
;   celebrationSong,Random Song
;   createMB5G,0
;   postProcessing,
;   defaultSpeed,2400
;   outlineUnderspeed,0.5
;   solidInfillUnderspeed,0.8
;   supportUnderspeed,0.8
;   rapidXYspeed,3498
;   rapidZspeed,1002
;   minBridgingArea,50
;   bridgingExtraInflation,0
;   bridgingExtrusionMultiplier,1
;   bridgingSpeedMultiplier,1
;   filamentDiameter,1.75
;   filamentPricePerKg,46
;   filamentDensity,1.25
;   useMinPrintHeight,0
;   minPrintHeight,0
;   useMaxPrintHeight,0
;   maxPrintHeight,0
;   useDiaphragm,0
;   diaphragmLayerInterval,20
;   robustSlicing,1
;   mergeAllIntoSolid,0
;   onlyRetractWhenCrossingOutline,1
;   retractBetweenLayers,1
;   useRetractionMinTravel,0
;   retractionMinTravel,3
;   retractWhileWiping,0
;   onlyWipeOutlines,1
;   avoidCrossingOutline,0
;   maxMovementDetourFactor,10
;   toolChangeRetractionDistance,0
;   toolChangeExtraRestartDistance,0
;   toolChangeRetractionSpeed,360
;   allowThinWallGapFill,1
;   thinWallAllowedOverlapPercentage,10
;   horizontalSizeCompensation,0
G90
M82
M106 S0
M104 S197 T0
M109 S197 T0
G28 ; home all axes
G92 E0
G1 E-6.5000 F4998
G1 Z0.200 F1002
; layer 1, Z = 0.2
T0
; tool H0.200 W0.490
; skirt
G1 X12.545 Y14.192 F3498
G1 E0.0000 F1499
G92 E0
G1 X55.462 Y14.192 E1.6437 F672
G1 X56.841 Y17.519 E1.7816
G1 X54.188 Y20.172 E1.9253
G1 X53.198 Y20.582 E1.9663
G1 X47.758 Y20.582 E2.1747
G1 X47.732 Y20.713 E2.1798
G1 X47.529 Y21.204 E2.2001
G1 X46.545 Y22.675 E2.2679
G1 X46.170 Y23.050 E2.2882
G1 X44.699 Y24.034 E2.3560
G1 X44.208 Y24.237 E2.3764
G1 X42.603 Y24.556 E2.4390
G1 X42.339 Y24.582 E2.4492
G1 X41.446 Y24.582 E2.4834
G1 X41.182 Y24.556 E2.4935
G1 X39.577 Y24.237 E2.5562
G1 X39.087 Y24.034 E2.5766
G1 X37.615 Y23.050 E2.6443
G1 X37.240 Y22.675 E2.6647
G1 X36.257 Y21.204 E2.7324
G1 X36.053 Y20.713 E2.7528
G1 X36.027 Y20.582 E2.7579
G1 X17.357 Y20.582 E3.4730
G1 X17.357 Y25.939 E3.6781
G1 X17.741 Y26.084 E3.6939
G1 X19.281 Y27.010 E3.7627
G1 X19.672 Y27.365 E3.7829
G1 X20.737 Y28.798 E3.8513
G1 X20.973 Y29.317 E3.8731
G1 X21.325 Y30.909 E3.9356
G1 X21.357 Y31.200 E3.9468
G1 X21.357 Y32.583 E3.9998
G1 X21.325 Y32.875 E4.0110
G1 X20.973 Y34.467 E4.0735
G1 X20.737 Y34.985 E4.0953
G1 X19.672 Y36.419 E4.1636
G1 X19.281 Y36.774 E4.1839
G1 X17.741 Y37.700 E4.2527
G1 X17.357 Y37.844 E4.2684
G1 X17.357 Y43.202 E4.4736
G1 X36.027 Y43.202 E5.1887
G1 X36.053 Y43.070 E5.1938
G1 X36.257 Y42.580 E5.2141
G1 X37.240 Y41.109 E5.2819
G1 X37.615 Y40.733 E5.3022
G1 X39.087 Y39.750 E5.3700
G1 X39.577 Y39.547 E5.3903
G1 X41.182 Y39.227 E5.4530
G1 X41.446 Y39.202 E5.4632
G1 X42.339 Y39.202 E5.4974
G1 X42.603 Y39.227 E5.5075
G1 X44.208 Y39.547 E5.5702
G1 X44.699 Y39.750 E5.5905
G1 X46.170 Y40.733 E5.6583
G1 X46.545 Y41.109 E5.6787
G1 X47.529 Y42.580 E5.7464
G1 X47.732 Y43.070 E5.7668
G1 X47.758 Y43.202 E5.7719
G1 X53.198 Y43.202 E5.9802
G1 X54.188 Y43.612 E6.0213
G1 X56.841 Y46.264 E6.1650
G1 X55.462 Y49.592 E6.3029
G1 X12.545 Y49.592 E7.9466
G1 X10.967 Y48.013 E8.0321
G1 X10.967 Y15.771 E9.2669
G1 X12.545 Y14.192 E9.3524
G1 X12.748 Y14.682 F3498
G92 E0
G1 X55.135 Y14.682 E1.6234 F672
G1 X56.263 Y17.404 E1.7362
G1 X53.911 Y19.756 E1.8636
G1 X53.100 Y20.092 E1.8972
G1 X47.356 Y20.092 E2.1172
G1 X47.261 Y20.570 E2.1359
G1 X47.094 Y20.971 E2.1525
G1 X46.165 Y22.363 E2.2166
G1 X45.858 Y22.670 E2.2332
G1 X44.466 Y23.599 E2.2973
G1 X44.065 Y23.766 E2.3140
G1 X42.531 Y24.071 E2.3739
G1 X42.315 Y24.092 E2.3822
G1 X41.470 Y24.092 E2.4145
G1 X41.254 Y24.071 E2.4228
G1 X39.720 Y23.766 E2.4828
G1 X39.319 Y23.599 E2.4994
G1 X37.928 Y22.670 E2.5635
G1 X37.620 Y22.363 E2.5801
G1 X36.691 Y20.971 E2.6442
G1 X36.525 Y20.570 E2.6608
G1 X36.429 Y20.092 E2.6795
G1 X16.867 Y20.092 E3.4287
G1 X16.867 Y26.334 E3.6678
G1 X17.150 Y26.385 E3.6788
G1 X17.527 Y26.527 E3.6942
G1 X18.987 Y27.405 E3.7595
G1 X19.308 Y27.696 E3.7761
G1 X20.312 Y29.049 E3.8406
G1 X20.506 Y29.473 E3.8585
G1 X20.841 Y30.989 E3.9179
G1 X20.867 Y31.227 E3.9271
G1 X20.867 Y32.556 E3.9780
G1 X20.841 Y32.795 E3.9872
G1 X20.506 Y34.311 E4.0467
G1 X20.312 Y34.735 E4.0645
G1 X19.308 Y36.088 E4.1291
G1 X18.987 Y36.378 E4.1456
G1 X17.527 Y37.257 E4.2109
G1 X17.150 Y37.398 E4.2263
G1 X16.867 Y37.449 E4.2373
G1 X16.867 Y43.692 E4.4764
G1 X36.429 Y43.692 E5.2257
G1 X36.525 Y43.213 E5.2443
G1 X36.691 Y42.812 E5.2610
G1 X37.620 Y41.421 E5.3250
G1 X37.928 Y41.114 E5.3417
G1 X39.319 Y40.184 E5.4058
G1 X39.720 Y40.018 E5.4224
G1 X41.254 Y39.713 E5.4823
G1 X41.470 Y39.692 E5.4906
G1 X42.315 Y39.692 E5.5230
G1 X42.531 Y39.713 E5.5313
G1 X44.065 Y40.018 E5.5912
G1 X44.466 Y40.184 E5.6078
G1 X45.858 Y41.114 E5.6719
G1 X46.165 Y41.421 E5.6886
G1 X47.094 Y42.812 E5.7526
G1 X47.261 Y43.213 E5.7693
G1 X47.356 Y43.692 E5.7879
G1 X53.100 Y43.692 E6.0080
G1 X53.911 Y44.027 E6.0415
G1 X56.263 Y46.379 E6.1689
G1 X55.135 Y49.102 E6.2818
G1 X12.748 Y49.102 E7.9052
G1 X11.457 Y47.810 E7.9751
G1 X11.457 Y15.974 E9.1944
G1 X12.748 Y14.682 E9.2644
G1 X12.951 Y15.172 F3498
G92 E0
G1 X54.808 Y15.172 E1.6031 F672
G1 X55.685 Y17.289 E1.6908
G1 X53.633 Y19.341 E1.8019
G1 X53.003 Y19.602 E1.8281
G1 X46.954 Y19.602 E2.0598
G1 X46.789 Y20.427 E2.0920
G1 X46.660 Y20.739 E2.1049
G1 X45.784 Y22.050 E2.1653
G1 X45.545 Y22.289 E2.1782
G1 X44.234 Y23.165 E2.2386
G1 X43.922 Y23.294 E2.2516
G1 X42.459 Y23.586 E2.3087
G1 X42.291 Y23.602 E2.3152
G1 X41.494 Y23.602 E2.3457
G1 X41.326 Y23.586 E2.3522
G1 X39.863 Y23.294 E2.4093
G1 X39.551 Y23.165 E2.4222
G1 X38.240 Y22.289 E2.4826
G1 X38.001 Y22.050 E2.4956
G1 X37.125 Y20.739 E2.5559
G1 X36.996 Y20.427 E2.5689
G1 X36.832 Y19.602 E2.6011
G1 X16.377 Y19.602 E3.3845
G1 X16.377 Y26.745 E3.6581
G1 X17.019 Y26.860 E3.6831
G1 X17.312 Y26.970 E3.6951
G1 X18.694 Y27.800 E3.7568
G1 X18.943 Y28.026 E3.7697
G1 X19.888 Y29.299 E3.8304
G1 X20.038 Y29.629 E3.8443
G1 X20.356 Y31.068 E3.9007
G1 X20.377 Y31.254 E3.9079
G1 X20.377 Y32.530 E3.9567
G1 X20.356 Y32.715 E3.9639
G1 X20.038 Y34.154 E4.0203
G1 X19.888 Y34.484 E4.0342
G1 X18.943 Y35.757 E4.0949
G1 X18.694 Y35.983 E4.1078
G1 X17.312 Y36.814 E4.1695
G1 X17.019 Y36.924 E4.1815
G1 X16.377 Y37.039 E4.2065
G1 X16.377 Y44.182 E4.4801
G1 X36.832 Y44.182 E5.2635
G1 X36.996 Y43.356 E5.2957
G1 X37.125 Y43.044 E5.3087
G1 X38.001 Y41.733 E5.3690
G1 X38.240 Y41.494 E5.3820
G1 X39.551 Y40.618 E5.4424
G1 X39.863 Y40.489 E5.4553
G1 X41.326 Y40.198 E5.5125
G1 X41.494 Y40.182 E5.5189
G1 X42.291 Y40.182 E5.5494
G1 X42.459 Y40.198 E5.5559
G1 X43.922 Y40.489 E5.6130
G1 X44.234 Y40.618 E5.6260
G1 X45.545 Y41.494 E5.6864
G1 X45.784 Y41.733 E5.6993
G1 X46.660 Y43.044 E5.7597
G1 X46.789 Y43.356 E5.7726
G1 X46.954 Y44.182 E5.8048
G1 X53.003 Y44.182 E6.0365
G1 X53.633 Y44.443 E6.0627
G1 X55.685 Y46.494 E6.1738
G1 X54.808 Y48.612 E6.2615
G1 X12.951 Y48.612 E7.8646
G1 X11.947 Y47.607 E7.9190
G1 X11.947 Y16.177 E9.1228
G1 X12.951 Y15.172 E9.1772
G1 X13.154 Y15.662 F3498
G92 E0
G1 X54.480 Y15.662 E1.5827 F672
G1 X55.107 Y17.174 E1.6454
G1 X53.356 Y18.926 E1.7403
G1 X52.905 Y19.112 E1.7589
G1 X46.551 Y19.112 E2.0023
G1 X46.318 Y20.284 E2.0481
G1 X46.226 Y20.507 E2.0573
G1 X45.404 Y21.738 E2.1140
G1 X45.233 Y21.909 E2.1232
G1 X44.002 Y22.731 E2.1799
G1 X43.779 Y22.823 E2.1892
G1 X42.387 Y23.100 E2.2436
G1 X42.267 Y23.112 E2.2482
G1 X41.518 Y23.112 E2.2768
G1 X41.398 Y23.100 E2.2815
G1 X40.006 Y22.823 E2.3358
G1 X39.783 Y22.731 E2.3451
G1 X38.552 Y21.909 E2.4018
G1 X38.382 Y21.738 E2.4110
G1 X37.559 Y20.507 E2.4677
G1 X37.467 Y20.284 E2.4769
G1 X37.234 Y19.112 E2.5227
G1 X15.887 Y19.112 E3.3403
G1 X15.887 Y27.155 E3.6483
G1 X16.889 Y27.334 E3.6873
G1 X17.098 Y27.413 E3.6959
G1 X18.400 Y28.196 E3.7540
G1 X18.578 Y28.357 E3.7632
G1 X19.464 Y29.550 E3.8201
G1 X19.571 Y29.785 E3.8301
G1 X19.872 Y31.148 E3.8835
G1 X19.887 Y31.281 E3.8886
G1 X19.887 Y32.503 E3.9354
G1 X19.872 Y32.636 E3.9405
G1 X19.571 Y33.998 E3.9940
G1 X19.464 Y34.234 E4.0039
G1 X18.578 Y35.427 E4.0608
G1 X18.400 Y35.588 E4.0700
G1 X17.098 Y36.371 E4.1282
G1 X16.889 Y36.450 E4.1367
G1 X15.887 Y36.629 E4.1757
G1 X15.887 Y44.672 E4.4838
G1 X37.234 Y44.672 E5.3013
G1 X37.467 Y43.499 E5.3471
G1 X37.559 Y43.276 E5.3564
G1 X38.382 Y42.046 E5.4130
G1 X38.552 Y41.875 E5.4223
G1 X39.783 Y41.053 E5.4790
G1 X40.006 Y40.960 E5.4882
G1 X41.398 Y40.683 E5.5426
G1 X41.518 Y40.672 E5.5472
G1 X42.267 Y40.672 E5.5759
G1 X42.387 Y40.683 E5.5805
G1 X43.779 Y40.960 E5.6349
G1 X44.002 Y41.053 E5.6441
G1 X45.233 Y41.875 E5.7008
G1 X45.404 Y42.046 E5.7100
G1 X46.226 Y43.276 E5.7667
G1 X46.318 Y43.499 E5.7760
G1 X46.551 Y44.672 E5.8217
G1 X52.905 Y44.672 E6.0651
G1 X53.356 Y44.858 E6.0838
G1 X55.107 Y46.609 E6.1786
G1 X54.480 Y48.122 E6.2413
G1 X13.154 Y48.122 E7.8240
G1 X12.437 Y47.404 E7.8629
G1 X12.437 Y16.380 E9.0511
G1 X13.154 Y15.662 E9.0900
G1 X13.357 Y16.152 F3498
G92 E0
G1 X54.153 Y16.152 E1.5624 F672
G1 X54.529 Y17.059 E1.6000
G1 X53.078 Y18.510 E1.6786
G1 X52.808 Y18.622 E1.6898
G1 X46.117 Y18.622 E1.9461
G1 X46.117 Y18.748 E1.9509
G1 X46.110 Y18.820 E1.9537
G1 X45.847 Y20.141 E2.0053
G1 X45.792 Y20.275 E2.0108
G1 X45.023 Y21.426 E2.0638
G1 X44.921 Y21.528 E2.0694
G1 X43.770 Y22.297 E2.1223
G1 X43.636 Y22.352 E2.1279
G1 X42.315 Y22.615 E2.1795
G1 X42.243 Y22.622 E2.1823
G1 X41.542 Y22.622 E2.2091
G1 X41.470 Y22.615 E2.2119
G1 X40.149 Y22.352 E2.2635
G1 X40.015 Y22.297 E2.2690
G1 X38.865 Y21.528 E2.3220
G1 X38.762 Y21.426 E2.3276
G1 X37.994 Y20.275 E2.3805
G1 X37.938 Y20.141 E2.3861
G1 X37.675 Y18.820 E2.4377
G1 X37.668 Y18.748 E2.4405
G1 X37.668 Y18.622 E2.4453
G1 X15.397 Y18.622 E3.2983
G1 X15.397 Y27.565 E3.6408
G1 X16.758 Y27.808 E3.6937
G1 X16.884 Y27.856 E3.6989
G1 X18.106 Y28.591 E3.7535
G1 X18.213 Y28.688 E3.7590
G1 X19.039 Y29.800 E3.8121
G1 X19.104 Y29.942 E3.8181
G1 X19.388 Y31.228 E3.8685
G1 X19.397 Y31.307 E3.8716
G1 X19.397 Y32.476 E3.9163
G1 X19.388 Y32.556 E3.9194
G1 X19.104 Y33.842 E3.9698
G1 X19.039 Y33.983 E3.9758
G1 X18.213 Y35.096 E4.0289
G1 X18.106 Y35.193 E4.0344
G1 X16.884 Y35.928 E4.0890
G1 X16.758 Y35.975 E4.0942
G1 X15.397 Y36.219 E4.1471
G1 X15.397 Y45.162 E4.4896
G1 X37.668 Y45.162 E5.3426
G1 X37.668 Y45.036 E5.3474
G1 X37.675 Y44.964 E5.3502
G1 X37.938 Y43.642 E5.4018
G1 X37.994 Y43.508 E5.4073
G1 X38.762 Y42.358 E5.4603
G1 X38.865 Y42.256 E5.4659
G1 X40.015 Y41.487 E5.5189
G1 X40.149 Y41.431 E5.5244
G1 X41.470 Y41.169 E5.5760
G1 X41.542 Y41.162 E5.5788
G1 X42.243 Y41.162 E5.6056
G1 X42.315 Y41.169 E5.6084
G1 X43.636 Y41.431 E5.6600
G1 X43.770 Y41.487 E5.6655
G1 X44.921 Y42.256 E5.7185
G1 X45.023 Y42.358 E5.7241
G1 X45.792 Y43.508 E5.7771
G1 X45.847 Y43.642 E5.7826
G1 X46.110 Y44.964 E5.8342
G1 X46.117 Y45.036 E5.8370
G1 X46.117 Y45.162 E5.8418
G1 X52.808 Y45.162 E6.0981
G1 X53.078 Y45.273 E6.1093
G1 X54.529 Y46.724 E6.1878
G1 X54.153 Y47.632 E6.2255
G1 X13.357 Y47.632 E7.7879
G1 X12.927 Y47.201 E7.8112
G1 X12.927 Y16.583 E8.9839
G1 X13.357 Y16.152 E9.0072
G1 X13.560 Y16.642 F3498
G92 E0
G1 X53.825 Y16.642 E1.5421 F672
G1 X53.951 Y16.945 E1.5547
G1 X52.800 Y18.095 E1.6170
G1 X52.710 Y18.132 E1.6207
G1 X45.627 Y18.132 E1.8920
G1 X45.627 Y18.724 E1.9147
G1 X45.625 Y18.748 E1.9156
G1 X45.376 Y19.998 E1.9644
G1 X45.357 Y20.043 E1.9663
G1 X44.642 Y21.113 E2.0155
G1 X44.608 Y21.147 E2.0174
G1 X43.538 Y21.862 E2.0667
G1 X43.493 Y21.881 E2.0685
G1 X42.243 Y22.130 E2.1174
G1 X42.219 Y22.132 E2.1183
G1 X41.566 Y22.132 E2.1433
G1 X41.542 Y22.130 E2.1442
G1 X40.292 Y21.881 E2.1930
G1 X40.247 Y21.862 E2.1949
G1 X39.177 Y21.147 E2.2442
G1 X39.143 Y21.113 E2.2460
G1 X38.428 Y20.043 E2.2953
G1 X38.409 Y19.998 E2.2972
G1 X38.161 Y18.748 E2.3460
G1 X38.158 Y18.724 E2.3469
G1 X38.158 Y18.132 E2.3696
G1 X14.907 Y18.132 E3.2601
G1 X14.907 Y28.042 E3.6397
G1 X15.273 Y28.042 E3.6537
G1 X15.294 Y28.044 E3.6545
G1 X16.628 Y28.283 E3.7064
G1 X16.670 Y28.299 E3.7081
G1 X17.813 Y28.986 E3.7592
G1 X17.848 Y29.018 E3.7610
G1 X18.615 Y30.051 E3.8103
G1 X18.637 Y30.098 E3.8123
G1 X18.904 Y31.307 E3.8597
G1 X18.907 Y31.334 E3.8607
G1 X18.907 Y32.450 E3.9035
G1 X18.904 Y32.476 E3.9045
G1 X18.637 Y33.686 E3.9519
G1 X18.615 Y33.733 E3.9539
G1 X17.848 Y34.765 E4.0032
G1 X17.813 Y34.798 E4.0050
