; G-Code generated by Simplify3D(R) Version 3.0.0
; Mrz 27, 2018 at 7:06:24 
; Settings Summary
;   processName,Process1
;   applyToModels,controllerbox_top
;   profileName,Renkforce (modified)
;   profileVersion,2017-10-17 11:10:50
;   baseProfile,German RepRap NEO (modified)
;   printMaterial,
;   printQuality,
;   printExtruders,
;   extruderName,Primary Extruder
;   extruderToolheadNumber,0
;   extruderDiameter,0.5
;   extruderAutoWidth,0
;   extruderWidth,0.49
;   extrusionMultiplier,0.94
;   extruderUseRetract,1
;   extruderRetractionDistance,6.5
;   extruderExtraRestartDistance,0
;   extruderRetractionZLift,0
;   extruderRetractionSpeed,4998
;   extruderUseCoasting,0
;   extruderCoastingDistance,0.2
;   extruderUseWipe,0
;   extruderWipeDistance,5
;   primaryExtruder,0
;   layerHeight,0.2
;   topSolidLayers,4
;   bottomSolidLayers,3
;   perimeterOutlines,3
;   printPerimetersInsideOut,1
;   startPointOption,2
;   startPointOriginX,0
;   startPointOriginY,0
;   startPointOriginZ,300
;   sequentialIslands,0
;   spiralVaseMode,0
;   firstLayerHeightPercentage,100
;   firstLayerWidthPercentage,100
;   firstLayerUnderspeed,0.28
;   useRaft,0
;   raftExtruder,0
;   raftLayers,3
;   raftOffset,3
;   raftSeparationDistance,0.1
;   raftInfill,85
;   disableRaftBaseLayers,0
;   useSkirt,1
;   skirtExtruder,0
;   skirtLayers,1
;   skirtOutlines,5
;   skirtOffset,3
;   usePrimePillar,0
;   primePillarExtruder,999
;   primePillarWidth,12
;   primePillarLocation,7
;   primePillarSpeedMultiplier,1
;   useOozeShield,0
;   oozeShieldExtruder,999
;   oozeShieldOffset,2
;   oozeShieldOutlines,1
;   oozeShieldSidewallShape,1
;   oozeShieldSidewallAngle,30
;   oozeShieldSpeedMultiplier,1
;   infillExtruder,0
;   internalInfillPattern,Full Honeycomb
;   externalInfillPattern,Rectilinear
;   infillPercentage,8
;   outlineOverlapPercentage,15
;   infillExtrusionWidthPercentage,100
;   minInfillLength,3
;   infillLayerInterval,1
;   infillAngles,0,120,-120
;   overlapInfillAngles,0
;   generateSupport,1
;   supportExtruder,0
;   supportInfillPercentage,30
;   supportExtraInflation,1
;   denseSupportLayers,0
;   denseSupportInfillPercentage,75
;   supportLayerInterval,1
;   supportHorizontalPartOffset,1.5
;   supportUpperSeparationLayers,1
;   supportLowerSeparationLayers,1
;   supportType,0
;   supportGridSpacing,5
;   maxOverhangAngle,45
;   supportAngles,45
;   temperatureName,Primary Extruder
;   temperatureNumber,0
;   temperatureSetpointCount,3
;   temperatureSetpointLayers,1,2,3
;   temperatureSetpointTemperatures,197,193,189
;   temperatureStabilizeAtStartup,1
;   temperatureHeatedBed,0
;   temperatureRelayBetweenLayers,0
;   temperatureRelayBetweenLoops,0
;   fanLayers,1,3
;   fanSpeeds,0,80
;   blipFanToFullPower,0
;   adjustSpeedForCooling,1
;   minSpeedLayerTime,15
;   minCoolingSpeedSlowdown,20
;   increaseFanForCooling,0
;   minFanLayerTime,45
;   maxCoolingFanSpeed,100
;   increaseFanForBridging,0
;   bridgingFanSpeed,100
;   use5D,1
;   relativeEdistances,0
;   allowEaxisZeroing,1
;   independentExtruderAxes,0
;   includeM10123,0
;   stickySupport,1
;   applyToolheadOffsets,0
;   gcodeXoffset,0
;   gcodeYoffset,0
;   gcodeZoffset,0
;   overrideMachineDefinition,1
;   machineTypeOverride,0
;   strokeXoverride,150
;   strokeYoverride,150
;   strokeZoverride,150
;   originOffsetXoverride,0
;   originOffsetYoverride,0
;   originOffsetZoverride,0
;   homeXdirOverride,-1
;   homeYdirOverride,-1
;   homeZdirOverride,-1
;   flipXoverride,1
;   flipYoverride,-1
;   flipZoverride,1
;   toolheadOffsets,0,0|0,0|0,0|0,0|0,0|0,0
;   overrideFirmwareConfiguration,0
;   firmwareTypeOverride,RepRap (Marlin/Repetier/Sprinter)
;   GPXconfigOverride,r2
;   baudRateOverride,115200
;   overridePrinterModels,0
;   printerModelsOverride
;   startingGcode,G28 ; home all axes
;   layerChangeGcode,
;   retractionGcode,
;   toolChangeGcode,
;   endingGcode,M104 S0 ; turn off extruder,M140 S0 ; turn off bed,G28 X0  ; home X axis,G28 Y0  ; home Y axis,M84 ; disable motors,M107
;   createX3G,0
;   celebration,0
;   celebrationSong,Random Song
;   createMB5G,0
;   postProcessing,
;   defaultSpeed,2400
;   outlineUnderspeed,0.5
;   solidInfillUnderspeed,0.8
;   supportUnderspeed,0.8
;   rapidXYspeed,3498
;   rapidZspeed,1002
;   minBridgingArea,50
;   bridgingExtraInflation,0
;   bridgingExtrusionMultiplier,1
;   bridgingSpeedMultiplier,1
;   filamentDiameter,1.75
;   filamentPricePerKg,46
;   filamentDensity,1.25
;   useMinPrintHeight,0
;   minPrintHeight,0
;   useMaxPrintHeight,0
;   maxPrintHeight,0
;   useDiaphragm,0
;   diaphragmLayerInterval,20
;   robustSlicing,1
;   mergeAllIntoSolid,0
;   onlyRetractWhenCrossingOutline,1
;   retractBetweenLayers,1
;   useRetractionMinTravel,0
;   retractionMinTravel,3
;   retractWhileWiping,0
;   onlyWipeOutlines,1
;   avoidCrossingOutline,0
;   maxMovementDetourFactor,10
;   toolChangeRetractionDistance,0
;   toolChangeExtraRestartDistance,0
;   toolChangeRetractionSpeed,360
;   allowThinWallGapFill,1
;   thinWallAllowedOverlapPercentage,10
;   horizontalSizeCompensation,0
G90
M82
M106 S0
M104 S197 T0
M109 S197 T0
G28 ; home all axes
G92 E0
G1 E-6.5000 F4998
G1 Z0.200 F1002
; layer 1, Z = 0.2
T0
; tool H0.200 W0.490
; skirt
G1 X18.538 Y10.438 F3498
G1 E0.0000 F1499
G92 E0
G1 X20.916 Y8.061 E0.1288 F672
G1 X21.726 Y7.725 E0.1624
G1 X65.122 Y7.725 E1.8244
G1 X65.932 Y8.061 E1.8580
G1 X68.310 Y10.438 E1.9868
G1 X68.646 Y11.249 E2.0204
G1 X68.646 Y52.620 E3.6049
G1 X68.310 Y53.431 E3.6384
G1 X65.932 Y55.808 E3.7672
G1 X65.122 Y56.144 E3.8008
G1 X21.726 Y56.144 E5.4628
G1 X20.916 Y55.808 E5.4964
G1 X18.538 Y53.431 E5.6252
G1 X18.203 Y52.620 E5.6588
G1 X18.203 Y11.249 E7.2433
G1 X18.538 Y10.438 E7.2769
G1 X18.954 Y10.716 F3498
G92 E0
G1 X21.193 Y8.476 E0.1213 F672
G1 X21.824 Y8.215 E0.1474
G1 X65.025 Y8.215 E1.8020
G1 X65.655 Y8.476 E1.8281
G1 X67.895 Y10.716 E1.9494
G1 X68.156 Y11.346 E1.9756
G1 X68.156 Y52.523 E3.5526
G1 X67.895 Y53.153 E3.5787
G1 X65.655 Y55.393 E3.7000
G1 X65.025 Y55.654 E3.7262
G1 X21.824 Y55.654 E5.3807
G1 X21.193 Y55.393 E5.4068
G1 X18.954 Y53.153 E5.5282
G1 X18.693 Y52.523 E5.5543
G1 X18.693 Y11.346 E7.1313
G1 X18.954 Y10.716 E7.1574
G1 X19.369 Y10.993 F3498
G92 E0
G1 X21.471 Y8.891 E0.1138 F672
G1 X21.921 Y8.705 E0.1325
G1 X64.927 Y8.705 E1.7796
G1 X65.377 Y8.891 E1.7983
G1 X67.479 Y10.993 E1.9121
G1 X67.666 Y11.444 E1.9308
G1 X67.666 Y52.425 E3.5003
G1 X67.479 Y52.875 E3.5190
G1 X65.377 Y54.977 E3.6328
G1 X64.927 Y55.164 E3.6515
G1 X21.921 Y55.164 E5.2986
G1 X21.471 Y54.977 E5.3173
G1 X19.369 Y52.875 E5.4311
G1 X19.183 Y52.425 E5.4498
G1 X19.183 Y11.444 E7.0193
G1 X19.369 Y10.993 E7.0380
G1 X19.784 Y11.271 F3498
G92 E0
G1 X21.749 Y9.307 E0.1064 F672
G1 X22.019 Y9.195 E0.1176
G1 X64.830 Y9.195 E1.7572
G1 X65.100 Y9.307 E1.7684
G1 X67.064 Y11.271 E1.8748
G1 X67.176 Y11.541 E1.8860
G1 X67.176 Y52.328 E3.4481
G1 X67.064 Y52.598 E3.4593
G1 X65.100 Y54.562 E3.5657
G1 X64.830 Y54.674 E3.5769
G1 X22.019 Y54.674 E5.2165
G1 X21.749 Y54.562 E5.2277
G1 X19.784 Y52.598 E5.3341
G1 X19.673 Y52.328 E5.3452
G1 X19.673 Y11.541 E6.9073
G1 X19.784 Y11.271 E6.9185
G1 X20.200 Y11.548 F3498
G92 E0
G1 X22.026 Y9.722 E0.0989 F672
G1 X22.116 Y9.685 E0.1026
G1 X64.732 Y9.685 E1.7348
G1 X64.822 Y9.722 E1.7385
G1 X66.649 Y11.548 E1.8375
G1 X66.686 Y11.639 E1.8412
G1 X66.686 Y52.230 E3.3958
G1 X66.649 Y52.320 E3.3995
G1 X64.822 Y54.147 E3.4985
G1 X64.732 Y54.184 E3.5022
G1 X22.116 Y54.184 E5.1343
G1 X22.026 Y54.147 E5.1381
G1 X20.200 Y52.320 E5.2370
G1 X20.163 Y52.230 E5.2407
G1 X20.163 Y11.639 E6.7954
G1 X20.200 Y11.548 E6.7991
G92 E0
G1 E-6.5000 F4998
; inner perimeter
G1 X24.633 Y14.155 F3498
G1 E0.0000 F4998
G92 E0
G1 X62.216 Y14.155 E1.4394 F560
G1 X62.216 Y49.714 E2.8013
G1 X24.633 Y49.714 E4.2407
G1 X24.633 Y14.155 E5.6026
; inner perimeter
G1 X24.143 Y13.665 F3498
G92 E0
G1 X62.706 Y13.665 E1.4769 F448
G1 X62.706 Y50.204 E2.8763
G1 X24.143 Y50.204 E4.3533
G1 X24.143 Y13.665 E5.7527
; outer perimeter
G1 X23.653 Y13.175 F3498
G92 E0
G1 X63.196 Y13.175 E1.5145 F336
G1 X63.196 Y50.694 E2.9514
G1 X23.653 Y50.694 E4.4659
G1 X23.653 Y13.175 E5.9028
; inner perimeter
G1 X39.351 Y26.781 F3498
G92 E0
G1 X38.452 Y27.877 E0.0543 F560
G1 X37.783 Y29.127 E0.1086
G1 X37.372 Y30.483 E0.1629
G1 X37.233 Y31.894 E0.2172
G1 X37.372 Y33.305 E0.2714
G1 X37.783 Y34.661 E0.3257
G1 X38.452 Y35.911 E0.3800
G1 X39.351 Y37.007 E0.4343
G1 X40.446 Y37.906 E0.4886
G1 X41.697 Y38.574 E0.5429
G1 X43.053 Y38.986 E0.5972
G1 X44.464 Y39.125 E0.6515
G1 X45.874 Y38.986 E0.7058
G1 X47.231 Y38.574 E0.7600
G1 X48.481 Y37.906 E0.8143
G1 X49.577 Y37.007 E0.8686
G1 X50.476 Y35.911 E0.9229
G1 X51.144 Y34.661 E0.9772
G1 X51.556 Y33.305 E1.0315
G1 X51.695 Y31.894 E1.0858
G1 X51.556 Y30.483 E1.1401
G1 X51.144 Y29.127 E1.1944
G1 X50.476 Y27.877 E1.2487
G1 X49.577 Y26.781 E1.3029
G1 X48.481 Y25.882 E1.3572
G1 X47.231 Y25.213 E1.4115
G1 X45.874 Y24.802 E1.4658
G1 X44.464 Y24.663 E1.5201
G1 X43.053 Y24.802 E1.5744
G1 X41.697 Y25.213 E1.6287
G1 X40.447 Y25.882 E1.6830
G1 X39.351 Y26.781 E1.7373
; inner perimeter
G1 X39.699 Y27.129 F3498
G92 E0
G1 X38.861 Y28.150 E0.0506 F448
G1 X38.238 Y29.315 E0.1012
G1 X37.855 Y30.579 E0.1518
G1 X37.725 Y31.894 E0.2024
G1 X37.855 Y33.209 E0.2530
G1 X38.238 Y34.473 E0.3036
G1 X38.861 Y35.638 E0.3541
G1 X39.699 Y36.659 E0.4047
G1 X40.720 Y37.497 E0.4553
G1 X41.885 Y38.119 E0.5059
G1 X43.149 Y38.503 E0.5565
G1 X44.464 Y38.632 E0.6071
G1 X45.778 Y38.503 E0.6577
G1 X47.043 Y38.119 E0.7083
G1 X48.208 Y37.497 E0.7589
G1 X49.229 Y36.659 E0.8095
G1 X50.067 Y35.638 E0.8601
G1 X50.689 Y34.473 E0.9107
G1 X51.073 Y33.209 E0.9613
G1 X51.202 Y31.894 E1.0119
G1 X51.073 Y30.579 E1.0624
G1 X50.689 Y29.315 E1.1130
G1 X50.067 Y28.150 E1.1636
G1 X49.229 Y27.129 E1.2142
G1 X48.208 Y26.291 E1.2648
G1 X47.043 Y25.668 E1.3154
G1 X45.778 Y25.285 E1.3660
G1 X44.464 Y25.155 E1.4166
G1 X43.149 Y25.285 E1.4672
G1 X41.885 Y25.668 E1.5178
G1 X40.720 Y26.291 E1.5684
G1 X39.699 Y27.129 E1.6190
; outer perimeter
G1 X40.047 Y27.477 F3498
G92 E0
G1 X39.270 Y28.424 E0.0469 F336
G1 X38.693 Y29.504 E0.0938
G1 X38.338 Y30.675 E0.1407
G1 X38.218 Y31.894 E0.1876
G1 X38.338 Y33.112 E0.2345
G1 X38.693 Y34.284 E0.2814
G1 X39.270 Y35.364 E0.3283
G1 X40.047 Y36.311 E0.3752
G1 X40.994 Y37.087 E0.4221
G1 X42.073 Y37.665 E0.4690
G1 X43.245 Y38.020 E0.5159
G1 X44.464 Y38.140 E0.5628
G1 X45.682 Y38.020 E0.6096
G1 X46.854 Y37.665 E0.6565
G1 X47.934 Y37.087 E0.7034
G1 X48.881 Y36.311 E0.7503
G1 X49.657 Y35.364 E0.7972
G1 X50.235 Y34.284 E0.8441
G1 X50.590 Y33.112 E0.8910
G1 X50.710 Y31.894 E0.9379
G1 X50.590 Y30.675 E0.9848
G1 X50.235 Y29.504 E1.0317
G1 X49.657 Y28.424 E1.0786
G1 X48.881 Y27.477 E1.1255
G1 X47.934 Y26.700 E1.1724
G1 X46.854 Y26.123 E1.2193
G1 X45.682 Y25.768 E1.2662
G1 X44.464 Y25.648 E1.3131
G1 X43.245 Y25.768 E1.3600
G1 X42.073 Y26.123 E1.4069
G1 X40.994 Y26.700 E1.4538
G1 X40.047 Y27.477 E1.5007
; solid layer
G1 X41.508 Y24.842 F3498
G92 E0
G1 X51.779 Y14.571 E0.5563 F538
G1 X52.472 Y14.571 E0.5828
G1 X42.512 Y24.531 E1.1222
G1 X42.971 Y24.391 E1.1406
G1 X43.385 Y24.351 E1.1565
G1 X53.165 Y14.571 E1.6862
G1 X53.858 Y14.571 E1.7128
G1 X44.154 Y24.275 E2.2383
G1 X44.464 Y24.244 E2.2503
G1 X44.840 Y24.282 E2.2647
G1 X54.551 Y14.571 E2.7907
G1 X55.244 Y14.571 E2.8172
G1 X45.471 Y24.344 E3.3465
G1 X45.956 Y24.391 E3.3652
G1 X46.079 Y24.429 E3.3701
G1 X55.936 Y14.571 E3.9040
G1 X56.629 Y14.571 E3.9305
G1 X46.611 Y24.590 E4.4732
G1 X47.143 Y24.751 E4.4945
G1 X57.322 Y14.571 E5.0458
G1 X58.015 Y14.571 E5.0724
G1 X47.632 Y24.955 E5.6348
G1 X48.083 Y25.197 E5.6544
G1 X58.708 Y14.571 E6.2299
G1 X59.401 Y14.571 E6.2564
G1 X48.535 Y25.438 E6.8450
G1 X48.714 Y25.534 E6.8528
G1 X48.943 Y25.722 E6.8642
G1 X60.094 Y14.571 E7.4681
G1 X60.787 Y14.571 E7.4947
G1 X49.324 Y26.035 E8.1155
G1 X49.705 Y26.347 E8.1344
G1 X61.480 Y14.571 E8.7722
G1 X61.799 Y14.571 E8.7844
G1 X61.799 Y14.945 E8.7987
G1 X50.047 Y26.697 E9.4353
G1 X50.360 Y27.078 E9.4541
G1 X61.799 Y15.638 E10.0737
G1 X61.799 Y16.331 E10.1003
G1 X50.672 Y27.459 E10.7030
G1 X50.824 Y27.644 E10.7122
G1 X50.948 Y27.876 E10.7222
G1 X61.799 Y17.024 E11.3100
G1 X61.799 Y17.717 E11.3365
G1 X51.189 Y28.327 E11.9112
G1 X51.431 Y28.779 E11.9308
G1 X61.799 Y18.410 E12.4924
G1 X61.799 Y19.103 E12.5189
G1 X51.625 Y29.277 E13.0700
G1 X51.786 Y29.809 E13.0913
G1 X61.799 Y19.796 E13.6336
G1 X61.799 Y20.489 E13.6601
G1 X51.948 Y30.341 E14.1937
G1 X51.966 Y30.402 E14.1962
G1 X52.021 Y30.960 E14.2177
G1 X61.799 Y21.182 E14.7473
G1 X61.799 Y21.875 E14.7738
G1 X52.083 Y31.591 E15.3001
G1 X52.113 Y31.894 E15.3117
G1 X52.074 Y32.293 E15.3271
G1 X61.799 Y22.568 E15.8539
G1 X61.799 Y23.261 E15.8804
G1 X51.998 Y33.062 E16.4113
G1 X51.966 Y33.386 E16.4237
G1 X51.792 Y33.961 E16.4468
G1 X61.799 Y23.954 E16.9888
G1 X61.799 Y24.647 E17.0153
G1 X51.423 Y35.023 E17.5773
G1 X61.799 Y48.901 F3498
G92 E0
G1 X61.402 Y49.297 E0.0215 F538
G1 X60.709 Y49.297 E0.0480
G1 X61.799 Y48.208 E0.1071
G1 X61.799 Y47.515 E0.1336
G1 X60.016 Y49.297 E0.2302
G1 X59.324 Y49.297 E0.2567
G1 X61.799 Y46.822 E0.3908
G1 X61.799 Y46.129 E0.4173
G1 X58.631 Y49.297 E0.5890
G1 X57.938 Y49.297 E0.6155
G1 X61.799 Y45.436 E0.8247
G1 X61.799 Y44.743 E0.8512
G1 X57.245 Y49.297 E1.0979
G1 X56.552 Y49.297 E1.1245
G1 X61.799 Y44.050 E1.4087
G1 X61.799 Y43.357 E1.4352
G1 X55.859 Y49.297 E1.7570
G1 X55.166 Y49.297 E1.7835
G1 X61.799 Y42.664 E2.1428
G1 X61.799 Y41.971 E2.1694
G1 X54.473 Y49.297 E2.5662
G1 X53.780 Y49.297 E2.5927
G1 X61.799 Y41.278 E3.0271
G1 X61.799 Y40.585 E3.0536
G1 X53.087 Y49.297 E3.5255
G1 X52.394 Y49.297 E3.5521
G1 X61.799 Y39.892 E4.0615
G1 X61.799 Y39.199 E4.0880
G1 X51.701 Y49.297 E4.6350
G1 X51.008 Y49.297 E4.6615
G1 X61.799 Y38.506 E5.2460
G1 X61.799 Y37.813 E5.2726
G1 X50.315 Y49.297 E5.8946
G1 X49.622 Y49.297 E5.9211
G1 X61.799 Y37.120 E6.5807
G1 X61.799 Y36.427 E6.6072
G1 X48.929 Y49.297 E7.3043
G1 X48.236 Y49.297 E7.3309
G1 X61.799 Y35.734 E8.0655
G1 X61.799 Y35.041 E8.0920
G1 X47.543 Y49.297 E8.8642
G1 X46.850 Y49.297 E8.8907
G1 X61.799 Y34.348 E9.7004
G1 X61.799 Y33.655 E9.7270
G1 X46.157 Y49.297 E10.5742
G1 X45.464 Y49.297 E10.6007
G1 X61.799 Y32.962 E11.4855
G1 X61.799 Y32.269 E11.5120
G1 X44.771 Y49.297 E12.4343
G1 X44.078 Y49.297 E12.4609
G1 X61.799 Y31.576 E13.4207
G1 X61.799 Y30.883 E13.4472
G1 X43.385 Y49.297 E14.4446
G1 X42.692 Y49.297 E14.4711
G1 X61.799 Y30.190 E15.5060
G1 X61.799 Y29.497 E15.5325
G1 X41.999 Y49.297 E16.6050
G1 X41.306 Y49.297 E16.6315
G1 X61.799 Y28.805 E17.7415
G1 X61.799 Y28.112 E17.7680
G1 X40.613 Y49.297 E18.9155
G1 X39.921 Y49.297 E18.9420
G1 X61.799 Y27.419 E20.1271
G1 X61.799 Y26.726 E20.1536
G1 X39.228 Y49.297 E21.3762
G1 X38.535 Y49.297 E21.4027
G1 X61.799 Y26.033 E22.6628
G1 X61.799 Y25.340 E22.6893
G1 X50.040 Y37.099 E23.3262
G1 X49.873 Y37.303 E23.3363
G1 X49.669 Y37.470 E23.3464
G1 X37.842 Y49.297 E23.9870
G1 X37.149 Y49.297 E24.0136
G1 X47.593 Y38.853 E24.5793
G1 X47.391 Y38.961 E24.5880
G1 X46.531 Y39.222 E24.6224
G1 X36.456 Y49.297 E25.1682
G1 X35.763 Y49.297 E25.1947
G1 X45.632 Y39.428 E25.7292
G1 X44.863 Y39.504 E25.7588
G1 X35.070 Y49.297 E26.2893
G1 X34.377 Y49.297 E26.3158
G1 X44.161 Y39.513 E26.8457
G1 X43.530 Y39.451 E26.8700
G1 X33.684 Y49.297 E27.4033
G1 X32.991 Y49.297 E27.4299
G1 X42.910 Y39.378 E27.9671
G1 X42.379 Y39.217 E27.9884
G1 X32.298 Y49.297 E28.5344
G1 X31.605 Y49.297 E28.5610
G1 X41.847 Y39.055 E29.1157
G1 X41.536 Y38.961 E29.1281
G1 X41.349 Y38.861 E29.1363
G1 X30.912 Y49.297 E29.7016
G1 X30.219 Y49.297 E29.7281
G1 X40.897 Y38.619 E30.3065
G1 X40.446 Y38.378 E30.3261
G1 X29.526 Y49.297 E30.9175
G1 X28.833 Y49.297 E30.9441
G1 X40.029 Y38.102 E31.5504
G1 X39.648 Y37.790 E31.5693
G1 X28.140 Y49.297 E32.1926
G1 X27.447 Y49.297 E32.2191
G1 X39.267 Y37.477 E32.8593
G1 X39.055 Y37.303 E32.8699
G1 X38.917 Y37.135 E32.8782
G1 X26.754 Y49.297 E33.5370
G1 X26.061 Y49.297 E33.5635
G1 X38.605 Y36.754 E34.2429
G1 X38.292 Y36.374 E34.2618
G1 X25.368 Y49.297 E34.9617
G1 X25.049 Y49.297 E34.9740
G1 X25.049 Y48.924 E34.9883
G1 X38.008 Y35.965 E35.6902
G1 X37.767 Y35.513 E35.7098
