; G-Code generated by Simplify3D(R) Version 3.0.0
; Mrz 26, 2018 at 3:30:52 
; Settings Summary
;   processName,Process1
;   applyToModels,board,r01,r02,rs
;   profileName,Renkforce (modified)
;   profileVersion,2017-10-17 11:10:50
;   baseProfile,German RepRap NEO (modified)
;   printMaterial,
;   printQuality,
;   printExtruders,
;   extruderName,Primary Extruder
;   extruderToolheadNumber,0
;   extruderDiameter,0.5
;   extruderAutoWidth,0
;   extruderWidth,0.49
;   extrusionMultiplier,0.94
;   extruderUseRetract,1
;   extruderRetractionDistance,6.5
;   extruderExtraRestartDistance,0
;   extruderRetractionZLift,0
;   extruderRetractionSpeed,4998
;   extruderUseCoasting,0
;   extruderCoastingDistance,0.2
;   extruderUseWipe,0
;   extruderWipeDistance,5
;   primaryExtruder,0
;   layerHeight,0.2
;   topSolidLayers,4
;   bottomSolidLayers,3
;   perimeterOutlines,3
;   printPerimetersInsideOut,1
;   startPointOption,2
;   startPointOriginX,0
;   startPointOriginY,0
;   startPointOriginZ,300
;   sequentialIslands,0
;   spiralVaseMode,0
;   firstLayerHeightPercentage,100
;   firstLayerWidthPercentage,100
;   firstLayerUnderspeed,0.28
;   useRaft,0
;   raftExtruder,0
;   raftLayers,3
;   raftOffset,3
;   raftSeparationDistance,0.1
;   raftInfill,85
;   disableRaftBaseLayers,0
;   useSkirt,1
;   skirtExtruder,0
;   skirtLayers,1
;   skirtOutlines,4
;   skirtOffset,3
;   usePrimePillar,0
;   primePillarExtruder,999
;   primePillarWidth,12
;   primePillarLocation,7
;   primePillarSpeedMultiplier,1
;   useOozeShield,0
;   oozeShieldExtruder,999
;   oozeShieldOffset,2
;   oozeShieldOutlines,1
;   oozeShieldSidewallShape,1
;   oozeShieldSidewallAngle,30
;   oozeShieldSpeedMultiplier,1
;   infillExtruder,0
;   internalInfillPattern,Full Honeycomb
;   externalInfillPattern,Rectilinear
;   infillPercentage,8
;   outlineOverlapPercentage,15
;   infillExtrusionWidthPercentage,100
;   minInfillLength,3
;   infillLayerInterval,1
;   infillAngles,0,120,-120
;   overlapInfillAngles,0
;   generateSupport,1
;   supportExtruder,0
;   supportInfillPercentage,30
;   supportExtraInflation,0
;   denseSupportLayers,0
;   denseSupportInfillPercentage,75
;   supportLayerInterval,1
;   supportHorizontalPartOffset,1.5
;   supportUpperSeparationLayers,2
;   supportLowerSeparationLayers,2
;   supportType,0
;   supportGridSpacing,5
;   maxOverhangAngle,45
;   supportAngles,45
;   temperatureName,Primary Extruder
;   temperatureNumber,0
;   temperatureSetpointCount,3
;   temperatureSetpointLayers,1,2,3
;   temperatureSetpointTemperatures,197,193,189
;   temperatureStabilizeAtStartup,1
;   temperatureHeatedBed,0
;   temperatureRelayBetweenLayers,0
;   temperatureRelayBetweenLoops,0
;   fanLayers,1,3
;   fanSpeeds,0,80
;   blipFanToFullPower,0
;   adjustSpeedForCooling,1
;   minSpeedLayerTime,15
;   minCoolingSpeedSlowdown,20
;   increaseFanForCooling,0
;   minFanLayerTime,45
;   maxCoolingFanSpeed,100
;   increaseFanForBridging,0
;   bridgingFanSpeed,100
;   use5D,1
;   relativeEdistances,0
;   allowEaxisZeroing,1
;   independentExtruderAxes,0
;   includeM10123,0
;   stickySupport,1
;   applyToolheadOffsets,0
;   gcodeXoffset,0
;   gcodeYoffset,0
;   gcodeZoffset,0
;   overrideMachineDefinition,1
;   machineTypeOverride,0
;   strokeXoverride,150
;   strokeYoverride,150
;   strokeZoverride,150
;   originOffsetXoverride,0
;   originOffsetYoverride,0
;   originOffsetZoverride,0
;   homeXdirOverride,-1
;   homeYdirOverride,-1
;   homeZdirOverride,-1
;   flipXoverride,1
;   flipYoverride,-1
;   flipZoverride,1
;   toolheadOffsets,0,0|0,0|0,0|0,0|0,0|0,0
;   overrideFirmwareConfiguration,0
;   firmwareTypeOverride,RepRap (Marlin/Repetier/Sprinter)
;   GPXconfigOverride,r2
;   baudRateOverride,115200
;   overridePrinterModels,0
;   printerModelsOverride
;   startingGcode,G28 ; home all axes
;   layerChangeGcode,
;   retractionGcode,
;   toolChangeGcode,
;   endingGcode,M104 S0 ; turn off extruder,M140 S0 ; turn off bed,G28 X0  ; home X axis,G28 Y0  ; home Y axis,M84 ; disable motors,M107
;   createX3G,0
;   celebration,0
;   celebrationSong,Random Song
;   createMB5G,0
;   postProcessing,
;   defaultSpeed,2400
;   outlineUnderspeed,0.5
;   solidInfillUnderspeed,0.8
;   supportUnderspeed,0.8
;   rapidXYspeed,3498
;   rapidZspeed,1002
;   minBridgingArea,50
;   bridgingExtraInflation,0
;   bridgingExtrusionMultiplier,1
;   bridgingSpeedMultiplier,1
;   filamentDiameter,1.75
;   filamentPricePerKg,46
;   filamentDensity,1.25
;   useMinPrintHeight,0
;   minPrintHeight,0
;   useMaxPrintHeight,0
;   maxPrintHeight,0
;   useDiaphragm,0
;   diaphragmLayerInterval,20
;   robustSlicing,1
;   mergeAllIntoSolid,0
;   onlyRetractWhenCrossingOutline,1
;   retractBetweenLayers,1
;   useRetractionMinTravel,0
;   retractionMinTravel,3
;   retractWhileWiping,0
;   onlyWipeOutlines,1
;   avoidCrossingOutline,0
;   maxMovementDetourFactor,10
;   toolChangeRetractionDistance,0
;   toolChangeExtraRestartDistance,0
;   toolChangeRetractionSpeed,360
;   allowThinWallGapFill,1
;   thinWallAllowedOverlapPercentage,10
;   horizontalSizeCompensation,0
G90
M82
M106 S0
M104 S197 T0
M109 S197 T0
G28 ; home all axes
G92 E0
G1 E-6.5000 F4998
G1 Z0.200 F1002
; layer 1, Z = 0.2
T0
; tool H0.200 W0.490
; skirt
G1 X21.024 Y18.424 F3498
G1 E0.0000 F1499
G92 E0
G1 X23.336 Y15.668 E0.1378 F672
G1 X23.464 Y15.588 E0.1435
G1 X23.539 Y15.458 E0.1493
G1 X26.213 Y13.051 E0.2871
G1 X26.350 Y12.989 E0.2929
G1 X26.443 Y12.871 E0.2986
G1 X29.425 Y10.859 E0.4364
G1 X29.570 Y10.818 E0.4422
G1 X29.679 Y10.713 E0.4480
G1 X32.912 Y9.136 E0.5857
G1 X33.061 Y9.115 E0.5915
G1 X33.183 Y9.026 E0.5973
G1 X36.605 Y7.915 E0.7351
G1 X36.755 Y7.915 E0.7408
G1 X36.889 Y7.844 E0.7466
G1 X40.431 Y7.219 E0.8844
G1 X40.581 Y7.240 E0.8902
G1 X40.722 Y7.189 E0.8959
G1 X44.317 Y7.063 E1.0337
G1 X44.462 Y7.105 E1.0395
G1 X44.610 Y7.073 E1.0453
G1 X48.187 Y7.449 E1.1830
G1 X48.325 Y7.511 E1.1888
G1 X48.475 Y7.500 E1.1946
G1 X51.966 Y8.370 E1.3323
G1 X52.094 Y8.450 E1.3381
G1 X52.244 Y8.461 E1.3439
G1 X55.579 Y9.808 E1.4817
G1 X55.695 Y9.905 E1.4874
G1 X55.843 Y9.937 E1.4932
G1 X58.958 Y11.735 E1.6310
G1 X59.059 Y11.847 E1.6368
G1 X59.200 Y11.899 E1.6425
G1 X62.035 Y14.113 E1.7803
G1 X62.119 Y14.239 E1.7861
G1 X62.253 Y14.309 E1.7919
G1 X64.751 Y16.897 E1.9296
G1 X64.818 Y17.032 E1.9354
G1 X64.940 Y17.121 E1.9412
G1 X67.054 Y20.031 E2.0790
G1 X67.101 Y20.175 E2.0847
G1 X67.204 Y20.274 E2.0902
G1 X67.179 Y19.592 E2.1164
G1 X67.178 Y19.560 E2.1176
G1 X67.178 Y19.418 E2.1230
G1 X67.179 Y19.387 E2.1242
G1 X67.250 Y17.443 E2.1988
G1 X67.446 Y16.921 E2.2201
G1 X67.511 Y16.840 E2.2241
G1 X67.484 Y16.739 E2.2281
G1 X67.518 Y16.183 E2.2494
G1 X68.243 Y14.378 E2.3239
G1 X68.255 Y14.349 E2.3251
G1 X68.313 Y14.219 E2.3306
G1 X68.327 Y14.191 E2.3318
G1 X69.183 Y12.444 E2.4063
G1 X69.574 Y12.047 E2.4276
G1 X69.666 Y11.999 E2.4316
G1 X69.683 Y11.897 E2.4356
G1 X69.939 Y11.402 E2.4569
G1 X71.336 Y10.048 E2.5314
G1 X71.359 Y10.027 E2.5326
G1 X71.465 Y9.931 E2.5381
G1 X71.489 Y9.911 E2.5393
G1 X72.982 Y8.663 E2.6138
G1 X73.500 Y8.459 E2.6351
G1 X73.604 Y8.454 E2.6391
G1 X73.661 Y8.367 E2.6431
G1 X74.096 Y8.019 E2.6645
G1 X75.923 Y7.350 E2.7390
G1 X75.953 Y7.340 E2.7402
G1 X76.089 Y7.296 E2.7456
G1 X76.119 Y7.287 E2.7468
G1 X77.990 Y6.754 E2.8213
G1 X78.546 Y6.779 E2.8427
G1 X78.644 Y6.817 E2.8467
G1 X78.731 Y6.760 E2.8507
G1 X79.270 Y6.620 E2.8720
G1 X81.211 Y6.752 E2.9465
G1 X81.242 Y6.755 E2.9477
G1 X81.384 Y6.769 E2.9531
G1 X81.415 Y6.773 E2.9544
G1 X83.341 Y7.048 E3.0289
G1 X83.840 Y7.297 E3.0502
G1 X83.913 Y7.370 E3.0542
G1 X84.016 Y7.354 E3.0582
G1 X84.566 Y7.445 E3.0795
G1 X86.285 Y8.356 E3.1540
G1 X86.313 Y8.371 E3.1552
G1 X86.436 Y8.442 E3.1607
G1 X86.463 Y8.458 E3.1619
G1 X88.111 Y9.492 E3.2364
G1 X88.465 Y9.922 E3.2577
G1 X88.502 Y10.020 E3.2617
G1 X88.603 Y10.047 E3.2657
G1 X89.067 Y10.354 E3.2870
G1 X90.268 Y11.884 E3.3616
G1 X90.287 Y11.910 E3.3628
G1 X90.371 Y12.025 E3.3682
G1 X90.389 Y12.051 E3.3694
G1 X91.474 Y13.666 E3.4439
G1 X91.622 Y14.203 E3.4653
G1 X91.616 Y14.306 E3.4693
G1 X91.697 Y14.372 E3.4732
G1 X91.997 Y14.841 E3.4946
G1 X92.471 Y16.728 E3.5691
G1 X92.479 Y16.759 E3.5703
G1 X92.508 Y16.898 E3.5757
G1 X92.514 Y16.929 E3.5770
G1 X92.848 Y18.846 E3.6515
G1 X92.765 Y19.397 E3.6728
G1 X92.718 Y19.489 E3.6768
G1 X92.765 Y19.582 E3.6808
G1 X92.848 Y20.133 E3.7021
G1 X92.514 Y22.050 E3.7766
G1 X92.508 Y22.081 E3.7778
G1 X92.479 Y22.220 E3.7833
G1 X92.471 Y22.250 E3.7845
G1 X91.997 Y24.137 E3.8590
G1 X91.697 Y24.607 E3.8803
G1 X91.616 Y24.672 E3.8843
G1 X91.622 Y24.776 E3.8883
G1 X91.474 Y25.313 E3.9096
G1 X90.389 Y26.928 E3.9842
G1 X90.371 Y26.954 E3.9854
G1 X90.287 Y27.069 E3.9908
G1 X90.268 Y27.094 E3.9920
G1 X89.067 Y28.625 E4.0665
G1 X88.603 Y28.932 E4.0879
G1 X88.502 Y28.959 E4.0919
G1 X88.465 Y29.056 E4.0958
G1 X88.111 Y29.486 E4.1172
G1 X86.689 Y30.379 E4.1815
G1 X87.765 Y31.054 E4.2301
G1 X88.119 Y31.484 E4.2515
G1 X88.155 Y31.579 E4.2553
G1 X88.253 Y31.605 E4.2592
G1 X88.718 Y31.912 E4.2806
G1 X89.917 Y33.442 E4.3550
G1 X89.936 Y33.467 E4.3562
G1 X90.020 Y33.582 E4.3617
G1 X90.038 Y33.608 E4.3629
G1 X91.122 Y35.221 E4.4373
G1 X91.270 Y35.758 E4.4587
G1 X91.265 Y35.860 E4.4625
G1 X91.344 Y35.923 E4.4664
G1 X91.644 Y36.393 E4.4878
G1 X92.118 Y38.278 E4.5622
G1 X92.125 Y38.309 E4.5634
G1 X92.154 Y38.448 E4.5689
G1 X92.160 Y38.479 E4.5701
G1 X92.494 Y40.394 E4.6445
G1 X92.411 Y40.945 E4.6659
G1 X92.365 Y41.035 E4.6697
G1 X92.411 Y41.125 E4.6736
G1 X92.494 Y41.676 E4.6950
G1 X92.160 Y43.591 E4.7694
G1 X92.154 Y43.622 E4.7706
G1 X92.125 Y43.761 E4.7761
G1 X92.118 Y43.792 E4.7773
G1 X91.644 Y45.678 E4.8517
G1 X91.344 Y46.147 E4.8731
G1 X91.265 Y46.211 E4.8769
G1 X91.270 Y46.312 E4.8808
G1 X91.122 Y46.849 E4.9022
G1 X90.038 Y48.463 E4.9766
G1 X90.020 Y48.489 E4.9778
G1 X89.936 Y48.604 E4.9833
G1 X89.917 Y48.629 E4.9845
G1 X88.718 Y50.159 E5.0589
G1 X88.253 Y50.465 E5.0803
G1 X88.155 Y50.492 E5.0841
G1 X88.119 Y50.586 E5.0880
G1 X87.765 Y51.016 E5.1094
G1 X86.118 Y52.050 E5.1838
G1 X86.091 Y52.066 E5.1850
G1 X85.968 Y52.137 E5.1905
G1 X85.940 Y52.152 E5.1917
G1 X84.222 Y53.062 E5.2661
G1 X83.672 Y53.153 E5.2875
G1 X83.573 Y53.137 E5.2913
G1 X83.501 Y53.209 E5.2952
G1 X83.003 Y53.458 E5.3166
G1 X81.078 Y53.732 E5.3910
G1 X81.047 Y53.736 E5.3922
G1 X80.905 Y53.751 E5.3977
G1 X80.874 Y53.754 E5.3989
G1 X78.934 Y53.886 E5.4733
G1 X78.395 Y53.746 E5.4947
G1 X78.310 Y53.690 E5.4985
G1 X78.216 Y53.727 E5.5024
G1 X77.659 Y53.752 E5.5238
G1 X75.789 Y53.219 E5.5982
G1 X75.759 Y53.210 E5.5994
G1 X75.624 Y53.166 E5.6049
G1 X75.594 Y53.156 E5.6061
G1 X73.769 Y52.487 E5.6805
G1 X73.333 Y52.140 E5.7019
G1 X73.278 Y52.055 E5.7057
G1 X73.177 Y52.050 E5.7096
G1 X72.658 Y51.846 E5.7310
G1 X71.167 Y50.600 E5.8054
G1 X71.143 Y50.579 E5.8066
G1 X71.037 Y50.484 E5.8121
G1 X71.014 Y50.462 E5.8133
G1 X69.618 Y49.109 E5.8877
G1 X69.361 Y48.615 E5.9091
G1 X69.346 Y48.515 E5.9129
G1 X69.255 Y48.469 E5.9168
G1 X68.865 Y48.072 E5.9382
G1 X68.454 Y47.234 E5.9739
G1 X67.209 Y49.576 E6.0754
G1 X67.101 Y49.681 E6.0812
G1 X67.054 Y49.825 E6.0870
G1 X64.940 Y52.735 E6.2248
G1 X64.818 Y52.823 E6.2305
G1 X64.751 Y52.959 E6.2363
G1 X62.253 Y55.547 E6.3741
G1 X62.119 Y55.617 E6.3799
G1 X62.035 Y55.742 E6.3856
G1 X59.200 Y57.957 E6.5234
G1 X59.059 Y58.009 E6.5292
G1 X58.958 Y58.121 E6.5350
G1 X58.609 Y58.322 E6.5504
G1 X103.927 Y58.322 E8.2861
G1 X104.557 Y58.583 E8.3122
G1 X106.797 Y60.823 E8.4335
G1 X107.058 Y61.454 E8.4596
G1 X107.058 Y94.621 E9.7299
G1 X106.797 Y95.251 E9.7560
G1 X104.557 Y97.491 E9.8774
G1 X103.927 Y97.752 E9.9035
G1 X18.796 Y97.752 E13.1639
G1 X18.166 Y97.491 E13.1901
G1 X15.926 Y95.251 E13.3114
G1 X15.665 Y94.621 E13.3375
G1 X15.665 Y61.454 E14.6078
G1 X15.926 Y60.823 E14.6339
G1 X18.166 Y58.583 E14.7552
G1 X18.796 Y58.322 E14.7814
G1 X28.425 Y58.322 E15.1502
G1 X26.443 Y56.985 E15.2417
G1 X26.350 Y56.866 E15.2475
G1 X26.213 Y56.805 E15.2533
G1 X23.539 Y54.398 E15.3911
G1 X23.464 Y54.267 E15.3968
G1 X23.336 Y54.188 E15.4026
G1 X21.024 Y51.432 E15.5404
G1 X20.967 Y51.292 E15.5462
G1 X20.852 Y51.195 E15.5519
G1 X18.946 Y48.145 E15.6897
G1 X18.909 Y47.998 E15.6955
G1 X18.808 Y47.886 E15.7012
G1 X17.345 Y44.600 E15.8390
G1 X17.329 Y44.450 E15.8448
G1 X17.245 Y44.325 E15.8506
G1 X16.253 Y40.867 E15.9883
G1 X16.259 Y40.716 E15.9941
G1 X16.193 Y40.581 E15.9999
G1 X15.692 Y37.019 E16.1377
G1 X15.718 Y36.870 E16.1434
G1 X15.671 Y36.727 E16.1492
G1 X15.671 Y33.129 E16.2870
G1 X15.718 Y32.986 E16.2928
G1 X15.692 Y32.837 E16.2985
G1 X16.193 Y29.275 E16.4363
G1 X16.259 Y29.140 E16.4421
G1 X16.253 Y28.989 E16.4479
G1 X17.245 Y25.531 E16.5856
G1 X17.329 Y25.406 E16.5914
G1 X17.345 Y25.256 E16.5972
G1 X18.808 Y21.970 E16.7349
G1 X18.909 Y21.858 E16.7407
G1 X18.946 Y21.711 E16.7465
G1 X20.852 Y18.661 E16.8843
G1 X20.967 Y18.564 E16.8900
G1 X21.024 Y18.424 E16.8958
G92 E0
G1 E-6.5000 F4998
G1 X70.480 Y28.100 F3498
G1 E0.0000 F4998
G92 E0
G1 X71.076 Y30.903 E0.1098 F672
G1 X71.060 Y31.053 E0.1155
G1 X71.117 Y31.193 E0.1213
G1 X71.138 Y31.496 E0.1329
G1 X71.143 Y31.492 E0.1332
G1 X71.167 Y31.471 E0.1344
G1 X72.658 Y30.224 E0.2089
G1 X72.804 Y30.167 E0.2148
G1 X71.489 Y29.068 E0.2805
G1 X71.465 Y29.047 E0.2817
G1 X71.359 Y28.952 E0.2871
G1 X71.336 Y28.931 E0.2883
G1 X70.480 Y28.100 E0.3340
G1 X69.865 Y27.562 F3498
G92 E0
G1 X70.580 Y30.929 E0.1318 F672
G1 X70.560 Y31.124 E0.1393
G1 X70.633 Y31.305 E0.1468
G1 X70.722 Y32.574 E0.1955
G1 X71.352 Y31.963 E0.2291
G1 X71.368 Y31.948 E0.2300
G1 X71.467 Y31.859 E0.2351
G1 X71.484 Y31.844 E0.2359
G1 X72.911 Y30.651 E0.3072
G1 X73.282 Y30.506 E0.3224
G1 X73.553 Y30.491 E0.3328
G1 X73.701 Y30.264 E0.3432
G1 X73.910 Y30.097 E0.3535
G1 X73.879 Y30.048 E0.3557
G1 X73.605 Y30.034 E0.3662
G1 X73.235 Y29.889 E0.3814
G1 X71.807 Y28.695 E0.4527
G1 X71.790 Y28.680 E0.4536
G1 X71.691 Y28.591 E0.4587
G1 X71.674 Y28.576 E0.4596
G1 X70.338 Y27.280 E0.5308
G1 X70.154 Y26.927 E0.5461
G1 X70.111 Y26.656 E0.5566
G1 X69.867 Y26.531 E0.5671
G1 X69.588 Y26.248 E0.5823
G1 X68.914 Y24.873 E0.6410
G1 X69.760 Y27.198 E0.7358
G1 X69.767 Y27.393 E0.7432
G1 X69.865 Y27.562 E0.7507
G1 X68.214 Y23.213 F3498
G92 E0
G1 X68.002 Y22.686 E0.0217 F672
G1 X67.978 Y22.289 E0.0370
G1 X68.049 Y22.024 E0.0475
G1 X67.877 Y21.811 E0.0580
G1 X67.737 Y21.439 E0.0732
G1 X67.668 Y19.578 E0.1445
G1 X67.668 Y19.556 E0.1454
G1 X67.668 Y19.423 E0.1505
G1 X67.668 Y19.400 E0.1513
G1 X67.737 Y17.540 E0.2226
G1 X67.877 Y17.168 E0.2379
G1 X68.049 Y16.954 E0.2484
G1 X67.978 Y16.689 E0.2589
G1 X68.002 Y16.292 E0.2741
G1 X68.696 Y14.565 E0.3454
G1 X68.705 Y14.544 E0.3463
G1 X68.759 Y14.423 E0.3514
G1 X68.769 Y14.402 E0.3522
G1 X69.588 Y12.731 E0.4235
G1 X69.867 Y12.447 E0.4388
G1 X70.111 Y12.323 E0.4493
G1 X70.154 Y12.052 E0.4598
G1 X70.338 Y11.699 E0.4750
G1 X71.674 Y10.403 E0.5463
G1 X71.691 Y10.388 E0.5472
G1 X71.790 Y10.299 E0.5523
G1 X71.807 Y10.284 E0.5531
G1 X73.235 Y9.090 E0.6244
G1 X73.605 Y8.945 E0.6397
G1 X73.879 Y8.930 E0.6502
G1 X74.028 Y8.700 E0.6607
G1 X74.340 Y8.452 E0.6759
G1 X76.088 Y7.812 E0.7472
G1 X76.109 Y7.805 E0.7481
G1 X76.236 Y7.764 E0.7532
G1 X76.257 Y7.757 E0.7540
G1 X78.047 Y7.247 E0.8253
G1 X78.445 Y7.265 E0.8406
G1 X78.701 Y7.364 E0.8511
G1 X78.931 Y7.214 E0.8616
G1 X79.316 Y7.114 E0.8768
G1 X81.173 Y7.240 E0.9481
G1 X81.196 Y7.242 E0.9490
G1 X81.328 Y7.256 E0.9540
G1 X81.351 Y7.259 E0.9549
G1 X83.193 Y7.522 E1.0262
G1 X83.549 Y7.700 E1.0414
G1 X83.743 Y7.893 E1.0520
G1 X84.014 Y7.851 E1.0625
G1 X84.407 Y7.916 E1.0777
G1 X86.052 Y8.787 E1.1490
G1 X86.072 Y8.798 E1.1499
G1 X86.187 Y8.864 E1.1550
G1 X86.206 Y8.876 E1.1558
G1 X87.783 Y9.865 E1.2271
G1 X88.036 Y10.172 E1.2423
G1 X88.134 Y10.428 E1.2529
G1 X88.399 Y10.499 E1.2634
G1 X88.731 Y10.719 E1.2786
G1 X89.880 Y12.183 E1.3499
G1 X89.893 Y12.201 E1.3508
G1 X89.972 Y12.309 E1.3558
G1 X89.984 Y12.328 E1.3567
G1 X91.022 Y13.873 E1.4280
G1 X91.128 Y14.256 E1.4432
G1 X91.114 Y14.530 E1.4537
G1 X91.327 Y14.703 E1.4643
G1 X91.541 Y15.038 E1.4795
G1 X91.995 Y16.843 E1.5508
G1 X92.000 Y16.865 E1.5516
G1 X92.028 Y16.996 E1.5567
G1 X92.032 Y17.018 E1.5576
G1 X92.352 Y18.852 E1.6289
