; G-Code generated by Simplify3D(R) Version 3.0.0
; Mrz 26, 2018 at 5:20:58 
; Settings Summary
;   processName,Process1
;   applyToModels,r01_big,r02_big,rs_big
;   profileName,Renkforce (modified)
;   profileVersion,2017-10-17 11:10:50
;   baseProfile,German RepRap NEO (modified)
;   printMaterial,
;   printQuality,
;   printExtruders,
;   extruderName,Primary Extruder
;   extruderToolheadNumber,0
;   extruderDiameter,0.5
;   extruderAutoWidth,0
;   extruderWidth,0.49
;   extrusionMultiplier,0.94
;   extruderUseRetract,1
;   extruderRetractionDistance,6.5
;   extruderExtraRestartDistance,0
;   extruderRetractionZLift,0
;   extruderRetractionSpeed,4998
;   extruderUseCoasting,0
;   extruderCoastingDistance,0.2
;   extruderUseWipe,0
;   extruderWipeDistance,5
;   primaryExtruder,0
;   layerHeight,0.2
;   topSolidLayers,4
;   bottomSolidLayers,3
;   perimeterOutlines,3
;   printPerimetersInsideOut,1
;   startPointOption,2
;   startPointOriginX,0
;   startPointOriginY,0
;   startPointOriginZ,300
;   sequentialIslands,0
;   spiralVaseMode,0
;   firstLayerHeightPercentage,100
;   firstLayerWidthPercentage,100
;   firstLayerUnderspeed,0.28
;   useRaft,0
;   raftExtruder,0
;   raftLayers,3
;   raftOffset,3
;   raftSeparationDistance,0.1
;   raftInfill,85
;   disableRaftBaseLayers,0
;   useSkirt,1
;   skirtExtruder,0
;   skirtLayers,1
;   skirtOutlines,4
;   skirtOffset,3
;   usePrimePillar,0
;   primePillarExtruder,999
;   primePillarWidth,12
;   primePillarLocation,7
;   primePillarSpeedMultiplier,1
;   useOozeShield,0
;   oozeShieldExtruder,999
;   oozeShieldOffset,2
;   oozeShieldOutlines,1
;   oozeShieldSidewallShape,1
;   oozeShieldSidewallAngle,30
;   oozeShieldSpeedMultiplier,1
;   infillExtruder,0
;   internalInfillPattern,Full Honeycomb
;   externalInfillPattern,Rectilinear
;   infillPercentage,8
;   outlineOverlapPercentage,15
;   infillExtrusionWidthPercentage,100
;   minInfillLength,3
;   infillLayerInterval,1
;   infillAngles,0,120,-120
;   overlapInfillAngles,0
;   generateSupport,1
;   supportExtruder,0
;   supportInfillPercentage,30
;   supportExtraInflation,0
;   denseSupportLayers,0
;   denseSupportInfillPercentage,75
;   supportLayerInterval,1
;   supportHorizontalPartOffset,1.5
;   supportUpperSeparationLayers,2
;   supportLowerSeparationLayers,2
;   supportType,0
;   supportGridSpacing,5
;   maxOverhangAngle,45
;   supportAngles,45
;   temperatureName,Primary Extruder
;   temperatureNumber,0
;   temperatureSetpointCount,3
;   temperatureSetpointLayers,1,2,3
;   temperatureSetpointTemperatures,197,193,189
;   temperatureStabilizeAtStartup,1
;   temperatureHeatedBed,0
;   temperatureRelayBetweenLayers,0
;   temperatureRelayBetweenLoops,0
;   fanLayers,1,3
;   fanSpeeds,0,80
;   blipFanToFullPower,0
;   adjustSpeedForCooling,1
;   minSpeedLayerTime,15
;   minCoolingSpeedSlowdown,20
;   increaseFanForCooling,0
;   minFanLayerTime,45
;   maxCoolingFanSpeed,100
;   increaseFanForBridging,0
;   bridgingFanSpeed,100
;   use5D,1
;   relativeEdistances,0
;   allowEaxisZeroing,1
;   independentExtruderAxes,0
;   includeM10123,0
;   stickySupport,1
;   applyToolheadOffsets,0
;   gcodeXoffset,0
;   gcodeYoffset,0
;   gcodeZoffset,0
;   overrideMachineDefinition,1
;   machineTypeOverride,0
;   strokeXoverride,150
;   strokeYoverride,150
;   strokeZoverride,150
;   originOffsetXoverride,0
;   originOffsetYoverride,0
;   originOffsetZoverride,0
;   homeXdirOverride,-1
;   homeYdirOverride,-1
;   homeZdirOverride,-1
;   flipXoverride,1
;   flipYoverride,-1
;   flipZoverride,1
;   toolheadOffsets,0,0|0,0|0,0|0,0|0,0|0,0
;   overrideFirmwareConfiguration,0
;   firmwareTypeOverride,RepRap (Marlin/Repetier/Sprinter)
;   GPXconfigOverride,r2
;   baudRateOverride,115200
;   overridePrinterModels,0
;   printerModelsOverride
;   startingGcode,G28 ; home all axes
;   layerChangeGcode,
;   retractionGcode,
;   toolChangeGcode,
;   endingGcode,M104 S0 ; turn off extruder,M140 S0 ; turn off bed,G28 X0  ; home X axis,G28 Y0  ; home Y axis,M84 ; disable motors,M107
;   createX3G,0
;   celebration,0
;   celebrationSong,Random Song
;   createMB5G,0
;   postProcessing,
;   defaultSpeed,2400
;   outlineUnderspeed,0.5
;   solidInfillUnderspeed,0.8
;   supportUnderspeed,0.8
;   rapidXYspeed,3498
;   rapidZspeed,1002
;   minBridgingArea,50
;   bridgingExtraInflation,0
;   bridgingExtrusionMultiplier,1
;   bridgingSpeedMultiplier,1
;   filamentDiameter,1.75
;   filamentPricePerKg,46
;   filamentDensity,1.25
;   useMinPrintHeight,0
;   minPrintHeight,0
;   useMaxPrintHeight,0
;   maxPrintHeight,0
;   useDiaphragm,0
;   diaphragmLayerInterval,20
;   robustSlicing,1
;   mergeAllIntoSolid,0
;   onlyRetractWhenCrossingOutline,1
;   retractBetweenLayers,1
;   useRetractionMinTravel,0
;   retractionMinTravel,3
;   retractWhileWiping,0
;   onlyWipeOutlines,1
;   avoidCrossingOutline,0
;   maxMovementDetourFactor,10
;   toolChangeRetractionDistance,0
;   toolChangeExtraRestartDistance,0
;   toolChangeRetractionSpeed,360
;   allowThinWallGapFill,1
;   thinWallAllowedOverlapPercentage,10
;   horizontalSizeCompensation,0
G90
M82
M106 S0
M104 S197 T0
M109 S197 T0
G28 ; home all axes
G92 E0
G1 E-6.5000 F4998
G1 Z0.200 F1002
; layer 1, Z = 0.2
T0
; tool H0.200 W0.490
; skirt
G1 X47.273 Y21.153 F3498
G1 E0.0000 F1499
G92 E0
G1 X47.599 Y20.709 E0.0211 F672
G1 X47.844 Y20.534 E0.0326
G1 X47.810 Y20.235 E0.0441
G1 X47.922 Y19.696 E0.0652
G1 X50.035 Y16.037 E0.2270
G1 X50.446 Y15.670 E0.2481
G1 X50.721 Y15.550 E0.2597
G1 X50.750 Y15.251 E0.2712
G1 X50.972 Y14.747 E0.2923
G1 X53.800 Y11.607 E0.4541
G1 X54.278 Y11.333 E0.4752
G1 X54.572 Y11.273 E0.4867
G1 X54.663 Y10.986 E0.4982
G1 X54.985 Y10.540 E0.5193
G1 X58.403 Y8.056 E0.6811
G1 X58.927 Y7.888 E0.7022
G1 X59.228 Y7.890 E0.7137
G1 X59.376 Y7.629 E0.7253
G1 X59.784 Y7.259 E0.7464
G1 X63.644 Y5.540 E0.9082
G1 X64.192 Y5.485 E0.9293
G1 X64.486 Y5.550 E0.9408
G1 X64.685 Y5.324 E0.9523
G1 X65.161 Y5.047 E0.9734
G1 X69.294 Y4.169 E1.1352
G1 X69.841 Y4.228 E1.1563
G1 X70.106 Y4.349 E1.1674
G1 X70.300 Y4.203 E1.1768
G1 X70.813 Y4.026 E1.1975
G1 X72.916 Y3.987 E1.2781
G1 X72.931 Y3.987 E1.2787
G1 X73.000 Y3.987 E1.2813
G1 X73.016 Y3.987 E1.2819
G1 X75.169 Y4.024 E1.3644
G1 X75.683 Y4.201 E1.3852
G1 X75.879 Y4.349 E1.3946
G1 X76.144 Y4.228 E1.4058
G1 X76.691 Y4.169 E1.4269
G1 X80.825 Y5.047 E1.5887
G1 X81.300 Y5.324 E1.6098
G1 X81.500 Y5.550 E1.6213
G1 X81.793 Y5.485 E1.6328
G1 X82.341 Y5.540 E1.6539
G1 X86.201 Y7.259 E1.8157
G1 X86.609 Y7.629 E1.8368
G1 X86.757 Y7.890 E1.8484
G1 X87.058 Y7.888 E1.8599
G1 X87.582 Y8.056 E1.8810
G1 X91.001 Y10.540 E2.0428
G1 X91.323 Y10.986 E2.0639
G1 X91.410 Y11.263 E2.0750
G1 X91.649 Y11.310 E2.0843
G1 X92.123 Y11.572 E2.1051
G1 X93.559 Y13.109 E2.1856
G1 X93.570 Y13.121 E2.1862
G1 X93.616 Y13.172 E2.1889
G1 X93.626 Y13.184 E2.1895
G1 X95.039 Y14.809 E2.2720
G1 X95.252 Y15.309 E2.2928
G1 X95.273 Y15.554 E2.3022
G1 X95.540 Y15.670 E2.3133
G1 X95.951 Y16.037 E2.3344
G1 X98.063 Y19.696 E2.4962
G1 X98.176 Y20.235 E2.5173
G1 X98.142 Y20.534 E2.5289
G1 X98.387 Y20.709 E2.5404
G1 X98.712 Y21.153 E2.5615
G1 X100.018 Y25.172 E2.7233
G1 X100.016 Y25.722 E2.7444
G1 X99.920 Y26.008 E2.7559
G1 X100.123 Y26.230 E2.7674
G1 X100.349 Y26.732 E2.7885
G1 X100.791 Y30.934 E2.9503
G1 X100.674 Y31.472 E2.9714
G1 X100.522 Y31.731 E2.9830
G1 X100.674 Y31.991 E2.9945
G1 X100.791 Y32.529 E3.0156
G1 X100.349 Y36.731 E3.1774
G1 X100.123 Y37.233 E3.1985
G1 X99.920 Y37.455 E3.2100
G1 X100.016 Y37.740 E3.2215
G1 X100.018 Y38.291 E3.2426
G1 X98.712 Y42.310 E3.4044
G1 X98.387 Y42.754 E3.4255
G1 X98.142 Y42.928 E3.4370
G1 X98.176 Y43.227 E3.4486
G1 X98.063 Y43.766 E3.4697
G1 X95.951 Y47.426 E3.6315
G1 X95.540 Y47.792 E3.6526
G1 X95.264 Y47.912 E3.6641
G1 X95.235 Y48.212 E3.6756
G1 X95.013 Y48.716 E3.6967
G1 X92.186 Y51.856 E3.8585
G1 X91.708 Y52.129 E3.8796
G1 X91.413 Y52.189 E3.8911
G1 X91.323 Y52.476 E3.9027
G1 X91.001 Y52.923 E3.9237
G1 X87.582 Y55.407 E4.0856
G1 X87.058 Y55.575 E4.1067
G1 X86.757 Y55.572 E4.1182
G1 X86.609 Y55.834 E4.1297
G1 X86.201 Y56.204 E4.1508
G1 X85.690 Y56.432 E4.1722
G1 X85.931 Y56.529 E4.1822
G1 X86.363 Y56.903 E4.2041
G1 X86.907 Y57.840 E4.2456
G1 X87.960 Y58.096 E4.2871
G1 X88.442 Y58.403 E4.3089
G1 X89.915 Y60.253 E4.3995
G1 X89.944 Y60.292 E4.4014
G1 X90.071 Y60.472 E4.4098
G1 X90.098 Y60.513 E4.4117
G1 X91.351 Y62.519 E4.5023
G1 X91.480 Y63.075 E4.5241
G1 X91.370 Y64.153 E4.5656
G1 X92.072 Y64.980 E4.6072
G1 X92.280 Y65.511 E4.6290
G1 X92.385 Y67.873 E4.7196
G1 X92.385 Y67.922 E4.7215
G1 X92.383 Y68.143 E4.7299
G1 X92.381 Y68.192 E4.7318
G1 X92.215 Y70.551 E4.8224
G1 X91.993 Y71.077 E4.8442
G1 X91.270 Y71.884 E4.8857
G1 X91.352 Y72.965 E4.9272
G1 X91.208 Y73.517 E4.9491
G1 X89.904 Y75.490 E5.0397
G1 X89.876 Y75.530 E5.0415
G1 X89.744 Y75.707 E5.0500
G1 X89.714 Y75.745 E5.0519
G1 X88.193 Y77.556 E5.1424
G1 X87.704 Y77.851 E5.1643
G1 X86.645 Y78.080 E5.2058
G1 X86.076 Y79.002 E5.2473
G1 X85.635 Y79.365 E5.2692
G1 X83.420 Y80.194 E5.3597
G1 X83.374 Y80.210 E5.3616
G1 X83.163 Y80.275 E5.3701
G1 X83.116 Y80.289 E5.3719
G1 X80.821 Y80.860 E5.4625
G1 X80.252 Y80.811 E5.4844
G1 X79.261 Y80.373 E5.5259
G1 X78.259 Y80.785 E5.5674
G1 X77.689 Y80.819 E5.5892
G1 X75.410 Y80.189 E5.6798
G1 X75.363 Y80.174 E5.6817
G1 X75.154 Y80.103 E5.6901
G1 X75.108 Y80.086 E5.6920
G1 X72.916 Y79.200 E5.7826
G1 X72.484 Y78.826 E5.8044
G1 X71.939 Y77.889 E5.8460
G1 X70.886 Y77.633 E5.8875
G1 X70.405 Y77.325 E5.9093
G1 X68.932 Y75.476 E5.9999
G1 X68.903 Y75.436 E6.0018
G1 X68.776 Y75.256 E6.0102
G1 X68.748 Y75.216 E6.0121
G1 X68.669 Y75.088 E6.0179
G1 X68.216 Y75.359 E6.0381
G1 X67.974 Y76.415 E6.0796
G1 X67.673 Y76.900 E6.1014
G1 X65.842 Y78.396 E6.1920
G1 X65.804 Y78.426 E6.1939
G1 X65.625 Y78.556 E6.2023
G1 X65.585 Y78.584 E6.2042
G1 X63.595 Y79.862 E6.2947
G1 X63.041 Y79.998 E6.3166
G1 X61.962 Y79.903 E6.3581
G1 X61.145 Y80.614 E6.3996
G1 X60.617 Y80.830 E6.4215
G1 X58.256 Y80.965 E6.5120
G1 X58.207 Y80.966 E6.5139
G1 X57.986 Y80.966 E6.5223
G1 X57.937 Y80.965 E6.5242
G1 X55.577 Y80.830 E6.6148
G1 X55.048 Y80.614 E6.6366
G1 X54.231 Y79.903 E6.6781
G1 X53.152 Y79.998 E6.7196
G1 X52.598 Y79.862 E6.7415
G1 X50.608 Y78.584 E6.8320
G1 X50.568 Y78.556 E6.8339
G1 X50.390 Y78.426 E6.8424
G1 X50.351 Y78.396 E6.8442
G1 X48.520 Y76.900 E6.9348
G1 X48.219 Y76.415 E6.9567
G1 X47.977 Y75.359 E6.9982
G1 X47.048 Y74.802 E7.0397
G1 X46.679 Y74.366 E7.0615
G1 X45.821 Y72.162 E7.1521
G1 X45.805 Y72.116 E7.1540
G1 X45.737 Y71.906 E7.1624
G1 X45.723 Y71.859 E7.1643
G1 X45.122 Y69.572 E7.2548
G1 X45.164 Y69.003 E7.2767
G1 X45.588 Y68.006 E7.3182
G1 X45.164 Y67.010 E7.3597
G1 X45.122 Y66.440 E7.3816
G1 X45.723 Y64.153 E7.4721
G1 X45.737 Y64.106 E7.4740
G1 X45.805 Y63.897 E7.4824
G1 X45.821 Y63.850 E7.4843
G1 X46.679 Y61.647 E7.5749
G1 X47.048 Y61.211 E7.5967
G1 X47.977 Y60.654 E7.6382
G1 X48.219 Y59.598 E7.6797
G1 X48.520 Y59.113 E7.7016
G1 X50.351 Y57.616 E7.7921
G1 X50.390 Y57.586 E7.7940
G1 X50.568 Y57.457 E7.8025
G1 X50.609 Y57.429 E7.8043
G1 X52.598 Y56.151 E7.8949
G1 X53.152 Y56.014 E7.9168
G1 X54.231 Y56.110 E7.9583
G1 X55.048 Y55.398 E7.9998
G1 X55.577 Y55.183 E8.0216
G1 X57.911 Y55.049 E8.1112
G1 X54.985 Y52.923 E8.2497
G1 X54.663 Y52.476 E8.2708
G1 X54.575 Y52.199 E8.2819
G1 X54.337 Y52.153 E8.2912
G1 X53.862 Y51.890 E8.3120
G1 X52.426 Y50.353 E8.3926
G1 X52.416 Y50.342 E8.3932
G1 X52.370 Y50.291 E8.3958
G1 X52.359 Y50.279 E8.3964
G1 X50.946 Y48.654 E8.4789
G1 X50.734 Y48.154 E8.4997
G1 X50.712 Y47.909 E8.5091
G1 X50.445 Y47.792 E8.5203
G1 X50.035 Y47.426 E8.5413
G1 X47.922 Y43.766 E8.7032
G1 X47.810 Y43.227 E8.7243
G1 X47.844 Y42.928 E8.7358
G1 X47.599 Y42.754 E8.7473
G1 X47.273 Y42.310 E8.7684
G1 X45.968 Y38.291 E8.9302
G1 X45.970 Y37.740 E8.9513
G1 X46.065 Y37.455 E8.9628
G1 X45.862 Y37.233 E8.9744
G1 X45.636 Y36.731 E8.9954
G1 X45.194 Y32.529 E9.1573
G1 X45.311 Y31.991 E9.1784
G1 X45.464 Y31.731 E9.1899
G1 X45.311 Y31.472 E9.2014
G1 X45.194 Y30.934 E9.2225
G1 X45.636 Y26.732 E9.3843
G1 X45.862 Y26.230 E9.4054
G1 X46.065 Y26.008 E9.4169
G1 X45.970 Y25.722 E9.4284
G1 X45.968 Y25.172 E9.4495
G1 X47.273 Y21.153 E9.6114
G92 E0
G1 E-6.5000 F4998
G1 X67.402 Y58.892 F3498
G1 E0.0000 F4998
G92 E0
G1 X67.673 Y59.113 E0.0134 F672
G1 X67.974 Y59.598 E0.0352
G1 X68.216 Y60.654 E0.0767
G1 X68.540 Y60.848 E0.0912
G1 X68.943 Y60.239 E0.1192
G1 X68.971 Y60.199 E0.1210
G1 X69.103 Y60.022 E0.1295
G1 X69.133 Y59.983 E0.1314
G1 X69.755 Y59.244 E0.1684
G1 X69.294 Y59.294 E0.1861
G1 X67.402 Y58.892 E0.2602
G1 X67.299 Y59.441 F3498
G92 E0
G1 X67.514 Y59.787 E0.0156 F672
G1 X67.785 Y60.967 E0.0620
G1 X68.690 Y61.509 E0.1024
G1 X69.348 Y60.515 E0.1480
G1 X69.368 Y60.486 E0.1494
G1 X69.491 Y60.321 E0.1573
G1 X69.513 Y60.293 E0.1586
G1 X70.696 Y58.884 E0.2291
G1 X70.585 Y58.848 E0.2336
G1 X70.175 Y58.544 E0.2531
G1 X69.710 Y58.756 E0.2727
G1 X69.319 Y58.798 E0.2877
G1 X65.528 Y57.992 E0.4362
G1 X65.537 Y58.000 E0.4367
G1 X67.299 Y59.441 E0.5238
G1 X64.756 Y57.479 F3498
G92 E0
G1 X64.662 Y57.372 E0.0055 F672
G1 X64.608 Y57.384 E0.0075
G1 X64.756 Y57.479 E0.0143
G1 X61.896 Y56.608 F3498
G92 E0
G1 X61.674 Y56.509 E0.0093 F672
G1 X61.797 Y56.617 E0.0156
G1 X61.896 Y56.608 E0.0194
G1 X59.883 Y55.632 F3498
G92 E0
G1 X59.764 Y55.524 E0.0061 F672
G1 X59.513 Y55.080 E0.0257
G1 X59.002 Y55.084 E0.0452
G1 X58.628 Y54.964 E0.0603
G1 X55.336 Y52.573 E0.2161
G1 X55.106 Y52.254 E0.2312
G1 X54.955 Y51.774 E0.2504
G1 X54.506 Y51.687 E0.2679
G1 X54.167 Y51.499 E0.2828
G1 X52.786 Y50.020 E0.3603
G1 X52.778 Y50.012 E0.3607
G1 X52.735 Y49.964 E0.3632
G1 X52.728 Y49.956 E0.3636
G1 X51.367 Y48.391 E0.4430
G1 X51.215 Y48.034 E0.4579
G1 X51.175 Y47.576 E0.4755
G1 X50.713 Y47.375 E0.4948
G1 X50.420 Y47.113 E0.5099
G1 X48.386 Y43.589 E0.6657
G1 X48.306 Y43.204 E0.6807
G1 X48.363 Y42.697 E0.7003
G1 X47.948 Y42.401 E0.7198
G1 X47.715 Y42.083 E0.7349
G1 X46.458 Y38.214 E0.8907
G1 X46.460 Y37.821 E0.9058
G1 X46.621 Y37.337 E0.9253
G1 X46.277 Y36.960 E0.9449
G1 X46.115 Y36.602 E0.9599
G1 X45.690 Y32.556 E1.1157
G1 X45.773 Y32.171 E1.1308
G1 X46.032 Y31.731 E1.1504
G1 X45.773 Y31.291 E1.1699
G1 X45.690 Y30.907 E1.1850
G1 X46.115 Y26.861 E1.3408
G1 X46.277 Y26.502 E1.3558
G1 X46.621 Y26.126 E1.3754
G1 X46.460 Y25.642 E1.3949
G1 X46.458 Y25.249 E1.4100
G1 X47.715 Y21.379 E1.5658
G1 X47.948 Y21.062 E1.5809
G1 X48.363 Y20.765 E1.6004
G1 X48.306 Y20.258 E1.6200
G1 X48.386 Y19.873 E1.6350
G1 X50.420 Y16.350 E1.7909
G1 X50.713 Y16.088 E1.8059
G1 X51.181 Y15.884 E1.8255
G1 X51.230 Y15.376 E1.8450
G1 X51.389 Y15.016 E1.8601
G1 X54.111 Y11.993 E2.0159
G1 X54.452 Y11.798 E2.0309
G1 X54.953 Y11.696 E2.0505
G1 X55.106 Y11.209 E2.0701
G1 X55.336 Y10.890 E2.0851
G1 X58.628 Y8.499 E2.2409
G1 X59.002 Y8.379 E2.2560
G1 X59.513 Y8.383 E2.2755
G1 X59.764 Y7.939 E2.2951
G1 X60.055 Y7.674 E2.3102
G1 X63.772 Y6.020 E2.4660
G1 X64.163 Y5.980 E2.4810
G1 X64.662 Y6.090 E2.5006
G1 X65.000 Y5.708 E2.5201
G1 X65.340 Y5.510 E2.5352
G1 X69.319 Y4.664 E2.6910
G1 X69.710 Y4.707 E2.7061
G1 X70.168 Y4.915 E2.7253
G1 X70.533 Y4.641 E2.7428
G1 X70.899 Y4.514 E2.7577
G1 X72.922 Y4.477 E2.8352
G1 X72.934 Y4.477 E2.8356
G1 X72.998 Y4.477 E2.8381
G1 X73.009 Y4.477 E2.8385
G1 X75.083 Y4.513 E2.9179
G1 X75.450 Y4.639 E2.9328
G1 X75.817 Y4.916 E2.9504
G1 X76.276 Y4.707 E2.9697
G1 X76.666 Y4.664 E2.9847
G1 X80.646 Y5.510 E3.1406
G1 X80.986 Y5.708 E3.1556
G1 X81.324 Y6.090 E3.1752
G1 X81.822 Y5.980 E3.1947
G1 X82.214 Y6.020 E3.2098
G1 X85.930 Y7.674 E3.3656
G1 X86.221 Y7.939 E3.3807
G1 X86.473 Y8.383 E3.4002
G1 X86.984 Y8.379 E3.4198
G1 X87.358 Y8.499 E3.4348
G1 X90.649 Y10.890 E3.5906
G1 X90.879 Y11.209 E3.6057
G1 X91.031 Y11.689 E3.6250
G1 X91.479 Y11.776 E3.6425
G1 X91.818 Y11.964 E3.6573
G1 X93.200 Y13.442 E3.7348
G1 X93.207 Y13.450 E3.7352
G1 X93.251 Y13.499 E3.7377
G1 X93.258 Y13.507 E3.7381
G1 X94.619 Y15.072 E3.8176
G1 X94.770 Y15.429 E3.8324
G1 X94.811 Y15.887 E3.8500
G1 X95.272 Y16.088 E3.8693
G1 X95.566 Y16.350 E3.8844
G1 X97.600 Y19.873 E4.0402
G1 X97.680 Y20.258 E4.0553
G1 X97.622 Y20.765 E4.0748
G1 X98.038 Y21.062 E4.0944
G1 X98.270 Y21.379 E4.1094
G1 X99.528 Y25.249 E4.2652
