; G-Code generated by Simplify3D(R) Version 3.0.0
; Mrz 28, 2018 at 12:38:51 
; Settings Summary
;   processName,Process1
;   applyToModels,r01_plate
;   profileName,Renkforce (modified)
;   profileVersion,2017-10-17 11:10:50
;   baseProfile,German RepRap NEO (modified)
;   printMaterial,
;   printQuality,
;   printExtruders,
;   extruderName,Primary Extruder
;   extruderToolheadNumber,0
;   extruderDiameter,0.5
;   extruderAutoWidth,0
;   extruderWidth,0.49
;   extrusionMultiplier,0.94
;   extruderUseRetract,1
;   extruderRetractionDistance,6.5
;   extruderExtraRestartDistance,0
;   extruderRetractionZLift,0
;   extruderRetractionSpeed,4998
;   extruderUseCoasting,0
;   extruderCoastingDistance,0.2
;   extruderUseWipe,0
;   extruderWipeDistance,5
;   primaryExtruder,0
;   layerHeight,0.1
;   topSolidLayers,4
;   bottomSolidLayers,3
;   perimeterOutlines,3
;   printPerimetersInsideOut,1
;   startPointOption,2
;   startPointOriginX,0
;   startPointOriginY,0
;   startPointOriginZ,300
;   sequentialIslands,0
;   spiralVaseMode,0
;   firstLayerHeightPercentage,200
;   firstLayerWidthPercentage,100
;   firstLayerUnderspeed,0.28
;   useRaft,0
;   raftExtruder,0
;   raftLayers,3
;   raftOffset,3
;   raftSeparationDistance,0.1
;   raftInfill,85
;   disableRaftBaseLayers,0
;   useSkirt,1
;   skirtExtruder,0
;   skirtLayers,1
;   skirtOutlines,10
;   skirtOffset,3
;   usePrimePillar,0
;   primePillarExtruder,999
;   primePillarWidth,12
;   primePillarLocation,7
;   primePillarSpeedMultiplier,1
;   useOozeShield,0
;   oozeShieldExtruder,999
;   oozeShieldOffset,2
;   oozeShieldOutlines,1
;   oozeShieldSidewallShape,1
;   oozeShieldSidewallAngle,30
;   oozeShieldSpeedMultiplier,1
;   infillExtruder,0
;   internalInfillPattern,Full Honeycomb
;   externalInfillPattern,Rectilinear
;   infillPercentage,8
;   outlineOverlapPercentage,15
;   infillExtrusionWidthPercentage,100
;   minInfillLength,3
;   infillLayerInterval,1
;   infillAngles,0,120,-120
;   overlapInfillAngles,0
;   generateSupport,0
;   supportExtruder,0
;   supportInfillPercentage,30
;   supportExtraInflation,1
;   denseSupportLayers,0
;   denseSupportInfillPercentage,75
;   supportLayerInterval,1
;   supportHorizontalPartOffset,1.5
;   supportUpperSeparationLayers,1
;   supportLowerSeparationLayers,1
;   supportType,0
;   supportGridSpacing,5
;   maxOverhangAngle,45
;   supportAngles,45
;   temperatureName,Primary Extruder
;   temperatureNumber,0
;   temperatureSetpointCount,3
;   temperatureSetpointLayers,1,2,3
;   temperatureSetpointTemperatures,197,193,189
;   temperatureStabilizeAtStartup,1
;   temperatureHeatedBed,0
;   temperatureRelayBetweenLayers,0
;   temperatureRelayBetweenLoops,0
;   fanLayers,1,3
;   fanSpeeds,0,80
;   blipFanToFullPower,0
;   adjustSpeedForCooling,1
;   minSpeedLayerTime,15
;   minCoolingSpeedSlowdown,20
;   increaseFanForCooling,0
;   minFanLayerTime,45
;   maxCoolingFanSpeed,100
;   increaseFanForBridging,0
;   bridgingFanSpeed,100
;   use5D,1
;   relativeEdistances,0
;   allowEaxisZeroing,1
;   independentExtruderAxes,0
;   includeM10123,0
;   stickySupport,1
;   applyToolheadOffsets,0
;   gcodeXoffset,0
;   gcodeYoffset,0
;   gcodeZoffset,0
;   overrideMachineDefinition,1
;   machineTypeOverride,0
;   strokeXoverride,150
;   strokeYoverride,150
;   strokeZoverride,150
;   originOffsetXoverride,0
;   originOffsetYoverride,0
;   originOffsetZoverride,0
;   homeXdirOverride,-1
;   homeYdirOverride,-1
;   homeZdirOverride,-1
;   flipXoverride,1
;   flipYoverride,-1
;   flipZoverride,1
;   toolheadOffsets,0,0|0,0|0,0|0,0|0,0|0,0
;   overrideFirmwareConfiguration,0
;   firmwareTypeOverride,RepRap (Marlin/Repetier/Sprinter)
;   GPXconfigOverride,r2
;   baudRateOverride,115200
;   overridePrinterModels,0
;   printerModelsOverride
;   startingGcode,G28 ; home all axes
;   layerChangeGcode,
;   retractionGcode,
;   toolChangeGcode,
;   endingGcode,M104 S0 ; turn off extruder,M140 S0 ; turn off bed,G28 X0  ; home X axis,G28 Y0  ; home Y axis,M84 ; disable motors,M107
;   createX3G,0
;   celebration,0
;   celebrationSong,Random Song
;   createMB5G,0
;   postProcessing,
;   defaultSpeed,2400
;   outlineUnderspeed,0.5
;   solidInfillUnderspeed,0.8
;   supportUnderspeed,0.8
;   rapidXYspeed,3498
;   rapidZspeed,1002
;   minBridgingArea,50
;   bridgingExtraInflation,0
;   bridgingExtrusionMultiplier,1
;   bridgingSpeedMultiplier,1
;   filamentDiameter,1.75
;   filamentPricePerKg,46
;   filamentDensity,1.25
;   useMinPrintHeight,0
;   minPrintHeight,0
;   useMaxPrintHeight,0
;   maxPrintHeight,0
;   useDiaphragm,0
;   diaphragmLayerInterval,20
;   robustSlicing,1
;   mergeAllIntoSolid,0
;   onlyRetractWhenCrossingOutline,1
;   retractBetweenLayers,1
;   useRetractionMinTravel,0
;   retractionMinTravel,3
;   retractWhileWiping,0
;   onlyWipeOutlines,1
;   avoidCrossingOutline,0
;   maxMovementDetourFactor,10
;   toolChangeRetractionDistance,0
;   toolChangeExtraRestartDistance,0
;   toolChangeRetractionSpeed,360
;   allowThinWallGapFill,1
;   thinWallAllowedOverlapPercentage,10
;   horizontalSizeCompensation,0
G90
M82
M106 S0
M104 S197 T0
M109 S197 T0
G28 ; home all axes
G92 E0
G1 E-6.5000 F4998
G1 Z0.200 F1002
; layer 1, Z = 0.2
T0
; tool H0.200 W0.490
; skirt
G1 X58.902 Y24.312 F3498
G1 E0.0000 F1499
G92 E0
G1 X59.000 Y24.106 E0.0088 F672
G1 X60.030 Y22.178 E0.0925
G1 X60.148 Y21.982 E0.1012
G1 X60.439 Y21.546 E0.1213
G1 X60.575 Y21.363 E0.1300
G1 X61.962 Y19.673 E0.2138
G1 X62.115 Y19.503 E0.2225
G1 X62.485 Y19.133 E0.2426
G1 X62.655 Y18.980 E0.2513
G1 X64.345 Y17.593 E0.3350
G1 X64.528 Y17.457 E0.3438
G1 X64.963 Y17.166 E0.3638
G1 X65.159 Y17.049 E0.3726
G1 X67.088 Y16.018 E0.4563
G1 X67.294 Y15.920 E0.4651
G1 X67.778 Y15.720 E0.4851
G1 X67.993 Y15.643 E0.4939
G1 X70.085 Y15.008 E0.5776
G1 X70.307 Y14.953 E0.5864
G1 X70.820 Y14.851 E0.6064
G1 X71.046 Y14.817 E0.6152
G1 X73.222 Y14.603 E0.6989
G1 X73.450 Y14.592 E0.7076
G1 X73.973 Y14.592 E0.7277
G1 X74.202 Y14.603 E0.7364
G1 X76.377 Y14.817 E0.8202
G1 X76.603 Y14.851 E0.8289
G1 X77.117 Y14.953 E0.8490
G1 X77.338 Y15.008 E0.8577
G1 X79.430 Y15.643 E0.9415
G1 X79.646 Y15.720 E0.9502
G1 X80.129 Y15.920 E0.9702
G1 X80.336 Y16.018 E0.9790
G1 X82.264 Y17.049 E1.0627
G1 X82.460 Y17.166 E1.0715
G1 X82.895 Y17.457 E1.0915
G1 X83.079 Y17.593 E1.1003
G1 X84.769 Y18.980 E1.1840
G1 X84.938 Y19.133 E1.1928
G1 X85.308 Y19.503 E1.2128
G1 X85.461 Y19.673 E1.2216
G1 X86.848 Y21.363 E1.3053
G1 X86.984 Y21.546 E1.3140
G1 X87.275 Y21.981 E1.3341
G1 X87.393 Y22.177 E1.3428
G1 X88.423 Y24.106 E1.4266
G1 X88.521 Y24.312 E1.4353
G1 X88.721 Y24.796 E1.4554
G1 X88.798 Y25.011 E1.4641
G1 X89.433 Y27.103 E1.5479
G1 X89.488 Y27.325 E1.5566
G1 X89.591 Y27.838 E1.5766
G1 X89.624 Y28.064 E1.5854
G1 X89.838 Y30.240 E1.6691
G1 X89.850 Y30.468 E1.6779
G1 X89.850 Y30.991 E1.6979
G1 X89.838 Y31.220 E1.7067
G1 X89.624 Y33.395 E1.7904
G1 X89.591 Y33.621 E1.7992
G1 X89.488 Y34.135 E1.8192
G1 X89.433 Y34.356 E1.8280
G1 X88.798 Y36.448 E1.9117
G1 X88.721 Y36.664 E1.9204
G1 X88.521 Y37.147 E1.9405
G1 X88.423 Y37.354 E1.9492
G1 X87.393 Y39.282 E2.0330
G1 X87.275 Y39.478 E2.0417
G1 X86.985 Y39.913 E2.0618
G1 X86.848 Y40.097 E2.0705
G1 X85.461 Y41.787 E2.1543
G1 X85.308 Y41.956 E2.1630
G1 X84.938 Y42.326 E2.1831
G1 X84.769 Y42.479 E2.1918
G1 X83.079 Y43.866 E2.2755
G1 X82.895 Y44.003 E2.2843
G1 X82.460 Y44.293 E2.3043
G1 X82.264 Y44.411 E2.3131
G1 X80.336 Y45.441 E2.3968
G1 X80.129 Y45.539 E2.4056
G1 X79.646 Y45.739 E2.4256
G1 X79.430 Y45.816 E2.4344
G1 X77.338 Y46.451 E2.5181
G1 X77.117 Y46.507 E2.5268
G1 X76.603 Y46.609 E2.5469
G1 X76.377 Y46.642 E2.5556
G1 X74.202 Y46.856 E2.6394
G1 X73.973 Y46.868 E2.6481
G1 X73.450 Y46.868 E2.6682
G1 X73.222 Y46.856 E2.6769
G1 X71.046 Y46.642 E2.7607
G1 X70.820 Y46.609 E2.7694
G1 X70.307 Y46.507 E2.7895
G1 X70.085 Y46.451 E2.7982
G1 X67.993 Y45.816 E2.8819
G1 X67.778 Y45.739 E2.8907
G1 X67.294 Y45.539 E2.9107
G1 X67.088 Y45.441 E2.9195
G1 X65.159 Y44.411 E3.0032
G1 X64.963 Y44.293 E3.0120
G1 X64.528 Y44.003 E3.0320
G1 X64.345 Y43.866 E3.0408
G1 X62.655 Y42.479 E3.1245
G1 X62.485 Y42.326 E3.1333
G1 X62.115 Y41.956 E3.1533
G1 X61.962 Y41.787 E3.1620
G1 X60.575 Y40.097 E3.2458
G1 X60.439 Y39.913 E3.2545
G1 X60.148 Y39.478 E3.2746
G1 X60.030 Y39.282 E3.2833
G1 X59.000 Y37.354 E3.3671
G1 X58.902 Y37.147 E3.3758
G1 X58.702 Y36.664 E3.3959
G1 X58.625 Y36.448 E3.4046
G1 X57.990 Y34.356 E3.4883
G1 X57.935 Y34.135 E3.4971
G1 X57.833 Y33.621 E3.5171
G1 X57.799 Y33.395 E3.5259
G1 X57.585 Y31.220 E3.6096
G1 X57.574 Y30.991 E3.6184
G1 X57.574 Y30.468 E3.6384
G1 X57.585 Y30.240 E3.6472
G1 X57.799 Y28.064 E3.7309
G1 X57.833 Y27.838 E3.7397
G1 X57.935 Y27.325 E3.7597
G1 X57.990 Y27.103 E3.7685
G1 X58.625 Y25.011 E3.8522
G1 X58.702 Y24.796 E3.8609
G1 X58.902 Y24.312 E3.8810
G1 X59.350 Y24.511 F3498
G92 E0
G1 X59.438 Y24.326 E0.0078 F672
G1 X60.457 Y22.419 E0.0906
G1 X60.562 Y22.244 E0.0985
G1 X60.839 Y21.829 E0.1176
G1 X60.961 Y21.664 E0.1254
G1 X62.333 Y19.993 E0.2082
G1 X62.470 Y19.841 E0.2161
G1 X62.823 Y19.488 E0.2352
G1 X62.975 Y19.351 E0.2430
G1 X64.646 Y17.979 E0.3258
G1 X64.810 Y17.858 E0.3337
G1 X65.226 Y17.580 E0.3528
G1 X65.401 Y17.475 E0.3606
G1 X67.308 Y16.456 E0.4434
G1 X67.493 Y16.368 E0.4513
G1 X67.954 Y16.177 E0.4704
G1 X68.147 Y16.108 E0.4782
G1 X70.216 Y15.481 E0.5610
G1 X70.414 Y15.431 E0.5689
G1 X70.904 Y15.334 E0.5880
G1 X71.106 Y15.304 E0.5958
G1 X73.258 Y15.092 E0.6786
G1 X73.462 Y15.082 E0.6865
G1 X73.961 Y15.082 E0.7056
G1 X74.165 Y15.092 E0.7134
G1 X76.317 Y15.304 E0.7962
G1 X76.520 Y15.334 E0.8040
G1 X77.009 Y15.431 E0.8232
G1 X77.208 Y15.481 E0.8310
G1 X79.277 Y16.108 E0.9138
G1 X79.469 Y16.177 E0.9216
G1 X79.930 Y16.368 E0.9408
G1 X80.115 Y16.456 E0.9486
G1 X82.022 Y17.475 E1.0314
G1 X82.198 Y17.580 E1.0392
G1 X82.613 Y17.858 E1.0584
G1 X82.777 Y17.979 E1.0662
G1 X84.448 Y19.351 E1.1490
G1 X84.600 Y19.488 E1.1568
G1 X84.953 Y19.841 E1.1760
G1 X85.090 Y19.993 E1.1838
G1 X86.462 Y21.664 E1.2666
G1 X86.584 Y21.829 E1.2744
G1 X86.861 Y22.244 E1.2935
G1 X86.966 Y22.419 E1.3014
G1 X87.986 Y24.326 E1.3842
G1 X88.073 Y24.511 E1.3920
G1 X88.264 Y24.972 E1.4111
G1 X88.333 Y25.165 E1.4190
G1 X88.961 Y27.234 E1.5018
G1 X89.010 Y27.432 E1.5096
G1 X89.108 Y27.922 E1.5287
G1 X89.138 Y28.124 E1.5366
G1 X89.350 Y30.276 E1.6194
G1 X89.360 Y30.480 E1.6272
G1 X89.360 Y30.979 E1.6463
G1 X89.350 Y31.184 E1.6542
G1 X89.138 Y33.335 E1.7370
G1 X89.108 Y33.538 E1.7448
G1 X89.010 Y34.027 E1.7639
G1 X88.961 Y34.226 E1.7718
G1 X88.333 Y36.295 E1.8546
G1 X88.264 Y36.487 E1.8624
G1 X88.073 Y36.949 E1.8815
G1 X87.986 Y37.133 E1.8894
G1 X86.966 Y39.040 E1.9722
G1 X86.861 Y39.216 E1.9800
G1 X86.584 Y39.631 E1.9991
G1 X86.462 Y39.795 E2.0069
G1 X85.090 Y41.467 E2.0898
G1 X84.953 Y41.618 E2.0976
G1 X84.600 Y41.971 E2.1167
G1 X84.448 Y42.108 E2.1245
G1 X82.777 Y43.480 E2.2074
G1 X82.613 Y43.602 E2.2152
G1 X82.198 Y43.879 E2.2343
G1 X82.022 Y43.984 E2.2421
G1 X80.115 Y45.004 E2.3250
G1 X79.930 Y45.091 E2.3328
G1 X79.469 Y45.282 E2.3519
G1 X79.277 Y45.351 E2.3597
G1 X77.208 Y45.979 E2.4425
G1 X77.009 Y46.028 E2.4504
G1 X76.520 Y46.126 E2.4695
G1 X76.317 Y46.156 E2.4773
G1 X74.165 Y46.368 E2.5601
G1 X73.961 Y46.378 E2.5680
G1 X73.462 Y46.378 E2.5871
G1 X73.258 Y46.368 E2.5949
G1 X71.106 Y46.156 E2.6777
G1 X70.904 Y46.126 E2.6856
G1 X70.414 Y46.028 E2.7047
G1 X70.216 Y45.979 E2.7125
G1 X68.147 Y45.351 E2.7953
G1 X67.954 Y45.282 E2.8032
G1 X67.493 Y45.091 E2.8223
G1 X67.308 Y45.004 E2.8301
G1 X65.401 Y43.984 E2.9129
G1 X65.226 Y43.879 E2.9208
G1 X64.811 Y43.602 E2.9399
G1 X64.646 Y43.480 E2.9477
G1 X62.975 Y42.108 E3.0305
G1 X62.823 Y41.971 E3.0383
G1 X62.470 Y41.618 E3.0575
G1 X62.333 Y41.467 E3.0653
G1 X60.961 Y39.795 E3.1481
G1 X60.839 Y39.631 E3.1560
G1 X60.562 Y39.216 E3.1751
G1 X60.457 Y39.040 E3.1829
G1 X59.438 Y37.133 E3.2657
G1 X59.350 Y36.949 E3.2735
G1 X59.159 Y36.487 E3.2927
G1 X59.090 Y36.295 E3.3005
G1 X58.463 Y34.226 E3.3833
G1 X58.413 Y34.027 E3.3911
G1 X58.316 Y33.538 E3.4103
G1 X58.286 Y33.335 E3.4181
G1 X58.074 Y31.184 E3.5009
G1 X58.064 Y30.979 E3.5087
G1 X58.064 Y30.480 E3.5279
G1 X58.074 Y30.276 E3.5357
G1 X58.286 Y28.124 E3.6185
G1 X58.316 Y27.922 E3.6263
G1 X58.413 Y27.432 E3.6455
G1 X58.463 Y27.234 E3.6533
G1 X59.090 Y25.165 E3.7361
G1 X59.159 Y24.972 E3.7439
G1 X59.350 Y24.511 E3.7630
G1 X59.798 Y24.710 F3498
G92 E0
G1 X59.875 Y24.546 E0.0069 F672
G1 X60.883 Y22.661 E0.0888
G1 X60.976 Y22.506 E0.0957
G1 X61.240 Y22.111 E0.1139
G1 X61.348 Y21.966 E0.1208
G1 X62.704 Y20.313 E0.2027
G1 X62.825 Y20.179 E0.2096
G1 X63.161 Y19.843 E0.2278
G1 X63.295 Y19.722 E0.2347
G1 X64.948 Y18.366 E0.3166
G1 X65.093 Y18.258 E0.3235
G1 X65.488 Y17.994 E0.3417
G1 X65.643 Y17.902 E0.3486
G1 X67.528 Y16.894 E0.4305
G1 X67.691 Y16.816 E0.4374
G1 X68.130 Y16.635 E0.4556
G1 X68.300 Y16.574 E0.4626
G1 X70.346 Y15.953 E0.5444
G1 X70.521 Y15.909 E0.5514
G1 X70.988 Y15.817 E0.5696
G1 X71.166 Y15.790 E0.5765
G1 X73.294 Y15.581 E0.6583
G1 X73.474 Y15.572 E0.6653
G1 X73.949 Y15.572 E0.6835
G1 X74.129 Y15.581 E0.6904
G1 X76.257 Y15.790 E0.7723
G1 X76.436 Y15.817 E0.7792
G1 X76.902 Y15.909 E0.7974
G1 X77.077 Y15.953 E0.8043
G1 X79.123 Y16.574 E0.8862
G1 X79.293 Y16.635 E0.8931
G1 X79.732 Y16.816 E0.9113
G1 X79.895 Y16.894 E0.9182
G1 X81.781 Y17.902 E1.0001
G1 X81.935 Y17.994 E1.0070
G1 X82.331 Y18.258 E1.0252
G1 X82.475 Y18.366 E1.0321
G1 X84.128 Y19.722 E1.1140
G1 X84.262 Y19.843 E1.1209
G1 X84.598 Y20.179 E1.1391
G1 X84.719 Y20.313 E1.1460
G1 X86.076 Y21.966 E1.2279
G1 X86.183 Y22.111 E1.2348
G1 X86.447 Y22.506 E1.2530
G1 X86.540 Y22.661 E1.2599
G1 X87.548 Y24.546 E1.3418
G1 X87.625 Y24.710 E1.3487
G1 X87.807 Y25.149 E1.3669
G1 X87.868 Y25.318 E1.3738
G1 X88.488 Y27.364 E1.4557
G1 X88.532 Y27.539 E1.4626
G1 X88.625 Y28.005 E1.4808
G1 X88.651 Y28.184 E1.4877
G1 X88.861 Y30.312 E1.5696
G1 X88.870 Y30.492 E1.5765
G1 X88.870 Y30.967 E1.5947
G1 X88.861 Y31.148 E1.6016
G1 X88.651 Y33.275 E1.6835
G1 X88.625 Y33.454 E1.6904
G1 X88.532 Y33.920 E1.7086
G1 X88.488 Y34.095 E1.7156
G1 X87.867 Y36.141 E1.7974
G1 X87.807 Y36.311 E1.8044
G1 X87.625 Y36.750 E1.8226
G1 X87.548 Y36.913 E1.8295
G1 X86.540 Y38.799 E1.9114
G1 X86.447 Y38.953 E1.9183
G1 X86.183 Y39.349 E1.9365
G1 X86.076 Y39.493 E1.9434
G1 X84.719 Y41.146 E2.0253
G1 X84.598 Y41.280 E2.0322
G1 X84.262 Y41.616 E2.0504
G1 X84.128 Y41.737 E2.0573
G1 X82.475 Y43.094 E2.1392
G1 X82.331 Y43.201 E2.1461
G1 X81.935 Y43.465 E2.1643
G1 X81.781 Y43.558 E2.1712
G1 X79.895 Y44.566 E2.2531
G1 X79.732 Y44.643 E2.2600
G1 X79.293 Y44.825 E2.2782
G1 X79.123 Y44.886 E2.2851
G1 X77.077 Y45.506 E2.3670
G1 X76.902 Y45.550 E2.3739
G1 X76.436 Y45.643 E2.3921
G1 X76.257 Y45.669 E2.3990
G1 X74.129 Y45.879 E2.4809
G1 X73.949 Y45.888 E2.4878
G1 X73.474 Y45.888 E2.5060
G1 X73.294 Y45.879 E2.5129
G1 X71.166 Y45.669 E2.5948
G1 X70.987 Y45.643 E2.6017
G1 X70.521 Y45.550 E2.6199
G1 X70.346 Y45.506 E2.6268
G1 X68.300 Y44.886 E2.7087
G1 X68.130 Y44.825 E2.7156
G1 X67.691 Y44.643 E2.7338
G1 X67.528 Y44.566 E2.7407
G1 X65.643 Y43.558 E2.8226
G1 X65.488 Y43.465 E2.8295
G1 X65.093 Y43.201 E2.8477
G1 X64.948 Y43.094 E2.8546
G1 X63.295 Y41.737 E2.9365
G1 X63.161 Y41.616 E2.9434
G1 X62.825 Y41.280 E2.9616
G1 X62.704 Y41.146 E2.9686
G1 X61.348 Y39.493 E3.0504
G1 X61.240 Y39.349 E3.0574
G1 X60.976 Y38.953 E3.0756
G1 X60.883 Y38.799 E3.0825
G1 X59.876 Y36.913 E3.1644
G1 X59.798 Y36.750 E3.1713
G1 X59.617 Y36.311 E3.1895
G1 X59.556 Y36.141 E3.1964
G1 X58.935 Y34.095 E3.2783
G1 X58.891 Y33.920 E3.2852
G1 X58.799 Y33.454 E3.3034
G1 X58.772 Y33.275 E3.3103
G1 X58.562 Y31.147 E3.3922
G1 X58.554 Y30.967 E3.3991
G1 X58.554 Y30.492 E3.4173
G1 X58.562 Y30.312 E3.4242
G1 X58.772 Y28.184 E3.5061
G1 X58.799 Y28.005 E3.5130
G1 X58.891 Y27.539 E3.5312
G1 X58.935 Y27.364 E3.5381
G1 X59.556 Y25.318 E3.6200
G1 X59.616 Y25.149 E3.6269
G1 X59.798 Y24.710 E3.6451
G1 X60.246 Y24.908 F3498
G92 E0
G1 X60.313 Y24.767 E0.0060 F672
G1 X61.310 Y22.902 E0.0870
G1 X61.390 Y22.768 E0.0929
G1 X61.641 Y22.393 E0.1102
G1 X61.734 Y22.267 E0.1162
G1 X63.075 Y20.633 E0.1972
G1 X63.180 Y20.517 E0.2032
G1 X63.499 Y20.198 E0.2205
G1 X63.615 Y20.093 E0.2264
