; G-Code generated by Simplify3D(R) Version 3.0.0
; Mrz 28, 2018 at 11:32:39 
; Settings Summary
;   processName,Process1
;   applyToModels,r02_plate_kugel
;   profileName,Renkforce (modified)
;   profileVersion,2017-10-17 11:10:50
;   baseProfile,German RepRap NEO (modified)
;   printMaterial,
;   printQuality,
;   printExtruders,
;   extruderName,Primary Extruder
;   extruderToolheadNumber,0
;   extruderDiameter,0.5
;   extruderAutoWidth,0
;   extruderWidth,0.49
;   extrusionMultiplier,0.94
;   extruderUseRetract,1
;   extruderRetractionDistance,6.5
;   extruderExtraRestartDistance,0
;   extruderRetractionZLift,0
;   extruderRetractionSpeed,4998
;   extruderUseCoasting,0
;   extruderCoastingDistance,0.2
;   extruderUseWipe,0
;   extruderWipeDistance,5
;   primaryExtruder,0
;   layerHeight,0.2
;   topSolidLayers,4
;   bottomSolidLayers,3
;   perimeterOutlines,3
;   printPerimetersInsideOut,1
;   startPointOption,2
;   startPointOriginX,0
;   startPointOriginY,0
;   startPointOriginZ,300
;   sequentialIslands,0
;   spiralVaseMode,0
;   firstLayerHeightPercentage,100
;   firstLayerWidthPercentage,100
;   firstLayerUnderspeed,0.28
;   useRaft,0
;   raftExtruder,0
;   raftLayers,3
;   raftOffset,3
;   raftSeparationDistance,0.1
;   raftInfill,85
;   disableRaftBaseLayers,0
;   useSkirt,1
;   skirtExtruder,0
;   skirtLayers,1
;   skirtOutlines,6
;   skirtOffset,3
;   usePrimePillar,0
;   primePillarExtruder,999
;   primePillarWidth,12
;   primePillarLocation,7
;   primePillarSpeedMultiplier,1
;   useOozeShield,0
;   oozeShieldExtruder,999
;   oozeShieldOffset,2
;   oozeShieldOutlines,1
;   oozeShieldSidewallShape,1
;   oozeShieldSidewallAngle,30
;   oozeShieldSpeedMultiplier,1
;   infillExtruder,0
;   internalInfillPattern,Full Honeycomb
;   externalInfillPattern,Rectilinear
;   infillPercentage,8
;   outlineOverlapPercentage,15
;   infillExtrusionWidthPercentage,100
;   minInfillLength,3
;   infillLayerInterval,1
;   infillAngles,0,120,-120
;   overlapInfillAngles,0
;   generateSupport,0
;   supportExtruder,0
;   supportInfillPercentage,30
;   supportExtraInflation,1
;   denseSupportLayers,0
;   denseSupportInfillPercentage,75
;   supportLayerInterval,1
;   supportHorizontalPartOffset,1.5
;   supportUpperSeparationLayers,1
;   supportLowerSeparationLayers,1
;   supportType,0
;   supportGridSpacing,5
;   maxOverhangAngle,45
;   supportAngles,45
;   temperatureName,Primary Extruder
;   temperatureNumber,0
;   temperatureSetpointCount,3
;   temperatureSetpointLayers,1,2,3
;   temperatureSetpointTemperatures,197,193,189
;   temperatureStabilizeAtStartup,1
;   temperatureHeatedBed,0
;   temperatureRelayBetweenLayers,0
;   temperatureRelayBetweenLoops,0
;   fanLayers,1,3
;   fanSpeeds,0,80
;   blipFanToFullPower,0
;   adjustSpeedForCooling,1
;   minSpeedLayerTime,15
;   minCoolingSpeedSlowdown,20
;   increaseFanForCooling,0
;   minFanLayerTime,45
;   maxCoolingFanSpeed,100
;   increaseFanForBridging,0
;   bridgingFanSpeed,100
;   use5D,1
;   relativeEdistances,0
;   allowEaxisZeroing,1
;   independentExtruderAxes,0
;   includeM10123,0
;   stickySupport,1
;   applyToolheadOffsets,0
;   gcodeXoffset,0
;   gcodeYoffset,0
;   gcodeZoffset,0
;   overrideMachineDefinition,1
;   machineTypeOverride,0
;   strokeXoverride,150
;   strokeYoverride,150
;   strokeZoverride,150
;   originOffsetXoverride,0
;   originOffsetYoverride,0
;   originOffsetZoverride,0
;   homeXdirOverride,-1
;   homeYdirOverride,-1
;   homeZdirOverride,-1
;   flipXoverride,1
;   flipYoverride,-1
;   flipZoverride,1
;   toolheadOffsets,0,0|0,0|0,0|0,0|0,0|0,0
;   overrideFirmwareConfiguration,0
;   firmwareTypeOverride,RepRap (Marlin/Repetier/Sprinter)
;   GPXconfigOverride,r2
;   baudRateOverride,115200
;   overridePrinterModels,0
;   printerModelsOverride
;   startingGcode,G28 ; home all axes
;   layerChangeGcode,
;   retractionGcode,
;   toolChangeGcode,
;   endingGcode,M104 S0 ; turn off extruder,M140 S0 ; turn off bed,G28 X0  ; home X axis,G28 Y0  ; home Y axis,M84 ; disable motors,M107
;   createX3G,0
;   celebration,0
;   celebrationSong,Random Song
;   createMB5G,0
;   postProcessing,
;   defaultSpeed,2400
;   outlineUnderspeed,0.5
;   solidInfillUnderspeed,0.8
;   supportUnderspeed,0.8
;   rapidXYspeed,3498
;   rapidZspeed,1002
;   minBridgingArea,50
;   bridgingExtraInflation,0
;   bridgingExtrusionMultiplier,1
;   bridgingSpeedMultiplier,1
;   filamentDiameter,1.75
;   filamentPricePerKg,46
;   filamentDensity,1.25
;   useMinPrintHeight,0
;   minPrintHeight,0
;   useMaxPrintHeight,0
;   maxPrintHeight,0
;   useDiaphragm,0
;   diaphragmLayerInterval,20
;   robustSlicing,1
;   mergeAllIntoSolid,0
;   onlyRetractWhenCrossingOutline,1
;   retractBetweenLayers,1
;   useRetractionMinTravel,0
;   retractionMinTravel,3
;   retractWhileWiping,0
;   onlyWipeOutlines,1
;   avoidCrossingOutline,0
;   maxMovementDetourFactor,10
;   toolChangeRetractionDistance,0
;   toolChangeExtraRestartDistance,0
;   toolChangeRetractionSpeed,360
;   allowThinWallGapFill,1
;   thinWallAllowedOverlapPercentage,10
;   horizontalSizeCompensation,0
G90
M82
M106 S0
M104 S197 T0
M109 S197 T0
G28 ; home all axes
G92 E0
G1 E-6.5000 F4998
G1 Z0.200 F1002
; layer 1, Z = 0.2
T0
; tool H0.200 W0.490
; skirt
G1 X23.345 Y24.834 F3498
G1 E0.0000 F1499
G92 E0
G1 X23.443 Y24.745 E0.0051 F672
G1 X27.410 Y21.490 E0.2016
G1 X27.516 Y21.411 E0.2067
G1 X27.871 Y21.173 E0.2230
G1 X27.985 Y21.105 E0.2281
G1 X32.511 Y18.686 E0.4247
G1 X32.630 Y18.630 E0.4297
G1 X33.025 Y18.466 E0.4461
G1 X33.149 Y18.422 E0.4511
G1 X38.060 Y16.932 E0.6477
G1 X38.189 Y16.900 E0.6528
G1 X38.608 Y16.817 E0.6691
G1 X38.738 Y16.797 E0.6742
G1 X43.846 Y16.294 E0.8707
G1 X43.978 Y16.288 E0.8758
G1 X44.405 Y16.288 E0.8922
G1 X44.537 Y16.294 E0.8972
G1 X49.644 Y16.797 E1.0938
G1 X49.775 Y16.817 E1.0988
G1 X50.194 Y16.900 E1.1152
G1 X50.322 Y16.932 E1.1203
G1 X55.233 Y18.422 E1.3168
G1 X55.358 Y18.466 E1.3219
G1 X55.752 Y18.630 E1.3382
G1 X55.872 Y18.686 E1.3433
G1 X60.398 Y21.105 E1.5398
G1 X60.512 Y21.173 E1.5449
G1 X60.867 Y21.411 E1.5613
G1 X60.973 Y21.490 E1.5663
G1 X64.940 Y24.745 E1.7629
G1 X65.038 Y24.834 E1.7680
G1 X65.340 Y25.136 E1.7843
G1 X65.429 Y25.234 E1.7894
G1 X68.684 Y29.201 E1.9859
G1 X68.763 Y29.307 E1.9910
G1 X69.001 Y29.662 E2.0073
G1 X69.069 Y29.776 E2.0124
G1 X71.488 Y34.302 E2.2090
G1 X71.544 Y34.422 E2.2140
G1 X71.708 Y34.816 E2.2304
G1 X71.752 Y34.941 E2.2355
G1 X73.242 Y39.852 E2.4320
G1 X73.274 Y39.980 E2.4371
G1 X73.357 Y40.399 E2.4534
G1 X73.377 Y40.530 E2.4585
G1 X73.880 Y45.637 E2.6550
G1 X73.886 Y45.769 E2.6601
G1 X73.886 Y46.196 E2.6765
G1 X73.880 Y46.328 E2.6815
G1 X73.377 Y51.435 E2.8781
G1 X73.357 Y51.566 E2.8831
G1 X73.274 Y51.985 E2.8995
G1 X73.242 Y52.114 E2.9046
G1 X71.752 Y57.025 E3.1011
G1 X71.708 Y57.149 E3.1062
G1 X71.544 Y57.544 E3.1225
G1 X71.488 Y57.663 E3.1276
G1 X69.069 Y62.189 E3.3242
G1 X69.001 Y62.303 E3.3292
G1 X68.763 Y62.658 E3.3456
G1 X68.684 Y62.764 E3.3507
G1 X65.429 Y66.731 E3.5472
G1 X65.340 Y66.829 E3.5523
G1 X65.038 Y67.131 E3.5686
G1 X64.940 Y67.220 E3.5737
G1 X60.973 Y70.476 E3.7702
G1 X60.867 Y70.555 E3.7753
G1 X60.511 Y70.792 E3.7917
G1 X60.398 Y70.860 E3.7967
G1 X55.872 Y73.279 E3.9933
G1 X55.753 Y73.335 E3.9983
G1 X55.358 Y73.499 E4.0147
G1 X55.233 Y73.543 E4.0198
G1 X50.322 Y75.033 E4.2163
G1 X50.194 Y75.065 E4.2214
G1 X49.775 Y75.149 E4.2377
G1 X49.644 Y75.168 E4.2428
G1 X44.537 Y75.671 E4.4394
G1 X44.405 Y75.678 E4.4444
G1 X43.978 Y75.678 E4.4608
G1 X43.846 Y75.671 E4.4658
G1 X38.739 Y75.168 E4.6624
G1 X38.608 Y75.149 E4.6675
G1 X38.189 Y75.065 E4.6838
G1 X38.060 Y75.033 E4.6889
G1 X33.150 Y73.544 E4.8854
G1 X33.025 Y73.499 E4.8905
G1 X32.630 Y73.336 E4.9069
G1 X32.511 Y73.279 E4.9119
G1 X27.985 Y70.860 E5.1085
G1 X27.871 Y70.792 E5.1135
G1 X27.516 Y70.554 E5.1299
G1 X27.410 Y70.476 E5.1350
G1 X23.443 Y67.220 E5.3315
G1 X23.345 Y67.131 E5.3366
G1 X23.043 Y66.829 E5.3529
G1 X22.954 Y66.731 E5.3580
G1 X19.698 Y62.764 E5.5545
G1 X19.620 Y62.658 E5.5596
G1 X19.382 Y62.303 E5.5760
G1 X19.314 Y62.189 E5.5810
G1 X16.895 Y57.663 E5.7776
G1 X16.839 Y57.544 E5.7827
G1 X16.675 Y57.149 E5.7990
G1 X16.631 Y57.025 E5.8041
G1 X15.141 Y52.114 E6.0006
G1 X15.109 Y51.985 E6.0057
G1 X15.025 Y51.566 E6.0221
G1 X15.006 Y51.436 E6.0271
G1 X14.503 Y46.328 E6.2237
G1 X14.496 Y46.196 E6.2287
G1 X14.496 Y45.769 E6.2451
G1 X14.503 Y45.637 E6.2502
G1 X15.006 Y40.530 E6.4467
G1 X15.025 Y40.399 E6.4518
G1 X15.109 Y39.980 E6.4681
G1 X15.141 Y39.852 E6.4732
G1 X16.630 Y34.941 E6.6697
G1 X16.675 Y34.816 E6.6748
G1 X16.838 Y34.422 E6.6912
G1 X16.895 Y34.302 E6.6962
G1 X19.314 Y29.776 E6.8928
G1 X19.382 Y29.662 E6.8978
G1 X19.620 Y29.307 E6.9142
G1 X19.698 Y29.201 E6.9193
G1 X22.954 Y25.234 E7.1158
G1 X23.043 Y25.136 E7.1209
G1 X23.345 Y24.834 E7.1372
G1 X23.683 Y25.189 F3498
G92 E0
G1 X23.763 Y25.116 E0.0041 F672
G1 X27.711 Y21.876 E0.1998
G1 X27.798 Y21.811 E0.2039
G1 X28.134 Y21.588 E0.2194
G1 X28.226 Y21.532 E0.2235
G1 X32.731 Y19.124 E0.4191
G1 X32.829 Y19.078 E0.4233
G1 X33.201 Y18.924 E0.4387
G1 X33.303 Y18.887 E0.4429
G1 X38.191 Y17.404 E0.6385
G1 X38.296 Y17.378 E0.6426
G1 X38.691 Y17.299 E0.6581
G1 X38.798 Y17.284 E0.6622
G1 X43.882 Y16.783 E0.8578
G1 X43.990 Y16.778 E0.8620
G1 X44.393 Y16.778 E0.8774
G1 X44.501 Y16.783 E0.8816
G1 X49.584 Y17.284 E1.0772
G1 X49.691 Y17.299 E1.0813
G1 X50.087 Y17.378 E1.0968
G1 X50.192 Y17.404 E1.1009
G1 X55.080 Y18.887 E1.2965
G1 X55.181 Y18.924 E1.3007
G1 X55.554 Y19.078 E1.3161
G1 X55.652 Y19.124 E1.3203
G1 X60.156 Y21.532 E1.5159
G1 X60.249 Y21.588 E1.5200
G1 X60.584 Y21.811 E1.5355
G1 X60.671 Y21.876 E1.5396
G1 X64.620 Y25.116 E1.7352
G1 X64.700 Y25.189 E1.7394
G1 X64.985 Y25.474 E1.7548
G1 X65.058 Y25.554 E1.7590
G1 X68.298 Y29.503 E1.9546
G1 X68.362 Y29.590 E1.9587
G1 X68.586 Y29.925 E1.9742
G1 X68.642 Y30.018 E1.9783
G1 X71.050 Y34.522 E2.1740
G1 X71.096 Y34.620 E2.1781
G1 X71.250 Y34.992 E2.1935
G1 X71.287 Y35.094 E2.1977
G1 X72.770 Y39.982 E2.3933
G1 X72.796 Y40.087 E2.3975
G1 X72.875 Y40.483 E2.4129
G1 X72.890 Y40.590 E2.4170
G1 X73.391 Y45.673 E2.6127
G1 X73.396 Y45.781 E2.6168
G1 X73.396 Y46.184 E2.6322
G1 X73.391 Y46.292 E2.6364
G1 X72.890 Y51.375 E2.8320
G1 X72.875 Y51.483 E2.8362
G1 X72.796 Y51.878 E2.8516
G1 X72.770 Y51.983 E2.8557
G1 X71.287 Y56.871 E3.0514
G1 X71.250 Y56.973 E3.0555
G1 X71.096 Y57.345 E3.0709
G1 X71.050 Y57.443 E3.0751
G1 X68.642 Y61.948 E3.2707
G1 X68.586 Y62.041 E3.2749
G1 X68.362 Y62.376 E3.2903
G1 X68.298 Y62.463 E3.2944
G1 X65.058 Y66.411 E3.4901
G1 X64.985 Y66.491 E3.4942
G1 X64.700 Y66.776 E3.5097
G1 X64.620 Y66.849 E3.5138
G1 X60.671 Y70.089 E3.7094
G1 X60.584 Y70.154 E3.7136
G1 X60.249 Y70.378 E3.7290
G1 X60.156 Y70.433 E3.7332
G1 X55.652 Y72.841 E3.9288
G1 X55.554 Y72.887 E3.9329
G1 X55.182 Y73.042 E3.9484
G1 X55.080 Y73.078 E3.9525
G1 X50.192 Y74.561 E4.1481
G1 X50.087 Y74.587 E4.1523
G1 X49.691 Y74.666 E4.1677
G1 X49.584 Y74.682 E4.1719
G1 X44.501 Y75.182 E4.3675
G1 X44.393 Y75.188 E4.3716
G1 X43.990 Y75.188 E4.3871
G1 X43.882 Y75.182 E4.3912
G1 X38.799 Y74.682 E4.5868
G1 X38.691 Y74.666 E4.5910
G1 X38.296 Y74.587 E4.6064
G1 X38.191 Y74.561 E4.6106
G1 X33.303 Y73.078 E4.8062
G1 X33.201 Y73.042 E4.8103
G1 X32.829 Y72.887 E4.8258
G1 X32.731 Y72.841 E4.8299
G1 X28.226 Y70.433 E5.0255
G1 X28.134 Y70.378 E5.0297
G1 X27.798 Y70.154 E5.0451
G1 X27.711 Y70.089 E5.0493
G1 X23.763 Y66.849 E5.2449
G1 X23.683 Y66.776 E5.2490
G1 X23.398 Y66.491 E5.2645
G1 X23.325 Y66.411 E5.2686
G1 X20.085 Y62.463 E5.4643
G1 X20.020 Y62.376 E5.4684
G1 X19.796 Y62.040 E5.4838
G1 X19.741 Y61.948 E5.4880
G1 X17.333 Y57.443 E5.6836
G1 X17.287 Y57.345 E5.6878
G1 X17.132 Y56.973 E5.7032
G1 X17.096 Y56.871 E5.7073
G1 X15.613 Y51.983 E5.9030
G1 X15.587 Y51.878 E5.9071
G1 X15.508 Y51.483 E5.9225
G1 X15.492 Y51.376 E5.9267
G1 X14.992 Y46.292 E6.1223
G1 X14.986 Y46.184 E6.1265
G1 X14.986 Y45.781 E6.1419
G1 X14.992 Y45.673 E6.1460
G1 X15.492 Y40.590 E6.3417
G1 X15.508 Y40.483 E6.3458
G1 X15.587 Y40.087 E6.3612
G1 X15.613 Y39.982 E6.3654
G1 X17.096 Y35.094 E6.5610
G1 X17.132 Y34.993 E6.5652
G1 X17.287 Y34.620 E6.5806
G1 X17.333 Y34.522 E6.5847
G1 X19.741 Y30.018 E6.7804
G1 X19.796 Y29.925 E6.7845
G1 X20.020 Y29.590 E6.8000
G1 X20.085 Y29.503 E6.8041
G1 X23.325 Y25.554 E6.9997
G1 X23.398 Y25.474 E7.0039
G1 X23.683 Y25.189 E7.0193
G1 X24.021 Y25.544 F3498
G92 E0
G1 X24.083 Y25.488 E0.0032 F672
G1 X28.013 Y22.262 E0.1979
G1 X28.081 Y22.212 E0.2012
G1 X28.396 Y22.002 E0.2157
G1 X28.468 Y21.958 E0.2189
G1 X32.951 Y19.562 E0.4136
G1 X33.028 Y19.526 E0.4168
G1 X33.378 Y19.381 E0.4313
G1 X33.457 Y19.353 E0.4346
G1 X38.322 Y17.877 E0.6293
G1 X38.403 Y17.856 E0.6325
G1 X38.775 Y17.782 E0.6470
G1 X38.858 Y17.770 E0.6502
G1 X43.918 Y17.272 E0.8449
G1 X44.002 Y17.268 E0.8482
G1 X44.381 Y17.268 E0.8627
G1 X44.465 Y17.272 E0.8659
G1 X49.524 Y17.770 E1.0606
G1 X49.608 Y17.782 E1.0638
G1 X49.979 Y17.856 E1.0783
G1 X50.061 Y17.877 E1.0816
G1 X54.926 Y19.353 E1.2763
G1 X55.005 Y19.381 E1.2795
G1 X55.355 Y19.526 E1.2940
G1 X55.431 Y19.562 E1.2972
G1 X59.915 Y21.958 E1.4919
G1 X59.987 Y22.002 E1.4952
G1 X60.302 Y22.212 E1.5097
G1 X60.370 Y22.262 E1.5129
G1 X64.300 Y25.487 E1.7076
G1 X64.362 Y25.544 E1.7108
G1 X64.630 Y25.812 E1.7253
G1 X64.687 Y25.874 E1.7286
G1 X67.912 Y29.804 E1.9233
G1 X67.962 Y29.872 E1.9265
G1 X68.172 Y30.187 E1.9410
G1 X68.216 Y30.259 E1.9442
G1 X70.612 Y34.743 E2.1389
G1 X70.648 Y34.819 E2.1422
G1 X70.793 Y35.169 E2.1567
G1 X70.821 Y35.248 E2.1599
G1 X72.297 Y40.113 E2.3546
G1 X72.318 Y40.195 E2.3578
G1 X72.392 Y40.566 E2.3723
G1 X72.404 Y40.650 E2.3756
G1 X72.902 Y45.709 E2.5703
G1 X72.906 Y45.793 E2.5735
G1 X72.906 Y46.172 E2.5880
G1 X72.902 Y46.256 E2.5912
G1 X72.404 Y51.315 E2.7859
G1 X72.392 Y51.399 E2.7892
G1 X72.318 Y51.770 E2.8037
G1 X72.297 Y51.852 E2.8069
G1 X70.821 Y56.717 E3.0016
G1 X70.793 Y56.796 E3.0048
G1 X70.648 Y57.146 E3.0193
G1 X70.612 Y57.223 E3.0226
G1 X68.216 Y61.706 E3.2173
G1 X68.172 Y61.778 E3.2205
G1 X67.962 Y62.093 E3.2350
G1 X67.912 Y62.161 E3.2382
G1 X64.687 Y66.091 E3.4329
G1 X64.630 Y66.153 E3.4362
G1 X64.362 Y66.421 E3.4507
G1 X64.300 Y66.478 E3.4539
G1 X60.370 Y69.703 E3.6486
G1 X60.302 Y69.753 E3.6518
G1 X59.987 Y69.964 E3.6664
G1 X59.915 Y70.007 E3.6696
G1 X55.431 Y72.403 E3.8643
G1 X55.355 Y72.439 E3.8675
G1 X55.005 Y72.584 E3.8820
G1 X54.926 Y72.613 E3.8852
G1 X50.061 Y74.088 E4.0799
G1 X49.979 Y74.109 E4.0832
G1 X49.608 Y74.183 E4.0977
G1 X49.524 Y74.195 E4.1009
G1 X44.465 Y74.693 E4.2956
G1 X44.381 Y74.698 E4.2988
G1 X44.002 Y74.698 E4.3134
G1 X43.918 Y74.693 E4.3166
G1 X38.859 Y74.195 E4.5113
G1 X38.775 Y74.183 E4.5145
G1 X38.404 Y74.109 E4.5290
G1 X38.322 Y74.088 E4.5322
G1 X33.457 Y72.613 E4.7270
G1 X33.378 Y72.584 E4.7302
G1 X33.028 Y72.439 E4.7447
G1 X32.952 Y72.403 E4.7479
G1 X28.468 Y70.007 E4.9426
G1 X28.396 Y69.964 E4.9458
G1 X28.081 Y69.753 E4.9604
G1 X28.013 Y69.703 E4.9636
G1 X24.083 Y66.478 E5.1583
G1 X24.021 Y66.421 E5.1615
G1 X23.753 Y66.153 E5.1760
G1 X23.696 Y66.091 E5.1793
G1 X20.471 Y62.161 E5.3740
G1 X20.421 Y62.093 E5.3772
G1 X20.210 Y61.778 E5.3917
G1 X20.167 Y61.706 E5.3949
G1 X17.771 Y57.223 E5.5896
G1 X17.735 Y57.146 E5.5928
G1 X17.590 Y56.796 E5.6074
G1 X17.561 Y56.717 E5.6106
G1 X16.086 Y51.852 E5.8053
G1 X16.065 Y51.770 E5.8085
G1 X15.991 Y51.399 E5.8230
G1 X15.979 Y51.316 E5.8263
G1 X15.481 Y46.256 E6.0210
G1 X15.476 Y46.172 E6.0242
G1 X15.476 Y45.793 E6.0387
G1 X15.481 Y45.709 E6.0419
G1 X15.979 Y40.650 E6.2366
G1 X15.991 Y40.566 E6.2399
G1 X16.065 Y40.195 E6.2544
G1 X16.086 Y40.113 E6.2576
G1 X17.561 Y35.248 E6.4523
G1 X17.590 Y35.169 E6.4555
G1 X17.735 Y34.819 E6.4700
G1 X17.771 Y34.743 E6.4733
G1 X20.167 Y30.259 E6.6680
G1 X20.210 Y30.187 E6.6712
G1 X20.421 Y29.872 E6.6857
G1 X20.471 Y29.804 E6.6889
G1 X23.696 Y25.874 E6.8836
G1 X23.753 Y25.812 E6.8869
G1 X24.021 Y25.544 E6.9014
G1 X24.359 Y25.899 F3498
G92 E0
G1 X24.403 Y25.859 E0.0023 F672
G1 X28.315 Y22.649 E0.1961
G1 X28.363 Y22.613 E0.1984
G1 X28.658 Y22.416 E0.2120
G1 X28.710 Y22.385 E0.2143
G1 X33.172 Y20.000 E0.4081
G1 X33.226 Y19.974 E0.4104
G1 X33.554 Y19.838 E0.4240
