; G-Code generated by Simplify3D(R) Version 3.0.0
; Mrz 29, 2018 at 6:28:40 
; Settings Summary
;   processName,Process1
;   applyToModels,r02_top
;   profileName,Renkforce (modified)
;   profileVersion,2017-10-17 11:10:50
;   baseProfile,German RepRap NEO (modified)
;   printMaterial,
;   printQuality,
;   printExtruders,
;   extruderName,Primary Extruder
;   extruderToolheadNumber,0
;   extruderDiameter,0.5
;   extruderAutoWidth,0
;   extruderWidth,0.49
;   extrusionMultiplier,0.94
;   extruderUseRetract,1
;   extruderRetractionDistance,6.5
;   extruderExtraRestartDistance,0
;   extruderRetractionZLift,0
;   extruderRetractionSpeed,4998
;   extruderUseCoasting,0
;   extruderCoastingDistance,0.2
;   extruderUseWipe,0
;   extruderWipeDistance,5
;   primaryExtruder,0
;   layerHeight,0.2
;   topSolidLayers,4
;   bottomSolidLayers,3
;   perimeterOutlines,3
;   printPerimetersInsideOut,1
;   startPointOption,2
;   startPointOriginX,0
;   startPointOriginY,0
;   startPointOriginZ,300
;   sequentialIslands,0
;   spiralVaseMode,0
;   firstLayerHeightPercentage,100
;   firstLayerWidthPercentage,100
;   firstLayerUnderspeed,0.28
;   useRaft,0
;   raftExtruder,0
;   raftLayers,3
;   raftOffset,3
;   raftSeparationDistance,0.1
;   raftInfill,85
;   disableRaftBaseLayers,0
;   useSkirt,1
;   skirtExtruder,0
;   skirtLayers,1
;   skirtOutlines,5
;   skirtOffset,3
;   usePrimePillar,0
;   primePillarExtruder,999
;   primePillarWidth,12
;   primePillarLocation,7
;   primePillarSpeedMultiplier,1
;   useOozeShield,0
;   oozeShieldExtruder,999
;   oozeShieldOffset,2
;   oozeShieldOutlines,1
;   oozeShieldSidewallShape,1
;   oozeShieldSidewallAngle,30
;   oozeShieldSpeedMultiplier,1
;   infillExtruder,0
;   internalInfillPattern,Full Honeycomb
;   externalInfillPattern,Rectilinear
;   infillPercentage,15
;   outlineOverlapPercentage,15
;   infillExtrusionWidthPercentage,100
;   minInfillLength,3
;   infillLayerInterval,1
;   infillAngles,0,120,-120
;   overlapInfillAngles,0
;   generateSupport,1
;   supportExtruder,0
;   supportInfillPercentage,30
;   supportExtraInflation,1
;   denseSupportLayers,0
;   denseSupportInfillPercentage,75
;   supportLayerInterval,1
;   supportHorizontalPartOffset,1.5
;   supportUpperSeparationLayers,1
;   supportLowerSeparationLayers,1
;   supportType,0
;   supportGridSpacing,5
;   maxOverhangAngle,45
;   supportAngles,45
;   temperatureName,Primary Extruder
;   temperatureNumber,0
;   temperatureSetpointCount,3
;   temperatureSetpointLayers,1,2,3
;   temperatureSetpointTemperatures,197,193,189
;   temperatureStabilizeAtStartup,1
;   temperatureHeatedBed,0
;   temperatureRelayBetweenLayers,0
;   temperatureRelayBetweenLoops,0
;   fanLayers,1,3
;   fanSpeeds,0,80
;   blipFanToFullPower,0
;   adjustSpeedForCooling,1
;   minSpeedLayerTime,15
;   minCoolingSpeedSlowdown,20
;   increaseFanForCooling,0
;   minFanLayerTime,45
;   maxCoolingFanSpeed,100
;   increaseFanForBridging,0
;   bridgingFanSpeed,100
;   use5D,1
;   relativeEdistances,0
;   allowEaxisZeroing,1
;   independentExtruderAxes,0
;   includeM10123,0
;   stickySupport,1
;   applyToolheadOffsets,0
;   gcodeXoffset,0
;   gcodeYoffset,0
;   gcodeZoffset,0
;   overrideMachineDefinition,1
;   machineTypeOverride,0
;   strokeXoverride,150
;   strokeYoverride,150
;   strokeZoverride,150
;   originOffsetXoverride,0
;   originOffsetYoverride,0
;   originOffsetZoverride,0
;   homeXdirOverride,-1
;   homeYdirOverride,-1
;   homeZdirOverride,-1
;   flipXoverride,1
;   flipYoverride,-1
;   flipZoverride,1
;   toolheadOffsets,0,0|0,0|0,0|0,0|0,0|0,0
;   overrideFirmwareConfiguration,0
;   firmwareTypeOverride,RepRap (Marlin/Repetier/Sprinter)
;   GPXconfigOverride,r2
;   baudRateOverride,115200
;   overridePrinterModels,0
;   printerModelsOverride
;   startingGcode,G28 ; home all axes
;   layerChangeGcode,
;   retractionGcode,
;   toolChangeGcode,
;   endingGcode,M104 S0 ; turn off extruder,M140 S0 ; turn off bed,G28 X0  ; home X axis,G28 Y0  ; home Y axis,M84 ; disable motors,M107
;   createX3G,0
;   celebration,0
;   celebrationSong,Random Song
;   createMB5G,0
;   postProcessing,
;   defaultSpeed,2400
;   outlineUnderspeed,0.5
;   solidInfillUnderspeed,0.8
;   supportUnderspeed,0.8
;   rapidXYspeed,3498
;   rapidZspeed,1002
;   minBridgingArea,50
;   bridgingExtraInflation,0
;   bridgingExtrusionMultiplier,1
;   bridgingSpeedMultiplier,1
;   filamentDiameter,1.75
;   filamentPricePerKg,46
;   filamentDensity,1.25
;   useMinPrintHeight,0
;   minPrintHeight,0
;   useMaxPrintHeight,0
;   maxPrintHeight,0
;   useDiaphragm,0
;   diaphragmLayerInterval,20
;   robustSlicing,1
;   mergeAllIntoSolid,0
;   onlyRetractWhenCrossingOutline,1
;   retractBetweenLayers,1
;   useRetractionMinTravel,0
;   retractionMinTravel,3
;   retractWhileWiping,0
;   onlyWipeOutlines,1
;   avoidCrossingOutline,0
;   maxMovementDetourFactor,10
;   toolChangeRetractionDistance,0
;   toolChangeExtraRestartDistance,0
;   toolChangeRetractionSpeed,360
;   allowThinWallGapFill,1
;   thinWallAllowedOverlapPercentage,10
;   horizontalSizeCompensation,0
G90
M82
M106 S0
M104 S197 T0
M109 S197 T0
G28 ; home all axes
G92 E0
G1 E-6.5000 F4998
G1 Z0.200 F1002
; layer 1, Z = 0.2
T0
; tool H0.200 W0.490
; skirt
G1 X19.280 Y25.570 F3498
G1 E0.0000 F1499
G92 E0
G1 X22.372 Y23.033 E0.1532 F672
G1 X22.459 Y22.968 E0.1573
G1 X22.794 Y22.744 E0.1728
G1 X22.887 Y22.689 E0.1769
G1 X26.414 Y20.803 E0.3301
G1 X26.512 Y20.757 E0.3342
G1 X26.884 Y20.603 E0.3497
G1 X26.986 Y20.566 E0.3538
G1 X30.813 Y19.405 E0.5070
G1 X30.918 Y19.379 E0.5111
G1 X31.313 Y19.300 E0.5266
G1 X31.421 Y19.285 E0.5307
G1 X35.401 Y18.893 E0.6839
G1 X35.509 Y18.887 E0.6880
G1 X35.912 Y18.887 E0.7035
G1 X36.020 Y18.893 E0.7076
G1 X40.000 Y19.285 E0.8608
G1 X40.107 Y19.300 E0.8649
G1 X40.502 Y19.379 E0.8804
G1 X40.607 Y19.405 E0.8845
G1 X44.435 Y20.566 E1.0377
G1 X44.537 Y20.603 E1.0418
G1 X44.909 Y20.757 E1.0573
G1 X45.007 Y20.803 E1.0614
G1 X48.534 Y22.689 E1.2146
G1 X48.627 Y22.744 E1.2187
G1 X48.962 Y22.968 E1.2342
G1 X49.049 Y23.033 E1.2383
G1 X52.140 Y25.570 E1.3915
G1 X52.221 Y25.643 E1.3956
G1 X52.506 Y25.928 E1.4111
G1 X52.578 Y26.008 E1.4152
G1 X55.115 Y29.099 E1.5684
G1 X55.180 Y29.186 E1.5725
G1 X55.404 Y29.521 E1.5880
G1 X55.459 Y29.614 E1.5921
G1 X57.345 Y33.141 E1.7453
G1 X57.391 Y33.239 E1.7494
G1 X57.545 Y33.612 E1.7649
G1 X57.582 Y33.713 E1.7690
G1 X58.743 Y37.541 E1.9222
G1 X58.769 Y37.646 E1.9263
G1 X58.848 Y38.041 E1.9418
G1 X58.864 Y38.148 E1.9459
G1 X59.256 Y42.128 E2.0991
G1 X59.261 Y42.236 E2.1032
G1 X59.261 Y42.639 E2.1187
G1 X59.256 Y42.747 E2.1228
G1 X58.864 Y46.728 E2.2760
G1 X58.848 Y46.835 E2.2801
G1 X58.769 Y47.230 E2.2956
G1 X58.743 Y47.335 E2.2997
G1 X57.582 Y51.162 E2.4529
G1 X57.545 Y51.264 E2.4570
G1 X57.391 Y51.636 E2.4725
G1 X57.345 Y51.734 E2.4766
G1 X55.459 Y55.261 E2.6298
G1 X55.404 Y55.354 E2.6339
G1 X55.180 Y55.689 E2.6494
G1 X55.115 Y55.776 E2.6535
G1 X52.578 Y58.868 E2.8067
G1 X52.506 Y58.948 E2.8108
G1 X52.221 Y59.233 E2.8263
G1 X52.140 Y59.306 E2.8304
G1 X49.049 Y61.843 E2.9836
G1 X48.962 Y61.907 E2.9877
G1 X48.627 Y62.131 E3.0032
G1 X48.534 Y62.187 E3.0073
G1 X45.007 Y64.072 E3.1605
G1 X44.909 Y64.118 E3.1646
G1 X44.537 Y64.273 E3.1801
G1 X44.435 Y64.309 E3.1842
G1 X40.607 Y65.470 E3.3374
G1 X40.502 Y65.496 E3.3415
G1 X40.107 Y65.575 E3.3570
G1 X40.000 Y65.591 E3.3611
G1 X36.020 Y65.983 E3.5143
G1 X35.912 Y65.988 E3.5184
G1 X35.509 Y65.988 E3.5339
G1 X35.401 Y65.983 E3.5380
G1 X31.421 Y65.591 E3.6912
G1 X31.313 Y65.575 E3.6953
G1 X30.918 Y65.496 E3.7108
G1 X30.813 Y65.470 E3.7149
G1 X26.986 Y64.309 E3.8681
G1 X26.884 Y64.273 E3.8722
G1 X26.512 Y64.119 E3.8876
G1 X26.414 Y64.072 E3.8918
G1 X22.887 Y62.187 E4.0450
G1 X22.794 Y62.131 E4.0491
G1 X22.459 Y61.907 E4.0646
G1 X22.372 Y61.843 E4.0687
G1 X19.280 Y59.306 E4.2219
G1 X19.200 Y59.233 E4.2260
G1 X18.915 Y58.948 E4.2414
G1 X18.842 Y58.868 E4.2456
G1 X16.305 Y55.776 E4.3988
G1 X16.241 Y55.689 E4.4029
G1 X16.017 Y55.354 E4.4183
G1 X15.961 Y55.261 E4.4225
G1 X14.076 Y51.734 E4.5757
G1 X14.030 Y51.636 E4.5798
G1 X13.875 Y51.264 E4.5952
G1 X13.839 Y51.162 E4.5994
G1 X12.678 Y47.335 E4.7526
G1 X12.652 Y47.230 E4.7567
G1 X12.573 Y46.835 E4.7721
G1 X12.557 Y46.728 E4.7763
G1 X12.165 Y42.747 E4.9295
G1 X12.160 Y42.639 E4.9336
G1 X12.160 Y42.236 E4.9490
G1 X12.165 Y42.128 E4.9532
G1 X12.557 Y38.148 E5.1064
G1 X12.573 Y38.041 E5.1105
G1 X12.652 Y37.646 E5.1260
G1 X12.678 Y37.541 E5.1301
G1 X13.839 Y33.714 E5.2833
G1 X13.875 Y33.612 E5.2874
G1 X14.030 Y33.239 E5.3028
G1 X14.076 Y33.141 E5.3070
G1 X15.961 Y29.614 E5.4602
G1 X16.017 Y29.521 E5.4643
G1 X16.241 Y29.186 E5.4797
G1 X16.305 Y29.099 E5.4839
G1 X18.842 Y26.008 E5.6371
G1 X18.915 Y25.928 E5.6412
G1 X19.200 Y25.643 E5.6567
G1 X19.280 Y25.570 E5.6608
G1 X19.600 Y25.941 F3498
G92 E0
G1 X22.673 Y23.419 E0.1523 F672
G1 X22.741 Y23.369 E0.1555
G1 X23.056 Y23.158 E0.1700
G1 X23.128 Y23.115 E0.1732
G1 X26.634 Y21.241 E0.3255
G1 X26.710 Y21.205 E0.3287
G1 X27.060 Y21.060 E0.3432
G1 X27.140 Y21.032 E0.3464
G1 X30.944 Y19.878 E0.4987
G1 X31.026 Y19.857 E0.5019
G1 X31.397 Y19.783 E0.5164
G1 X31.481 Y19.771 E0.5196
G1 X35.437 Y19.381 E0.6719
G1 X35.521 Y19.377 E0.6751
G1 X35.900 Y19.377 E0.6896
G1 X35.984 Y19.381 E0.6929
G1 X39.940 Y19.771 E0.8451
G1 X40.023 Y19.783 E0.8483
G1 X40.395 Y19.857 E0.8628
G1 X40.477 Y19.878 E0.8661
G1 X44.281 Y21.032 E1.0183
G1 X44.360 Y21.060 E1.0215
G1 X44.710 Y21.205 E1.0361
G1 X44.786 Y21.241 E1.0393
G1 X48.292 Y23.115 E1.1915
G1 X48.365 Y23.158 E1.1948
G1 X48.680 Y23.369 E1.2093
G1 X48.747 Y23.419 E1.2125
G1 X51.820 Y25.941 E1.3648
G1 X51.883 Y25.998 E1.3680
G1 X52.151 Y26.265 E1.3825
G1 X52.207 Y26.328 E1.3857
G1 X54.729 Y29.401 E1.5380
G1 X54.779 Y29.468 E1.5412
G1 X54.990 Y29.784 E1.5557
G1 X55.033 Y29.856 E1.5589
G1 X56.907 Y33.362 E1.7112
G1 X56.943 Y33.438 E1.7144
G1 X57.088 Y33.788 E1.7289
G1 X57.116 Y33.867 E1.7321
G1 X58.270 Y37.671 E1.8844
G1 X58.291 Y37.753 E1.8876
G1 X58.365 Y38.125 E1.9021
G1 X58.377 Y38.208 E1.9054
G1 X58.767 Y42.164 E2.0576
G1 X58.771 Y42.248 E2.0608
G1 X58.771 Y42.627 E2.0753
G1 X58.767 Y42.711 E2.0786
G1 X58.377 Y46.668 E2.2308
G1 X58.365 Y46.751 E2.2340
G1 X58.291 Y47.123 E2.2486
G1 X58.270 Y47.204 E2.2518
G1 X57.116 Y51.008 E2.4040
G1 X57.088 Y51.088 E2.4073
G1 X56.943 Y51.438 E2.4218
G1 X56.907 Y51.514 E2.4250
G1 X55.033 Y55.020 E2.5773
G1 X54.990 Y55.092 E2.5805
G1 X54.779 Y55.407 E2.5950
G1 X54.729 Y55.475 E2.5982
G1 X52.207 Y58.548 E2.7505
G1 X52.151 Y58.610 E2.7537
G1 X51.883 Y58.878 E2.7682
G1 X51.820 Y58.935 E2.7714
G1 X48.747 Y61.456 E2.9237
G1 X48.680 Y61.507 E2.9269
G1 X48.365 Y61.717 E2.9414
G1 X48.292 Y61.760 E2.9446
G1 X44.786 Y63.634 E3.0969
G1 X44.710 Y63.670 E3.1001
G1 X44.360 Y63.815 E3.1146
G1 X44.281 Y63.844 E3.1179
G1 X40.477 Y64.998 E3.2701
G1 X40.395 Y65.018 E3.2733
G1 X40.023 Y65.092 E3.2878
G1 X39.940 Y65.105 E3.2911
G1 X35.984 Y65.494 E3.4433
G1 X35.900 Y65.498 E3.4465
G1 X35.521 Y65.498 E3.4611
G1 X35.437 Y65.494 E3.4643
G1 X31.481 Y65.105 E3.6165
G1 X31.397 Y65.092 E3.6198
G1 X31.026 Y65.018 E3.6343
G1 X30.944 Y64.998 E3.6375
G1 X27.140 Y63.844 E3.7897
G1 X27.061 Y63.815 E3.7930
G1 X26.710 Y63.670 E3.8075
G1 X26.634 Y63.634 E3.8107
G1 X23.128 Y61.760 E3.9630
G1 X23.056 Y61.717 E3.9662
G1 X22.741 Y61.507 E3.9807
G1 X22.673 Y61.456 E3.9839
G1 X19.600 Y58.935 E4.1362
G1 X19.538 Y58.878 E4.1394
G1 X19.270 Y58.610 E4.1539
G1 X19.214 Y58.548 E4.1571
G1 X16.692 Y55.475 E4.3094
G1 X16.642 Y55.407 E4.3126
G1 X16.431 Y55.092 E4.3271
G1 X16.388 Y55.020 E4.3304
G1 X14.514 Y51.514 E4.4826
G1 X14.478 Y51.438 E4.4858
G1 X14.333 Y51.088 E4.5003
G1 X14.304 Y51.008 E4.5036
G1 X13.150 Y47.204 E4.6558
G1 X13.130 Y47.123 E4.6590
G1 X13.056 Y46.751 E4.6736
G1 X13.044 Y46.668 E4.6768
G1 X12.654 Y42.711 E4.8290
G1 X12.650 Y42.627 E4.8323
G1 X12.650 Y42.248 E4.8468
G1 X12.654 Y42.164 E4.8500
G1 X13.044 Y38.208 E5.0023
G1 X13.056 Y38.125 E5.0055
G1 X13.130 Y37.753 E5.0200
G1 X13.150 Y37.671 E5.0232
G1 X14.304 Y33.867 E5.1755
G1 X14.333 Y33.788 E5.1787
G1 X14.478 Y33.438 E5.1932
G1 X14.514 Y33.362 E5.1964
G1 X16.388 Y29.856 E5.3487
G1 X16.431 Y29.784 E5.3519
G1 X16.641 Y29.468 E5.3664
G1 X16.692 Y29.401 E5.3696
G1 X19.214 Y26.328 E5.5219
G1 X19.270 Y26.265 E5.5251
G1 X19.538 Y25.998 E5.5396
G1 X19.600 Y25.941 E5.5429
G1 X19.921 Y26.312 F3498
G92 E0
G1 X22.975 Y23.805 E0.1513 F672
G1 X23.023 Y23.770 E0.1536
G1 X23.318 Y23.573 E0.1672
G1 X23.370 Y23.542 E0.1695
G1 X26.855 Y21.679 E0.3209
G1 X26.909 Y21.653 E0.3232
G1 X27.237 Y21.517 E0.3368
G1 X27.294 Y21.497 E0.3391
G1 X31.075 Y20.350 E0.4904
G1 X31.133 Y20.336 E0.4927
G1 X31.481 Y20.266 E0.5063
G1 X31.541 Y20.258 E0.5086
G1 X35.473 Y19.870 E0.6599
G1 X35.533 Y19.867 E0.6622
G1 X35.888 Y19.867 E0.6758
G1 X35.948 Y19.870 E0.6781
G1 X39.880 Y20.258 E0.8294
G1 X39.940 Y20.266 E0.8317
G1 X40.288 Y20.336 E0.8453
G1 X40.346 Y20.350 E0.8476
G1 X44.127 Y21.497 E0.9990
G1 X44.184 Y21.517 E1.0013
G1 X44.512 Y21.653 E1.0149
G1 X44.566 Y21.679 E1.0172
G1 X48.051 Y23.542 E1.1685
G1 X48.102 Y23.572 E1.1708
G1 X48.397 Y23.770 E1.1844
G1 X48.446 Y23.805 E1.1867
G1 X51.500 Y26.312 E1.3380
G1 X51.545 Y26.353 E1.3403
G1 X51.796 Y26.603 E1.3539
G1 X51.836 Y26.648 E1.3562
G1 X54.343 Y29.702 E1.5076
G1 X54.378 Y29.751 E1.5099
G1 X54.576 Y30.046 E1.5235
G1 X54.607 Y30.097 E1.5258
G1 X56.469 Y33.582 E1.6771
G1 X56.495 Y33.636 E1.6794
G1 X56.631 Y33.964 E1.6930
G1 X56.651 Y34.021 E1.6953
G1 X57.798 Y37.802 E1.8466
G1 X57.813 Y37.860 E1.8489
G1 X57.882 Y38.208 E1.8625
G1 X57.891 Y38.268 E1.8648
G1 X58.278 Y42.200 E2.0161
G1 X58.281 Y42.260 E2.0184
G1 X58.281 Y42.615 E2.0320
G1 X58.278 Y42.675 E2.0343
G1 X57.891 Y46.608 E2.1857
G1 X57.882 Y46.667 E2.1880
G1 X57.813 Y47.015 E2.2016
G1 X57.798 Y47.073 E2.2039
G1 X56.651 Y50.855 E2.3552
G1 X56.631 Y50.911 E2.3575
G1 X56.495 Y51.239 E2.3711
G1 X56.469 Y51.293 E2.3734
G1 X54.607 Y54.778 E2.5247
G1 X54.576 Y54.830 E2.5270
G1 X54.378 Y55.125 E2.5406
G1 X54.343 Y55.173 E2.5429
G1 X51.836 Y58.227 E2.6943
G1 X51.796 Y58.272 E2.6966
G1 X51.545 Y58.523 E2.7102
G1 X51.500 Y58.563 E2.7125
G1 X48.446 Y61.070 E2.8638
G1 X48.397 Y61.106 E2.8661
G1 X48.102 Y61.303 E2.8797
G1 X48.051 Y61.334 E2.8820
G1 X44.566 Y63.197 E3.0333
G1 X44.512 Y63.222 E3.0356
G1 X44.184 Y63.358 E3.0492
G1 X44.127 Y63.378 E3.0515
G1 X40.346 Y64.525 E3.2028
G1 X40.288 Y64.540 E3.2052
G1 X39.940 Y64.609 E3.2187
G1 X39.880 Y64.618 E3.2210
G1 X35.948 Y65.005 E3.3724
G1 X35.888 Y65.008 E3.3747
G1 X35.533 Y65.008 E3.3883
G1 X35.473 Y65.005 E3.3906
G1 X31.541 Y64.618 E3.5419
G1 X31.481 Y64.609 E3.5442
G1 X31.133 Y64.540 E3.5578
G1 X31.075 Y64.525 E3.5601
G1 X27.294 Y63.378 E3.7114
G1 X27.237 Y63.358 E3.7137
G1 X26.909 Y63.222 E3.7273
G1 X26.855 Y63.197 E3.7296
G1 X23.370 Y61.334 E3.8810
G1 X23.318 Y61.303 E3.8833
G1 X23.023 Y61.106 E3.8969
G1 X22.975 Y61.070 E3.8992
G1 X19.921 Y58.563 E4.0505
G1 X19.876 Y58.523 E4.0528
G1 X19.625 Y58.272 E4.0664
G1 X19.585 Y58.228 E4.0687
G1 X17.078 Y55.173 E4.2200
G1 X17.042 Y55.125 E4.2223
G1 X16.845 Y54.830 E4.2359
G1 X16.814 Y54.778 E4.2382
G1 X14.952 Y51.293 E4.3895
G1 X14.926 Y51.239 E4.3919
G1 X14.790 Y50.911 E4.4054
G1 X14.770 Y50.855 E4.4077
G1 X13.623 Y47.073 E4.5591
G1 X13.608 Y47.015 E4.5614
G1 X13.539 Y46.667 E4.5750
G1 X13.530 Y46.608 E4.5773
G1 X13.143 Y42.675 E4.7286
G1 X13.140 Y42.615 E4.7309
G1 X13.140 Y42.260 E4.7445
G1 X13.143 Y42.200 E4.7468
G1 X13.530 Y38.268 E4.8981
G1 X13.539 Y38.209 E4.9004
G1 X13.608 Y37.860 E4.9140
G1 X13.623 Y37.802 E4.9163
G1 X14.770 Y34.021 E5.0677
G1 X14.790 Y33.964 E5.0700
G1 X14.926 Y33.636 E5.0836
G1 X14.951 Y33.582 E5.0859
G1 X16.814 Y30.097 E5.2372
G1 X16.845 Y30.046 E5.2395
G1 X17.042 Y29.751 E5.2531
G1 X17.078 Y29.702 E5.2554
G1 X19.585 Y26.648 E5.4067
G1 X19.625 Y26.603 E5.4090
G1 X19.876 Y26.353 E5.4226
G1 X19.921 Y26.312 E5.4249
G1 X20.241 Y26.683 F3498
G92 E0
G1 X23.277 Y24.192 E0.1504 F672
G1 X23.305 Y24.170 E0.1518
G1 X23.581 Y23.987 E0.1645
G1 X23.612 Y23.968 E0.1658
G1 X27.075 Y22.117 E0.3163
G1 X27.108 Y22.101 E0.3176
G1 X27.413 Y21.975 E0.3303
G1 X27.447 Y21.963 E0.3317
G1 X31.205 Y20.823 E0.4821
