; G-Code generated by Simplify3D(R) Version 3.0.0
; Mrz 27, 2018 at 1:00:57 
; Settings Summary
;   processName,Process1
;   applyToModels,r02_plate
;   profileName,Renkforce (modified)
;   profileVersion,2017-10-17 11:10:50
;   baseProfile,German RepRap NEO (modified)
;   printMaterial,
;   printQuality,
;   printExtruders,
;   extruderName,Primary Extruder
;   extruderToolheadNumber,0
;   extruderDiameter,0.5
;   extruderAutoWidth,0
;   extruderWidth,0.49
;   extrusionMultiplier,0.94
;   extruderUseRetract,1
;   extruderRetractionDistance,6.5
;   extruderExtraRestartDistance,0
;   extruderRetractionZLift,0
;   extruderRetractionSpeed,4998
;   extruderUseCoasting,0
;   extruderCoastingDistance,0.2
;   extruderUseWipe,0
;   extruderWipeDistance,5
;   primaryExtruder,0
;   layerHeight,0.2
;   topSolidLayers,4
;   bottomSolidLayers,3
;   perimeterOutlines,3
;   printPerimetersInsideOut,1
;   startPointOption,2
;   startPointOriginX,0
;   startPointOriginY,0
;   startPointOriginZ,300
;   sequentialIslands,0
;   spiralVaseMode,0
;   firstLayerHeightPercentage,100
;   firstLayerWidthPercentage,100
;   firstLayerUnderspeed,0.28
;   useRaft,0
;   raftExtruder,0
;   raftLayers,3
;   raftOffset,3
;   raftSeparationDistance,0.1
;   raftInfill,85
;   disableRaftBaseLayers,0
;   useSkirt,1
;   skirtExtruder,0
;   skirtLayers,1
;   skirtOutlines,6
;   skirtOffset,4
;   usePrimePillar,0
;   primePillarExtruder,999
;   primePillarWidth,12
;   primePillarLocation,7
;   primePillarSpeedMultiplier,1
;   useOozeShield,0
;   oozeShieldExtruder,999
;   oozeShieldOffset,2
;   oozeShieldOutlines,1
;   oozeShieldSidewallShape,1
;   oozeShieldSidewallAngle,30
;   oozeShieldSpeedMultiplier,1
;   infillExtruder,0
;   internalInfillPattern,Full Honeycomb
;   externalInfillPattern,Rectilinear
;   infillPercentage,8
;   outlineOverlapPercentage,15
;   infillExtrusionWidthPercentage,100
;   minInfillLength,3
;   infillLayerInterval,1
;   infillAngles,0,120,-120
;   overlapInfillAngles,0
;   generateSupport,1
;   supportExtruder,0
;   supportInfillPercentage,30
;   supportExtraInflation,2
;   denseSupportLayers,0
;   denseSupportInfillPercentage,75
;   supportLayerInterval,1
;   supportHorizontalPartOffset,1.5
;   supportUpperSeparationLayers,1
;   supportLowerSeparationLayers,1
;   supportType,0
;   supportGridSpacing,5
;   maxOverhangAngle,45
;   supportAngles,45
;   temperatureName,Primary Extruder
;   temperatureNumber,0
;   temperatureSetpointCount,3
;   temperatureSetpointLayers,1,2,3
;   temperatureSetpointTemperatures,197,193,189
;   temperatureStabilizeAtStartup,1
;   temperatureHeatedBed,0
;   temperatureRelayBetweenLayers,0
;   temperatureRelayBetweenLoops,0
;   fanLayers,1,3
;   fanSpeeds,0,80
;   blipFanToFullPower,0
;   adjustSpeedForCooling,1
;   minSpeedLayerTime,15
;   minCoolingSpeedSlowdown,20
;   increaseFanForCooling,0
;   minFanLayerTime,45
;   maxCoolingFanSpeed,100
;   increaseFanForBridging,0
;   bridgingFanSpeed,100
;   use5D,1
;   relativeEdistances,0
;   allowEaxisZeroing,1
;   independentExtruderAxes,0
;   includeM10123,0
;   stickySupport,1
;   applyToolheadOffsets,0
;   gcodeXoffset,0
;   gcodeYoffset,0
;   gcodeZoffset,0
;   overrideMachineDefinition,1
;   machineTypeOverride,0
;   strokeXoverride,150
;   strokeYoverride,150
;   strokeZoverride,150
;   originOffsetXoverride,0
;   originOffsetYoverride,0
;   originOffsetZoverride,0
;   homeXdirOverride,-1
;   homeYdirOverride,-1
;   homeZdirOverride,-1
;   flipXoverride,1
;   flipYoverride,-1
;   flipZoverride,1
;   toolheadOffsets,0,0|0,0|0,0|0,0|0,0|0,0
;   overrideFirmwareConfiguration,0
;   firmwareTypeOverride,RepRap (Marlin/Repetier/Sprinter)
;   GPXconfigOverride,r2
;   baudRateOverride,115200
;   overridePrinterModels,0
;   printerModelsOverride
;   startingGcode,G28 ; home all axes
;   layerChangeGcode,
;   retractionGcode,
;   toolChangeGcode,
;   endingGcode,M104 S0 ; turn off extruder,M140 S0 ; turn off bed,G28 X0  ; home X axis,G28 Y0  ; home Y axis,M84 ; disable motors,M107
;   createX3G,0
;   celebration,0
;   celebrationSong,Random Song
;   createMB5G,0
;   postProcessing,
;   defaultSpeed,2400
;   outlineUnderspeed,0.5
;   solidInfillUnderspeed,0.8
;   supportUnderspeed,0.8
;   rapidXYspeed,3498
;   rapidZspeed,1002
;   minBridgingArea,50
;   bridgingExtraInflation,0
;   bridgingExtrusionMultiplier,1
;   bridgingSpeedMultiplier,1
;   filamentDiameter,1.75
;   filamentPricePerKg,46
;   filamentDensity,1.25
;   useMinPrintHeight,0
;   minPrintHeight,0
;   useMaxPrintHeight,0
;   maxPrintHeight,0
;   useDiaphragm,0
;   diaphragmLayerInterval,20
;   robustSlicing,1
;   mergeAllIntoSolid,0
;   onlyRetractWhenCrossingOutline,1
;   retractBetweenLayers,1
;   useRetractionMinTravel,0
;   retractionMinTravel,3
;   retractWhileWiping,0
;   onlyWipeOutlines,1
;   avoidCrossingOutline,0
;   maxMovementDetourFactor,10
;   toolChangeRetractionDistance,0
;   toolChangeExtraRestartDistance,0
;   toolChangeRetractionSpeed,360
;   allowThinWallGapFill,1
;   thinWallAllowedOverlapPercentage,10
;   horizontalSizeCompensation,0
G90
M82
M106 S0
M104 S197 T0
M109 S197 T0
G28 ; home all axes
G92 E0
G1 E-6.5000 F4998
G1 Z0.200 F1002
; layer 1, Z = 0.2
T0
; tool H0.200 W0.490
; skirt
G1 X62.110 Y60.997 F3498
G1 E0.0000 F1499
G92 E0
G1 X62.161 Y60.949 E0.0027 F672
G1 X62.369 Y60.762 E0.0134
G1 X62.422 Y60.716 E0.0161
G1 X63.607 Y59.757 E0.0745
G1 X63.644 Y59.728 E0.0763
G1 X63.793 Y59.615 E0.0834
G1 X63.831 Y59.588 E0.0852
G1 X64.318 Y59.247 E0.1080
G1 X64.347 Y59.227 E0.1093
G1 X64.464 Y59.150 E0.1147
G1 X64.494 Y59.131 E0.1161
G1 X65.362 Y58.588 E0.1553
G1 X65.403 Y58.564 E0.1571
G1 X65.564 Y58.470 E0.1642
G1 X65.605 Y58.447 E0.1660
G1 X66.531 Y57.956 E0.2062
G1 X66.573 Y57.934 E0.2080
G1 X66.740 Y57.852 E0.2151
G1 X66.783 Y57.832 E0.2169
G1 X67.740 Y57.406 E0.2571
G1 X67.784 Y57.388 E0.2589
G1 X67.957 Y57.318 E0.2660
G1 X68.001 Y57.301 E0.2678
G1 X69.007 Y56.935 E0.3088
G1 X69.063 Y56.916 E0.3111
G1 X69.285 Y56.846 E0.3200
G1 X69.342 Y56.829 E0.3223
G1 X70.815 Y56.435 E0.3807
G1 X70.872 Y56.421 E0.3829
G1 X71.100 Y56.370 E0.3919
G1 X71.157 Y56.359 E0.3941
G1 X72.212 Y56.173 E0.4352
G1 X72.259 Y56.165 E0.4370
G1 X72.444 Y56.139 E0.4441
G1 X72.490 Y56.133 E0.4459
G1 X73.556 Y56.022 E0.4869
G1 X73.614 Y56.017 E0.4892
G1 X73.847 Y56.002 E0.4981
G1 X73.906 Y56.000 E0.5004
G1 X75.407 Y55.974 E0.5579
G1 X75.454 Y55.974 E0.5597
G1 X75.641 Y55.977 E0.5668
G1 X75.688 Y55.979 E0.5686
G1 X76.281 Y56.010 E0.5914
G1 X76.316 Y56.012 E0.5927
G1 X76.456 Y56.023 E0.5981
G1 X76.491 Y56.026 E0.5994
G1 X77.533 Y56.136 E0.6396
G1 X77.591 Y56.143 E0.6418
G1 X77.822 Y56.178 E0.6508
G1 X77.880 Y56.188 E0.6530
G1 X79.400 Y56.483 E0.7123
G1 X79.469 Y56.498 E0.7150
G1 X79.740 Y56.566 E0.7257
G1 X79.808 Y56.585 E0.7284
G1 X81.311 Y57.045 E0.7886
G1 X81.378 Y57.067 E0.7913
G1 X81.641 Y57.163 E0.8020
G1 X81.707 Y57.189 E0.8048
G1 X83.153 Y57.803 E0.8649
G1 X83.218 Y57.832 E0.8676
G1 X83.469 Y57.955 E0.8784
G1 X83.532 Y57.987 E0.8811
G1 X84.886 Y58.738 E0.9404
G1 X84.937 Y58.767 E0.9426
G1 X85.136 Y58.889 E0.9516
G1 X85.185 Y58.921 E0.9538
G1 X86.093 Y59.533 E0.9957
G1 X86.141 Y59.567 E0.9980
G1 X86.328 Y59.706 E1.0069
G1 X86.375 Y59.742 E1.0092
G1 X87.578 Y60.716 E1.0685
G1 X87.632 Y60.762 E1.0712
G1 X87.840 Y60.949 E1.0819
G1 X87.891 Y60.998 E1.0846
G1 X89.002 Y62.109 E1.1448
G1 X89.051 Y62.160 E1.1475
G1 X89.238 Y62.368 E1.1582
G1 X89.284 Y62.422 E1.1609
G1 X90.258 Y63.625 E1.2202
G1 X90.294 Y63.672 E1.2224
G1 X90.433 Y63.859 E1.2314
G1 X90.467 Y63.907 E1.2336
G1 X91.079 Y64.815 E1.2756
G1 X91.111 Y64.864 E1.2778
G1 X91.233 Y65.063 E1.2867
G1 X91.262 Y65.114 E1.2890
G1 X92.013 Y66.468 E1.3483
G1 X92.045 Y66.531 E1.3510
G1 X92.168 Y66.782 E1.3617
G1 X92.197 Y66.847 E1.3644
G1 X92.811 Y68.293 E1.4246
G1 X92.837 Y68.359 E1.4273
G1 X92.933 Y68.622 E1.4380
G1 X92.955 Y68.689 E1.4407
G1 X93.415 Y70.192 E1.5009
G1 X93.434 Y70.260 E1.5036
G1 X93.502 Y70.531 E1.5144
G1 X93.517 Y70.600 E1.5171
G1 X93.817 Y72.143 E1.5772
G1 X93.828 Y72.212 E1.5799
G1 X93.867 Y72.490 E1.5907
G1 X93.875 Y72.560 E1.5934
G1 X94.010 Y74.102 E1.6527
G1 X94.014 Y74.161 E1.6549
G1 X94.024 Y74.394 E1.6639
G1 X94.026 Y74.453 E1.6661
G1 X94.026 Y75.547 E1.7080
G1 X94.024 Y75.606 E1.7103
G1 X94.014 Y75.839 E1.7192
G1 X94.010 Y75.898 E1.7215
G1 X93.875 Y77.440 E1.7808
G1 X93.867 Y77.510 E1.7835
G1 X93.828 Y77.788 E1.7942
G1 X93.817 Y77.857 E1.7969
G1 X93.517 Y79.400 E1.8571
G1 X93.502 Y79.469 E1.8598
G1 X93.434 Y79.740 E1.8705
G1 X93.415 Y79.808 E1.8732
G1 X92.955 Y81.311 E1.9334
G1 X92.933 Y81.378 E1.9361
G1 X92.837 Y81.641 E1.9468
G1 X92.811 Y81.707 E1.9495
G1 X92.197 Y83.153 E2.0097
G1 X92.168 Y83.218 E2.0124
G1 X92.045 Y83.469 E2.0231
G1 X92.013 Y83.532 E2.0258
G1 X91.262 Y84.886 E2.0851
G1 X91.233 Y84.937 E2.0874
G1 X91.111 Y85.136 E2.0963
G1 X91.079 Y85.185 E2.0986
G1 X90.467 Y86.093 E2.1405
G1 X90.433 Y86.141 E2.1427
G1 X90.294 Y86.328 E2.1517
G1 X90.258 Y86.375 E2.1539
G1 X89.284 Y87.578 E2.2132
G1 X89.238 Y87.632 E2.2159
G1 X89.051 Y87.840 E2.2267
G1 X89.002 Y87.891 E2.2294
G1 X87.891 Y89.002 E2.2895
G1 X87.840 Y89.051 E2.2922
G1 X87.632 Y89.238 E2.3030
G1 X87.578 Y89.284 E2.3057
G1 X86.375 Y90.258 E2.3650
G1 X86.328 Y90.294 E2.3672
G1 X86.141 Y90.433 E2.3762
G1 X86.093 Y90.467 E2.3784
G1 X85.185 Y91.079 E2.4203
G1 X85.136 Y91.111 E2.4226
G1 X84.937 Y91.233 E2.4315
G1 X84.886 Y91.262 E2.4338
G1 X83.532 Y92.013 E2.4931
G1 X83.469 Y92.045 E2.4958
G1 X83.218 Y92.168 E2.5065
G1 X83.153 Y92.197 E2.5092
G1 X81.707 Y92.811 E2.5694
G1 X81.641 Y92.837 E2.5721
G1 X81.378 Y92.933 E2.5828
G1 X81.311 Y92.955 E2.5855
G1 X79.808 Y93.415 E2.6457
G1 X79.740 Y93.434 E2.6484
G1 X79.469 Y93.502 E2.6591
G1 X79.400 Y93.517 E2.6618
G1 X77.857 Y93.817 E2.7220
G1 X77.788 Y93.828 E2.7247
G1 X77.510 Y93.867 E2.7354
G1 X77.440 Y93.875 E2.7381
G1 X75.898 Y94.010 E2.7974
G1 X75.839 Y94.014 E2.7997
G1 X75.606 Y94.024 E2.8086
G1 X75.547 Y94.026 E2.8109
G1 X74.453 Y94.026 E2.8528
G1 X74.394 Y94.024 E2.8550
G1 X74.161 Y94.014 E2.8640
G1 X74.102 Y94.010 E2.8662
G1 X72.560 Y93.875 E2.9255
G1 X72.490 Y93.867 E2.9282
G1 X72.212 Y93.828 E2.9390
G1 X72.143 Y93.817 E2.9417
G1 X70.600 Y93.517 E3.0018
G1 X70.531 Y93.502 E3.0046
G1 X70.260 Y93.434 E3.0153
G1 X70.192 Y93.415 E3.0180
G1 X68.689 Y92.955 E3.0782
G1 X68.622 Y92.933 E3.0809
G1 X68.359 Y92.837 E3.0916
G1 X68.293 Y92.811 E3.0943
G1 X66.847 Y92.197 E3.1545
G1 X66.782 Y92.168 E3.1572
G1 X66.531 Y92.045 E3.1679
G1 X66.468 Y92.013 E3.1706
G1 X65.114 Y91.262 E3.2299
G1 X65.063 Y91.233 E3.2322
G1 X64.864 Y91.111 E3.2411
G1 X64.815 Y91.079 E3.2433
G1 X63.907 Y90.467 E3.2853
G1 X63.859 Y90.433 E3.2875
G1 X63.672 Y90.294 E3.2965
G1 X63.625 Y90.258 E3.2987
G1 X62.422 Y89.284 E3.3580
G1 X62.368 Y89.238 E3.3607
G1 X62.160 Y89.051 E3.3714
G1 X62.109 Y89.002 E3.3741
G1 X60.998 Y87.891 E3.4343
G1 X60.949 Y87.840 E3.4370
G1 X60.762 Y87.632 E3.4477
G1 X60.716 Y87.578 E3.4504
G1 X59.742 Y86.375 E3.5097
G1 X59.706 Y86.328 E3.5120
G1 X59.567 Y86.141 E3.5209
G1 X59.533 Y86.093 E3.5232
G1 X58.921 Y85.185 E3.5651
G1 X58.889 Y85.136 E3.5674
G1 X58.767 Y84.937 E3.5763
G1 X58.738 Y84.886 E3.5785
G1 X57.987 Y83.532 E3.6378
G1 X57.955 Y83.469 E3.6405
G1 X57.832 Y83.218 E3.6513
G1 X57.803 Y83.153 E3.6540
G1 X57.189 Y81.707 E3.7142
G1 X57.163 Y81.641 E3.7169
G1 X57.067 Y81.378 E3.7276
G1 X57.045 Y81.311 E3.7303
G1 X56.585 Y79.808 E3.7905
G1 X56.566 Y79.740 E3.7932
G1 X56.498 Y79.469 E3.8039
G1 X56.483 Y79.400 E3.8066
G1 X56.183 Y77.857 E3.8668
G1 X56.172 Y77.788 E3.8695
G1 X56.133 Y77.510 E3.8802
G1 X56.125 Y77.440 E3.8829
G1 X55.990 Y75.898 E3.9422
G1 X55.986 Y75.839 E3.9445
G1 X55.976 Y75.606 E3.9534
G1 X55.974 Y75.547 E3.9556
G1 X55.974 Y74.453 E3.9976
G1 X55.976 Y74.394 E3.9998
G1 X55.986 Y74.161 E4.0088
G1 X55.990 Y74.102 E4.0110
G1 X56.125 Y72.560 E4.0703
G1 X56.133 Y72.490 E4.0730
G1 X56.172 Y72.212 E4.0837
G1 X56.183 Y72.143 E4.0864
G1 X56.483 Y70.600 E4.1466
G1 X56.498 Y70.531 E4.1493
G1 X56.566 Y70.260 E4.1600
G1 X56.585 Y70.192 E4.1627
G1 X57.045 Y68.689 E4.2229
G1 X57.067 Y68.622 E4.2256
G1 X57.163 Y68.359 E4.2364
G1 X57.189 Y68.293 E4.2391
G1 X57.803 Y66.847 E4.2993
G1 X57.832 Y66.782 E4.3020
G1 X57.955 Y66.531 E4.3127
G1 X57.987 Y66.468 E4.3154
G1 X58.738 Y65.114 E4.3747
G1 X58.767 Y65.063 E4.3769
G1 X58.889 Y64.864 E4.3859
G1 X58.921 Y64.815 E4.3881
G1 X59.533 Y63.907 E4.4301
G1 X59.568 Y63.859 E4.4323
G1 X59.707 Y63.670 E4.4413
G1 X59.743 Y63.624 E4.4436
G1 X60.723 Y62.415 E4.5031
G1 X60.768 Y62.361 E4.5058
G1 X60.956 Y62.154 E4.5165
G1 X61.004 Y62.103 E4.5192
G1 X62.110 Y60.997 E4.5791
G1 X62.452 Y61.348 F3498
G92 E0
G1 X62.494 Y61.309 E0.0022 F672
G1 X62.692 Y61.130 E0.0124
G1 X62.736 Y61.093 E0.0146
G1 X63.912 Y60.140 E0.0726
G1 X63.942 Y60.116 E0.0741
G1 X64.085 Y60.009 E0.0809
G1 X64.116 Y59.987 E0.0824
G1 X64.596 Y59.650 E0.1048
G1 X64.620 Y59.634 E0.1060
G1 X64.732 Y59.560 E0.1111
G1 X64.756 Y59.545 E0.1122
G1 X65.618 Y59.006 E0.1511
G1 X65.651 Y58.986 E0.1526
G1 X65.806 Y58.897 E0.1594
G1 X65.839 Y58.878 E0.1609
G1 X66.757 Y58.390 E0.2007
G1 X66.791 Y58.373 E0.2022
G1 X66.951 Y58.295 E0.2090
G1 X66.986 Y58.278 E0.2105
G1 X67.936 Y57.856 E0.2503
G1 X67.971 Y57.841 E0.2517
G1 X68.136 Y57.774 E0.2586
G1 X68.172 Y57.760 E0.2600
G1 X69.170 Y57.397 E0.3007
G1 X69.215 Y57.381 E0.3025
G1 X69.428 Y57.315 E0.3111
G1 X69.474 Y57.301 E0.3129
G1 X70.936 Y56.909 E0.3709
G1 X70.983 Y56.898 E0.3727
G1 X71.200 Y56.850 E0.3813
G1 X71.248 Y56.840 E0.3831
G1 X72.293 Y56.656 E0.4238
G1 X72.331 Y56.650 E0.4252
G1 X72.508 Y56.625 E0.4321
G1 X72.546 Y56.620 E0.4335
G1 X73.601 Y56.509 E0.4742
G1 X73.649 Y56.505 E0.4760
G1 X73.872 Y56.492 E0.4846
G1 X73.920 Y56.490 E0.4864
G1 X75.411 Y56.464 E0.5435
G1 X75.450 Y56.464 E0.5450
G1 X75.628 Y56.467 E0.5518
G1 X75.666 Y56.468 E0.5533
G1 X76.252 Y56.499 E0.5758
G1 X76.281 Y56.501 E0.5769
G1 X76.414 Y56.511 E0.5820
G1 X76.443 Y56.514 E0.5831
G1 X77.476 Y56.623 E0.6229
G1 X77.524 Y56.629 E0.6248
G1 X77.744 Y56.662 E0.6333
G1 X77.792 Y56.670 E0.6351
G1 X79.300 Y56.963 E0.6940
G1 X79.356 Y56.975 E0.6962
G1 X79.616 Y57.040 E0.7064
G1 X79.671 Y57.056 E0.7086
G1 X81.162 Y57.511 E0.7683
G1 X81.216 Y57.530 E0.7705
G1 X81.468 Y57.621 E0.7808
G1 X81.521 Y57.642 E0.7830
G1 X82.956 Y58.251 E0.8427
G1 X83.009 Y58.275 E0.8449
G1 X83.249 Y58.392 E0.8551
G1 X83.300 Y58.419 E0.8573
G1 X84.644 Y59.164 E0.9162
G1 X84.685 Y59.188 E0.9180
G1 X84.875 Y59.304 E0.9265
G1 X84.916 Y59.330 E0.9284
G1 X85.814 Y59.936 E0.9699
G1 X85.854 Y59.964 E0.9717
G1 X86.033 Y60.097 E0.9803
G1 X86.071 Y60.126 E0.9821
G1 X87.265 Y61.093 E1.0409
G1 X87.308 Y61.130 E1.0432
G1 X87.507 Y61.309 E1.0534
G1 X87.549 Y61.349 E1.0556
G1 X88.651 Y62.451 E1.1153
G1 X88.691 Y62.493 E1.1175
G1 X88.870 Y62.692 E1.1277
G1 X88.907 Y62.735 E1.1300
G1 X89.874 Y63.929 E1.1888
G1 X89.903 Y63.967 E1.1906
G1 X90.036 Y64.146 E1.1992
G1 X90.064 Y64.186 E1.2010
G1 X90.670 Y65.084 E1.2425
G1 X90.696 Y65.125 E1.2444
G1 X90.812 Y65.315 E1.2529
G1 X90.836 Y65.356 E1.2547
G1 X91.581 Y66.700 E1.3136
G1 X91.608 Y66.751 E1.3158
G1 X91.725 Y66.991 E1.3260
G1 X91.749 Y67.044 E1.3282
G1 X92.358 Y68.479 E1.3879
G1 X92.379 Y68.532 E1.3901
G1 X92.470 Y68.783 E1.4004
G1 X92.489 Y68.838 E1.4026
G1 X92.944 Y70.329 E1.4623
G1 X92.960 Y70.384 E1.4645
G1 X93.025 Y70.644 E1.4747
G1 X93.037 Y70.700 E1.4769
G1 X93.334 Y72.230 E1.5366
G1 X93.344 Y72.287 E1.5388
G1 X93.381 Y72.552 E1.5491
G1 X93.388 Y72.609 E1.5513
G1 X93.522 Y74.140 E1.6101
G1 X93.525 Y74.188 E1.6120
G1 X93.534 Y74.410 E1.6205
G1 X93.536 Y74.458 E1.6223
G1 X93.536 Y75.542 E1.6639
G1 X93.534 Y75.590 E1.6657
G1 X93.525 Y75.812 E1.6742
G1 X93.522 Y75.860 E1.6761
G1 X93.388 Y77.391 E1.7349
G1 X93.381 Y77.448 E1.7371
G1 X93.344 Y77.713 E1.7474
G1 X93.334 Y77.770 E1.7496
G1 X93.037 Y79.300 E1.8093
G1 X93.025 Y79.356 E1.8115
G1 X92.960 Y79.616 E1.8217
G1 X92.944 Y79.671 E1.8239
G1 X92.489 Y81.162 E1.8836
G1 X92.470 Y81.216 E1.8858
G1 X92.379 Y81.468 E1.8961
G1 X92.358 Y81.521 E1.8983
G1 X91.749 Y82.956 E1.9580
G1 X91.725 Y83.009 E1.9602
G1 X91.608 Y83.249 E1.9704
G1 X91.581 Y83.300 E1.9726
