; G-Code generated by Simplify3D(R) Version 3.0.0
; Mrz 30, 2018 at 4:04:51 
; Settings Summary
;   processName,Process1
;   applyToModels,r03
;   profileName,Renkforce (modified)
;   profileVersion,2017-10-17 11:10:50
;   baseProfile,German RepRap NEO (modified)
;   printMaterial,
;   printQuality,
;   printExtruders,
;   extruderName,Primary Extruder
;   extruderToolheadNumber,0
;   extruderDiameter,0.5
;   extruderAutoWidth,0
;   extruderWidth,0.49
;   extrusionMultiplier,0.94
;   extruderUseRetract,1
;   extruderRetractionDistance,6.5
;   extruderExtraRestartDistance,0
;   extruderRetractionZLift,0
;   extruderRetractionSpeed,4998
;   extruderUseCoasting,0
;   extruderCoastingDistance,0.2
;   extruderUseWipe,0
;   extruderWipeDistance,5
;   primaryExtruder,0
;   layerHeight,0.1
;   topSolidLayers,4
;   bottomSolidLayers,3
;   perimeterOutlines,3
;   printPerimetersInsideOut,1
;   startPointOption,2
;   startPointOriginX,0
;   startPointOriginY,0
;   startPointOriginZ,300
;   sequentialIslands,0
;   spiralVaseMode,0
;   firstLayerHeightPercentage,200
;   firstLayerWidthPercentage,100
;   firstLayerUnderspeed,0.28
;   useRaft,0
;   raftExtruder,0
;   raftLayers,3
;   raftOffset,3
;   raftSeparationDistance,0.1
;   raftInfill,85
;   disableRaftBaseLayers,0
;   useSkirt,1
;   skirtExtruder,0
;   skirtLayers,1
;   skirtOutlines,6
;   skirtOffset,3
;   usePrimePillar,0
;   primePillarExtruder,999
;   primePillarWidth,12
;   primePillarLocation,7
;   primePillarSpeedMultiplier,1
;   useOozeShield,0
;   oozeShieldExtruder,999
;   oozeShieldOffset,2
;   oozeShieldOutlines,1
;   oozeShieldSidewallShape,1
;   oozeShieldSidewallAngle,30
;   oozeShieldSpeedMultiplier,1
;   infillExtruder,0
;   internalInfillPattern,Full Honeycomb
;   externalInfillPattern,Rectilinear
;   infillPercentage,15
;   outlineOverlapPercentage,15
;   infillExtrusionWidthPercentage,100
;   minInfillLength,3
;   infillLayerInterval,1
;   infillAngles,0,120,-120
;   overlapInfillAngles,0
;   generateSupport,0
;   supportExtruder,0
;   supportInfillPercentage,30
;   supportExtraInflation,1
;   denseSupportLayers,0
;   denseSupportInfillPercentage,75
;   supportLayerInterval,1
;   supportHorizontalPartOffset,1.5
;   supportUpperSeparationLayers,1
;   supportLowerSeparationLayers,1
;   supportType,0
;   supportGridSpacing,5
;   maxOverhangAngle,45
;   supportAngles,45
;   temperatureName,Primary Extruder
;   temperatureNumber,0
;   temperatureSetpointCount,3
;   temperatureSetpointLayers,1,2,3
;   temperatureSetpointTemperatures,197,193,189
;   temperatureStabilizeAtStartup,1
;   temperatureHeatedBed,0
;   temperatureRelayBetweenLayers,0
;   temperatureRelayBetweenLoops,0
;   fanLayers,1,3
;   fanSpeeds,0,80
;   blipFanToFullPower,0
;   adjustSpeedForCooling,1
;   minSpeedLayerTime,15
;   minCoolingSpeedSlowdown,20
;   increaseFanForCooling,0
;   minFanLayerTime,45
;   maxCoolingFanSpeed,100
;   increaseFanForBridging,0
;   bridgingFanSpeed,100
;   use5D,1
;   relativeEdistances,0
;   allowEaxisZeroing,1
;   independentExtruderAxes,0
;   includeM10123,0
;   stickySupport,1
;   applyToolheadOffsets,0
;   gcodeXoffset,0
;   gcodeYoffset,0
;   gcodeZoffset,0
;   overrideMachineDefinition,1
;   machineTypeOverride,0
;   strokeXoverride,150
;   strokeYoverride,150
;   strokeZoverride,150
;   originOffsetXoverride,0
;   originOffsetYoverride,0
;   originOffsetZoverride,0
;   homeXdirOverride,-1
;   homeYdirOverride,-1
;   homeZdirOverride,-1
;   flipXoverride,1
;   flipYoverride,-1
;   flipZoverride,1
;   toolheadOffsets,0,0|0,0|0,0|0,0|0,0|0,0
;   overrideFirmwareConfiguration,0
;   firmwareTypeOverride,RepRap (Marlin/Repetier/Sprinter)
;   GPXconfigOverride,r2
;   baudRateOverride,115200
;   overridePrinterModels,0
;   printerModelsOverride
;   startingGcode,G28 ; home all axes
;   layerChangeGcode,
;   retractionGcode,
;   toolChangeGcode,
;   endingGcode,M104 S0 ; turn off extruder,M140 S0 ; turn off bed,G28 X0  ; home X axis,G28 Y0  ; home Y axis,M84 ; disable motors,M107
;   createX3G,0
;   celebration,0
;   celebrationSong,Random Song
;   createMB5G,0
;   postProcessing,
;   defaultSpeed,2400
;   outlineUnderspeed,0.5
;   solidInfillUnderspeed,0.8
;   supportUnderspeed,0.8
;   rapidXYspeed,3498
;   rapidZspeed,1002
;   minBridgingArea,50
;   bridgingExtraInflation,0
;   bridgingExtrusionMultiplier,1
;   bridgingSpeedMultiplier,1
;   filamentDiameter,1.75
;   filamentPricePerKg,46
;   filamentDensity,1.25
;   useMinPrintHeight,0
;   minPrintHeight,0
;   useMaxPrintHeight,0
;   maxPrintHeight,0
;   useDiaphragm,0
;   diaphragmLayerInterval,20
;   robustSlicing,1
;   mergeAllIntoSolid,0
;   onlyRetractWhenCrossingOutline,1
;   retractBetweenLayers,1
;   useRetractionMinTravel,0
;   retractionMinTravel,3
;   retractWhileWiping,0
;   onlyWipeOutlines,1
;   avoidCrossingOutline,0
;   maxMovementDetourFactor,10
;   toolChangeRetractionDistance,0
;   toolChangeExtraRestartDistance,0
;   toolChangeRetractionSpeed,360
;   allowThinWallGapFill,1
;   thinWallAllowedOverlapPercentage,10
;   horizontalSizeCompensation,0
G90
M82
M106 S0
M104 S197 T0
M109 S197 T0
G28 ; home all axes
G92 E0
G1 E-6.5000 F4998
G1 Z0.200 F1002
; layer 1, Z = 0.2
T0
; tool H0.200 W0.490
; skirt
G1 X17.821 Y17.890 F3498
G1 E0.0000 F1499
G92 E0
G1 X18.123 Y17.588 E0.0164 F672
G1 X18.221 Y17.499 E0.0214
G1 X20.581 Y15.563 E0.1383
G1 X20.687 Y15.484 E0.1434
G1 X21.042 Y15.246 E0.1598
G1 X21.155 Y15.178 E0.1648
G1 X23.847 Y13.740 E0.2817
G1 X23.967 Y13.683 E0.2868
G1 X24.362 Y13.520 E0.3031
G1 X24.486 Y13.475 E0.3082
G1 X27.407 Y12.589 E0.4251
G1 X27.535 Y12.557 E0.4302
G1 X27.954 Y12.473 E0.4465
G1 X28.085 Y12.454 E0.4516
G1 X31.123 Y12.155 E0.5685
G1 X31.255 Y12.148 E0.5736
G1 X31.682 Y12.148 E0.5899
G1 X31.814 Y12.155 E0.5950
G1 X34.852 Y12.454 E0.7119
G1 X34.983 Y12.473 E0.7170
G1 X35.402 Y12.557 E0.7333
G1 X35.530 Y12.589 E0.7384
G1 X38.451 Y13.475 E0.8553
G1 X38.576 Y13.520 E0.8604
G1 X38.970 Y13.683 E0.8767
G1 X39.090 Y13.740 E0.8818
G1 X41.782 Y15.178 E0.9987
G1 X41.895 Y15.246 E1.0038
G1 X42.250 Y15.484 E1.0201
G1 X42.357 Y15.563 E1.0252
G1 X44.716 Y17.499 E1.1421
G1 X44.814 Y17.588 E1.1472
G1 X45.116 Y17.890 E1.1635
G1 X45.205 Y17.988 E1.1686
G1 X47.141 Y20.347 E1.2855
G1 X47.220 Y20.454 E1.2906
G1 X47.457 Y20.809 E1.3069
G1 X47.525 Y20.922 E1.3120
G1 X48.964 Y23.614 E1.4289
G1 X49.021 Y23.734 E1.4339
G1 X49.184 Y24.128 E1.4503
G1 X49.229 Y24.253 E1.4554
G1 X50.115 Y27.174 E1.5723
G1 X50.147 Y27.302 E1.5773
G1 X50.230 Y27.721 E1.5937
G1 X50.250 Y27.852 E1.5988
G1 X50.549 Y30.890 E1.7157
G1 X50.556 Y31.022 E1.7207
G1 X50.556 Y31.449 E1.7371
G1 X50.549 Y31.581 E1.7422
G1 X50.250 Y34.619 E1.8591
G1 X50.230 Y34.750 E1.8641
G1 X50.147 Y35.169 E1.8805
G1 X50.115 Y35.297 E1.8856
G1 X49.229 Y38.218 E2.0025
G1 X49.184 Y38.342 E2.0075
G1 X49.021 Y38.737 E2.0239
G1 X48.964 Y38.857 E2.0289
G1 X47.525 Y41.548 E2.1459
G1 X47.457 Y41.662 E2.1509
G1 X47.220 Y42.017 E2.1673
G1 X47.141 Y42.123 E2.1723
G1 X45.205 Y44.483 E2.2892
G1 X45.116 Y44.581 E2.2943
G1 X44.814 Y44.883 E2.3107
G1 X44.716 Y44.972 E2.3157
G1 X42.357 Y46.908 E2.4326
G1 X42.250 Y46.987 E2.4377
G1 X41.895 Y47.224 E2.4541
G1 X41.782 Y47.292 E2.4591
G1 X39.090 Y48.731 E2.5760
G1 X38.970 Y48.788 E2.5811
G1 X38.576 Y48.951 E2.5975
G1 X38.451 Y48.996 E2.6025
G1 X35.530 Y49.882 E2.7194
G1 X35.402 Y49.914 E2.7245
G1 X34.983 Y49.997 E2.7409
G1 X34.852 Y50.017 E2.7459
G1 X31.814 Y50.316 E2.8628
G1 X31.682 Y50.322 E2.8679
G1 X31.255 Y50.322 E2.8842
G1 X31.123 Y50.316 E2.8893
G1 X28.085 Y50.017 E3.0062
G1 X27.954 Y49.997 E3.0113
G1 X27.535 Y49.914 E3.0276
G1 X27.407 Y49.882 E3.0327
G1 X24.486 Y48.996 E3.1496
G1 X24.362 Y48.951 E3.1547
G1 X23.967 Y48.788 E3.1710
G1 X23.847 Y48.731 E3.1761
G1 X21.155 Y47.292 E3.2930
G1 X21.042 Y47.224 E3.2981
G1 X20.687 Y46.987 E3.3144
G1 X20.581 Y46.908 E3.3195
G1 X18.221 Y44.972 E3.4364
G1 X18.123 Y44.883 E3.4415
G1 X17.821 Y44.581 E3.4578
G1 X17.732 Y44.483 E3.4629
G1 X15.796 Y42.123 E3.5798
G1 X15.717 Y42.017 E3.5849
G1 X15.480 Y41.662 E3.6012
G1 X15.412 Y41.549 E3.6063
G1 X13.973 Y38.857 E3.7232
G1 X13.916 Y38.737 E3.7283
G1 X13.753 Y38.342 E3.7446
G1 X13.708 Y38.218 E3.7497
G1 X12.822 Y35.297 E3.8666
G1 X12.790 Y35.169 E3.8717
G1 X12.707 Y34.750 E3.8880
G1 X12.687 Y34.619 E3.8931
G1 X12.388 Y31.581 E4.0100
G1 X12.382 Y31.449 E4.0150
G1 X12.382 Y31.022 E4.0314
G1 X12.388 Y30.890 E4.0365
G1 X12.687 Y27.852 E4.1534
G1 X12.707 Y27.721 E4.1584
G1 X12.790 Y27.302 E4.1748
G1 X12.822 Y27.174 E4.1799
G1 X13.708 Y24.253 E4.2968
G1 X13.753 Y24.128 E4.3018
G1 X13.916 Y23.734 E4.3182
G1 X13.973 Y23.614 E4.3233
G1 X15.412 Y20.922 E4.4402
G1 X15.480 Y20.809 E4.4452
G1 X15.717 Y20.454 E4.4616
G1 X15.796 Y20.347 E4.4667
G1 X17.732 Y17.988 E4.5836
G1 X17.821 Y17.890 E4.5886
G1 X18.176 Y18.228 F3498
G92 E0
G1 X18.461 Y17.943 E0.0154 F672
G1 X18.541 Y17.870 E0.0196
G1 X20.882 Y15.949 E0.1356
G1 X20.969 Y15.884 E0.1397
G1 X21.304 Y15.661 E0.1551
G1 X21.397 Y15.605 E0.1593
G1 X24.068 Y14.177 E0.2753
G1 X24.166 Y14.131 E0.2794
G1 X24.538 Y13.977 E0.2949
G1 X24.640 Y13.940 E0.2990
G1 X27.538 Y13.061 E0.4150
G1 X27.643 Y13.035 E0.4191
G1 X28.038 Y12.956 E0.4346
G1 X28.145 Y12.941 E0.4387
G1 X31.159 Y12.644 E0.5547
G1 X31.267 Y12.638 E0.5588
G1 X31.670 Y12.638 E0.5743
G1 X31.778 Y12.644 E0.5784
G1 X34.792 Y12.941 E0.6944
G1 X34.899 Y12.956 E0.6985
G1 X35.294 Y13.035 E0.7140
G1 X35.399 Y13.061 E0.7181
G1 X38.297 Y13.940 E0.8341
G1 X38.399 Y13.977 E0.8383
G1 X38.771 Y14.131 E0.8537
G1 X38.869 Y14.177 E0.8578
G1 X41.540 Y15.605 E0.9738
G1 X41.633 Y15.661 E0.9780
G1 X41.968 Y15.884 E0.9934
G1 X42.055 Y15.949 E0.9975
G1 X44.396 Y17.870 E1.1135
G1 X44.476 Y17.943 E1.1177
G1 X44.761 Y18.228 E1.1331
G1 X44.834 Y18.308 E1.1373
G1 X46.755 Y20.649 E1.2532
G1 X46.819 Y20.736 E1.2574
G1 X47.043 Y21.071 E1.2728
G1 X47.099 Y21.164 E1.2770
G1 X48.527 Y23.835 E1.3929
G1 X48.573 Y23.932 E1.3971
G1 X48.727 Y24.305 E1.4125
G1 X48.764 Y24.407 E1.4167
G1 X49.643 Y27.305 E1.5327
G1 X49.669 Y27.410 E1.5368
G1 X49.748 Y27.805 E1.5522
G1 X49.763 Y27.912 E1.5564
G1 X50.060 Y30.926 E1.6724
G1 X50.066 Y31.034 E1.6765
G1 X50.066 Y31.437 E1.6919
G1 X50.060 Y31.545 E1.6961
G1 X49.763 Y34.559 E1.8121
G1 X49.748 Y34.666 E1.8162
G1 X49.669 Y35.061 E1.8317
G1 X49.643 Y35.166 E1.8358
G1 X48.764 Y38.064 E1.9518
G1 X48.727 Y38.166 E1.9559
G1 X48.573 Y38.538 E1.9714
G1 X48.527 Y38.636 E1.9755
G1 X47.099 Y41.307 E2.0915
G1 X47.043 Y41.400 E2.0956
G1 X46.819 Y41.735 E2.1111
G1 X46.755 Y41.822 E2.1152
G1 X44.834 Y44.163 E2.2312
G1 X44.761 Y44.243 E2.2353
G1 X44.476 Y44.528 E2.2508
G1 X44.396 Y44.601 E2.2549
G1 X42.055 Y46.522 E2.3709
G1 X41.968 Y46.586 E2.3751
G1 X41.633 Y46.810 E2.3905
G1 X41.540 Y46.866 E2.3946
G1 X38.869 Y48.293 E2.5106
G1 X38.772 Y48.340 E2.5148
G1 X38.399 Y48.494 E2.5302
G1 X38.297 Y48.530 E2.5343
G1 X35.399 Y49.409 E2.6503
G1 X35.294 Y49.436 E2.6545
G1 X34.899 Y49.514 E2.6699
G1 X34.792 Y49.530 E2.6741
G1 X31.778 Y49.827 E2.7900
G1 X31.670 Y49.832 E2.7942
G1 X31.267 Y49.832 E2.8096
G1 X31.159 Y49.827 E2.8138
G1 X28.145 Y49.530 E2.9297
G1 X28.038 Y49.514 E2.9339
G1 X27.643 Y49.436 E2.9493
G1 X27.538 Y49.409 E2.9535
G1 X24.640 Y48.530 E3.0695
G1 X24.538 Y48.494 E3.0736
G1 X24.166 Y48.340 E3.0890
G1 X24.068 Y48.293 E3.0932
G1 X21.397 Y46.866 E3.2092
G1 X21.304 Y46.810 E3.2133
G1 X20.969 Y46.586 E3.2287
G1 X20.882 Y46.522 E3.2329
G1 X18.541 Y44.601 E3.3489
G1 X18.461 Y44.528 E3.3530
G1 X18.176 Y44.243 E3.3685
G1 X18.103 Y44.163 E3.3726
G1 X16.182 Y41.822 E3.4886
G1 X16.118 Y41.735 E3.4927
G1 X15.894 Y41.400 E3.5082
G1 X15.838 Y41.307 E3.5123
G1 X14.411 Y38.636 E3.6283
G1 X14.364 Y38.538 E3.6324
G1 X14.210 Y38.166 E3.6479
G1 X14.174 Y38.064 E3.6520
G1 X13.295 Y35.166 E3.7680
G1 X13.268 Y35.061 E3.7721
G1 X13.190 Y34.666 E3.7876
G1 X13.174 Y34.559 E3.7917
G1 X12.877 Y31.545 E3.9077
G1 X12.872 Y31.437 E3.9119
G1 X12.872 Y31.034 E3.9273
G1 X12.877 Y30.926 E3.9314
G1 X13.174 Y27.912 E4.0474
G1 X13.190 Y27.805 E4.0516
G1 X13.268 Y27.410 E4.0670
G1 X13.295 Y27.305 E4.0711
G1 X14.174 Y24.407 E4.1871
G1 X14.210 Y24.305 E4.1913
G1 X14.364 Y23.932 E4.2067
G1 X14.411 Y23.835 E4.2109
G1 X15.838 Y21.164 E4.3268
G1 X15.894 Y21.071 E4.3310
G1 X16.118 Y20.736 E4.3464
G1 X16.182 Y20.649 E4.3506
G1 X18.103 Y18.308 E4.4665
G1 X18.176 Y18.228 E4.4707
G1 X18.531 Y18.566 F3498
G92 E0
G1 X18.799 Y18.298 E0.0145 F672
G1 X18.861 Y18.241 E0.0177
G1 X21.184 Y16.335 E0.1328
G1 X21.251 Y16.285 E0.1360
G1 X21.566 Y16.075 E0.1505
G1 X21.639 Y16.031 E0.1538
G1 X24.288 Y14.615 E0.2688
G1 X24.364 Y14.579 E0.2720
G1 X24.714 Y14.434 E0.2866
G1 X24.794 Y14.406 E0.2898
G1 X27.669 Y13.534 E0.4048
G1 X27.750 Y13.513 E0.4081
G1 X28.122 Y13.439 E0.4226
G1 X28.205 Y13.427 E0.4258
G1 X31.195 Y13.133 E0.5409
G1 X31.279 Y13.128 E0.5441
G1 X31.658 Y13.128 E0.5586
G1 X31.742 Y13.133 E0.5618
G1 X34.732 Y13.427 E0.6769
G1 X34.815 Y13.439 E0.6801
G1 X35.187 Y13.513 E0.6946
G1 X35.269 Y13.534 E0.6979
G1 X38.143 Y14.406 E0.8129
G1 X38.223 Y14.434 E0.8161
G1 X38.573 Y14.579 E0.8307
G1 X38.649 Y14.615 E0.8339
G1 X41.298 Y16.031 E0.9489
G1 X41.371 Y16.075 E0.9522
G1 X41.686 Y16.285 E0.9667
G1 X41.753 Y16.335 E0.9699
G1 X44.076 Y18.241 E1.0850
G1 X44.138 Y18.298 E1.0882
G1 X44.406 Y18.566 E1.1027
G1 X44.463 Y18.628 E1.1059
G1 X46.369 Y20.950 E1.2210
G1 X46.419 Y21.018 E1.2242
G1 X46.629 Y21.333 E1.2387
G1 X46.673 Y21.405 E1.2420
G1 X48.089 Y24.055 E1.3570
G1 X48.125 Y24.131 E1.3602
G1 X48.270 Y24.481 E1.3747
G1 X48.298 Y24.560 E1.3780
G1 X49.170 Y27.435 E1.4930
G1 X49.191 Y27.517 E1.4963
G1 X49.265 Y27.889 E1.5108
G1 X49.277 Y27.972 E1.5140
G1 X49.571 Y30.962 E1.6291
G1 X49.576 Y31.046 E1.6323
G1 X49.576 Y31.425 E1.6468
G1 X49.571 Y31.509 E1.6500
G1 X49.277 Y34.499 E1.7651
G1 X49.265 Y34.582 E1.7683
G1 X49.191 Y34.954 E1.7828
G1 X49.170 Y35.035 E1.7860
G1 X48.298 Y37.910 E1.9011
G1 X48.270 Y37.990 E1.9043
G1 X48.125 Y38.340 E1.9188
G1 X48.089 Y38.416 E1.9221
G1 X46.673 Y41.065 E2.0371
G1 X46.629 Y41.138 E2.0404
G1 X46.419 Y41.453 E2.0549
G1 X46.369 Y41.520 E2.0581
G1 X44.463 Y43.843 E2.1732
G1 X44.406 Y43.905 E2.1764
G1 X44.138 Y44.173 E2.1909
G1 X44.076 Y44.229 E2.1941
G1 X41.753 Y46.135 E2.3092
G1 X41.686 Y46.186 E2.3124
G1 X41.371 Y46.396 E2.3269
G1 X41.298 Y46.439 E2.3301
G1 X38.649 Y47.856 E2.4452
G1 X38.573 Y47.892 E2.4484
G1 X38.223 Y48.037 E2.4629
G1 X38.143 Y48.065 E2.4662
G1 X35.269 Y48.937 E2.5812
G1 X35.187 Y48.957 E2.5844
G1 X34.815 Y49.031 E2.5990
G1 X34.732 Y49.044 E2.6022
G1 X31.742 Y49.338 E2.7172
G1 X31.658 Y49.342 E2.7205
G1 X31.279 Y49.342 E2.7350
G1 X31.195 Y49.338 E2.7382
G1 X28.205 Y49.044 E2.8533
G1 X28.122 Y49.031 E2.8565
G1 X27.750 Y48.957 E2.8710
G1 X27.669 Y48.937 E2.8742
G1 X24.794 Y48.065 E2.9893
G1 X24.714 Y48.037 E2.9925
G1 X24.364 Y47.892 E3.0070
G1 X24.288 Y47.856 E3.0103
G1 X21.639 Y46.439 E3.1253
G1 X21.566 Y46.396 E3.1285
G1 X21.251 Y46.186 E3.1431
G1 X21.184 Y46.135 E3.1463
G1 X18.861 Y44.229 E3.2613
G1 X18.799 Y44.173 E3.2646
G1 X18.531 Y43.905 E3.2791
G1 X18.474 Y43.843 E3.2823
G1 X16.569 Y41.520 E3.3974
G1 X16.518 Y41.453 E3.4006
G1 X16.308 Y41.138 E3.4151
G1 X16.265 Y41.065 E3.4183
G1 X14.848 Y38.416 E3.5334
G1 X14.812 Y38.340 E3.5366
G1 X14.667 Y37.990 E3.5511
G1 X14.639 Y37.910 E3.5544
G1 X13.767 Y35.035 E3.6694
G1 X13.746 Y34.954 E3.6726
G1 X13.673 Y34.582 E3.6871
G1 X13.660 Y34.499 E3.6904
G1 X13.366 Y31.509 E3.8054
G1 X13.362 Y31.425 E3.8087
G1 X13.362 Y31.046 E3.8232
G1 X13.366 Y30.962 E3.8264
G1 X13.660 Y27.972 E3.9415
G1 X13.673 Y27.889 E3.9447
G1 X13.746 Y27.517 E3.9592
G1 X13.767 Y27.435 E3.9624
G1 X14.639 Y24.560 E4.0775
G1 X14.667 Y24.481 E4.0807
G1 X14.812 Y24.131 E4.0952
G1 X14.848 Y24.055 E4.0984
G1 X16.265 Y21.405 E4.2135
G1 X16.308 Y21.333 E4.2167
G1 X16.518 Y21.018 E4.2312
G1 X16.569 Y20.950 E4.2345
G1 X18.474 Y18.628 E4.3495
G1 X18.531 Y18.566 E4.3528
G1 X18.886 Y18.904 F3498
G92 E0
G1 X19.137 Y18.653 E0.0136 F672
G1 X19.181 Y18.612 E0.0159
G1 X21.485 Y16.722 E0.1300
G1 X21.534 Y16.686 E0.1323
G1 X21.829 Y16.489 E0.1459
G1 X21.880 Y16.458 E0.1482
G1 X24.509 Y15.053 E0.2624
G1 X24.563 Y15.027 E0.2647
G1 X24.891 Y14.891 E0.2783
