; G-Code generated by Simplify3D(R) Version 3.0.0
; Mrz 26, 2018 at 3:53:17 
; Settings Summary
;   processName,Process1
;   applyToModels,rs
;   profileName,Renkforce (modified)
;   profileVersion,2017-10-17 11:10:50
;   baseProfile,German RepRap NEO (modified)
;   printMaterial,
;   printQuality,
;   printExtruders,
;   extruderName,Primary Extruder
;   extruderToolheadNumber,0
;   extruderDiameter,0.5
;   extruderAutoWidth,0
;   extruderWidth,0.49
;   extrusionMultiplier,0.94
;   extruderUseRetract,1
;   extruderRetractionDistance,6.5
;   extruderExtraRestartDistance,0
;   extruderRetractionZLift,0
;   extruderRetractionSpeed,4998
;   extruderUseCoasting,0
;   extruderCoastingDistance,0.2
;   extruderUseWipe,0
;   extruderWipeDistance,5
;   primaryExtruder,0
;   layerHeight,0.2
;   topSolidLayers,4
;   bottomSolidLayers,3
;   perimeterOutlines,3
;   printPerimetersInsideOut,1
;   startPointOption,2
;   startPointOriginX,0
;   startPointOriginY,0
;   startPointOriginZ,300
;   sequentialIslands,0
;   spiralVaseMode,0
;   firstLayerHeightPercentage,100
;   firstLayerWidthPercentage,100
;   firstLayerUnderspeed,0.28
;   useRaft,0
;   raftExtruder,0
;   raftLayers,3
;   raftOffset,3
;   raftSeparationDistance,0.1
;   raftInfill,85
;   disableRaftBaseLayers,0
;   useSkirt,1
;   skirtExtruder,0
;   skirtLayers,1
;   skirtOutlines,4
;   skirtOffset,3
;   usePrimePillar,0
;   primePillarExtruder,999
;   primePillarWidth,12
;   primePillarLocation,7
;   primePillarSpeedMultiplier,1
;   useOozeShield,0
;   oozeShieldExtruder,999
;   oozeShieldOffset,2
;   oozeShieldOutlines,1
;   oozeShieldSidewallShape,1
;   oozeShieldSidewallAngle,30
;   oozeShieldSpeedMultiplier,1
;   infillExtruder,0
;   internalInfillPattern,Full Honeycomb
;   externalInfillPattern,Rectilinear
;   infillPercentage,8
;   outlineOverlapPercentage,15
;   infillExtrusionWidthPercentage,100
;   minInfillLength,3
;   infillLayerInterval,1
;   infillAngles,0,120,-120
;   overlapInfillAngles,0
;   generateSupport,1
;   supportExtruder,0
;   supportInfillPercentage,30
;   supportExtraInflation,0
;   denseSupportLayers,0
;   denseSupportInfillPercentage,75
;   supportLayerInterval,1
;   supportHorizontalPartOffset,1.5
;   supportUpperSeparationLayers,2
;   supportLowerSeparationLayers,2
;   supportType,0
;   supportGridSpacing,5
;   maxOverhangAngle,45
;   supportAngles,45
;   temperatureName,Primary Extruder
;   temperatureNumber,0
;   temperatureSetpointCount,3
;   temperatureSetpointLayers,1,2,3
;   temperatureSetpointTemperatures,197,193,189
;   temperatureStabilizeAtStartup,1
;   temperatureHeatedBed,0
;   temperatureRelayBetweenLayers,0
;   temperatureRelayBetweenLoops,0
;   fanLayers,1,3
;   fanSpeeds,0,80
;   blipFanToFullPower,0
;   adjustSpeedForCooling,1
;   minSpeedLayerTime,15
;   minCoolingSpeedSlowdown,20
;   increaseFanForCooling,0
;   minFanLayerTime,45
;   maxCoolingFanSpeed,100
;   increaseFanForBridging,0
;   bridgingFanSpeed,100
;   use5D,1
;   relativeEdistances,0
;   allowEaxisZeroing,1
;   independentExtruderAxes,0
;   includeM10123,0
;   stickySupport,1
;   applyToolheadOffsets,0
;   gcodeXoffset,0
;   gcodeYoffset,0
;   gcodeZoffset,0
;   overrideMachineDefinition,1
;   machineTypeOverride,0
;   strokeXoverride,150
;   strokeYoverride,150
;   strokeZoverride,150
;   originOffsetXoverride,0
;   originOffsetYoverride,0
;   originOffsetZoverride,0
;   homeXdirOverride,-1
;   homeYdirOverride,-1
;   homeZdirOverride,-1
;   flipXoverride,1
;   flipYoverride,-1
;   flipZoverride,1
;   toolheadOffsets,0,0|0,0|0,0|0,0|0,0|0,0
;   overrideFirmwareConfiguration,0
;   firmwareTypeOverride,RepRap (Marlin/Repetier/Sprinter)
;   GPXconfigOverride,r2
;   baudRateOverride,115200
;   overridePrinterModels,0
;   printerModelsOverride
;   startingGcode,G28 ; home all axes
;   layerChangeGcode,
;   retractionGcode,
;   toolChangeGcode,
;   endingGcode,M104 S0 ; turn off extruder,M140 S0 ; turn off bed,G28 X0  ; home X axis,G28 Y0  ; home Y axis,M84 ; disable motors,M107
;   createX3G,0
;   celebration,0
;   celebrationSong,Random Song
;   createMB5G,0
;   postProcessing,
;   defaultSpeed,2400
;   outlineUnderspeed,0.5
;   solidInfillUnderspeed,0.8
;   supportUnderspeed,0.8
;   rapidXYspeed,3498
;   rapidZspeed,1002
;   minBridgingArea,50
;   bridgingExtraInflation,0
;   bridgingExtrusionMultiplier,1
;   bridgingSpeedMultiplier,1
;   filamentDiameter,1.75
;   filamentPricePerKg,46
;   filamentDensity,1.25
;   useMinPrintHeight,0
;   minPrintHeight,0
;   useMaxPrintHeight,0
;   maxPrintHeight,0
;   useDiaphragm,0
;   diaphragmLayerInterval,20
;   robustSlicing,1
;   mergeAllIntoSolid,0
;   onlyRetractWhenCrossingOutline,1
;   retractBetweenLayers,1
;   useRetractionMinTravel,0
;   retractionMinTravel,3
;   retractWhileWiping,0
;   onlyWipeOutlines,1
;   avoidCrossingOutline,0
;   maxMovementDetourFactor,10
;   toolChangeRetractionDistance,0
;   toolChangeExtraRestartDistance,0
;   toolChangeRetractionSpeed,360
;   allowThinWallGapFill,1
;   thinWallAllowedOverlapPercentage,10
;   horizontalSizeCompensation,0
G90
M82
M106 S0
M104 S197 T0
M109 S197 T0
G28 ; home all axes
G92 E0
G1 E-6.5000 F4998
G1 Z0.200 F1002
; layer 1, Z = 0.2
T0
; tool H0.200 W0.490
; skirt
G1 X68.865 Y33.999 F3498
G1 E0.0000 F1499
G92 E0
G1 X69.255 Y33.602 E0.0213 F672
G1 X69.346 Y33.556 E0.0252
G1 X69.361 Y33.456 E0.0291
G1 X69.618 Y32.961 E0.0504
G1 X71.014 Y31.608 E0.1249
G1 X71.037 Y31.587 E0.1261
G1 X71.143 Y31.492 E0.1315
G1 X71.167 Y31.471 E0.1327
G1 X72.658 Y30.224 E0.2072
G1 X73.177 Y30.020 E0.2285
G1 X73.278 Y30.015 E0.2324
G1 X73.333 Y29.930 E0.2363
G1 X73.768 Y29.583 E0.2576
G1 X75.594 Y28.915 E0.3321
G1 X75.624 Y28.904 E0.3333
G1 X75.759 Y28.860 E0.3387
G1 X75.789 Y28.851 E0.3399
G1 X77.659 Y28.319 E0.4144
G1 X78.216 Y28.344 E0.4357
G1 X78.310 Y28.380 E0.4396
G1 X78.395 Y28.325 E0.4435
G1 X78.934 Y28.185 E0.4648
G1 X80.874 Y28.317 E0.5393
G1 X80.905 Y28.319 E0.5405
G1 X81.047 Y28.334 E0.5459
G1 X81.078 Y28.338 E0.5471
G1 X83.003 Y28.612 E0.6216
G1 X83.501 Y28.862 E0.6429
G1 X83.573 Y28.933 E0.6468
G1 X83.672 Y28.917 E0.6507
G1 X84.222 Y29.009 E0.6720
G1 X85.940 Y29.918 E0.7465
G1 X85.968 Y29.933 E0.7477
G1 X86.091 Y30.004 E0.7531
G1 X86.118 Y30.021 E0.7543
G1 X87.765 Y31.054 E0.8288
G1 X88.119 Y31.484 E0.8501
G1 X88.155 Y31.579 E0.8540
G1 X88.253 Y31.605 E0.8579
G1 X88.718 Y31.912 E0.8792
G1 X89.917 Y33.442 E0.9537
G1 X89.936 Y33.467 E0.9549
G1 X90.020 Y33.582 E0.9603
G1 X90.038 Y33.608 E0.9615
G1 X91.122 Y35.221 E1.0360
G1 X91.270 Y35.758 E1.0573
G1 X91.265 Y35.860 E1.0612
G1 X91.344 Y35.923 E1.0651
G1 X91.644 Y36.393 E1.0864
G1 X92.118 Y38.278 E1.1609
G1 X92.125 Y38.309 E1.1621
G1 X92.154 Y38.448 E1.1675
G1 X92.160 Y38.479 E1.1687
G1 X92.494 Y40.394 E1.2432
G1 X92.411 Y40.945 E1.2645
G1 X92.365 Y41.035 E1.2684
G1 X92.411 Y41.125 E1.2723
G1 X92.494 Y41.676 E1.2936
G1 X92.160 Y43.591 E1.3681
G1 X92.154 Y43.622 E1.3693
G1 X92.125 Y43.761 E1.3747
G1 X92.118 Y43.792 E1.3759
G1 X91.644 Y45.678 E1.4504
G1 X91.344 Y46.147 E1.4717
G1 X91.265 Y46.211 E1.4756
G1 X91.270 Y46.312 E1.4795
G1 X91.122 Y46.849 E1.5008
G1 X90.038 Y48.463 E1.5753
G1 X90.020 Y48.489 E1.5765
G1 X89.936 Y48.604 E1.5819
G1 X89.917 Y48.629 E1.5831
G1 X88.718 Y50.159 E1.6576
G1 X88.253 Y50.465 E1.6789
G1 X88.155 Y50.492 E1.6828
G1 X88.119 Y50.586 E1.6867
G1 X87.765 Y51.016 E1.7080
G1 X86.118 Y52.050 E1.7825
G1 X86.091 Y52.066 E1.7837
G1 X85.968 Y52.137 E1.7891
G1 X85.940 Y52.152 E1.7903
G1 X84.222 Y53.062 E1.8648
G1 X83.672 Y53.153 E1.8861
G1 X83.573 Y53.137 E1.8900
G1 X83.501 Y53.209 E1.8939
G1 X83.003 Y53.458 E1.9152
G1 X81.078 Y53.732 E1.9897
G1 X81.047 Y53.736 E1.9909
G1 X80.905 Y53.751 E1.9963
G1 X80.874 Y53.754 E1.9975
G1 X78.934 Y53.886 E2.0720
G1 X78.395 Y53.746 E2.0933
G1 X78.310 Y53.690 E2.0972
G1 X78.216 Y53.727 E2.1011
G1 X77.659 Y53.752 E2.1224
G1 X75.789 Y53.219 E2.1969
G1 X75.759 Y53.210 E2.1981
G1 X75.624 Y53.166 E2.2035
G1 X75.594 Y53.156 E2.2047
G1 X73.769 Y52.487 E2.2792
G1 X73.333 Y52.140 E2.3005
G1 X73.278 Y52.055 E2.3044
G1 X73.177 Y52.050 E2.3083
G1 X72.658 Y51.846 E2.3296
G1 X71.167 Y50.600 E2.4041
G1 X71.143 Y50.579 E2.4053
G1 X71.037 Y50.484 E2.4107
G1 X71.014 Y50.462 E2.4119
G1 X69.618 Y49.109 E2.4864
G1 X69.361 Y48.615 E2.5077
G1 X69.346 Y48.515 E2.5116
G1 X69.255 Y48.469 E2.5155
G1 X68.865 Y48.072 E2.5368
G1 X68.009 Y46.326 E2.6113
G1 X67.996 Y46.298 E2.6125
G1 X67.938 Y46.168 E2.6179
G1 X67.926 Y46.139 E2.6191
G1 X67.201 Y44.335 E2.6936
G1 X67.167 Y43.779 E2.7149
G1 X67.193 Y43.681 E2.7188
G1 X67.130 Y43.602 E2.7227
G1 X66.934 Y43.081 E2.7440
G1 X66.863 Y41.138 E2.8185
G1 X66.862 Y41.106 E2.8197
G1 X66.862 Y40.964 E2.8251
G1 X66.863 Y40.933 E2.8263
G1 X66.934 Y38.990 E2.9008
G1 X67.130 Y38.468 E2.9221
G1 X67.193 Y38.390 E2.9260
G1 X67.167 Y38.292 E2.9299
G1 X67.201 Y37.736 E2.9512
G1 X67.926 Y35.932 E3.0257
G1 X67.938 Y35.903 E3.0269
G1 X67.996 Y35.773 E3.0323
G1 X68.009 Y35.744 E3.0335
G1 X68.865 Y33.999 E3.1080
G1 X69.270 Y34.286 F3498
G92 E0
G1 X69.549 Y34.002 E0.0152 F672
G1 X69.791 Y33.879 E0.0256
G1 X69.833 Y33.611 E0.0360
G1 X70.016 Y33.258 E0.0513
G1 X71.352 Y31.963 E0.1225
G1 X71.368 Y31.948 E0.1234
G1 X71.467 Y31.859 E0.1285
G1 X71.484 Y31.844 E0.1293
G1 X72.911 Y30.651 E0.2006
G1 X73.282 Y30.506 E0.2158
G1 X73.553 Y30.491 E0.2262
G1 X73.701 Y30.264 E0.2366
G1 X74.012 Y30.016 E0.2518
G1 X75.758 Y29.376 E0.3231
G1 X75.780 Y29.369 E0.3239
G1 X75.906 Y29.328 E0.3290
G1 X75.928 Y29.321 E0.3299
G1 X77.717 Y28.812 E0.4011
G1 X78.114 Y28.830 E0.4164
G1 X78.368 Y28.927 E0.4268
G1 X78.595 Y28.779 E0.4372
G1 X78.980 Y28.679 E0.4524
G1 X80.836 Y28.805 E0.5236
G1 X80.859 Y28.807 E0.5245
G1 X80.991 Y28.821 E0.5296
G1 X81.013 Y28.824 E0.5305
G1 X82.855 Y29.086 E0.6017
G1 X83.211 Y29.264 E0.6169
G1 X83.403 Y29.456 E0.6273
G1 X83.671 Y29.414 E0.6377
G1 X84.063 Y29.479 E0.6530
G1 X85.707 Y30.349 E0.7242
G1 X85.727 Y30.360 E0.7251
G1 X85.842 Y30.427 E0.7302
G1 X85.861 Y30.438 E0.7310
G1 X87.437 Y31.427 E0.8023
G1 X87.690 Y31.734 E0.8175
G1 X87.787 Y31.987 E0.8279
G1 X88.049 Y32.058 E0.8383
G1 X88.381 Y32.277 E0.8535
G1 X89.529 Y33.740 E0.9248
G1 X89.543 Y33.758 E0.9256
G1 X89.621 Y33.866 E0.9307
G1 X89.634 Y33.885 E0.9316
G1 X90.671 Y35.429 E1.0028
G1 X90.777 Y35.812 E1.0181
G1 X90.763 Y36.083 E1.0285
G1 X90.974 Y36.254 E1.0389
G1 X91.188 Y36.589 E1.0541
G1 X91.641 Y38.393 E1.1253
G1 X91.646 Y38.415 E1.1262
G1 X91.674 Y38.545 E1.1313
G1 X91.678 Y38.568 E1.1322
G1 X91.998 Y40.400 E1.2034
G1 X91.938 Y40.793 E1.2186
G1 X91.815 Y41.035 E1.2290
G1 X91.938 Y41.277 E1.2394
G1 X91.998 Y41.670 E1.2547
G1 X91.678 Y43.503 E1.3259
G1 X91.674 Y43.525 E1.3268
G1 X91.646 Y43.655 E1.3319
G1 X91.641 Y43.677 E1.3327
G1 X91.188 Y45.481 E1.4040
G1 X90.974 Y45.816 E1.4192
G1 X90.763 Y45.987 E1.4296
G1 X90.777 Y46.258 E1.4400
G1 X90.671 Y46.642 E1.4552
G1 X89.634 Y48.186 E1.5265
G1 X89.621 Y48.204 E1.5273
G1 X89.543 Y48.312 E1.5324
G1 X89.529 Y48.330 E1.5333
G1 X88.381 Y49.793 E1.6045
G1 X88.049 Y50.013 E1.6198
G1 X87.787 Y50.083 E1.6302
G1 X87.690 Y50.336 E1.6406
G1 X87.437 Y50.644 E1.6558
G1 X85.861 Y51.632 E1.7270
G1 X85.842 Y51.644 E1.7279
G1 X85.727 Y51.711 E1.7330
G1 X85.707 Y51.721 E1.7339
G1 X84.063 Y52.592 E1.8051
G1 X83.671 Y52.657 E1.8203
G1 X83.403 Y52.614 E1.8307
G1 X83.211 Y52.806 E1.8411
G1 X82.855 Y52.984 E1.8564
G1 X81.013 Y53.247 E1.9276
G1 X80.991 Y53.249 E1.9285
G1 X80.859 Y53.263 E1.9336
G1 X80.836 Y53.265 E1.9344
G1 X78.980 Y53.391 E2.0057
G1 X78.595 Y53.291 E2.0209
G1 X78.368 Y53.143 E2.0313
G1 X78.114 Y53.241 E2.0417
G1 X77.717 Y53.259 E2.0569
G1 X75.928 Y52.749 E2.1282
G1 X75.906 Y52.743 E2.1290
G1 X75.780 Y52.702 E2.1341
G1 X75.758 Y52.694 E2.1350
G1 X74.012 Y52.055 E2.2062
G1 X73.701 Y51.807 E2.2215
G1 X73.553 Y51.579 E2.2319
G1 X73.282 Y51.565 E2.2423
G1 X72.911 Y51.419 E2.2575
G1 X71.484 Y50.227 E2.3287
G1 X71.467 Y50.212 E2.3296
G1 X71.368 Y50.123 E2.3347
G1 X71.352 Y50.107 E2.3356
G1 X70.016 Y48.813 E2.4068
G1 X69.833 Y48.459 E2.4220
G1 X69.791 Y48.191 E2.4324
G1 X69.549 Y48.068 E2.4428
G1 X69.270 Y47.785 E2.4581
G1 X68.451 Y46.115 E2.5293
G1 X68.441 Y46.094 E2.5302
G1 X68.387 Y45.973 E2.5353
G1 X68.379 Y45.952 E2.5361
G1 X67.685 Y44.226 E2.6074
G1 X67.661 Y43.829 E2.6226
G1 X67.731 Y43.567 E2.6330
G1 X67.561 Y43.356 E2.6434
G1 X67.421 Y42.983 E2.6586
G1 X67.352 Y41.124 E2.7299
G1 X67.352 Y41.102 E2.7307
G1 X67.352 Y40.969 E2.7358
G1 X67.352 Y40.946 E2.7367
G1 X67.421 Y39.087 E2.8079
G1 X67.561 Y38.715 E2.8232
G1 X67.731 Y38.504 E2.8336
G1 X67.661 Y38.242 E2.8439
G1 X67.685 Y37.845 E2.8592
G1 X68.379 Y36.119 E2.9304
G1 X68.387 Y36.098 E2.9313
G1 X68.441 Y35.976 E2.9364
G1 X68.451 Y35.956 E2.9372
G1 X69.270 Y34.286 E3.0085
G1 X69.675 Y34.573 F3498
G92 E0
G1 X69.842 Y34.403 E0.0091 F672
G1 X70.236 Y34.202 E0.0261
G1 X70.305 Y33.766 E0.0430
G1 X70.415 Y33.554 E0.0521
G1 X71.690 Y32.318 E0.1201
G1 X71.700 Y32.309 E0.1206
G1 X71.792 Y32.226 E0.1254
G1 X71.802 Y32.217 E0.1259
G1 X73.165 Y31.078 E0.1939
G1 X73.387 Y30.991 E0.2031
G1 X73.828 Y30.968 E0.2200
G1 X74.068 Y30.597 E0.2369
G1 X74.255 Y30.449 E0.2460
G1 X75.923 Y29.838 E0.3141
G1 X75.935 Y29.834 E0.3146
G1 X76.053 Y29.795 E0.3193
G1 X76.066 Y29.791 E0.3198
G1 X77.774 Y29.305 E0.3879
G1 X78.013 Y29.316 E0.3970
G1 X78.425 Y29.474 E0.4139
G1 X78.795 Y29.233 E0.4308
G1 X79.027 Y29.173 E0.4400
G1 X80.798 Y29.294 E0.5080
G1 X80.812 Y29.295 E0.5085
G1 X80.935 Y29.308 E0.5133
G1 X80.949 Y29.310 E0.5138
G1 X82.707 Y29.560 E0.5818
G1 X82.920 Y29.667 E0.5909
G1 X83.233 Y29.979 E0.6079
G1 X83.669 Y29.910 E0.6248
G1 X83.904 Y29.949 E0.6339
G1 X85.474 Y30.780 E0.7019
G1 X85.486 Y30.787 E0.7024
G1 X85.593 Y30.849 E0.7072
G1 X85.605 Y30.856 E0.7077
G1 X87.109 Y31.800 E0.7757
G1 X87.261 Y31.984 E0.7849
G1 X87.419 Y32.396 E0.8018
G1 X87.845 Y32.510 E0.8187
G1 X88.045 Y32.642 E0.8278
G1 X89.141 Y34.039 E0.8959
G1 X89.149 Y34.050 E0.8964
G1 X89.222 Y34.151 E0.9011
G1 X89.230 Y34.162 E0.9016
G1 X90.220 Y35.636 E0.9697
G1 X90.283 Y35.866 E0.9788
G1 X90.260 Y36.307 E0.9957
G1 X90.603 Y36.585 E1.0126
G1 X90.732 Y36.786 E1.0218
G1 X91.165 Y38.508 E1.0898
G1 X91.168 Y38.522 E1.0903
G1 X91.194 Y38.643 E1.0951
G1 X91.196 Y38.656 E1.0956
G1 X91.501 Y40.406 E1.1636
G1 X91.466 Y40.642 E1.1727
G1 X91.265 Y41.035 E1.1896
G1 X91.466 Y41.429 E1.2066
G1 X91.501 Y41.665 E1.2157
G1 X91.196 Y43.414 E1.2837
G1 X91.194 Y43.428 E1.2842
G1 X91.168 Y43.549 E1.2890
G1 X91.165 Y43.562 E1.2895
G1 X90.732 Y45.284 E1.3575
G1 X90.603 Y45.486 E1.3667
G1 X90.260 Y45.764 E1.3836
G1 X90.283 Y46.204 E1.4005
G1 X90.220 Y46.435 E1.4096
G1 X89.230 Y47.909 E1.4777
G1 X89.222 Y47.920 E1.4782
G1 X89.149 Y48.020 E1.4829
G1 X89.141 Y48.031 E1.4834
G1 X88.045 Y49.428 E1.5515
G1 X87.845 Y49.560 E1.5606
G1 X87.419 Y49.674 E1.5775
G1 X87.261 Y50.086 E1.5944
G1 X87.109 Y50.271 E1.6036
G1 X85.605 Y51.215 E1.6716
G1 X85.593 Y51.222 E1.6721
G1 X85.486 Y51.284 E1.6769
G1 X85.474 Y51.290 E1.6774
G1 X83.904 Y52.121 E1.7454
G1 X83.669 Y52.160 E1.7545
G1 X83.233 Y52.091 E1.7714
G1 X82.920 Y52.403 E1.7884
G1 X82.707 Y52.510 E1.7975
G1 X80.949 Y52.761 E1.8655
G1 X80.935 Y52.762 E1.8660
G1 X80.812 Y52.775 E1.8708
G1 X80.798 Y52.777 E1.8713
G1 X79.027 Y52.897 E1.9393
G1 X78.795 Y52.837 E1.9485
G1 X78.425 Y52.596 E1.9654
G1 X78.013 Y52.755 E1.9823
G1 X77.774 Y52.765 E1.9914
G1 X76.066 Y52.279 E2.0594
G1 X76.053 Y52.275 E2.0600
G1 X75.935 Y52.237 E2.0647
G1 X75.923 Y52.233 E2.0652
G1 X74.255 Y51.622 E2.1333
G1 X74.068 Y51.473 E2.1424
G1 X73.828 Y51.103 E2.1593
G1 X73.387 Y51.080 E2.1762
G1 X73.165 Y50.992 E2.1854
G1 X71.802 Y49.853 E2.2534
G1 X71.792 Y49.845 E2.2539
G1 X71.700 Y49.762 E2.2586
G1 X71.690 Y49.752 E2.2592
G1 X70.415 Y48.516 E2.3272
G1 X70.305 Y48.304 E2.3363
G1 X70.236 Y47.868 E2.3532
G1 X69.842 Y47.668 E2.3701
G1 X69.675 Y47.498 E2.3793
G1 X68.893 Y45.903 E2.4473
G1 X68.887 Y45.891 E2.4478
G1 X68.837 Y45.777 E2.4526
G1 X68.832 Y45.765 E2.4531
G1 X68.169 Y44.117 E2.5211
G1 X68.155 Y43.879 E2.5303
G1 X68.269 Y43.452 E2.5472
G1 X67.992 Y43.109 E2.5641
G1 X67.908 Y42.886 E2.5732
G1 X67.842 Y41.111 E2.6412
G1 X67.842 Y41.097 E2.6418
G1 X67.842 Y40.973 E2.6465
