; G-Code generated by Simplify3D(R) Version 3.0.0
; Jul 6, 2017 at 3:50:40 
; Settings Summary
;   processName,Process1
;   applyToModels,akkupacknew
;   profileName,German RepRap NEO (modified)
;   profileVersion,2017-06-09 12:06:14
;   baseProfile,
;   printMaterial,
;   printQuality,
;   printExtruders,
;   extruderName,Primary Extruder
;   extruderToolheadNumber,0
;   extruderDiameter,0.5
;   extruderAutoWidth,0
;   extruderWidth,0.49
;   extrusionMultiplier,0.9
;   extruderUseRetract,1
;   extruderRetractionDistance,6.5
;   extruderExtraRestartDistance,0
;   extruderRetractionZLift,0
;   extruderRetractionSpeed,5000
;   extruderUseCoasting,0
;   extruderCoastingDistance,0.2
;   extruderUseWipe,0
;   extruderWipeDistance,5
;   primaryExtruder,0
;   layerHeight,0.35
;   topSolidLayers,4
;   bottomSolidLayers,4
;   perimeterOutlines,3
;   printPerimetersInsideOut,1
;   startPointOption,2
;   startPointOriginX,0
;   startPointOriginY,0
;   startPointOriginZ,300
;   sequentialIslands,0
;   spiralVaseMode,0
;   firstLayerHeightPercentage,120
;   firstLayerWidthPercentage,100
;   firstLayerUnderspeed,0.3
;   useRaft,0
;   raftExtruder,0
;   raftLayers,3
;   raftOffset,3
;   raftSeparationDistance,0.1
;   raftInfill,85
;   disableRaftBaseLayers,0
;   useSkirt,1
;   skirtExtruder,0
;   skirtLayers,1
;   skirtOutlines,1
;   skirtOffset,2
;   usePrimePillar,0
;   primePillarExtruder,999
;   primePillarWidth,12
;   primePillarLocation,7
;   primePillarSpeedMultiplier,1
;   useOozeShield,0
;   oozeShieldExtruder,999
;   oozeShieldOffset,2
;   oozeShieldOutlines,1
;   oozeShieldSidewallShape,1
;   oozeShieldSidewallAngle,30
;   oozeShieldSpeedMultiplier,1
;   infillExtruder,0
;   internalInfillPattern,Full Honeycomb
;   externalInfillPattern,Rectilinear
;   infillPercentage,10
;   outlineOverlapPercentage,15
;   infillExtrusionWidthPercentage,100
;   minInfillLength,3
;   infillLayerInterval,1
;   infillAngles,0,120,-120
;   overlapInfillAngles,0
;   generateSupport,1
;   supportExtruder,0
;   supportInfillPercentage,30
;   supportExtraInflation,2
;   denseSupportLayers,0
;   denseSupportInfillPercentage,75
;   supportLayerInterval,1
;   supportHorizontalPartOffset,2
;   supportUpperSeparationLayers,1
;   supportLowerSeparationLayers,1
;   supportType,0
;   supportGridSpacing,5
;   maxOverhangAngle,45
;   supportAngles,45
;   temperatureName,Primary Extruder
;   temperatureNumber,0
;   temperatureSetpointCount,3
;   temperatureSetpointLayers,1,1,1
;   temperatureSetpointTemperatures,207,199,192
;   temperatureStabilizeAtStartup,1
;   temperatureHeatedBed,0
;   temperatureRelayBetweenLayers,0
;   temperatureRelayBetweenLoops,0
;   fanLayers,1,3
;   fanSpeeds,0,100
;   blipFanToFullPower,0
;   adjustSpeedForCooling,1
;   minSpeedLayerTime,15
;   minCoolingSpeedSlowdown,20
;   increaseFanForCooling,0
;   minFanLayerTime,45
;   maxCoolingFanSpeed,100
;   increaseFanForBridging,0
;   bridgingFanSpeed,100
;   use5D,1
;   relativeEdistances,0
;   allowEaxisZeroing,1
;   independentExtruderAxes,0
;   includeM10123,0
;   stickySupport,1
;   applyToolheadOffsets,0
;   gcodeXoffset,0
;   gcodeYoffset,0
;   gcodeZoffset,0
;   overrideMachineDefinition,1
;   machineTypeOverride,0
;   strokeXoverride,150
;   strokeYoverride,150
;   strokeZoverride,150
;   originOffsetXoverride,0
;   originOffsetYoverride,0
;   originOffsetZoverride,0
;   homeXdirOverride,-1
;   homeYdirOverride,-1
;   homeZdirOverride,-1
;   flipXoverride,1
;   flipYoverride,-1
;   flipZoverride,1
;   toolheadOffsets,0,0|0,0|0,0|0,0|0,0|0,0
;   overrideFirmwareConfiguration,0
;   firmwareTypeOverride,RepRap (Marlin/Repetier/Sprinter)
;   GPXconfigOverride,r2
;   baudRateOverride,115200
;   overridePrinterModels,0
;   printerModelsOverride
;   startingGcode,G28 ; home all axes
;   layerChangeGcode,
;   retractionGcode,
;   toolChangeGcode,
;   endingGcode,M104 S0 ; turn off extruder,M140 S0 ; turn off bed,G28 X0  ; home X axis,G28 Y0  ; home Y axis,M84 ; disable motors,M107
;   createX3G,0
;   celebration,0
;   celebrationSong,Random Song
;   createMB5G,0
;   postProcessing,
;   defaultSpeed,2400
;   outlineUnderspeed,0.5
;   solidInfillUnderspeed,0.8
;   supportUnderspeed,0.8
;   rapidXYspeed,3500
;   rapidZspeed,1000
;   minBridgingArea,50
;   bridgingExtraInflation,0
;   bridgingExtrusionMultiplier,1
;   bridgingSpeedMultiplier,1
;   filamentDiameter,1.75
;   filamentPricePerKg,46
;   filamentDensity,1.25
;   useMinPrintHeight,0
;   minPrintHeight,0
;   useMaxPrintHeight,0
;   maxPrintHeight,0
;   useDiaphragm,0
;   diaphragmLayerInterval,20
;   robustSlicing,1
;   mergeAllIntoSolid,0
;   onlyRetractWhenCrossingOutline,1
;   retractBetweenLayers,1
;   useRetractionMinTravel,0
;   retractionMinTravel,3
;   retractWhileWiping,0
;   onlyWipeOutlines,1
;   avoidCrossingOutline,1
;   maxMovementDetourFactor,10
;   toolChangeRetractionDistance,0
;   toolChangeExtraRestartDistance,0
;   toolChangeRetractionSpeed,360
;   allowThinWallGapFill,1
;   thinWallAllowedOverlapPercentage,10
;   horizontalSizeCompensation,0
G90
M82
M106 S0
M104 S207 T0
M109 S207 T0
G28 ; home all axes
G92 E0
G1 E-6.5000 F5000
G1 Z0.420 F1000
; layer 1, Z = 0.42
T0
; tool H0.420 W0.490
; skirt
G1 X2.689 Y24.249 F3500
G1 E0.0000 F1500
G92 E0
G1 X147.399 Y24.249 E11.1434 F720
G1 X147.489 Y24.286 E11.1509
G1 X148.729 Y25.526 E11.2860
G1 X148.766 Y25.617 E11.2935
G1 X148.766 Y32.044 E11.7884
G1 X148.766 Y32.051 E11.7890
G1 X148.760 Y32.169 E11.7981
G1 X148.759 Y32.176 E11.7987
G1 X148.626 Y33.355 E11.8900
G1 X148.624 Y33.369 E11.8911
G1 X148.571 Y33.601 E11.9094
G1 X148.567 Y33.614 E11.9105
G1 X148.155 Y34.791 E12.0064
G1 X148.150 Y34.803 E12.0075
G1 X148.047 Y35.018 E12.0259
G1 X148.040 Y35.030 E12.0269
G1 X147.377 Y36.085 E12.1229
G1 X147.369 Y36.096 E12.1239
G1 X147.221 Y36.283 E12.1423
G1 X147.211 Y36.293 E12.1434
G1 X146.330 Y37.174 E12.2393
G1 X146.320 Y37.183 E12.2404
G1 X146.134 Y37.332 E12.2587
G1 X146.122 Y37.340 E12.2598
G1 X145.067 Y38.003 E12.3557
G1 X145.055 Y38.009 E12.3568
G1 X144.841 Y38.113 E12.3752
G1 X144.828 Y38.118 E12.3762
G1 X143.652 Y38.530 E12.4722
G1 X143.639 Y38.533 E12.4732
G1 X143.406 Y38.587 E12.4916
G1 X143.393 Y38.589 E12.4926
G1 X142.214 Y38.722 E12.5840
G1 X142.207 Y38.722 E12.5845
G1 X142.088 Y38.729 E12.5937
G1 X142.081 Y38.729 E12.5942
G1 X141.778 Y38.729 E12.6175
G1 X141.778 Y111.249 E18.2020
G1 X142.091 Y111.249 E18.2260
G1 X142.099 Y111.249 E18.2267
G1 X142.238 Y111.258 E18.2374
G1 X142.246 Y111.259 E18.2380
G1 X143.617 Y111.439 E18.3445
G1 X143.633 Y111.443 E18.3457
G1 X143.902 Y111.515 E18.3672
G1 X143.917 Y111.520 E18.3684
G1 X145.259 Y112.076 E18.4803
G1 X145.273 Y112.083 E18.4815
G1 X145.514 Y112.222 E18.5029
G1 X145.528 Y112.231 E18.5042
G1 X146.680 Y113.115 E18.6161
G1 X146.692 Y113.126 E18.6173
G1 X146.889 Y113.323 E18.6387
G1 X146.900 Y113.335 E18.6399
G1 X147.784 Y114.487 E18.7518
G1 X147.793 Y114.501 E18.7531
G1 X147.932 Y114.742 E18.7745
G1 X147.939 Y114.756 E18.7757
G1 X148.495 Y116.098 E18.8876
G1 X148.501 Y116.114 E18.8889
G1 X148.573 Y116.382 E18.9103
G1 X148.576 Y116.398 E18.9115
G1 X148.756 Y117.770 E19.0180
G1 X148.757 Y117.777 E19.0186
G1 X148.766 Y117.916 E19.0293
G1 X148.766 Y117.924 E19.0300
G1 X148.766 Y124.371 E19.5264
G1 X148.729 Y124.461 E19.5339
G1 X147.489 Y125.701 E19.6690
G1 X147.399 Y125.739 E19.6765
G1 X13.517 Y125.739 E29.9861
G1 X2.638 Y125.711 E30.8238
G1 X2.548 Y125.673 E30.8313
G1 X1.311 Y124.429 E30.9665
G1 X1.274 Y124.339 E30.9740
G1 X1.291 Y118.214 E31.4456
G1 X1.292 Y118.207 E31.4462
G1 X1.299 Y118.084 E31.4556
G1 X1.300 Y118.077 E31.4562
G1 X1.441 Y116.897 E31.5477
G1 X1.443 Y116.883 E31.5488
G1 X1.498 Y116.651 E31.5671
G1 X1.502 Y116.638 E31.5682
G1 X1.921 Y115.464 E31.6642
G1 X1.926 Y115.452 E31.6652
G1 X2.031 Y115.238 E31.6835
G1 X2.037 Y115.226 E31.6846
G1 X2.707 Y114.174 E31.7806
G1 X2.715 Y114.163 E31.7817
G1 X2.864 Y113.978 E31.8000
G1 X2.873 Y113.968 E31.8010
G1 X3.760 Y113.091 E31.8970
G1 X3.770 Y113.082 E31.8981
G1 X3.956 Y112.934 E31.9164
G1 X3.968 Y112.927 E31.9174
G1 X5.026 Y112.268 E32.0135
G1 X5.038 Y112.262 E32.0145
G1 X5.253 Y112.159 E32.0328
G1 X5.266 Y112.154 E32.0339
G1 X6.444 Y111.747 E32.1299
G1 X6.457 Y111.743 E32.1309
G1 X6.690 Y111.691 E32.1493
G1 X6.703 Y111.689 E32.1503
G1 X7.883 Y111.561 E32.2417
G1 X7.890 Y111.560 E32.2422
G1 X8.009 Y111.554 E32.2514
G1 X8.015 Y111.554 E32.2519
G1 X8.322 Y111.555 E32.2755
G1 X8.322 Y38.739 E37.8827
G1 X7.997 Y38.739 E37.9077
G1 X7.989 Y38.738 E37.9084
G1 X7.850 Y38.729 E37.9191
G1 X7.842 Y38.729 E37.9197
G1 X6.471 Y38.548 E38.0262
G1 X6.455 Y38.545 E38.0274
G1 X6.186 Y38.473 E38.0489
G1 X6.171 Y38.468 E38.0501
G1 X4.829 Y37.912 E38.1620
G1 X4.815 Y37.905 E38.1632
G1 X4.574 Y37.765 E38.1846
G1 X4.560 Y37.757 E38.1859
G1 X3.408 Y36.872 E38.2978
G1 X3.396 Y36.861 E38.2990
G1 X3.199 Y36.665 E38.3204
G1 X3.188 Y36.653 E38.3216
G1 X2.304 Y35.500 E38.4335
G1 X2.295 Y35.487 E38.4348
G1 X2.156 Y35.246 E38.4562
G1 X2.149 Y35.231 E38.4574
G1 X1.593 Y33.889 E38.5693
G1 X1.587 Y33.874 E38.5705
G1 X1.515 Y33.605 E38.5920
G1 X1.512 Y33.589 E38.5932
G1 X1.332 Y32.218 E38.6997
G1 X1.331 Y32.210 E38.7003
G1 X1.322 Y32.071 E38.7110
G1 X1.322 Y32.063 E38.7117
G1 X1.322 Y25.617 E39.2081
G1 X1.359 Y25.526 E39.2156
G1 X2.599 Y24.286 E39.3507
G1 X2.689 Y24.249 E39.3582
; inner perimeter
G1 X4.792 Y27.719 F3500
G92 E0
G1 X145.296 Y27.719 E10.8196 F600
G1 X145.296 Y31.915 E11.1428
G1 X145.207 Y32.711 E11.2045
G1 X144.965 Y33.402 E11.2608
G1 X144.576 Y34.021 E11.3172
G1 X144.059 Y34.539 E11.3735
G1 X143.439 Y34.928 E11.4298
G1 X142.748 Y35.169 E11.4862
G1 X141.953 Y35.259 E11.5479
G1 X141.437 Y35.259 E11.5876
G1 X140.532 Y35.402 E11.6581
G1 X139.629 Y35.863 E11.7362
G1 X138.912 Y36.580 E11.8143
G1 X138.452 Y37.483 E11.8923
G1 X138.308 Y38.388 E11.9629
G1 X138.308 Y111.590 E17.5999
G1 X138.452 Y112.495 E17.6704
G1 X138.912 Y113.398 E17.7485
G1 X139.629 Y114.115 E17.8265
G1 X140.532 Y114.575 E17.9046
G1 X141.437 Y114.719 E17.9752
G1 X141.941 Y114.719 E18.0140
G1 X142.866 Y114.841 E18.0859
G1 X143.654 Y115.167 E18.1515
G1 X144.330 Y115.685 E18.2171
G1 X144.849 Y116.361 E18.2827
G1 X145.175 Y117.149 E18.3484
G1 X145.296 Y118.074 E18.4202
G1 X145.296 Y122.269 E18.7432
G1 X13.525 Y122.269 E28.8904
G1 X4.750 Y122.246 E29.5661
G1 X4.761 Y118.357 E29.8656
G1 X4.856 Y117.563 E29.9271
G1 X5.102 Y116.873 E29.9836
G1 X5.496 Y116.254 E30.0401
G1 X6.018 Y115.738 E30.0966
G1 X6.641 Y115.350 E30.1531
G1 X7.334 Y115.111 E30.2096
G1 X8.131 Y115.024 E30.2713
G1 X9.201 Y115.028 E30.3537
G1 X9.939 Y114.914 E30.4112
G1 X10.693 Y114.533 E30.4762
G1 X11.291 Y113.937 E30.5412
G1 X11.675 Y113.185 E30.6063
G1 X11.792 Y112.447 E30.6637
G1 X11.792 Y37.883 E36.4056
G1 X11.673 Y37.137 E36.4638
G1 X11.286 Y36.377 E36.5294
G1 X10.683 Y35.774 E36.5951
G1 X9.923 Y35.387 E36.6608
G1 X9.177 Y35.269 E36.7190
G1 X8.147 Y35.269 E36.7983
G1 X7.222 Y35.147 E36.8702
G1 X6.434 Y34.821 E36.9358
G1 X5.758 Y34.302 E37.0014
G1 X5.240 Y33.626 E37.0670
G1 X4.913 Y32.839 E37.1327
G1 X4.792 Y31.913 E37.2045
G1 X4.792 Y27.719 E37.5275
; inner perimeter
G1 X4.302 Y27.229 F3500
G92 E0
G1 X145.786 Y27.229 E10.8951 F480
G1 X145.786 Y31.943 E11.2581
G1 X145.687 Y32.821 E11.3262
G1 X145.409 Y33.616 E11.3910
G1 X144.961 Y34.329 E11.4559
G1 X144.366 Y34.924 E11.5207
G1 X143.653 Y35.372 E11.5855
G1 X142.858 Y35.650 E11.6504
G1 X141.980 Y35.749 E11.7184
G1 X141.475 Y35.749 E11.7573
G1 X140.685 Y35.874 E11.8189
G1 X139.920 Y36.264 E11.8850
G1 X139.313 Y36.871 E11.9511
G1 X138.923 Y37.636 E12.0172
G1 X138.798 Y38.426 E12.0789
G1 X138.798 Y111.552 E17.7099
G1 X138.923 Y112.342 E17.7715
G1 X139.313 Y113.107 E17.8376
G1 X139.920 Y113.714 E17.9037
G1 X140.685 Y114.104 E17.9698
G1 X141.475 Y114.229 E18.0315
G1 X141.973 Y114.229 E18.0698
G1 X142.994 Y114.363 E18.1491
G1 X143.901 Y114.739 E18.2246
G1 X144.679 Y115.336 E18.3002
G1 X145.277 Y116.114 E18.3758
G1 X145.652 Y117.021 E18.4513
G1 X145.786 Y118.042 E18.5306
G1 X145.786 Y122.759 E18.8938
G1 X13.524 Y122.759 E29.0788
G1 X4.259 Y122.735 E29.7923
G1 X4.271 Y118.327 E30.1317
G1 X4.376 Y117.451 E30.1997
G1 X4.659 Y116.656 E30.2646
G1 X5.113 Y115.944 E30.3296
G1 X5.713 Y115.351 E30.3946
G1 X6.429 Y114.905 E30.4596
G1 X7.226 Y114.630 E30.5245
G1 X8.105 Y114.534 E30.5926
G1 X9.165 Y114.538 E30.6742
G1 X9.787 Y114.441 E30.7227
G1 X10.402 Y114.131 E30.7757
G1 X10.890 Y113.645 E30.8288
G1 X11.203 Y113.031 E30.8818
G1 X11.302 Y112.409 E30.9303
G1 X11.302 Y37.922 E36.6663
G1 X11.202 Y37.290 E36.7155
G1 X10.885 Y36.669 E36.7692
G1 X10.392 Y36.175 E36.8229
G1 X9.770 Y35.859 E36.8767
G1 X9.139 Y35.759 E36.9259
G1 X8.115 Y35.759 E37.0047
G1 X7.094 Y35.624 E37.0840
G1 X6.187 Y35.249 E37.1596
G1 X5.409 Y34.651 E37.2351
G1 X4.811 Y33.873 E37.3107
G1 X4.436 Y32.966 E37.3862
G1 X4.302 Y31.946 E37.4655
G1 X4.302 Y27.229 E37.8288
; outer perimeter
G1 X3.812 Y26.739 F3500
G92 E0
G1 X146.276 Y26.739 E10.9706 F360
G1 X146.276 Y31.970 E11.3734
G1 X146.168 Y32.931 E11.4479
G1 X145.854 Y33.830 E11.5212
G1 X145.347 Y34.636 E11.5946
G1 X144.673 Y35.310 E11.6679
G1 X143.867 Y35.816 E11.7412
G1 X142.968 Y36.131 E11.8146
G1 X142.008 Y36.239 E11.8890
G1 X141.514 Y36.239 E11.9270
G1 X140.838 Y36.346 E11.9797
G1 X140.212 Y36.665 E12.0338
G1 X139.714 Y37.163 E12.0880
G1 X139.395 Y37.789 E12.1422
G1 X139.288 Y38.465 E12.1948
G1 X139.288 Y111.513 E17.8199
G1 X139.395 Y112.188 E17.8726
G1 X139.714 Y112.815 E17.9268
G1 X140.212 Y113.312 E17.9809
G1 X140.838 Y113.632 E18.0351
G1 X141.514 Y113.739 E18.0877
G1 X142.005 Y113.739 E18.1256
G1 X143.122 Y113.886 E18.2123
G1 X144.148 Y114.311 E18.2978
G1 X145.029 Y114.986 E18.3833
G1 X145.705 Y115.867 E18.4688
G1 X146.129 Y116.893 E18.5543
G1 X146.276 Y118.010 E18.6410
G1 X146.276 Y123.249 E19.0445
G1 X13.522 Y123.249 E29.2673
G1 X3.767 Y123.224 E30.0185
G1 X3.781 Y118.297 E30.3978
G1 X3.896 Y117.338 E30.4722
G1 X4.217 Y116.440 E30.5457
G1 X4.729 Y115.635 E30.6191
G1 X5.407 Y114.964 E30.6926
G1 X6.217 Y114.460 E30.7661
G1 X7.119 Y114.148 E30.8395
G1 X8.079 Y114.044 E30.9139
G1 X9.128 Y114.048 E30.9947
G1 X9.636 Y113.969 E31.0342
G1 X10.111 Y113.729 E31.0753
G1 X10.489 Y113.352 E31.1163
G1 X10.731 Y112.878 E31.1574
G1 X10.812 Y112.370 E31.1969
G1 X10.812 Y37.960 E36.9269
G1 X10.730 Y37.444 E36.9672
G1 X10.484 Y36.960 E37.0090
G1 X10.100 Y36.577 E37.0507
G1 X9.617 Y36.330 E37.0925
G1 X9.100 Y36.249 E37.1328
G1 X8.083 Y36.249 E37.2111
G1 X6.966 Y36.102 E37.2979
G1 X5.940 Y35.677 E37.3834
G1 X5.059 Y35.001 E37.4688
G1 X4.383 Y34.120 E37.5543
G1 X3.959 Y33.094 E37.6398
G1 X3.812 Y31.978 E37.7266
G1 X3.812 Y26.739 E38.1300
; inner perimeter
G1 X7.106 Y29.277 F3500
G92 E0
G1 X6.715 Y29.598 E0.0390 F600
G1 X6.394 Y29.989 E0.0779
G1 X6.156 Y30.435 E0.1169
G1 X6.009 Y30.919 E0.1558
G1 X5.959 Y31.423 E0.1948
G1 X6.009 Y31.926 E0.2338
G1 X6.156 Y32.410 E0.2727
G1 X6.394 Y32.856 E0.3117
G1 X6.715 Y33.248 E0.3506
G1 X7.106 Y33.569 E0.3896
G1 X7.553 Y33.807 E0.4286
G1 X8.037 Y33.954 E0.4675
G1 X8.540 Y34.004 E0.5065
G1 X9.044 Y33.954 E0.5455
G1 X9.528 Y33.807 E0.5844
G1 X9.974 Y33.569 E0.6234
G1 X10.365 Y33.248 E0.6623
G1 X10.686 Y32.857 E0.7013
G1 X10.925 Y32.410 E0.7403
G1 X11.072 Y31.926 E0.7792
G1 X11.121 Y31.423 E0.8182
G1 X11.072 Y30.919 E0.8571
G1 X10.925 Y30.435 E0.8961
G1 X10.686 Y29.989 E0.9351
G1 X10.365 Y29.598 E0.9740
G1 X9.974 Y29.277 E1.0130
G1 X9.528 Y29.038 E1.0519
G1 X9.044 Y28.891 E1.0909
G1 X8.540 Y28.842 E1.1299
G1 X8.037 Y28.891 E1.1688
G1 X7.553 Y29.038 E1.2078
G1 X7.106 Y29.277 E1.2467
; inner perimeter
G1 X7.380 Y29.686 F3500
G92 E0
G1 X7.063 Y29.946 E0.0315 F480
G1 X6.804 Y30.262 E0.0631
G1 X6.611 Y30.623 E0.0946
G1 X6.492 Y31.015 E0.1261
G1 X6.452 Y31.423 E0.1576
G1 X6.492 Y31.830 E0.1892
G1 X6.611 Y32.222 E0.2207
G1 X6.804 Y32.583 E0.2522
G1 X7.063 Y32.899 E0.2838
G1 X7.380 Y33.159 E0.3153
G1 X7.741 Y33.352 E0.3468
G1 X8.133 Y33.471 E0.3783
G1 X8.540 Y33.511 E0.4099
G1 X8.948 Y33.471 E0.4414
G1 X9.339 Y33.352 E0.4729
G1 X9.701 Y33.159 E0.5045
G1 X10.017 Y32.899 E0.5360
G1 X10.277 Y32.583 E0.5675
G1 X10.470 Y32.222 E0.5990
G1 X10.589 Y31.830 E0.6306
