; G-Code generated by Simplify3D(R) Version 3.0.0
; Jul 2, 2017 at 3:32:22 
; Settings Summary
;   processName,Process1
;   applyToModels,Body3
;   profileName,German RepRap NEO (modified)
;   profileVersion,2017-06-09 12:06:14
;   baseProfile,
;   printMaterial,
;   printQuality,
;   printExtruders,
;   extruderName,Primary Extruder
;   extruderToolheadNumber,0
;   extruderDiameter,0.5
;   extruderAutoWidth,0
;   extruderWidth,0.49
;   extrusionMultiplier,0.9
;   extruderUseRetract,1
;   extruderRetractionDistance,6.5
;   extruderExtraRestartDistance,0
;   extruderRetractionZLift,0
;   extruderRetractionSpeed,5000
;   extruderUseCoasting,0
;   extruderCoastingDistance,0.2
;   extruderUseWipe,0
;   extruderWipeDistance,5
;   primaryExtruder,0
;   layerHeight,0.15
;   topSolidLayers,4
;   bottomSolidLayers,4
;   perimeterOutlines,3
;   printPerimetersInsideOut,1
;   startPointOption,2
;   startPointOriginX,0
;   startPointOriginY,0
;   startPointOriginZ,300
;   sequentialIslands,0
;   spiralVaseMode,0
;   firstLayerHeightPercentage,120
;   firstLayerWidthPercentage,100
;   firstLayerUnderspeed,0.3
;   useRaft,0
;   raftExtruder,0
;   raftLayers,3
;   raftOffset,3
;   raftSeparationDistance,0.1
;   raftInfill,85
;   disableRaftBaseLayers,0
;   useSkirt,1
;   skirtExtruder,0
;   skirtLayers,1
;   skirtOutlines,2
;   skirtOffset,4
;   usePrimePillar,0
;   primePillarExtruder,999
;   primePillarWidth,12
;   primePillarLocation,7
;   primePillarSpeedMultiplier,1
;   useOozeShield,0
;   oozeShieldExtruder,999
;   oozeShieldOffset,2
;   oozeShieldOutlines,1
;   oozeShieldSidewallShape,1
;   oozeShieldSidewallAngle,30
;   oozeShieldSpeedMultiplier,1
;   infillExtruder,0
;   internalInfillPattern,Full Honeycomb
;   externalInfillPattern,Rectilinear
;   infillPercentage,10
;   outlineOverlapPercentage,15
;   infillExtrusionWidthPercentage,100
;   minInfillLength,3
;   infillLayerInterval,1
;   infillAngles,0,120,-120
;   overlapInfillAngles,0
;   generateSupport,0
;   supportExtruder,0
;   supportInfillPercentage,30
;   supportExtraInflation,0
;   denseSupportLayers,0
;   denseSupportInfillPercentage,75
;   supportLayerInterval,1
;   supportHorizontalPartOffset,2
;   supportUpperSeparationLayers,2
;   supportLowerSeparationLayers,2
;   supportType,0
;   supportGridSpacing,4
;   maxOverhangAngle,45
;   supportAngles,45
;   temperatureName,Primary Extruder
;   temperatureNumber,0
;   temperatureSetpointCount,3
;   temperatureSetpointLayers,1,1,1
;   temperatureSetpointTemperatures,207,199,192
;   temperatureStabilizeAtStartup,1
;   temperatureHeatedBed,0
;   temperatureRelayBetweenLayers,0
;   temperatureRelayBetweenLoops,0
;   fanLayers,1,3
;   fanSpeeds,0,100
;   blipFanToFullPower,0
;   adjustSpeedForCooling,1
;   minSpeedLayerTime,15
;   minCoolingSpeedSlowdown,20
;   increaseFanForCooling,0
;   minFanLayerTime,45
;   maxCoolingFanSpeed,100
;   increaseFanForBridging,0
;   bridgingFanSpeed,100
;   use5D,1
;   relativeEdistances,0
;   allowEaxisZeroing,1
;   independentExtruderAxes,0
;   includeM10123,0
;   stickySupport,1
;   applyToolheadOffsets,0
;   gcodeXoffset,0
;   gcodeYoffset,0
;   gcodeZoffset,0
;   overrideMachineDefinition,1
;   machineTypeOverride,0
;   strokeXoverride,150
;   strokeYoverride,150
;   strokeZoverride,150
;   originOffsetXoverride,0
;   originOffsetYoverride,0
;   originOffsetZoverride,0
;   homeXdirOverride,-1
;   homeYdirOverride,-1
;   homeZdirOverride,-1
;   flipXoverride,1
;   flipYoverride,-1
;   flipZoverride,1
;   toolheadOffsets,0,0|0,0|0,0|0,0|0,0|0,0
;   overrideFirmwareConfiguration,0
;   firmwareTypeOverride,RepRap (Marlin/Repetier/Sprinter)
;   GPXconfigOverride,r2
;   baudRateOverride,115200
;   overridePrinterModels,0
;   printerModelsOverride
;   startingGcode,G28 ; home all axes
;   layerChangeGcode,
;   retractionGcode,
;   toolChangeGcode,
;   endingGcode,M104 S0 ; turn off extruder,M140 S0 ; turn off bed,G28 X0  ; home X axis,G28 Y0  ; home Y axis,M84 ; disable motors,M107
;   createX3G,0
;   celebration,0
;   celebrationSong,Random Song
;   createMB5G,0
;   postProcessing,
;   defaultSpeed,2400
;   outlineUnderspeed,0.5
;   solidInfillUnderspeed,0.8
;   supportUnderspeed,0.8
;   rapidXYspeed,3500
;   rapidZspeed,1000
;   minBridgingArea,50
;   bridgingExtraInflation,0
;   bridgingExtrusionMultiplier,1
;   bridgingSpeedMultiplier,1
;   filamentDiameter,1.75
;   filamentPricePerKg,46
;   filamentDensity,1.25
;   useMinPrintHeight,0
;   minPrintHeight,0
;   useMaxPrintHeight,0
;   maxPrintHeight,0
;   useDiaphragm,0
;   diaphragmLayerInterval,20
;   robustSlicing,1
;   mergeAllIntoSolid,0
;   onlyRetractWhenCrossingOutline,1
;   retractBetweenLayers,1
;   useRetractionMinTravel,0
;   retractionMinTravel,3
;   retractWhileWiping,0
;   onlyWipeOutlines,1
;   avoidCrossingOutline,1
;   maxMovementDetourFactor,10
;   toolChangeRetractionDistance,0
;   toolChangeExtraRestartDistance,0
;   toolChangeRetractionSpeed,360
;   allowThinWallGapFill,1
;   thinWallAllowedOverlapPercentage,10
;   horizontalSizeCompensation,0
G90
M82
M106 S0
M104 S207 T0
M109 S207 T0
G28 ; home all axes
G92 E0
G1 E-6.5000 F5000
G1 Z0.180 F1000
; layer 1, Z = 0.18
T0
; tool H0.180 W0.490
; skirt
G1 X42.031 Y26.053 F3500
G1 E0.0000 F1500
G92 E0
G1 X42.510 Y25.337 E0.0284 F720
G1 X42.556 Y25.281 E0.0308
G1 X45.726 Y22.115 E0.1787
G1 X45.782 Y22.069 E0.1811
G1 X46.499 Y21.592 E0.2095
G1 X46.562 Y21.558 E0.2119
G1 X50.621 Y19.882 E0.3567
G1 X50.690 Y19.861 E0.3592
G1 X51.541 Y19.694 E0.3878
G1 X51.614 Y19.687 E0.3902
G1 X54.199 Y19.698 E0.4755
G1 X54.272 Y19.706 E0.4779
G1 X55.137 Y19.887 E0.5071
G1 X55.208 Y19.909 E0.5095
G1 X59.390 Y21.715 E0.6599
G1 X59.460 Y21.754 E0.6625
G1 X60.232 Y22.311 E0.6939
G1 X60.291 Y22.364 E0.6966
G1 X63.121 Y25.532 E0.8367
G1 X63.158 Y25.582 E0.8388
G1 X63.555 Y26.219 E0.8636
G1 X63.584 Y26.275 E0.8656
G1 X63.829 Y26.876 E0.8871
G1 X64.003 Y26.399 E0.9038
G1 X64.033 Y26.336 E0.9061
G1 X64.460 Y25.624 E0.9336
G1 X64.502 Y25.568 E0.9359
G1 X67.367 Y22.364 E1.0777
G1 X67.428 Y22.309 E1.0804
G1 X68.232 Y21.739 E1.1129
G1 X68.304 Y21.699 E1.1157
G1 X72.637 Y19.908 E1.2704
G1 X72.707 Y19.887 E1.2728
G1 X73.561 Y19.720 E1.3015
G1 X73.634 Y19.713 E1.3039
G1 X75.906 Y19.725 E1.3789
G1 X75.977 Y19.732 E1.3813
G1 X76.811 Y19.901 E1.4094
G1 X76.879 Y19.922 E1.4117
G1 X80.926 Y21.603 E1.5564
G1 X80.990 Y21.637 E1.5587
G1 X81.704 Y22.115 E1.5871
G1 X81.760 Y22.161 E1.5895
G1 X84.932 Y25.338 E1.7376
G1 X84.978 Y25.394 E1.7400
G1 X85.455 Y26.109 E1.7684
G1 X85.489 Y26.172 E1.7708
G1 X87.166 Y30.226 E1.9155
G1 X87.187 Y30.295 E1.9179
G1 X87.355 Y31.138 E1.9463
G1 X87.362 Y31.210 E1.9487
G1 X87.362 Y59.397 E2.8789
G1 X89.812 Y67.140 E3.1469
G1 X89.825 Y67.194 E3.1488
G1 X89.928 Y67.857 E3.1709
G1 X89.932 Y67.913 E3.1728
G1 X89.932 Y75.808 E3.4333
G1 X89.820 Y76.079 E3.4430
G1 X87.359 Y78.540 E3.5579
G1 X87.358 Y81.772 E3.6645
G1 X87.246 Y82.042 E3.6742
G1 X84.696 Y84.590 E3.7931
G1 X84.426 Y84.702 E3.8028
G1 X77.162 Y84.702 E4.0425
G1 X76.892 Y84.590 E4.0522
G1 X74.342 Y82.040 E4.1712
G1 X74.230 Y81.770 E4.1808
G1 X74.230 Y73.558 E4.4519
G1 X71.180 Y73.558 E4.5525
G1 X71.180 Y81.771 E4.8236
G1 X71.068 Y82.041 E4.8332
G1 X68.518 Y84.591 E4.9523
G1 X68.248 Y84.703 E4.9619
G1 X43.089 Y84.703 E5.7922
G1 X42.819 Y84.591 E5.8019
G1 X40.269 Y82.041 E5.9209
G1 X40.157 Y81.771 E5.9305
G1 X40.157 Y78.046 E6.0534
G1 X38.190 Y76.079 E6.1453
G1 X38.078 Y75.809 E6.1549
G1 X38.078 Y68.011 E6.4122
G1 X38.080 Y67.967 E6.4137
G1 X38.144 Y67.445 E6.4311
G1 X38.152 Y67.401 E6.4325
G1 X40.035 Y59.726 E6.6933
G1 X40.121 Y50.738 E6.9900
G1 X40.121 Y31.155 E7.6363
G1 X40.128 Y31.083 E7.6387
G1 X40.296 Y30.238 E7.6671
G1 X40.317 Y30.169 E7.6695
G1 X41.997 Y26.116 E7.8143
G1 X42.031 Y26.053 E7.8166
G1 X42.452 Y26.305 F3500
G92 E0
G1 X42.904 Y25.629 E0.0268 F720
G1 X42.919 Y25.611 E0.0276
G1 X46.056 Y22.479 E0.1739
G1 X46.074 Y22.464 E0.1747
G1 X46.750 Y22.013 E0.2015
G1 X46.772 Y22.001 E0.2023
G1 X50.785 Y20.344 E0.3456
G1 X50.808 Y20.337 E0.3464
G1 X51.612 Y20.179 E0.3734
G1 X51.636 Y20.177 E0.3742
G1 X54.172 Y20.188 E0.4579
G1 X54.196 Y20.191 E0.4587
G1 X55.013 Y20.361 E0.4863
G1 X55.036 Y20.369 E0.4871
G1 X59.172 Y22.154 E0.6357
G1 X59.195 Y22.167 E0.6366
G1 X59.923 Y22.693 E0.6663
G1 X59.943 Y22.710 E0.6671
G1 X62.741 Y25.842 E0.8057
G1 X62.754 Y25.859 E0.8064
G1 X63.129 Y26.460 E0.8298
G1 X63.138 Y26.479 E0.8305
G1 X63.501 Y27.372 E0.8623
G1 X64.169 Y27.372 E0.8843
G1 X64.455 Y26.589 E0.9119
G1 X64.465 Y26.568 E0.9126
G1 X64.869 Y25.896 E0.9385
G1 X64.882 Y25.877 E0.9393
G1 X67.713 Y22.711 E1.0794
G1 X67.734 Y22.693 E1.0803
G1 X68.493 Y22.155 E1.1110
G1 X68.517 Y22.142 E1.1119
G1 X72.802 Y20.370 E1.2650
G1 X72.825 Y20.363 E1.2658
G1 X73.631 Y20.205 E1.2929
G1 X73.656 Y20.203 E1.2937
G1 X75.879 Y20.215 E1.3671
G1 X75.903 Y20.217 E1.3679
G1 X76.690 Y20.376 E1.3944
G1 X76.713 Y20.383 E1.3952
G1 X80.716 Y22.047 E1.5382
G1 X80.737 Y22.058 E1.5390
G1 X81.412 Y22.509 E1.5658
G1 X81.430 Y22.525 E1.5666
G1 X84.569 Y25.667 E1.7132
G1 X84.584 Y25.686 E1.7140
G1 X85.034 Y26.361 E1.7407
G1 X85.045 Y26.382 E1.7415
G1 X86.704 Y30.391 E1.8847
G1 X86.711 Y30.414 E1.8855
G1 X86.869 Y31.210 E1.9123
G1 X86.872 Y31.234 E1.9131
G1 X86.872 Y59.472 E2.8450
G1 X89.340 Y67.270 E3.1149
G1 X89.344 Y67.288 E3.1155
G1 X89.440 Y67.913 E3.1364
G1 X89.442 Y67.932 E3.1370
G1 X89.442 Y75.711 E3.3938
G1 X89.405 Y75.801 E3.3970
G1 X86.993 Y78.213 E3.5096
G1 X86.903 Y78.251 E3.5128
G1 X86.869 Y78.251 E3.5139
G1 X86.868 Y81.674 E3.6269
G1 X86.831 Y81.764 E3.6301
G1 X84.419 Y84.175 E3.7426
G1 X84.329 Y84.212 E3.7459
G1 X77.259 Y84.212 E3.9792
G1 X77.169 Y84.175 E3.9824
G1 X74.757 Y81.763 E4.0950
G1 X74.720 Y81.673 E4.0982
G1 X74.720 Y73.068 E4.3822
G1 X70.690 Y73.068 E4.5152
G1 X70.690 Y81.673 E4.7992
G1 X70.653 Y81.763 E4.8024
G1 X68.241 Y84.176 E4.9150
G1 X68.151 Y84.213 E4.9182
G1 X43.187 Y84.213 E5.7421
G1 X43.097 Y84.176 E5.7453
G1 X40.685 Y81.763 E5.8578
G1 X40.647 Y81.673 E5.8611
G1 X40.647 Y77.843 E5.9875
G1 X38.605 Y75.801 E6.0828
G1 X38.568 Y75.711 E6.0860
G1 X38.568 Y68.026 E6.3396
G1 X38.569 Y68.011 E6.3401
G1 X38.628 Y67.518 E6.3565
G1 X38.631 Y67.504 E6.3570
G1 X40.524 Y59.788 E6.6192
G1 X40.611 Y50.740 E6.9178
G1 X40.611 Y31.179 E7.5634
G1 X40.613 Y31.155 E7.5642
G1 X40.772 Y30.358 E7.5910
G1 X40.779 Y30.334 E7.5918
G1 X42.441 Y26.326 E7.7350
G1 X42.452 Y26.305 E7.7358
; inner perimeter
G1 X50.878 Y26.224 F3500
G92 E0
G1 X52.267 Y25.650 E0.0496 F600
G1 X53.481 Y25.655 E0.0897
G1 X56.343 Y26.891 E0.1926
G1 X56.860 Y27.470 E0.2182
G1 X56.609 Y27.731 E0.2301
G1 X56.208 Y27.403 E0.2472
G1 X55.105 Y26.813 E0.2885
G1 X53.908 Y26.450 E0.3298
G1 X52.663 Y26.327 E0.3711
G1 X51.418 Y26.450 E0.4124
G1 X51.003 Y26.576 E0.4267
G1 X50.878 Y26.224 E0.4390
G1 X49.755 Y28.179 F3500
G1 X49.667 Y28.226 F3500
G1 X48.850 Y28.896 F3500
G1 X48.179 Y29.713 F3500
G1 X47.681 Y30.646 F3500
G1 X47.374 Y31.657 F3500
G1 X47.295 Y32.462 F3500
G1 X46.415 Y33.993 F3500
G92 E0
G1 X46.767 Y35.151 E0.0399 F600
G1 X47.356 Y36.255 E0.0812
G1 X48.150 Y37.222 E0.1225
G1 X49.117 Y38.016 E0.1638
G1 X50.220 Y38.605 E0.2051
G1 X51.418 Y38.968 E0.2464
G1 X52.663 Y39.091 E0.2877
G1 X53.908 Y38.968 E0.3290
G1 X55.105 Y38.605 E0.3703
G1 X56.208 Y38.016 E0.4115
G1 X57.175 Y37.222 E0.4528
G1 X57.969 Y36.255 E0.4941
G1 X58.559 Y35.151 E0.5354
G1 X58.922 Y33.954 E0.5767
G1 X59.045 Y32.709 E0.6180
G1 X58.930 Y31.541 E0.6567
G1 X59.259 Y31.460 E0.6679
G1 X59.819 Y32.838 E0.7170
G1 X67.993 Y32.846 E0.9867
G1 X68.108 Y32.530 E0.9978
G1 X68.418 Y32.569 E1.0082
G1 X68.555 Y33.953 E1.0541
G1 X68.918 Y35.150 E1.0953
G1 X69.508 Y36.254 E1.1366
G1 X70.301 Y37.221 E1.1779
G1 X71.268 Y38.015 E1.2192
G1 X72.372 Y38.604 E1.2605
G1 X73.569 Y38.968 E1.3018
G1 X74.814 Y39.090 E1.3431
G1 X76.059 Y38.968 E1.3844
G1 X77.256 Y38.604 E1.4257
G1 X78.360 Y38.015 E1.4669
G1 X79.327 Y37.221 E1.5082
G1 X80.120 Y36.254 E1.5495
G1 X80.710 Y35.150 E1.5908
G1 X81.067 Y33.973 E1.6314
G1 X81.402 Y34.022 E1.6426
G1 X81.402 Y60.317 E2.5104
G1 X83.972 Y68.438 E2.7915
G1 X83.972 Y69.707 E2.8334
G1 X83.444 Y69.272 E2.8559
G1 X83.015 Y69.042 E2.8720
G1 X82.550 Y68.900 E2.8880
G1 X82.066 Y68.851 E2.9041
G1 X81.582 Y68.898 E2.9201
G1 X81.117 Y69.038 E2.9362
G1 X80.687 Y69.267 E2.9522
G1 X80.190 Y69.674 E2.9734
G1 X80.190 Y67.598 E3.0420
G1 X65.220 Y67.598 E3.5360
G1 X65.220 Y78.743 E3.9038
G1 X46.117 Y78.743 E4.5343
G1 X46.117 Y73.667 E4.7018
G1 X46.624 Y73.397 E4.7207
G1 X47.001 Y73.090 E4.7368
G1 X47.310 Y72.714 E4.7528
G1 X47.540 Y72.286 E4.7689
G1 X47.682 Y71.821 E4.7849
G1 X47.731 Y71.337 E4.8010
G1 X47.684 Y70.853 E4.8170
G1 X47.544 Y70.387 E4.8331
G1 X47.315 Y69.958 E4.8491
G1 X47.005 Y69.579 E4.8653
G1 X46.631 Y69.272 E4.8813
G1 X46.204 Y69.042 E4.8973
G1 X45.738 Y68.900 E4.9133
G1 X45.255 Y68.851 E4.9294
G1 X44.771 Y68.898 E4.9454
G1 X44.038 Y69.119 E4.9707
G1 X44.038 Y68.422 E4.9937
G1 X45.988 Y60.475 E5.2637
G1 X46.081 Y50.767 E5.5841
G1 X46.081 Y34.043 E6.1361
G1 X46.415 Y33.993 E6.1472
G1 X47.371 Y33.727 F3500
G1 X47.270 Y32.709 F3500
G1 X47.374 Y31.657 F3500
G1 X47.681 Y30.646 F3500
G1 X48.179 Y29.713 F3500
G1 X48.850 Y28.896 F3500
G1 X49.667 Y28.226 F3500
G1 X50.599 Y27.727 F3500
G1 X51.611 Y27.420 F3500
G1 X52.663 Y27.317 F3500
G1 X53.715 Y27.420 F3500
G1 X54.726 Y27.727 F3500
G1 X55.659 Y28.226 F3500
G1 X56.476 Y28.896 F3500
G1 X57.146 Y29.713 F3500
G1 X57.645 Y30.646 F3500
G1 X57.707 Y30.850 F3500
G1 X59.833 Y30.258 F3500
G1 X60.482 Y31.854 F3500
G1 X67.304 Y31.861 F3500
G1 X68.518 Y28.540 F3500
G1 X69.350 Y27.610 F3500
G1 X71.109 Y27.120 F3500
G92 E0
G1 X71.295 Y26.912 E0.0092 F600
G1 X71.732 Y26.731 E0.0248
G1 X71.892 Y27.069 E0.0371
G1 X71.312 Y27.379 E0.0588
G1 X71.109 Y27.120 E0.0697
G1 X72.903 Y26.651 F3500
G92 E0
G1 X72.777 Y26.299 E0.0123 F600
G1 X74.284 Y25.677 E0.0661
G1 X75.208 Y25.681 E0.0966
G1 X76.305 Y26.137 E0.1358
G1 X76.223 Y26.465 E0.1470
G1 X74.814 Y26.326 E0.1937
G1 X73.569 Y26.449 E0.2350
G1 X72.903 Y26.651 E0.2580
G1 X73.058 Y27.633 F3500
G1 X72.751 Y27.726 F3500
G1 X71.818 Y28.225 F3500
G1 X71.001 Y28.895 F3500
G1 X70.331 Y29.712 F3500
G1 X69.832 Y30.645 F3500
G1 X69.525 Y31.656 F3500
G1 X69.422 Y32.708 F3500
G1 X69.525 Y33.760 F3500
G1 X69.832 Y34.772 F3500
G1 X70.331 Y35.704 F3500
G1 X71.001 Y36.521 F3500
G1 X71.818 Y37.192 F3500
G1 X72.750 Y37.690 F3500
G1 X73.762 Y37.997 F3500
G1 X74.702 Y38.089 F3500
G1 X80.190 Y72.989 F3500
G92 E0
G1 X80.680 Y73.392 E0.0209 F600
G1 X81.108 Y73.622 E0.0370
G1 X81.401 Y73.712 E0.0471
G1 X81.399 Y78.742 E0.2131
G1 X80.190 Y78.742 E0.2530
G1 X80.190 Y72.989 E0.4429
; inner perimeter
G1 X79.205 Y71.682 F3500
G1 X79.205 Y68.582 F3500
G1 X76.868 Y68.582 F3500
G1 X53.789 Y37.975 F3500
G1 X53.715 Y37.998 F3500
G1 X52.663 Y38.101 F3500
G1 X51.611 Y37.998 F3500
G1 X50.599 Y37.691 F3500
G1 X49.667 Y37.193 F3500
G1 X48.850 Y36.522 F3500
G1 X48.179 Y35.705 F3500
G1 X47.681 Y34.773 F3500
G1 X47.374 Y33.761 F3500
G1 X47.270 Y32.709 F3500
G1 X47.374 Y31.657 F3500
G1 X47.681 Y30.646 F3500
G1 X47.922 Y30.194 F3500
G1 X46.829 Y28.744 F3500
G92 E0
G1 X49.183 Y26.393 E0.1098 F480
G1 X52.171 Y25.160 E0.2165
G1 X53.583 Y25.166 E0.2631
G1 X56.637 Y26.484 E0.3728
G1 X58.706 Y28.801 E0.4754
G1 X60.149 Y32.348 E0.6017
G1 X67.650 Y32.356 E0.8493
G1 X68.950 Y28.799 E0.9743
G1 X71.004 Y26.502 E1.0760
G1 X74.188 Y25.186 E1.1897
G1 X75.307 Y25.192 E1.2266
G1 X78.296 Y26.434 E1.3334
G1 X80.655 Y28.796 E1.4436
G1 X81.892 Y31.785 E1.5504
G1 X81.892 Y60.242 E2.4895
G1 X84.462 Y68.362 E2.7706
G1 X84.462 Y73.271 E2.9326
G1 X82.817 Y73.271 E2.9869
G1 X83.465 Y72.741 E3.0145
G1 X83.713 Y72.440 E3.0274
G1 X83.897 Y72.096 E3.0402
G1 X84.011 Y71.724 E3.0531
G1 X84.050 Y71.336 E3.0659
G1 X84.013 Y70.948 E3.0788
G1 X83.900 Y70.575 E3.0917
G1 X83.717 Y70.231 E3.1045
G1 X83.470 Y69.929 E3.1174
G1 X83.170 Y69.681 E3.1303
G1 X82.826 Y69.497 E3.1431
G1 X82.453 Y69.383 E3.1560
G1 X82.066 Y69.344 E3.1689
G1 X81.678 Y69.381 E3.1817
G1 X81.304 Y69.494 E3.1946
G1 X80.960 Y69.677 E3.2074
G1 X80.658 Y69.924 E3.2203
G1 X80.411 Y70.224 E3.2332
G1 X80.226 Y70.568 E3.2460
