; G-Code generated by Simplify3D(R) Version 3.0.0
; Sep 19, 2017 at 4:47:27 
; Settings Summary
;   processName,Process1
;   applyToModels,bodyfullrespect
;   profileName,1.5 fein (modified)
;   profileVersion,2017-06-09 12:06:14
;   baseProfile,German RepRap NEO (modified)
;   printMaterial,
;   printQuality,
;   printExtruders,
;   extruderName,Primary Extruder
;   extruderToolheadNumber,0
;   extruderDiameter,0.5
;   extruderAutoWidth,0
;   extruderWidth,0.49
;   extrusionMultiplier,0.9
;   extruderUseRetract,1
;   extruderRetractionDistance,6.5
;   extruderExtraRestartDistance,0
;   extruderRetractionZLift,0
;   extruderRetractionSpeed,5000
;   extruderUseCoasting,0
;   extruderCoastingDistance,0.2
;   extruderUseWipe,0
;   extruderWipeDistance,5
;   primaryExtruder,0
;   layerHeight,0.2
;   topSolidLayers,4
;   bottomSolidLayers,3
;   perimeterOutlines,3
;   printPerimetersInsideOut,1
;   startPointOption,2
;   startPointOriginX,0
;   startPointOriginY,0
;   startPointOriginZ,300
;   sequentialIslands,0
;   spiralVaseMode,0
;   firstLayerHeightPercentage,80
;   firstLayerWidthPercentage,100
;   firstLayerUnderspeed,0.3
;   useRaft,0
;   raftExtruder,0
;   raftLayers,3
;   raftOffset,3
;   raftSeparationDistance,0.1
;   raftInfill,85
;   disableRaftBaseLayers,0
;   useSkirt,1
;   skirtExtruder,0
;   skirtLayers,1
;   skirtOutlines,3
;   skirtOffset,2
;   usePrimePillar,0
;   primePillarExtruder,999
;   primePillarWidth,12
;   primePillarLocation,7
;   primePillarSpeedMultiplier,1
;   useOozeShield,0
;   oozeShieldExtruder,999
;   oozeShieldOffset,2
;   oozeShieldOutlines,1
;   oozeShieldSidewallShape,1
;   oozeShieldSidewallAngle,30
;   oozeShieldSpeedMultiplier,1
;   infillExtruder,0
;   internalInfillPattern,Full Honeycomb
;   externalInfillPattern,Rectilinear
;   infillPercentage,15
;   outlineOverlapPercentage,15
;   infillExtrusionWidthPercentage,100
;   minInfillLength,3
;   infillLayerInterval,1
;   infillAngles,0,120,-120
;   overlapInfillAngles,0
;   generateSupport,1
;   supportExtruder,0
;   supportInfillPercentage,30
;   supportExtraInflation,1
;   denseSupportLayers,0
;   denseSupportInfillPercentage,75
;   supportLayerInterval,1
;   supportHorizontalPartOffset,1.5
;   supportUpperSeparationLayers,2
;   supportLowerSeparationLayers,2
;   supportType,0
;   supportGridSpacing,4
;   maxOverhangAngle,45
;   supportAngles,45
;   temperatureName,Primary Extruder
;   temperatureNumber,0
;   temperatureSetpointCount,3
;   temperatureSetpointLayers,1,2,3
;   temperatureSetpointTemperatures,207,199,192
;   temperatureStabilizeAtStartup,1
;   temperatureHeatedBed,0
;   temperatureRelayBetweenLayers,0
;   temperatureRelayBetweenLoops,0
;   fanLayers,1,4
;   fanSpeeds,0,100
;   blipFanToFullPower,0
;   adjustSpeedForCooling,1
;   minSpeedLayerTime,15
;   minCoolingSpeedSlowdown,20
;   increaseFanForCooling,0
;   minFanLayerTime,45
;   maxCoolingFanSpeed,100
;   increaseFanForBridging,0
;   bridgingFanSpeed,100
;   use5D,1
;   relativeEdistances,0
;   allowEaxisZeroing,1
;   independentExtruderAxes,0
;   includeM10123,0
;   stickySupport,1
;   applyToolheadOffsets,0
;   gcodeXoffset,0
;   gcodeYoffset,0
;   gcodeZoffset,0
;   overrideMachineDefinition,1
;   machineTypeOverride,0
;   strokeXoverride,150
;   strokeYoverride,150
;   strokeZoverride,150
;   originOffsetXoverride,0
;   originOffsetYoverride,0
;   originOffsetZoverride,0
;   homeXdirOverride,-1
;   homeYdirOverride,-1
;   homeZdirOverride,-1
;   flipXoverride,1
;   flipYoverride,-1
;   flipZoverride,1
;   toolheadOffsets,0,0|0,0|0,0|0,0|0,0|0,0
;   overrideFirmwareConfiguration,0
;   firmwareTypeOverride,RepRap (Marlin/Repetier/Sprinter)
;   GPXconfigOverride,r2
;   baudRateOverride,115200
;   overridePrinterModels,0
;   printerModelsOverride
;   startingGcode,G28 ; home all axes
;   layerChangeGcode,
;   retractionGcode,
;   toolChangeGcode,
;   endingGcode,M104 S0 ; turn off extruder,M140 S0 ; turn off bed,G28 X0  ; home X axis,G28 Y0  ; home Y axis,M84 ; disable motors,M107
;   createX3G,0
;   celebration,0
;   celebrationSong,Random Song
;   createMB5G,0
;   postProcessing,
;   defaultSpeed,2400
;   outlineUnderspeed,0.5
;   solidInfillUnderspeed,0.8
;   supportUnderspeed,0.8
;   rapidXYspeed,3500
;   rapidZspeed,1000
;   minBridgingArea,50
;   bridgingExtraInflation,0
;   bridgingExtrusionMultiplier,1
;   bridgingSpeedMultiplier,1
;   filamentDiameter,1.75
;   filamentPricePerKg,46
;   filamentDensity,1.25
;   useMinPrintHeight,0
;   minPrintHeight,0
;   useMaxPrintHeight,0
;   maxPrintHeight,0
;   useDiaphragm,0
;   diaphragmLayerInterval,20
;   robustSlicing,1
;   mergeAllIntoSolid,0
;   onlyRetractWhenCrossingOutline,1
;   retractBetweenLayers,1
;   useRetractionMinTravel,0
;   retractionMinTravel,3
;   retractWhileWiping,0
;   onlyWipeOutlines,1
;   avoidCrossingOutline,0
;   maxMovementDetourFactor,10
;   toolChangeRetractionDistance,0
;   toolChangeExtraRestartDistance,0
;   toolChangeRetractionSpeed,360
;   allowThinWallGapFill,1
;   thinWallAllowedOverlapPercentage,10
;   horizontalSizeCompensation,0
G90
M82
M106 S0
M104 S207 T0
M109 S207 T0
G28 ; home all axes
G92 E0
G1 E-6.5000 F5000
G1 Z0.160 F1000
; layer 1, Z = 0.16
T0
; tool H0.200 W0.490
; skirt
G1 X21.590 Y15.256 F3500
G1 E0.0000 F1500
G92 E0
G1 X23.106 Y13.740 E0.0786 F720
G1 X23.556 Y13.553 E0.0965
G1 X26.895 Y13.553 E0.2189
G1 X27.413 Y13.161 E0.2428
G1 X27.413 Y13.086 E0.2455
G1 X27.425 Y12.967 E0.2499
G1 X27.526 Y12.469 E0.2685
G1 X27.561 Y12.355 E0.2729
G1 X29.111 Y8.625 E0.4210
G1 X29.168 Y8.519 E0.4254
G1 X29.453 Y8.092 E0.4443
G1 X29.530 Y7.999 E0.4487
G1 X32.462 Y5.071 E0.6006
G1 X32.555 Y4.995 E0.6050
G1 X32.983 Y4.710 E0.6239
G1 X33.089 Y4.653 E0.6283
G1 X36.823 Y3.108 E0.7765
G1 X36.938 Y3.073 E0.7809
G1 X37.442 Y2.973 E0.7997
G1 X37.562 Y2.961 E0.8041
G1 X65.809 Y2.961 E1.8400
G1 X73.646 Y0.480 E2.1414
G1 X73.737 Y0.459 E2.1448
G1 X74.134 Y0.398 E2.1595
G1 X74.227 Y0.391 E2.1630
G1 X81.257 Y0.391 E2.4207
G1 X81.707 Y0.577 E2.4386
G1 X83.223 Y2.093 E2.5172
G1 X83.410 Y2.543 E2.5351
G1 X83.410 Y3.004 E2.5520
G1 X87.219 Y3.004 E2.6917
G1 X87.669 Y3.190 E2.7095
G1 X89.185 Y4.707 E2.7882
G1 X89.372 Y5.157 E2.8060
G1 X89.372 Y10.920 E3.0174
G1 X89.185 Y11.370 E3.0352
G1 X87.669 Y12.886 E3.1139
G1 X87.219 Y13.073 E3.1317
G1 X76.827 Y13.073 E3.5128
G1 X76.827 Y19.143 E3.7354
G1 X87.219 Y19.143 E4.1164
G1 X87.669 Y19.329 E4.1343
G1 X89.186 Y20.845 E4.2129
G1 X89.372 Y21.296 E4.2308
G1 X89.372 Y44.993 E5.0998
G1 X89.186 Y45.443 E5.1176
G1 X87.669 Y46.959 E5.1962
G1 X87.219 Y47.145 E5.2141
G1 X83.410 Y47.145 E5.3538
G1 X83.410 Y47.691 E5.3738
G1 X83.223 Y48.141 E5.3917
G1 X81.707 Y49.657 E5.4703
G1 X81.257 Y49.843 E5.4882
G1 X74.722 Y49.843 E5.7278
G1 X64.126 Y51.619 E6.1217
G1 X64.076 Y51.626 E6.1236
G1 X63.860 Y51.644 E6.1316
G1 X63.809 Y51.646 E6.1334
G1 X53.930 Y51.645 E6.4957
G1 X53.480 Y51.459 E6.5135
G1 X51.964 Y49.943 E6.5922
G1 X51.777 Y49.493 E6.6100
G1 X51.777 Y47.182 E6.6948
G1 X37.507 Y47.182 E7.2181
G1 X37.387 Y47.170 E7.2225
G1 X36.882 Y47.070 E7.2413
G1 X36.767 Y47.035 E7.2458
G1 X35.261 Y46.411 E7.3055
G1 X34.506 Y47.164 E7.3447
G1 X34.056 Y47.350 E7.3625
G1 X31.912 Y47.349 E7.4412
G1 X31.462 Y47.162 E7.4590
G1 X27.389 Y43.084 E7.6704
G1 X27.203 Y42.633 E7.6882
G1 X27.204 Y40.489 E7.7669
G1 X27.391 Y40.039 E7.7847
G1 X28.146 Y39.285 E7.8239
G1 X27.523 Y37.777 E7.8837
G1 X27.488 Y37.661 E7.8881
G1 X27.389 Y37.152 E7.9072
G1 X27.377 Y37.031 E7.9116
G1 X27.379 Y36.593 E7.9277
G1 X26.823 Y36.136 E7.9540
G1 X23.556 Y36.136 E8.0739
G1 X23.106 Y35.950 E8.0917
G1 X21.590 Y34.433 E8.1704
G1 X21.403 Y33.983 E8.1882
G1 X21.403 Y30.738 E8.3072
G1 X21.077 Y30.550 E8.3210
G1 X21.023 Y30.515 E8.3234
G1 X20.801 Y30.354 E8.3334
G1 X20.752 Y30.313 E8.3358
G1 X20.132 Y29.756 E8.3663
G1 X20.098 Y29.722 E8.3681
G1 X19.957 Y29.573 E8.3756
G1 X19.925 Y29.537 E8.3774
G1 X19.609 Y29.147 E8.3958
G1 X19.580 Y29.108 E8.3976
G1 X19.464 Y28.939 E8.4051
G1 X19.438 Y28.898 E8.4069
G1 X19.021 Y28.177 E8.4374
G1 X18.992 Y28.120 E8.4398
G1 X18.881 Y27.869 E8.4498
G1 X18.858 Y27.810 E8.4522
G1 X18.590 Y26.985 E8.4840
G1 X18.573 Y26.923 E8.4863
G1 X18.516 Y26.655 E8.4964
G1 X18.506 Y26.591 E8.4987
G1 X18.422 Y25.791 E8.5283
G1 X18.419 Y25.756 E8.5295
G1 X18.412 Y25.607 E8.5350
G1 X18.412 Y25.572 E8.5363
G1 X18.429 Y23.731 E8.6038
G1 X18.433 Y23.670 E8.6060
G1 X18.461 Y23.410 E8.6156
G1 X18.471 Y23.349 E8.6179
G1 X18.650 Y22.507 E8.6495
G1 X18.667 Y22.445 E8.6518
G1 X18.751 Y22.185 E8.6618
G1 X18.774 Y22.125 E8.6642
G1 X19.127 Y21.332 E8.6960
G1 X19.156 Y21.275 E8.6984
G1 X19.293 Y21.038 E8.7084
G1 X19.328 Y20.984 E8.7108
G1 X19.818 Y20.310 E8.7413
G1 X19.848 Y20.272 E8.7431
G1 X19.981 Y20.116 E8.7506
G1 X20.014 Y20.081 E8.7524
G1 X20.369 Y19.725 E8.7708
G1 X20.404 Y19.693 E8.7726
G1 X20.560 Y19.559 E8.7801
G1 X20.598 Y19.530 E8.7819
G1 X21.272 Y19.040 E8.8124
G1 X21.326 Y19.005 E8.8148
G1 X21.403 Y18.960 E8.8180
G1 X21.403 Y15.706 E8.9374
G1 X21.590 Y15.256 E8.9552
G1 X22.005 Y15.533 F3500
G92 E0
G1 X23.383 Y14.155 E0.0715 F720
G1 X23.653 Y14.043 E0.0822
G1 X27.060 Y14.043 E0.2071
G1 X27.902 Y13.405 E0.2458
G1 X27.903 Y13.112 E0.2566
G1 X27.910 Y13.041 E0.2592
G1 X28.002 Y12.589 E0.2761
G1 X28.023 Y12.521 E0.2787
G1 X29.554 Y8.835 E0.4251
G1 X29.588 Y8.772 E0.4277
G1 X29.847 Y8.385 E0.4448
G1 X29.893 Y8.329 E0.4474
G1 X32.791 Y5.435 E0.5976
G1 X32.847 Y5.389 E0.6003
G1 X33.235 Y5.130 E0.6174
G1 X33.298 Y5.096 E0.6200
G1 X36.988 Y3.570 E0.7664
G1 X37.057 Y3.549 E0.7691
G1 X37.514 Y3.458 E0.7862
G1 X37.586 Y3.451 E0.7888
G1 X65.885 Y3.451 E1.8265
G1 X73.776 Y0.953 E2.1300
G1 X73.831 Y0.940 E2.1321
G1 X74.190 Y0.885 E2.1454
G1 X74.246 Y0.881 E2.1475
G1 X81.159 Y0.881 E2.4010
G1 X81.430 Y0.992 E2.4117
G1 X82.808 Y2.371 E2.4832
G1 X82.920 Y2.641 E2.4939
G1 X82.920 Y3.494 E2.5252
G1 X87.121 Y3.494 E2.6793
G1 X87.391 Y3.606 E2.6900
G1 X88.770 Y4.984 E2.7615
G1 X88.882 Y5.254 E2.7722
G1 X88.882 Y10.823 E2.9764
G1 X88.770 Y11.093 E2.9871
G1 X87.391 Y12.471 E3.0586
G1 X87.121 Y12.583 E3.0693
G1 X76.337 Y12.583 E3.4647
G1 X76.337 Y19.633 E3.7233
G1 X87.122 Y19.633 E4.1187
G1 X87.392 Y19.745 E4.1295
G1 X88.770 Y21.123 E4.2009
G1 X88.882 Y21.393 E4.2117
G1 X88.882 Y44.895 E5.0735
G1 X88.770 Y45.165 E5.0842
G1 X87.392 Y46.544 E5.1557
G1 X87.122 Y46.655 E5.1664
G1 X82.920 Y46.655 E5.3205
G1 X82.920 Y47.593 E5.3548
G1 X82.808 Y47.863 E5.3656
G1 X81.430 Y49.242 E5.4370
G1 X81.159 Y49.353 E5.4478
G1 X74.681 Y49.353 E5.6853
G1 X64.055 Y51.134 E6.0804
G1 X64.025 Y51.138 E6.0815
G1 X63.829 Y51.154 E6.0887
G1 X63.799 Y51.156 E6.0898
G1 X54.028 Y51.155 E6.4481
G1 X53.758 Y51.044 E6.4588
G1 X52.379 Y49.665 E6.5303
G1 X52.267 Y49.395 E6.5410
G1 X52.267 Y46.692 E6.6402
G1 X37.531 Y46.692 E7.1806
G1 X37.459 Y46.685 E7.1832
G1 X37.002 Y46.594 E7.2003
G1 X36.933 Y46.573 E7.2030
G1 X35.146 Y45.833 E7.2739
G1 X34.229 Y46.749 E7.3214
G1 X33.959 Y46.860 E7.3321
G1 X32.010 Y46.859 E7.4036
G1 X31.740 Y46.747 E7.4143
G1 X27.805 Y42.806 E7.6185
G1 X27.693 Y42.536 E7.6292
G1 X27.694 Y40.587 E7.7007
G1 X27.807 Y40.317 E7.7114
G1 X28.724 Y39.401 E7.7590
G1 X27.986 Y37.612 E7.8299
G1 X27.965 Y37.543 E7.8326
G1 X27.874 Y37.081 E7.8498
G1 X27.867 Y37.009 E7.8525
G1 X27.870 Y36.363 E7.8762
G1 X26.999 Y35.646 E7.9176
G1 X23.653 Y35.646 E8.0402
G1 X23.383 Y35.534 E8.0510
G1 X22.005 Y34.156 E8.1224
G1 X21.893 Y33.886 E8.1332
G1 X21.893 Y30.455 E8.2589
G1 X21.333 Y30.132 E8.2827
G1 X21.301 Y30.111 E8.2841
G1 X21.100 Y29.965 E8.2932
G1 X21.070 Y29.941 E8.2946
G1 X20.467 Y29.398 E8.3243
G1 X20.447 Y29.378 E8.3254
G1 X20.319 Y29.243 E8.3322
G1 X20.300 Y29.221 E8.3333
G1 X19.995 Y28.846 E8.3510
G1 X19.978 Y28.823 E8.3520
G1 X19.873 Y28.669 E8.3589
G1 X19.857 Y28.645 E8.3599
G1 X19.452 Y27.943 E8.3897
G1 X19.435 Y27.909 E8.3911
G1 X19.334 Y27.682 E8.4002
G1 X19.320 Y27.646 E8.4016
G1 X19.060 Y26.845 E8.4324
G1 X19.050 Y26.808 E8.4339
G1 X18.998 Y26.565 E8.4430
G1 X18.992 Y26.527 E8.4444
G1 X18.910 Y25.746 E8.4732
G1 X18.908 Y25.725 E8.4739
G1 X18.902 Y25.590 E8.4789
G1 X18.902 Y25.569 E8.4797
G1 X18.919 Y23.748 E8.5465
G1 X18.921 Y23.711 E8.5478
G1 X18.947 Y23.476 E8.5565
G1 X18.953 Y23.439 E8.5578
G1 X19.127 Y22.621 E8.5885
G1 X19.137 Y22.584 E8.5899
G1 X19.213 Y22.348 E8.5990
G1 X19.227 Y22.312 E8.6004
G1 X19.569 Y21.543 E8.6313
G1 X19.587 Y21.509 E8.6327
G1 X19.711 Y21.294 E8.6418
G1 X19.732 Y21.262 E8.6432
G1 X20.209 Y20.606 E8.6730
G1 X20.226 Y20.583 E8.6740
G1 X20.347 Y20.442 E8.6808
G1 X20.367 Y20.420 E8.6819
G1 X20.709 Y20.079 E8.6996
G1 X20.730 Y20.059 E8.7007
G1 X20.871 Y19.938 E8.7075
G1 X20.894 Y19.920 E8.7086
G1 X21.550 Y19.444 E8.7383
G1 X21.582 Y19.423 E8.7397
G1 X21.797 Y19.299 E8.7488
G1 X21.831 Y19.281 E8.7502
G1 X21.893 Y19.254 E8.7527
G1 X21.893 Y15.804 E8.8792
G1 X22.005 Y15.534 E8.8899
G1 X22.420 Y15.811 F3500
G92 E0
G1 X23.661 Y14.571 E0.0643 F720
G1 X23.751 Y14.533 E0.0679
G1 X27.225 Y14.533 E0.1953
G1 X28.390 Y13.649 E0.2489
G1 X28.393 Y13.139 E0.2677
G1 X28.395 Y13.115 E0.2685
G1 X28.477 Y12.710 E0.2837
G1 X28.484 Y12.687 E0.2846
G1 X29.997 Y9.046 E0.4292
G1 X30.009 Y9.024 E0.4300
G1 X30.241 Y8.677 E0.4454
G1 X30.256 Y8.659 E0.4462
G1 X33.121 Y5.798 E0.5947
G1 X33.139 Y5.783 E0.5956
G1 X33.487 Y5.551 E0.6109
G1 X33.508 Y5.540 E0.6117
G1 X37.153 Y4.032 E0.7564
G1 X37.176 Y4.025 E0.7573
G1 X37.586 Y3.943 E0.7726
G1 X37.610 Y3.941 E0.7735
G1 X65.961 Y3.941 E1.8131
G1 X73.906 Y1.426 E2.1187
G1 X73.924 Y1.422 E2.1194
G1 X74.246 Y1.372 E2.1313
G1 X74.265 Y1.371 E2.1320
G1 X81.062 Y1.371 E2.3813
G1 X81.152 Y1.408 E2.3848
G1 X82.392 Y2.648 E2.4492
G1 X82.430 Y2.738 E2.4527
G1 X82.430 Y3.984 E2.4984
G1 X87.024 Y3.984 E2.6669
G1 X87.114 Y4.021 E2.6704
G1 X88.354 Y5.262 E2.7348
G1 X88.392 Y5.352 E2.7383
G1 X88.392 Y10.725 E2.9354
G1 X88.354 Y10.815 E2.9390
G1 X87.114 Y12.056 E3.0033
G1 X87.024 Y12.093 E3.0069
G1 X75.847 Y12.093 E3.4167
G1 X75.847 Y20.123 E3.7112
G1 X87.024 Y20.123 E4.1210
G1 X87.114 Y20.160 E4.1246
G1 X88.355 Y21.401 E4.1889
G1 X88.392 Y21.491 E4.1925
G1 X88.392 Y44.798 E5.0472
G1 X88.355 Y44.888 E5.0507
G1 X87.114 Y46.128 E5.1151
G1 X87.024 Y46.165 E5.1186
G1 X82.430 Y46.165 E5.2871
G1 X82.430 Y47.496 E5.3359
G1 X82.392 Y47.586 E5.3395
G1 X81.152 Y48.826 E5.4038
G1 X81.062 Y48.863 E5.4074
G1 X74.640 Y48.863 E5.6428
G1 X63.984 Y50.649 E6.0390
G1 X63.974 Y50.651 E6.0394
G1 X63.799 Y50.665 E6.0459
G1 X63.788 Y50.666 E6.0462
G1 X54.125 Y50.665 E6.4006
G1 X54.035 Y50.628 E6.4042
G1 X52.795 Y49.388 E6.4685
G1 X52.757 Y49.298 E6.4721
G1 X52.757 Y46.202 E6.5856
G1 X37.555 Y46.202 E7.1430
G1 X37.531 Y46.200 E7.1439
G1 X37.121 Y46.118 E7.1593
G1 X37.098 Y46.111 E7.1602
G1 X35.032 Y45.255 E7.2422
G1 X33.952 Y46.333 E7.2981
G1 X33.862 Y46.370 E7.3017
G1 X32.108 Y46.369 E7.3660
G1 X32.017 Y46.332 E7.3696
G1 X28.220 Y42.529 E7.5667
G1 X28.183 Y42.439 E7.5702
G1 X28.184 Y40.685 E7.6346
G1 X28.222 Y40.595 E7.6381
G1 X29.302 Y39.516 E7.6941
G1 X28.448 Y37.448 E7.7762
G1 X28.441 Y37.425 E7.7771
G1 X28.360 Y37.011 E7.7925
G1 X28.357 Y36.987 E7.7934
G1 X28.361 Y36.132 E7.8247
G1 X27.175 Y35.156 E7.8811
G1 X23.751 Y35.156 E8.0066
G1 X23.661 Y35.119 E8.0102
G1 X22.420 Y33.878 E8.0745
G1 X22.383 Y33.788 E8.0781
G1 X22.383 Y30.162 E8.2111
G1 X22.307 Y30.128 E8.2141
G1 X22.296 Y30.122 E8.2146
G1 X21.589 Y29.714 E8.2445
G1 X21.578 Y29.707 E8.2450
G1 X21.398 Y29.576 E8.2532
G1 X21.388 Y29.568 E8.2536
G1 X20.802 Y29.040 E8.2825
G1 X20.795 Y29.034 E8.2829
G1 X20.681 Y28.913 E8.2890
G1 X20.674 Y28.906 E8.2894
G1 X20.382 Y28.545 E8.3064
G1 X20.377 Y28.537 E8.3067
G1 X20.282 Y28.400 E8.3128
G1 X20.277 Y28.392 E8.3132
G1 X19.883 Y27.709 E8.3421
G1 X19.877 Y27.698 E8.3426
G1 X19.787 Y27.494 E8.3507
G1 X19.782 Y27.482 E8.3512
G1 X19.530 Y26.706 E8.3811
G1 X19.526 Y26.694 E8.3816
G1 X19.480 Y26.476 E8.3898
G1 X19.478 Y26.463 E8.3902
G1 X19.398 Y25.702 E8.4183
G1 X19.398 Y25.695 E8.4186
G1 X19.392 Y25.574 E8.4230
G1 X19.392 Y25.567 E8.4233
G1 X19.409 Y23.765 E8.4894
G1 X19.410 Y23.752 E8.4898
G1 X19.433 Y23.541 E8.4976
G1 X19.435 Y23.529 E8.4980
G1 X19.603 Y22.736 E8.5278
G1 X19.607 Y22.723 E8.5282
G1 X19.675 Y22.512 E8.5364
