; G-Code generated by Simplify3D(R) Version 3.0.0
; Jul 7, 2017 at 10:42:54 
; Settings Summary
;   processName,Process1
;   applyToModels,elekpack
;   profileName,juli (modified)
;   profileVersion,2017-06-09 12:06:14
;   baseProfile,German RepRap NEO (modified)
;   printMaterial,
;   printQuality,
;   printExtruders,
;   extruderName,Primary Extruder
;   extruderToolheadNumber,0
;   extruderDiameter,0.5
;   extruderAutoWidth,0
;   extruderWidth,0.49
;   extrusionMultiplier,0.9
;   extruderUseRetract,1
;   extruderRetractionDistance,6.5
;   extruderExtraRestartDistance,0
;   extruderRetractionZLift,0
;   extruderRetractionSpeed,5000
;   extruderUseCoasting,0
;   extruderCoastingDistance,0.2
;   extruderUseWipe,0
;   extruderWipeDistance,5
;   primaryExtruder,0
;   layerHeight,0.35
;   topSolidLayers,4
;   bottomSolidLayers,3
;   perimeterOutlines,3
;   printPerimetersInsideOut,1
;   startPointOption,2
;   startPointOriginX,0
;   startPointOriginY,0
;   startPointOriginZ,300
;   sequentialIslands,0
;   spiralVaseMode,0
;   firstLayerHeightPercentage,70
;   firstLayerWidthPercentage,100
;   firstLayerUnderspeed,0.3
;   useRaft,0
;   raftExtruder,0
;   raftLayers,3
;   raftOffset,3
;   raftSeparationDistance,0.1
;   raftInfill,85
;   disableRaftBaseLayers,0
;   useSkirt,1
;   skirtExtruder,0
;   skirtLayers,1
;   skirtOutlines,1
;   skirtOffset,2
;   usePrimePillar,0
;   primePillarExtruder,999
;   primePillarWidth,12
;   primePillarLocation,7
;   primePillarSpeedMultiplier,1
;   useOozeShield,0
;   oozeShieldExtruder,999
;   oozeShieldOffset,2
;   oozeShieldOutlines,1
;   oozeShieldSidewallShape,1
;   oozeShieldSidewallAngle,30
;   oozeShieldSpeedMultiplier,1
;   infillExtruder,0
;   internalInfillPattern,Full Honeycomb
;   externalInfillPattern,Rectilinear
;   infillPercentage,10
;   outlineOverlapPercentage,15
;   infillExtrusionWidthPercentage,100
;   minInfillLength,3
;   infillLayerInterval,1
;   infillAngles,0,120,-120
;   overlapInfillAngles,0
;   generateSupport,0
;   supportExtruder,0
;   supportInfillPercentage,30
;   supportExtraInflation,0
;   denseSupportLayers,0
;   denseSupportInfillPercentage,75
;   supportLayerInterval,1
;   supportHorizontalPartOffset,2
;   supportUpperSeparationLayers,2
;   supportLowerSeparationLayers,2
;   supportType,0
;   supportGridSpacing,4
;   maxOverhangAngle,45
;   supportAngles,45
;   temperatureName,Primary Extruder
;   temperatureNumber,0
;   temperatureSetpointCount,3
;   temperatureSetpointLayers,1,2,3
;   temperatureSetpointTemperatures,207,199,192
;   temperatureStabilizeAtStartup,1
;   temperatureHeatedBed,0
;   temperatureRelayBetweenLayers,0
;   temperatureRelayBetweenLoops,0
;   fanLayers,1,3
;   fanSpeeds,0,100
;   blipFanToFullPower,0
;   adjustSpeedForCooling,1
;   minSpeedLayerTime,15
;   minCoolingSpeedSlowdown,20
;   increaseFanForCooling,0
;   minFanLayerTime,45
;   maxCoolingFanSpeed,100
;   increaseFanForBridging,0
;   bridgingFanSpeed,100
;   use5D,1
;   relativeEdistances,0
;   allowEaxisZeroing,1
;   independentExtruderAxes,0
;   includeM10123,0
;   stickySupport,1
;   applyToolheadOffsets,0
;   gcodeXoffset,0
;   gcodeYoffset,0
;   gcodeZoffset,0
;   overrideMachineDefinition,1
;   machineTypeOverride,0
;   strokeXoverride,150
;   strokeYoverride,150
;   strokeZoverride,150
;   originOffsetXoverride,0
;   originOffsetYoverride,0
;   originOffsetZoverride,0
;   homeXdirOverride,-1
;   homeYdirOverride,-1
;   homeZdirOverride,-1
;   flipXoverride,1
;   flipYoverride,-1
;   flipZoverride,1
;   toolheadOffsets,0,0|0,0|0,0|0,0|0,0|0,0
;   overrideFirmwareConfiguration,0
;   firmwareTypeOverride,RepRap (Marlin/Repetier/Sprinter)
;   GPXconfigOverride,r2
;   baudRateOverride,115200
;   overridePrinterModels,0
;   printerModelsOverride
;   startingGcode,G28 ; home all axes
;   layerChangeGcode,
;   retractionGcode,
;   toolChangeGcode,
;   endingGcode,M104 S0 ; turn off extruder,M140 S0 ; turn off bed,G28 X0  ; home X axis,G28 Y0  ; home Y axis,M84 ; disable motors,M107
;   createX3G,0
;   celebration,0
;   celebrationSong,Random Song
;   createMB5G,0
;   postProcessing,
;   defaultSpeed,2400
;   outlineUnderspeed,0.5
;   solidInfillUnderspeed,0.8
;   supportUnderspeed,0.8
;   rapidXYspeed,3500
;   rapidZspeed,1000
;   minBridgingArea,50
;   bridgingExtraInflation,0
;   bridgingExtrusionMultiplier,1
;   bridgingSpeedMultiplier,1
;   filamentDiameter,1.75
;   filamentPricePerKg,46
;   filamentDensity,1.25
;   useMinPrintHeight,0
;   minPrintHeight,0
;   useMaxPrintHeight,0
;   maxPrintHeight,0
;   useDiaphragm,0
;   diaphragmLayerInterval,20
;   robustSlicing,1
;   mergeAllIntoSolid,0
;   onlyRetractWhenCrossingOutline,1
;   retractBetweenLayers,1
;   useRetractionMinTravel,0
;   retractionMinTravel,3
;   retractWhileWiping,0
;   onlyWipeOutlines,1
;   avoidCrossingOutline,0
;   maxMovementDetourFactor,10
;   toolChangeRetractionDistance,0
;   toolChangeExtraRestartDistance,0
;   toolChangeRetractionSpeed,360
;   allowThinWallGapFill,1
;   thinWallAllowedOverlapPercentage,10
;   horizontalSizeCompensation,0
G90
M82
M106 S0
M104 S207 T0
M109 S207 T0
G28 ; home all axes
G92 E0
G1 E-6.5000 F5000
G1 Z0.245 F1000
; layer 1, Z = 0.245
T0
; tool H0.350 W0.490
; skirt
G1 X6.440 Y15.449 F3500
G1 E0.0000 F1500
G92 E0
G1 X6.455 Y15.446 E0.0010 F720
G1 X7.827 Y15.265 E0.0898
G1 X7.835 Y15.264 E0.0903
G1 X7.973 Y15.255 E0.0992
G1 X7.981 Y15.255 E0.0997
G1 X9.075 Y15.255 E0.1699
G1 X9.083 Y15.255 E0.1704
G1 X9.222 Y15.264 E0.1794
G1 X9.230 Y15.265 E0.1799
G1 X10.601 Y15.446 E0.2687
G1 X10.617 Y15.449 E0.2697
G1 X10.886 Y15.521 E0.2875
G1 X10.901 Y15.526 E0.2886
G1 X12.243 Y16.082 E0.3818
G1 X12.258 Y16.089 E0.3828
G1 X12.499 Y16.228 E0.4007
G1 X12.512 Y16.237 E0.4017
G1 X13.665 Y17.122 E0.4950
G1 X13.677 Y17.132 E0.4960
G1 X13.874 Y17.329 E0.5138
G1 X13.884 Y17.341 E0.5149
G1 X14.769 Y18.494 E0.6081
G1 X14.778 Y18.507 E0.6091
G1 X14.917 Y18.748 E0.6270
G1 X14.924 Y18.762 E0.6280
G1 X15.480 Y20.105 E0.7213
G1 X15.485 Y20.120 E0.7223
G1 X15.557 Y20.389 E0.7401
G1 X15.560 Y20.404 E0.7412
G1 X15.741 Y21.776 E0.8299
G1 X15.741 Y21.784 E0.8304
G1 X15.751 Y21.922 E0.8394
G1 X15.751 Y21.931 E0.8399
G1 X15.751 Y24.255 E0.9890
G1 X133.261 Y24.255 E8.5298
G1 X133.261 Y21.931 E8.6790
G1 X133.261 Y21.922 E8.6795
G1 X133.270 Y21.784 E8.6884
G1 X133.271 Y21.776 E8.6889
G1 X133.451 Y20.404 E8.7777
G1 X133.455 Y20.389 E8.7787
G1 X133.527 Y20.120 E8.7966
G1 X133.532 Y20.105 E8.7976
G1 X134.088 Y18.762 E8.8908
G1 X134.095 Y18.748 E8.8919
G1 X134.234 Y18.507 E8.9097
G1 X134.243 Y18.494 E8.9108
G1 X135.127 Y17.341 E9.0040
G1 X135.138 Y17.329 E9.0050
G1 X135.335 Y17.132 E9.0229
G1 X135.347 Y17.122 E9.0239
G1 X136.499 Y16.237 E9.1171
G1 X136.513 Y16.228 E9.1182
G1 X136.754 Y16.089 E9.1360
G1 X136.768 Y16.082 E9.1371
G1 X138.110 Y15.526 E9.2303
G1 X138.126 Y15.521 E9.2313
G1 X138.394 Y15.449 E9.2492
G1 X138.410 Y15.446 E9.2502
G1 X139.782 Y15.265 E9.3390
G1 X139.790 Y15.264 E9.3395
G1 X139.928 Y15.255 E9.3484
G1 X139.936 Y15.255 E9.3489
G1 X142.075 Y15.255 E9.4862
G1 X142.083 Y15.255 E9.4867
G1 X142.222 Y15.264 E9.4956
G1 X142.230 Y15.265 E9.4961
G1 X143.601 Y15.446 E9.5849
G1 X143.617 Y15.449 E9.5859
G1 X143.886 Y15.521 E9.6038
G1 X143.901 Y15.526 E9.6048
G1 X145.243 Y16.082 E9.6980
G1 X145.258 Y16.089 E9.6991
G1 X145.499 Y16.228 E9.7169
G1 X145.512 Y16.237 E9.7180
G1 X146.665 Y17.122 E9.8112
G1 X146.677 Y17.132 E9.8122
G1 X146.874 Y17.329 E9.8301
G1 X146.884 Y17.341 E9.8311
G1 X147.769 Y18.494 E9.9243
G1 X147.778 Y18.507 E9.9254
G1 X147.917 Y18.748 E9.9432
G1 X147.924 Y18.762 E9.9443
G1 X148.480 Y20.105 E10.0375
G1 X148.485 Y20.120 E10.0385
G1 X148.557 Y20.389 E10.0564
G1 X148.560 Y20.404 E10.0574
G1 X148.741 Y21.776 E10.1462
G1 X148.741 Y21.784 E10.1467
G1 X148.751 Y21.923 E10.1556
G1 X148.751 Y21.931 E10.1561
G1 X148.751 Y32.050 E10.8055
G1 X148.751 Y32.057 E10.8059
G1 X148.744 Y32.176 E10.8136
G1 X148.743 Y32.183 E10.8140
G1 X148.610 Y33.362 E10.8902
G1 X148.608 Y33.375 E10.8910
G1 X148.555 Y33.608 E10.9063
G1 X148.551 Y33.621 E10.9072
G1 X148.140 Y34.797 E10.9872
G1 X148.134 Y34.810 E10.9881
G1 X148.031 Y35.024 E11.0034
G1 X148.024 Y35.036 E11.0042
G1 X147.362 Y36.091 E11.0842
G1 X147.354 Y36.103 E11.0851
G1 X147.205 Y36.289 E11.1004
G1 X147.196 Y36.299 E11.1013
G1 X146.315 Y37.180 E11.1812
G1 X146.304 Y37.190 E11.1821
G1 X146.118 Y37.338 E11.1974
G1 X146.107 Y37.346 E11.1983
G1 X145.052 Y38.009 E11.2783
G1 X145.040 Y38.016 E11.2791
G1 X144.825 Y38.119 E11.2944
G1 X144.812 Y38.124 E11.2953
G1 X143.636 Y38.536 E11.3753
G1 X143.623 Y38.540 E11.3762
G1 X143.390 Y38.593 E11.3915
G1 X143.377 Y38.595 E11.3923
G1 X142.198 Y38.728 E11.4685
G1 X142.191 Y38.729 E11.4689
G1 X142.072 Y38.735 E11.4766
G1 X142.065 Y38.735 E11.4770
G1 X140.751 Y38.735 E11.5614
G1 X140.751 Y111.255 E16.2150
G1 X142.073 Y111.255 E16.2999
G1 X142.081 Y111.255 E16.3004
G1 X142.219 Y111.264 E16.3093
G1 X142.227 Y111.265 E16.3098
G1 X143.601 Y111.446 E16.3987
G1 X143.617 Y111.449 E16.3997
G1 X143.886 Y111.521 E16.4176
G1 X143.901 Y111.526 E16.4186
G1 X145.243 Y112.082 E16.5119
G1 X145.258 Y112.089 E16.5129
G1 X145.499 Y112.228 E16.5308
G1 X145.512 Y112.237 E16.5318
G1 X146.665 Y113.122 E16.6250
G1 X146.677 Y113.132 E16.6261
G1 X146.874 Y113.329 E16.6439
G1 X146.884 Y113.341 E16.6449
G1 X147.769 Y114.494 E16.7382
G1 X147.778 Y114.507 E16.7392
G1 X147.917 Y114.748 E16.7571
G1 X147.924 Y114.762 E16.7581
G1 X148.480 Y116.105 E16.8513
G1 X148.485 Y116.120 E16.8524
G1 X148.557 Y116.389 E16.8702
G1 X148.560 Y116.404 E16.8713
G1 X148.741 Y117.776 E16.9600
G1 X148.741 Y117.784 E16.9605
G1 X148.751 Y117.923 E16.9695
G1 X148.751 Y117.931 E16.9700
G1 X148.751 Y128.069 E17.6206
G1 X148.751 Y128.077 E17.6211
G1 X148.741 Y128.216 E17.6300
G1 X148.741 Y128.224 E17.6305
G1 X148.560 Y129.596 E17.7193
G1 X148.557 Y129.611 E17.7203
G1 X148.485 Y129.880 E17.7382
G1 X148.480 Y129.895 E17.7392
G1 X147.924 Y131.238 E17.8325
G1 X147.917 Y131.252 E17.8335
G1 X147.778 Y131.493 E17.8513
G1 X147.769 Y131.506 E17.8524
G1 X146.884 Y132.659 E17.9456
G1 X146.874 Y132.671 E17.9466
G1 X146.677 Y132.868 E17.9645
G1 X146.665 Y132.878 E17.9655
G1 X145.512 Y133.763 E18.0588
G1 X145.499 Y133.772 E18.0598
G1 X145.258 Y133.911 E18.0776
G1 X145.243 Y133.918 E18.0787
G1 X143.901 Y134.474 E18.1719
G1 X143.886 Y134.479 E18.1729
G1 X143.617 Y134.551 E18.1908
G1 X143.601 Y134.554 E18.1918
G1 X142.230 Y134.735 E18.2806
G1 X142.222 Y134.736 E18.2811
G1 X142.083 Y134.745 E18.2900
G1 X142.075 Y134.745 E18.2905
G1 X139.936 Y134.745 E18.4278
G1 X139.928 Y134.745 E18.4283
G1 X139.790 Y134.736 E18.4372
G1 X139.782 Y134.735 E18.4377
G1 X138.410 Y134.554 E18.5265
G1 X138.394 Y134.551 E18.5275
G1 X138.126 Y134.479 E18.5454
G1 X138.110 Y134.474 E18.5464
G1 X136.768 Y133.918 E18.6397
G1 X136.754 Y133.911 E18.6407
G1 X136.513 Y133.772 E18.6585
G1 X136.499 Y133.763 E18.6596
G1 X135.347 Y132.878 E18.7528
G1 X135.335 Y132.868 E18.7538
G1 X135.138 Y132.671 E18.7717
G1 X135.127 Y132.659 E18.7727
G1 X134.243 Y131.506 E18.8660
G1 X134.234 Y131.493 E18.8670
G1 X134.095 Y131.252 E18.8848
G1 X134.088 Y131.238 E18.8859
G1 X133.532 Y129.895 E18.9791
G1 X133.527 Y129.880 E18.9801
G1 X133.455 Y129.611 E18.9980
G1 X133.451 Y129.596 E18.9990
G1 X133.271 Y128.224 E19.0878
G1 X133.270 Y128.216 E19.0883
G1 X133.261 Y128.078 E19.0972
G1 X133.261 Y128.070 E19.0977
G1 X133.261 Y125.745 E19.2469
G1 X15.745 Y125.745 E26.7880
G1 X15.739 Y128.075 E26.9376
G1 X15.739 Y128.083 E26.9381
G1 X15.729 Y128.222 E26.9470
G1 X15.728 Y128.230 E26.9475
G1 X15.544 Y129.601 E27.0363
G1 X15.541 Y129.617 E27.0373
G1 X15.468 Y129.885 E27.0552
G1 X15.463 Y129.900 E27.0562
G1 X14.904 Y131.241 E27.1494
G1 X14.897 Y131.256 E27.1505
G1 X14.757 Y131.496 E27.1683
G1 X14.748 Y131.510 E27.1694
G1 X13.861 Y132.660 E27.2626
G1 X13.850 Y132.672 E27.2636
G1 X13.653 Y132.868 E27.2815
G1 X13.641 Y132.879 E27.2825
G1 X12.486 Y133.760 E27.3757
G1 X12.472 Y133.769 E27.3768
G1 X12.231 Y133.908 E27.3946
G1 X12.217 Y133.915 E27.3957
G1 X10.873 Y134.467 E27.4889
G1 X10.858 Y134.472 E27.4899
G1 X10.589 Y134.544 E27.5078
G1 X10.573 Y134.547 E27.5088
G1 X9.201 Y134.724 E27.5976
G1 X9.193 Y134.725 E27.5981
G1 X9.054 Y134.733 E27.6070
G1 X9.046 Y134.734 E27.6075
G1 X7.907 Y134.731 E27.6806
G1 X7.899 Y134.730 E27.6811
G1 X7.761 Y134.721 E27.6900
G1 X7.753 Y134.720 E27.6906
G1 X6.382 Y134.536 E27.7793
G1 X6.366 Y134.533 E27.7804
G1 X6.097 Y134.460 E27.7982
G1 X6.082 Y134.455 E27.7992
G1 X4.741 Y133.895 E27.8925
G1 X4.727 Y133.888 E27.8935
G1 X4.486 Y133.749 E27.9114
G1 X4.473 Y133.740 E27.9124
G1 X3.323 Y132.852 E28.0056
G1 X3.311 Y132.842 E28.0067
G1 X3.114 Y132.644 E28.0245
G1 X3.104 Y132.632 E28.0255
G1 X2.222 Y131.477 E28.1188
G1 X2.213 Y131.464 E28.1198
G1 X2.075 Y131.223 E28.1377
G1 X2.068 Y131.208 E28.1387
G1 X1.515 Y129.864 E28.2319
G1 X1.510 Y129.849 E28.2330
G1 X1.439 Y129.580 E28.2508
G1 X1.436 Y129.565 E28.2518
G1 X1.259 Y128.192 E28.3406
G1 X1.258 Y128.185 E28.3411
G1 X1.249 Y128.046 E28.3501
G1 X1.249 Y128.038 E28.3506
G1 X1.276 Y118.221 E28.9805
G1 X1.276 Y118.214 E28.9810
G1 X1.284 Y118.090 E28.9889
G1 X1.284 Y118.083 E28.9894
G1 X1.425 Y116.903 E29.0657
G1 X1.428 Y116.889 E29.0665
G1 X1.482 Y116.658 E29.0818
G1 X1.486 Y116.645 E29.0827
G1 X1.905 Y115.471 E29.1627
G1 X1.911 Y115.458 E29.1636
G1 X2.015 Y115.244 E29.1788
G1 X2.022 Y115.232 E29.1797
G1 X2.691 Y114.181 E29.2597
G1 X2.699 Y114.169 E29.2606
G1 X2.849 Y113.984 E29.2759
G1 X2.858 Y113.974 E29.2767
G1 X3.744 Y113.097 E29.3567
G1 X3.754 Y113.088 E29.3576
G1 X3.941 Y112.941 E29.3729
G1 X3.952 Y112.933 E29.3738
G1 X5.011 Y112.274 E29.4538
G1 X5.023 Y112.268 E29.4546
G1 X5.237 Y112.166 E29.4699
G1 X5.250 Y112.160 E29.4708
G1 X6.428 Y111.753 E29.5508
G1 X6.442 Y111.750 E29.5517
G1 X6.674 Y111.698 E29.5669
G1 X6.688 Y111.695 E29.5678
G1 X7.867 Y111.567 E29.6440
G1 X7.874 Y111.566 E29.6444
G1 X7.993 Y111.560 E29.6521
G1 X8.000 Y111.560 E29.6525
G1 X8.306 Y111.561 E29.6721
G1 X8.306 Y38.745 E34.3448
G1 X7.981 Y38.745 E34.3657
G1 X7.973 Y38.745 E34.3662
G1 X7.835 Y38.736 E34.3751
G1 X7.827 Y38.735 E34.3756
G1 X6.455 Y38.554 E34.4644
G1 X6.440 Y38.551 E34.4654
G1 X6.171 Y38.479 E34.4833
G1 X6.156 Y38.474 E34.4843
G1 X4.813 Y37.918 E34.5775
G1 X4.799 Y37.911 E34.5786
G1 X4.558 Y37.772 E34.5964
G1 X4.545 Y37.763 E34.5974
G1 X3.392 Y36.878 E34.6907
G1 X3.380 Y36.868 E34.6917
G1 X3.183 Y36.671 E34.7096
G1 X3.173 Y36.659 E34.7106
G1 X2.288 Y35.506 E34.8038
G1 X2.279 Y35.493 E34.8049
G1 X2.140 Y35.252 E34.8227
G1 X2.133 Y35.238 E34.8237
G1 X1.577 Y33.895 E34.9170
G1 X1.572 Y33.880 E34.9180
G1 X1.500 Y33.611 E34.9359
G1 X1.497 Y33.596 E34.9369
G1 X1.316 Y32.224 E35.0257
G1 X1.315 Y32.216 E35.0262
G1 X1.306 Y32.078 E35.0351
G1 X1.306 Y32.069 E35.0356
G1 X1.306 Y21.931 E35.6862
G1 X1.306 Y21.922 E35.6868
G1 X1.315 Y21.784 E35.6957
G1 X1.316 Y21.776 E35.6962
G1 X1.497 Y20.404 E35.7850
G1 X1.500 Y20.389 E35.7860
G1 X1.572 Y20.120 E35.8038
G1 X1.577 Y20.105 E35.8049
G1 X2.133 Y18.762 E35.8981
G1 X2.140 Y18.748 E35.8991
G1 X2.279 Y18.507 E35.9170
G1 X2.288 Y18.494 E35.9180
G1 X3.173 Y17.341 E36.0113
G1 X3.183 Y17.329 E36.0123
G1 X3.380 Y17.132 E36.0301
G1 X3.392 Y17.122 E36.0312
G1 X4.545 Y16.237 E36.1244
G1 X4.558 Y16.228 E36.1254
G1 X4.799 Y16.089 E36.1433
G1 X4.813 Y16.082 E36.1443
G1 X6.156 Y15.526 E36.2376
G1 X6.171 Y15.521 E36.2386
G1 X6.440 Y15.449 E36.2564
G92 E0
G1 E-6.5000 F5000
; inner perimeter
G1 X7.206 Y18.847 F3500
G1 E0.0000 F5000
G92 E0
G1 X7.777 Y18.772 E0.0369 F600
G1 X7.853 Y19.125 E0.0601
G1 X7.400 Y19.262 E0.0905
G1 X6.890 Y19.535 E0.1276
G1 X6.443 Y19.901 E0.1647
G1 X6.076 Y20.348 E0.2018
G1 X5.804 Y20.858 E0.2389
G1 X5.636 Y21.411 E0.2760
G1 X5.579 Y21.987 E0.3131
G1 X5.636 Y22.562 E0.3502
G1 X5.804 Y23.115 E0.3873
G1 X6.076 Y23.625 E0.4244
G1 X6.443 Y24.072 E0.4614
G1 X6.890 Y24.438 E0.4985
G1 X7.400 Y24.711 E0.5356
G1 X7.953 Y24.879 E0.5727
G1 X8.528 Y24.935 E0.6098
G1 X9.103 Y24.879 E0.6469
G1 X9.657 Y24.711 E0.6840
G1 X10.166 Y24.438 E0.7211
G1 X10.613 Y24.072 E0.7582
G1 X10.980 Y23.625 E0.7953
G1 X11.252 Y23.115 E0.8324
G1 X11.420 Y22.562 E0.8695
