; G-Code generated by Simplify3D(R) Version 3.0.0
; Sep 19, 2017 at 9:07:39 
; Settings Summary
;   processName,Process1
;   applyToModels,flexbatter18650x2,flexbatter18650x2(2)
;   profileName,1.5 fein (modified)
;   profileVersion,2017-06-09 12:06:14
;   baseProfile,German RepRap NEO (modified)
;   printMaterial,
;   printQuality,
;   printExtruders,
;   extruderName,Primary Extruder
;   extruderToolheadNumber,0
;   extruderDiameter,0.5
;   extruderAutoWidth,0
;   extruderWidth,0.49
;   extrusionMultiplier,0.9
;   extruderUseRetract,1
;   extruderRetractionDistance,6.5
;   extruderExtraRestartDistance,0
;   extruderRetractionZLift,0
;   extruderRetractionSpeed,5000
;   extruderUseCoasting,0
;   extruderCoastingDistance,0.2
;   extruderUseWipe,0
;   extruderWipeDistance,5
;   primaryExtruder,0
;   layerHeight,0.25
;   topSolidLayers,4
;   bottomSolidLayers,3
;   perimeterOutlines,3
;   printPerimetersInsideOut,1
;   startPointOption,2
;   startPointOriginX,0
;   startPointOriginY,0
;   startPointOriginZ,300
;   sequentialIslands,0
;   spiralVaseMode,0
;   firstLayerHeightPercentage,80
;   firstLayerWidthPercentage,100
;   firstLayerUnderspeed,0.3
;   useRaft,0
;   raftExtruder,0
;   raftLayers,3
;   raftOffset,3
;   raftSeparationDistance,0.1
;   raftInfill,85
;   disableRaftBaseLayers,0
;   useSkirt,1
;   skirtExtruder,0
;   skirtLayers,1
;   skirtOutlines,2
;   skirtOffset,2
;   usePrimePillar,0
;   primePillarExtruder,999
;   primePillarWidth,12
;   primePillarLocation,7
;   primePillarSpeedMultiplier,1
;   useOozeShield,0
;   oozeShieldExtruder,999
;   oozeShieldOffset,2
;   oozeShieldOutlines,1
;   oozeShieldSidewallShape,1
;   oozeShieldSidewallAngle,30
;   oozeShieldSpeedMultiplier,1
;   infillExtruder,0
;   internalInfillPattern,Full Honeycomb
;   externalInfillPattern,Rectilinear
;   infillPercentage,15
;   outlineOverlapPercentage,15
;   infillExtrusionWidthPercentage,100
;   minInfillLength,3
;   infillLayerInterval,1
;   infillAngles,0,120,-120
;   overlapInfillAngles,0
;   generateSupport,0
;   supportExtruder,0
;   supportInfillPercentage,30
;   supportExtraInflation,1
;   denseSupportLayers,0
;   denseSupportInfillPercentage,75
;   supportLayerInterval,1
;   supportHorizontalPartOffset,1.5
;   supportUpperSeparationLayers,2
;   supportLowerSeparationLayers,2
;   supportType,0
;   supportGridSpacing,4
;   maxOverhangAngle,45
;   supportAngles,45
;   temperatureName,Primary Extruder
;   temperatureNumber,0
;   temperatureSetpointCount,3
;   temperatureSetpointLayers,1,2,3
;   temperatureSetpointTemperatures,207,199,192
;   temperatureStabilizeAtStartup,1
;   temperatureHeatedBed,0
;   temperatureRelayBetweenLayers,0
;   temperatureRelayBetweenLoops,0
;   fanLayers,1,4
;   fanSpeeds,0,100
;   blipFanToFullPower,0
;   adjustSpeedForCooling,1
;   minSpeedLayerTime,15
;   minCoolingSpeedSlowdown,20
;   increaseFanForCooling,0
;   minFanLayerTime,45
;   maxCoolingFanSpeed,100
;   increaseFanForBridging,0
;   bridgingFanSpeed,100
;   use5D,1
;   relativeEdistances,0
;   allowEaxisZeroing,1
;   independentExtruderAxes,0
;   includeM10123,0
;   stickySupport,1
;   applyToolheadOffsets,0
;   gcodeXoffset,0
;   gcodeYoffset,0
;   gcodeZoffset,0
;   overrideMachineDefinition,1
;   machineTypeOverride,0
;   strokeXoverride,150
;   strokeYoverride,150
;   strokeZoverride,150
;   originOffsetXoverride,0
;   originOffsetYoverride,0
;   originOffsetZoverride,0
;   homeXdirOverride,-1
;   homeYdirOverride,-1
;   homeZdirOverride,-1
;   flipXoverride,1
;   flipYoverride,-1
;   flipZoverride,1
;   toolheadOffsets,0,0|0,0|0,0|0,0|0,0|0,0
;   overrideFirmwareConfiguration,0
;   firmwareTypeOverride,RepRap (Marlin/Repetier/Sprinter)
;   GPXconfigOverride,r2
;   baudRateOverride,115200
;   overridePrinterModels,0
;   printerModelsOverride
;   startingGcode,G28 ; home all axes
;   layerChangeGcode,
;   retractionGcode,
;   toolChangeGcode,
;   endingGcode,M104 S0 ; turn off extruder,M140 S0 ; turn off bed,G28 X0  ; home X axis,G28 Y0  ; home Y axis,M84 ; disable motors,M107
;   createX3G,0
;   celebration,0
;   celebrationSong,Random Song
;   createMB5G,0
;   postProcessing,
;   defaultSpeed,2400
;   outlineUnderspeed,0.5
;   solidInfillUnderspeed,0.8
;   supportUnderspeed,0.8
;   rapidXYspeed,3500
;   rapidZspeed,1000
;   minBridgingArea,50
;   bridgingExtraInflation,0
;   bridgingExtrusionMultiplier,1
;   bridgingSpeedMultiplier,1
;   filamentDiameter,1.75
;   filamentPricePerKg,46
;   filamentDensity,1.25
;   useMinPrintHeight,0
;   minPrintHeight,0
;   useMaxPrintHeight,0
;   maxPrintHeight,0
;   useDiaphragm,0
;   diaphragmLayerInterval,20
;   robustSlicing,1
;   mergeAllIntoSolid,0
;   onlyRetractWhenCrossingOutline,1
;   retractBetweenLayers,1
;   useRetractionMinTravel,0
;   retractionMinTravel,3
;   retractWhileWiping,0
;   onlyWipeOutlines,1
;   avoidCrossingOutline,0
;   maxMovementDetourFactor,10
;   toolChangeRetractionDistance,0
;   toolChangeExtraRestartDistance,0
;   toolChangeRetractionSpeed,360
;   allowThinWallGapFill,1
;   thinWallAllowedOverlapPercentage,10
;   horizontalSizeCompensation,0
G90
M82
M106 S0
M104 S207 T0
M109 S207 T0
G28 ; home all axes
G92 E0
G1 E-6.5000 F5000
G1 Z0.200 F1000
; layer 1, Z = 0.2
T0
; tool H0.250 W0.490
; skirt
G1 X14.440 Y12.796 F3500
G1 E0.0000 F1500
G92 E0
G1 X14.476 Y12.764 E0.0022 F720
G1 X15.871 Y11.694 E0.0828
G1 X15.911 Y11.668 E0.0850
G1 X16.180 Y11.512 E0.0992
G1 X16.223 Y11.491 E0.1014
G1 X17.846 Y10.819 E0.1820
G1 X17.892 Y10.803 E0.1842
G1 X18.190 Y10.723 E0.1983
G1 X18.237 Y10.714 E0.2005
G1 X19.893 Y10.494 E0.2771
G1 X19.917 Y10.492 E0.2782
G1 X20.073 Y10.481 E0.2854
G1 X20.097 Y10.481 E0.2865
G1 X28.200 Y10.481 E0.6579
G1 X28.470 Y10.593 E0.6713
G1 X29.378 Y11.501 E0.7301
G1 X42.421 Y11.501 E1.3280
G1 X42.480 Y11.525 E1.3309
G1 X42.539 Y11.501 E1.3338
G1 X75.171 Y11.501 E2.8296
G1 X75.230 Y11.525 E2.8325
G1 X75.289 Y11.501 E2.8354
G1 X93.195 Y11.501 E3.6562
G1 X93.337 Y11.529 E3.6628
G1 X94.206 Y11.889 E3.7059
G1 X94.327 Y11.969 E3.7126
G1 X95.092 Y12.734 E3.7622
G1 X95.172 Y12.855 E3.7688
G1 X95.532 Y13.723 E3.8119
G1 X95.560 Y13.865 E3.8185
G1 X95.560 Y57.206 E5.8051
G1 X95.532 Y57.348 E5.8118
G1 X95.172 Y58.217 E5.8549
G1 X95.092 Y58.337 E5.8615
G1 X94.327 Y59.102 E5.9111
G1 X94.206 Y59.182 E5.9177
G1 X93.337 Y59.542 E5.9608
G1 X93.195 Y59.571 E5.9675
G1 X75.289 Y59.571 E6.7882
G1 X75.230 Y59.546 E6.7912
G1 X75.171 Y59.571 E6.7941
G1 X42.539 Y59.571 E8.2898
G1 X42.480 Y59.546 E8.2927
G1 X42.421 Y59.571 E8.2957
G1 X29.378 Y59.571 E8.8935
G1 X28.593 Y60.356 E8.9444
G1 X29.378 Y61.141 E8.9953
G1 X42.421 Y61.141 E9.5932
G1 X42.480 Y61.165 E9.5961
G1 X42.539 Y61.141 E9.5990
G1 X75.171 Y61.141 E11.0948
G1 X75.230 Y61.165 E11.0977
G1 X75.289 Y61.141 E11.1006
G1 X93.195 Y61.141 E11.9214
G1 X93.337 Y61.169 E11.9280
G1 X94.206 Y61.529 E11.9711
G1 X94.327 Y61.609 E11.9777
G1 X95.092 Y62.374 E12.0273
G1 X95.172 Y62.495 E12.0340
G1 X95.532 Y63.363 E12.0771
G1 X95.560 Y63.505 E12.0837
G1 X95.560 Y106.846 E14.0703
G1 X95.532 Y106.988 E14.0769
G1 X95.172 Y107.857 E14.1200
G1 X95.092 Y107.977 E14.1267
G1 X94.327 Y108.742 E14.1762
G1 X94.206 Y108.823 E14.1829
G1 X93.337 Y109.182 E14.2260
G1 X93.195 Y109.211 E14.2326
G1 X75.289 Y109.211 E15.0534
G1 X75.230 Y109.186 E15.0563
G1 X75.171 Y109.211 E15.0592
G1 X42.539 Y109.211 E16.5550
G1 X42.480 Y109.186 E16.5579
G1 X42.421 Y109.211 E16.5608
G1 X29.378 Y109.211 E17.1587
G1 X28.470 Y110.119 E17.2176
G1 X28.200 Y110.231 E17.2310
G1 X20.097 Y110.231 E17.6024
G1 X20.073 Y110.230 E17.6035
G1 X19.917 Y110.220 E17.6106
G1 X19.893 Y110.217 E17.6117
G1 X18.237 Y109.998 E17.6883
G1 X18.190 Y109.988 E17.6905
G1 X17.892 Y109.908 E17.7047
G1 X17.846 Y109.893 E17.7069
G1 X16.223 Y109.220 E17.7874
G1 X16.180 Y109.199 E17.7896
G1 X15.911 Y109.044 E17.8038
G1 X15.871 Y109.017 E17.8060
G1 X14.476 Y107.947 E17.8866
G1 X14.440 Y107.915 E17.8888
G1 X14.221 Y107.696 E17.9030
G1 X14.189 Y107.660 E17.9052
G1 X13.119 Y106.265 E17.9858
G1 X13.092 Y106.225 E17.9880
G1 X12.937 Y105.956 E18.0022
G1 X12.916 Y105.913 E18.0045
G1 X12.243 Y104.289 E18.0850
G1 X12.227 Y104.244 E18.0872
G1 X12.147 Y103.944 E18.1015
G1 X12.138 Y103.897 E18.1037
G1 X11.908 Y102.154 E18.1842
G1 X11.905 Y102.106 E18.1864
G1 X11.905 Y101.796 E18.2007
G1 X11.908 Y101.748 E18.2029
G1 X12.138 Y100.005 E18.2834
G1 X12.147 Y99.957 E18.2857
G1 X12.227 Y99.658 E18.2999
G1 X12.243 Y99.612 E18.3021
G1 X12.916 Y97.988 E18.3827
G1 X12.937 Y97.945 E18.3849
G1 X13.092 Y97.676 E18.3991
G1 X13.119 Y97.636 E18.4013
G1 X14.189 Y96.242 E18.4819
G1 X14.221 Y96.205 E18.4841
G1 X14.371 Y96.056 E18.4938
G1 X14.221 Y95.906 E18.5035
G1 X14.189 Y95.870 E18.5057
G1 X13.119 Y94.475 E18.5863
G1 X13.092 Y94.435 E18.5885
G1 X12.937 Y94.166 E18.6027
G1 X12.916 Y94.123 E18.6049
G1 X12.243 Y92.499 E18.6855
G1 X12.227 Y92.454 E18.6877
G1 X12.147 Y92.154 E18.7019
G1 X12.138 Y92.107 E18.7041
G1 X11.908 Y90.364 E18.7847
G1 X11.905 Y90.316 E18.7869
G1 X11.905 Y90.006 E18.8011
G1 X11.908 Y89.958 E18.8033
G1 X12.138 Y88.215 E18.8839
G1 X12.147 Y88.167 E18.8861
G1 X12.227 Y87.868 E18.9003
G1 X12.243 Y87.822 E18.9025
G1 X12.916 Y86.198 E18.9831
G1 X12.937 Y86.155 E18.9853
G1 X13.092 Y85.886 E18.9995
G1 X13.119 Y85.846 E19.0017
G1 X13.633 Y85.176 E19.0405
G1 X13.119 Y84.505 E19.0792
G1 X13.092 Y84.465 E19.0814
G1 X12.937 Y84.196 E19.0957
G1 X12.916 Y84.153 E19.0979
G1 X12.243 Y82.529 E19.1784
G1 X12.227 Y82.484 E19.1806
G1 X12.147 Y82.184 E19.1949
G1 X12.138 Y82.137 E19.1971
G1 X11.908 Y80.394 E19.2777
G1 X11.905 Y80.346 E19.2799
G1 X11.905 Y80.035 E19.2941
G1 X11.908 Y79.987 E19.2963
G1 X12.138 Y78.245 E19.3769
G1 X12.147 Y78.197 E19.3791
G1 X12.227 Y77.898 E19.3933
G1 X12.243 Y77.852 E19.3955
G1 X12.916 Y76.228 E19.4761
G1 X12.937 Y76.185 E19.4783
G1 X13.092 Y75.916 E19.4925
G1 X13.119 Y75.876 E19.4947
G1 X14.189 Y74.482 E19.5753
G1 X14.221 Y74.445 E19.5775
G1 X14.371 Y74.296 E19.5872
G1 X14.221 Y74.146 E19.5969
G1 X14.189 Y74.110 E19.5991
G1 X13.119 Y72.715 E19.6797
G1 X13.092 Y72.675 E19.6819
G1 X12.937 Y72.406 E19.6961
G1 X12.916 Y72.363 E19.6983
G1 X12.243 Y70.739 E19.7789
G1 X12.227 Y70.694 E19.7811
G1 X12.147 Y70.394 E19.7953
G1 X12.138 Y70.347 E19.7975
G1 X11.908 Y68.604 E19.8781
G1 X11.905 Y68.556 E19.8803
G1 X11.905 Y68.246 E19.8945
G1 X11.908 Y68.198 E19.8967
G1 X12.138 Y66.455 E19.9773
G1 X12.147 Y66.407 E19.9795
G1 X12.227 Y66.108 E19.9937
G1 X12.243 Y66.062 E19.9959
G1 X12.916 Y64.438 E20.0765
G1 X12.937 Y64.395 E20.0787
G1 X13.092 Y64.126 E20.0929
G1 X13.119 Y64.086 E20.0952
G1 X14.189 Y62.692 E20.1757
G1 X14.221 Y62.656 E20.1779
G1 X14.440 Y62.436 E20.1922
G1 X14.476 Y62.404 E20.1944
G1 X15.871 Y61.334 E20.2749
G1 X15.911 Y61.308 E20.2771
G1 X16.180 Y61.152 E20.2914
G1 X16.223 Y61.131 E20.2936
G1 X17.846 Y60.459 E20.3741
G1 X17.892 Y60.443 E20.3763
G1 X18.190 Y60.363 E20.3905
G1 X18.227 Y60.356 E20.3922
G1 X18.190 Y60.348 E20.3939
G1 X17.892 Y60.268 E20.4081
G1 X17.846 Y60.253 E20.4103
G1 X16.223 Y59.580 E20.4908
G1 X16.180 Y59.559 E20.4930
G1 X15.911 Y59.404 E20.5073
G1 X15.871 Y59.377 E20.5095
G1 X14.476 Y58.307 E20.5900
G1 X14.440 Y58.275 E20.5923
G1 X14.221 Y58.056 E20.6065
G1 X14.189 Y58.020 E20.6087
G1 X13.119 Y56.625 E20.6893
G1 X13.092 Y56.585 E20.6915
G1 X12.937 Y56.316 E20.7057
G1 X12.916 Y56.273 E20.7079
G1 X12.243 Y54.649 E20.7885
G1 X12.227 Y54.604 E20.7907
G1 X12.147 Y54.304 E20.8049
G1 X12.138 Y54.257 E20.8071
G1 X11.908 Y52.514 E20.8877
G1 X11.905 Y52.466 E20.8899
G1 X11.905 Y52.156 E20.9041
G1 X11.908 Y52.108 E20.9063
G1 X12.138 Y50.365 E20.9869
G1 X12.147 Y50.317 E20.9891
G1 X12.227 Y50.018 E21.0033
G1 X12.243 Y49.972 E21.0055
G1 X12.916 Y48.348 E21.0861
G1 X12.937 Y48.305 E21.0883
G1 X13.092 Y48.036 E21.1025
G1 X13.119 Y47.996 E21.1047
G1 X14.189 Y46.602 E21.1853
G1 X14.221 Y46.566 E21.1875
G1 X14.371 Y46.416 E21.1972
G1 X14.221 Y46.266 E21.2069
G1 X14.189 Y46.230 E21.2091
G1 X13.119 Y44.835 E21.2897
G1 X13.092 Y44.795 E21.2919
G1 X12.937 Y44.526 E21.3061
G1 X12.916 Y44.483 E21.3083
G1 X12.243 Y42.859 E21.3889
G1 X12.227 Y42.814 E21.3911
G1 X12.147 Y42.514 E21.4053
G1 X12.138 Y42.467 E21.4076
G1 X11.908 Y40.724 E21.4881
G1 X11.905 Y40.676 E21.4903
G1 X11.905 Y40.365 E21.5046
G1 X11.908 Y40.318 E21.5068
G1 X12.138 Y38.575 E21.5873
G1 X12.147 Y38.527 E21.5895
G1 X12.227 Y38.228 E21.6038
G1 X12.243 Y38.182 E21.6060
G1 X12.916 Y36.558 E21.6865
G1 X12.937 Y36.515 E21.6887
G1 X13.092 Y36.246 E21.7030
G1 X13.119 Y36.206 E21.7052
G1 X13.633 Y35.536 E21.7439
G1 X13.119 Y34.865 E21.7827
G1 X13.092 Y34.825 E21.7849
G1 X12.937 Y34.556 E21.7991
G1 X12.916 Y34.513 E21.8013
G1 X12.243 Y32.889 E21.8819
G1 X12.227 Y32.844 E21.8841
G1 X12.147 Y32.544 E21.8983
G1 X12.138 Y32.497 E21.9005
G1 X11.908 Y30.754 E21.9811
G1 X11.905 Y30.706 E21.9833
G1 X11.905 Y30.395 E21.9975
G1 X11.908 Y30.348 E21.9997
G1 X12.138 Y28.605 E22.0803
G1 X12.147 Y28.557 E22.0825
G1 X12.227 Y28.258 E22.0967
G1 X12.243 Y28.212 E22.0989
G1 X12.916 Y26.588 E22.1795
G1 X12.937 Y26.545 E22.1817
G1 X13.092 Y26.276 E22.1959
G1 X13.119 Y26.236 E22.1981
G1 X14.189 Y24.842 E22.2787
G1 X14.221 Y24.805 E22.2809
G1 X14.371 Y24.656 E22.2906
G1 X14.221 Y24.506 E22.3003
G1 X14.189 Y24.470 E22.3025
G1 X13.119 Y23.075 E22.3831
G1 X13.092 Y23.035 E22.3853
G1 X12.937 Y22.766 E22.3995
G1 X12.916 Y22.723 E22.4017
G1 X12.243 Y21.099 E22.4823
G1 X12.227 Y21.054 E22.4845
G1 X12.147 Y20.754 E22.4988
G1 X12.138 Y20.707 E22.5010
G1 X11.908 Y18.964 E22.5815
G1 X11.905 Y18.916 E22.5837
G1 X11.905 Y18.606 E22.5980
G1 X11.908 Y18.558 E22.6002
G1 X12.138 Y16.815 E22.6807
G1 X12.147 Y16.767 E22.6829
G1 X12.227 Y16.468 E22.6972
G1 X12.243 Y16.422 E22.6994
G1 X12.916 Y14.798 E22.7800
G1 X12.937 Y14.755 E22.7822
G1 X13.092 Y14.486 E22.7964
G1 X13.119 Y14.446 E22.7986
G1 X14.189 Y13.052 E22.8792
G1 X14.221 Y13.015 E22.8814
G1 X14.440 Y12.796 E22.8956
G1 X14.775 Y13.154 F3500
G92 E0
G1 X14.787 Y13.143 E0.0007 F720
G1 X16.156 Y12.093 E0.0798
G1 X16.170 Y12.084 E0.0806
G1 X16.411 Y11.945 E0.0933
G1 X16.425 Y11.938 E0.0941
G1 X18.019 Y11.277 E0.1731
G1 X18.034 Y11.272 E0.1739
G1 X18.302 Y11.200 E0.1866
G1 X18.318 Y11.197 E0.1873
G1 X19.950 Y10.981 E0.2628
G1 X19.958 Y10.980 E0.2631
G1 X20.097 Y10.971 E0.2696
G1 X20.105 Y10.971 E0.2699
G1 X28.102 Y10.971 E0.6365
G1 X28.192 Y11.008 E0.6410
G1 X29.175 Y11.991 E0.7047
G1 X42.324 Y11.991 E1.3074
G1 X42.414 Y12.028 E1.3118
G1 X42.480 Y12.094 E1.3161
G1 X42.546 Y12.028 E1.3204
G1 X42.636 Y11.991 E1.3249
G1 X75.074 Y11.991 E2.8117
G1 X75.164 Y12.028 E2.8162
G1 X75.230 Y12.094 E2.8205
G1 X75.296 Y12.028 E2.8247
G1 X75.386 Y11.991 E2.8292
G1 X93.147 Y11.991 E3.6433
G1 X93.195 Y12.000 E3.6455
G1 X93.974 Y12.323 E3.6842
G1 X94.014 Y12.350 E3.6864
G1 X94.711 Y13.047 E3.7316
G1 X94.738 Y13.087 E3.7338
G1 X95.061 Y13.866 E3.7725
G1 X95.070 Y13.914 E3.7747
G1 X95.070 Y24.613 E4.2651
G1 X95.052 Y24.656 E4.2672
G1 X95.070 Y24.699 E4.2694
G1 X95.070 Y46.373 E5.2628
G1 X95.052 Y46.416 E5.2650
G1 X95.070 Y46.459 E5.2671
G1 X95.070 Y57.158 E5.7575
G1 X95.061 Y57.205 E5.7597
G1 X94.738 Y57.985 E5.7984
G1 X94.711 Y58.025 E5.8006
G1 X94.014 Y58.721 E5.8458
G1 X93.974 Y58.748 E5.8480
G1 X93.195 Y59.071 E5.8867
G1 X93.147 Y59.081 E5.8889
G1 X75.386 Y59.081 E6.7030
G1 X75.296 Y59.043 E6.7074
G1 X75.230 Y58.977 E6.7117
G1 X75.164 Y59.043 E6.7160
G1 X75.074 Y59.081 E6.7205
G1 X42.636 Y59.081 E8.2073
G1 X42.546 Y59.043 E8.2118
G1 X42.480 Y58.977 E8.2161
G1 X42.414 Y59.043 E8.2204
G1 X42.324 Y59.081 E8.2248
G1 X29.175 Y59.081 E8.8275
G1 X28.192 Y60.063 E8.8912
G1 X28.102 Y60.101 E8.8957
G1 X20.105 Y60.101 E9.2622
G1 X20.097 Y60.100 E9.2626
G1 X19.958 Y60.091 E9.2690
G1 X19.950 Y60.090 E9.2694
G1 X18.318 Y59.874 E9.3449
G1 X18.302 Y59.871 E9.3456
G1 X18.034 Y59.799 E9.3583
G1 X18.019 Y59.794 E9.3590
G1 X16.425 Y59.134 E9.4381
G1 X16.411 Y59.126 E9.4389
G1 X16.170 Y58.987 E9.4516
G1 X16.156 Y58.978 E9.4523
G1 X14.787 Y57.928 E9.5314
G1 X14.775 Y57.917 E9.5322
G1 X14.578 Y57.721 E9.5449
G1 X14.568 Y57.709 E9.5457
G1 X13.517 Y56.339 E9.6248
G1 X13.508 Y56.326 E9.6255
G1 X13.369 Y56.085 E9.6382
G1 X13.362 Y56.071 E9.6390
