; G-Code generated by Simplify3D(R) Version 3.0.0
; Jul 13, 2017 at 6:33:04 
; Settings Summary
;   processName,Process1
;   applyToModels,Greifer01
;   profileName,juli (modified)
;   profileVersion,2017-06-09 12:06:14
;   baseProfile,German RepRap NEO (modified)
;   printMaterial,
;   printQuality,
;   printExtruders,
;   extruderName,Primary Extruder
;   extruderToolheadNumber,0
;   extruderDiameter,0.5
;   extruderAutoWidth,0
;   extruderWidth,0.49
;   extrusionMultiplier,0.9
;   extruderUseRetract,1
;   extruderRetractionDistance,6.5
;   extruderExtraRestartDistance,0
;   extruderRetractionZLift,0
;   extruderRetractionSpeed,5000
;   extruderUseCoasting,0
;   extruderCoastingDistance,0.2
;   extruderUseWipe,0
;   extruderWipeDistance,5
;   primaryExtruder,0
;   layerHeight,0.25
;   topSolidLayers,4
;   bottomSolidLayers,3
;   perimeterOutlines,3
;   printPerimetersInsideOut,1
;   startPointOption,2
;   startPointOriginX,0
;   startPointOriginY,0
;   startPointOriginZ,300
;   sequentialIslands,0
;   spiralVaseMode,0
;   firstLayerHeightPercentage,150
;   firstLayerWidthPercentage,100
;   firstLayerUnderspeed,0.3
;   useRaft,0
;   raftExtruder,0
;   raftLayers,3
;   raftOffset,3
;   raftSeparationDistance,0.1
;   raftInfill,85
;   disableRaftBaseLayers,0
;   useSkirt,1
;   skirtExtruder,0
;   skirtLayers,1
;   skirtOutlines,4
;   skirtOffset,2
;   usePrimePillar,0
;   primePillarExtruder,999
;   primePillarWidth,12
;   primePillarLocation,7
;   primePillarSpeedMultiplier,1
;   useOozeShield,0
;   oozeShieldExtruder,999
;   oozeShieldOffset,2
;   oozeShieldOutlines,1
;   oozeShieldSidewallShape,1
;   oozeShieldSidewallAngle,30
;   oozeShieldSpeedMultiplier,1
;   infillExtruder,0
;   internalInfillPattern,Full Honeycomb
;   externalInfillPattern,Rectilinear
;   infillPercentage,30
;   outlineOverlapPercentage,15
;   infillExtrusionWidthPercentage,100
;   minInfillLength,3
;   infillLayerInterval,1
;   infillAngles,0,120,-120
;   overlapInfillAngles,0
;   generateSupport,1
;   supportExtruder,0
;   supportInfillPercentage,30
;   supportExtraInflation,0
;   denseSupportLayers,0
;   denseSupportInfillPercentage,75
;   supportLayerInterval,1
;   supportHorizontalPartOffset,2
;   supportUpperSeparationLayers,2
;   supportLowerSeparationLayers,2
;   supportType,0
;   supportGridSpacing,4
;   maxOverhangAngle,45
;   supportAngles,45
;   temperatureName,Primary Extruder
;   temperatureNumber,0
;   temperatureSetpointCount,3
;   temperatureSetpointLayers,1,2,3
;   temperatureSetpointTemperatures,207,199,192
;   temperatureStabilizeAtStartup,1
;   temperatureHeatedBed,0
;   temperatureRelayBetweenLayers,0
;   temperatureRelayBetweenLoops,0
;   fanLayers,1,3
;   fanSpeeds,0,100
;   blipFanToFullPower,0
;   adjustSpeedForCooling,1
;   minSpeedLayerTime,15
;   minCoolingSpeedSlowdown,20
;   increaseFanForCooling,0
;   minFanLayerTime,45
;   maxCoolingFanSpeed,100
;   increaseFanForBridging,0
;   bridgingFanSpeed,100
;   use5D,1
;   relativeEdistances,0
;   allowEaxisZeroing,1
;   independentExtruderAxes,0
;   includeM10123,0
;   stickySupport,1
;   applyToolheadOffsets,0
;   gcodeXoffset,0
;   gcodeYoffset,0
;   gcodeZoffset,0
;   overrideMachineDefinition,1
;   machineTypeOverride,0
;   strokeXoverride,150
;   strokeYoverride,150
;   strokeZoverride,150
;   originOffsetXoverride,0
;   originOffsetYoverride,0
;   originOffsetZoverride,0
;   homeXdirOverride,-1
;   homeYdirOverride,-1
;   homeZdirOverride,-1
;   flipXoverride,1
;   flipYoverride,-1
;   flipZoverride,1
;   toolheadOffsets,0,0|0,0|0,0|0,0|0,0|0,0
;   overrideFirmwareConfiguration,0
;   firmwareTypeOverride,RepRap (Marlin/Repetier/Sprinter)
;   GPXconfigOverride,r2
;   baudRateOverride,115200
;   overridePrinterModels,0
;   printerModelsOverride
;   startingGcode,G28 ; home all axes
;   layerChangeGcode,
;   retractionGcode,
;   toolChangeGcode,
;   endingGcode,M104 S0 ; turn off extruder,M140 S0 ; turn off bed,G28 X0  ; home X axis,G28 Y0  ; home Y axis,M84 ; disable motors,M107
;   createX3G,0
;   celebration,0
;   celebrationSong,Random Song
;   createMB5G,0
;   postProcessing,
;   defaultSpeed,2400
;   outlineUnderspeed,0.5
;   solidInfillUnderspeed,0.8
;   supportUnderspeed,0.8
;   rapidXYspeed,3500
;   rapidZspeed,1000
;   minBridgingArea,50
;   bridgingExtraInflation,0
;   bridgingExtrusionMultiplier,1
;   bridgingSpeedMultiplier,1
;   filamentDiameter,1.75
;   filamentPricePerKg,46
;   filamentDensity,1.25
;   useMinPrintHeight,0
;   minPrintHeight,0
;   useMaxPrintHeight,0
;   maxPrintHeight,0
;   useDiaphragm,0
;   diaphragmLayerInterval,20
;   robustSlicing,1
;   mergeAllIntoSolid,0
;   onlyRetractWhenCrossingOutline,1
;   retractBetweenLayers,1
;   useRetractionMinTravel,0
;   retractionMinTravel,3
;   retractWhileWiping,0
;   onlyWipeOutlines,1
;   avoidCrossingOutline,0
;   maxMovementDetourFactor,10
;   toolChangeRetractionDistance,0
;   toolChangeExtraRestartDistance,0
;   toolChangeRetractionSpeed,360
;   allowThinWallGapFill,1
;   thinWallAllowedOverlapPercentage,10
;   horizontalSizeCompensation,0
G90
M82
M106 S0
M104 S207 T0
M109 S207 T0
G28 ; home all axes
G92 E0
G1 E-6.5000 F5000
G1 Z0.375 F1000
; layer 1, Z = 0.375
T0
; tool H0.375 W0.490
; skirt
G1 X71.595 Y46.591 F3500
G1 E0.0000 F1500
G92 E0
G1 X71.642 Y46.521 E0.0058 F720
G1 X73.202 Y44.400 E0.1868
G1 X73.255 Y44.335 E0.1926
G1 X73.443 Y44.126 E0.2119
G1 X73.502 Y44.066 E0.2177
G1 X75.447 Y42.290 E0.3987
G1 X75.512 Y42.237 E0.4045
G1 X75.737 Y42.069 E0.4238
G1 X75.806 Y42.022 E0.4296
G1 X78.060 Y40.659 E0.6107
G1 X78.134 Y40.619 E0.6165
G1 X78.387 Y40.499 E0.6358
G1 X78.465 Y40.466 E0.6415
G1 X80.941 Y39.570 E0.8226
G1 X81.021 Y39.545 E0.8284
G1 X81.293 Y39.475 E0.8477
G1 X81.376 Y39.459 E0.8535
G1 X83.979 Y39.063 E1.0345
G1 X84.063 Y39.054 E1.0403
G1 X84.343 Y39.039 E1.0596
G1 X84.427 Y39.039 E1.0654
G1 X87.057 Y39.158 E1.2464
G1 X87.141 Y39.166 E1.2522
G1 X87.419 Y39.206 E1.2715
G1 X87.502 Y39.222 E1.2773
G1 X90.058 Y39.852 E1.4583
G1 X90.139 Y39.877 E1.4641
G1 X90.404 Y39.970 E1.4834
G1 X90.482 Y40.002 E1.4892
G1 X92.866 Y41.119 E1.6703
G1 X92.941 Y41.158 E1.6760
G1 X93.182 Y41.302 E1.6954
G1 X93.252 Y41.348 E1.7011
G1 X95.373 Y42.909 E1.8822
G1 X95.438 Y42.962 E1.8880
G1 X95.647 Y43.150 E1.9073
G1 X95.707 Y43.209 E1.9131
G1 X97.482 Y45.153 E2.0941
G1 X97.536 Y45.218 E2.0999
G1 X97.704 Y45.443 E2.1192
G1 X97.751 Y45.513 E2.1250
G1 X99.113 Y47.766 E2.3060
G1 X99.153 Y47.840 E2.3118
G1 X99.274 Y48.093 E2.3311
G1 X99.307 Y48.171 E2.3369
G1 X100.203 Y50.647 E2.5179
G1 X100.228 Y50.727 E2.5237
G1 X100.297 Y50.999 E2.5430
G1 X100.314 Y51.082 E2.5488
G1 X100.710 Y53.685 E2.7298
G1 X100.719 Y53.769 E2.7356
G1 X100.734 Y54.049 E2.7549
G1 X100.734 Y54.133 E2.7607
G1 X100.615 Y56.764 E2.9418
G1 X100.607 Y56.848 E2.9476
G1 X100.567 Y57.126 E2.9669
G1 X100.551 Y57.208 E2.9726
G1 X99.920 Y59.765 E3.1537
G1 X99.896 Y59.845 E3.1595
G1 X99.803 Y60.110 E3.1788
G1 X99.771 Y60.188 E3.1846
G1 X98.654 Y62.573 E3.3656
G1 X98.615 Y62.647 E3.3714
G1 X98.471 Y62.888 E3.3907
G1 X98.425 Y62.958 E3.3965
G1 X96.864 Y65.079 E3.5775
G1 X96.811 Y65.145 E3.5833
G1 X96.623 Y65.353 E3.6026
G1 X96.564 Y65.413 E3.6084
G1 X94.620 Y67.189 E3.7894
G1 X94.555 Y67.242 E3.7952
G1 X94.330 Y67.411 E3.8145
G1 X94.281 Y67.444 E3.8186
G1 X97.390 Y74.434 E4.3447
G1 X97.414 Y74.494 E4.3491
G1 X97.486 Y74.694 E4.3637
G1 X97.505 Y74.754 E4.3681
G1 X99.245 Y81.047 E4.8170
G1 X99.272 Y81.188 E4.8268
G1 X99.321 Y81.666 E4.8598
G1 X99.324 Y81.810 E4.8697
G1 X99.173 Y84.118 E5.0288
G1 X99.590 Y86.745 E5.2117
G1 X99.598 Y86.810 E5.2162
G1 X99.616 Y87.029 E5.2313
G1 X99.619 Y87.095 E5.2358
G1 X99.632 Y90.090 E5.4418
G1 X99.631 Y90.117 E5.4436
G1 X99.629 Y90.205 E5.4496
G1 X99.628 Y90.231 E5.4514
G1 X99.467 Y93.033 E5.6444
G1 X99.465 Y93.061 E5.6463
G1 X99.456 Y93.154 E5.6528
G1 X99.453 Y93.182 E5.6547
G1 X99.087 Y96.149 E5.8603
G1 X99.030 Y96.368 E5.8758
G1 X98.745 Y97.068 E5.9278
G1 X98.633 Y97.265 E5.9433
G1 X96.576 Y99.974 E6.1772
G1 X96.548 Y100.008 E6.1802
G1 X96.455 Y100.119 E6.1902
G1 X96.426 Y100.151 E6.1932
G1 X94.138 Y102.601 E6.4237
G1 X93.696 Y102.857 E6.4588
G1 X92.013 Y103.249 E6.5775
G1 X91.504 Y103.215 E6.6126
G1 X85.107 Y100.792 E7.0829
G1 X78.384 Y99.856 E7.5496
G1 X77.838 Y99.561 E7.5923
G1 X76.448 Y97.963 E7.7379
G1 X76.230 Y97.382 E7.7806
G1 X76.230 Y92.081 E8.1450
G1 X76.463 Y91.482 E8.1893
G1 X77.947 Y89.861 E8.3404
G1 X78.524 Y89.576 E8.3846
G1 X85.435 Y88.966 E8.8616
G1 X85.928 Y88.732 E8.8991
G1 X86.345 Y87.860 E8.9656
G1 X86.371 Y87.811 E8.9694
G1 X86.462 Y87.649 E8.9822
G1 X86.491 Y87.601 E8.9860
G1 X86.799 Y87.128 E9.0248
G1 X86.761 Y86.525 E9.0664
G1 X86.214 Y84.411 E9.2165
G1 X86.191 Y84.282 E9.2255
G1 X86.147 Y83.848 E9.2555
G1 X86.144 Y83.718 E9.2645
G1 X86.213 Y82.383 E9.3564
G1 X84.421 Y77.580 E9.7088
G1 X83.140 Y78.334 E9.8110
G1 X82.464 Y78.429 E9.8579
G1 X80.200 Y77.843 E10.0187
G1 X79.655 Y77.432 E10.0656
G1 X76.529 Y72.123 E10.4893
G1 X76.434 Y71.447 E10.5362
G1 X77.020 Y69.183 E10.6970
G1 X77.430 Y68.638 E10.7439
G1 X77.591 Y68.543 E10.7567
G1 X77.200 Y68.360 E10.7864
G1 X77.126 Y68.321 E10.7922
G1 X76.885 Y68.178 E10.8115
G1 X76.814 Y68.131 E10.8173
G1 X74.694 Y66.571 E10.9983
G1 X74.628 Y66.517 E11.0041
G1 X74.420 Y66.330 E11.0234
G1 X74.360 Y66.270 E11.0292
G1 X72.584 Y64.326 E11.2103
G1 X72.530 Y64.261 E11.2160
G1 X72.362 Y64.036 E11.2353
G1 X72.315 Y63.967 E11.2411
G1 X70.953 Y61.713 E11.4222
G1 X70.913 Y61.639 E11.4280
G1 X70.792 Y61.386 E11.4473
G1 X70.760 Y61.308 E11.4530
G1 X69.863 Y58.832 E11.6341
G1 X69.838 Y58.752 E11.6399
G1 X69.769 Y58.480 E11.6592
G1 X69.752 Y58.397 E11.6650
G1 X69.356 Y55.794 E11.8460
G1 X69.348 Y55.710 E11.8518
G1 X69.333 Y55.430 E11.8711
G1 X69.332 Y55.346 E11.8769
G1 X69.452 Y52.715 E12.0579
G1 X69.460 Y52.632 E12.0637
G1 X69.500 Y52.354 E12.0830
G1 X69.516 Y52.271 E12.0888
G1 X70.146 Y49.714 E12.2698
G1 X70.170 Y49.634 E12.2756
G1 X70.264 Y49.369 E12.2949
G1 X70.296 Y49.291 E12.3007
G1 X71.412 Y46.907 E12.4818
G1 X71.452 Y46.832 E12.4876
G1 X71.595 Y46.591 E12.5069
G1 X72.010 Y46.852 F3500
G92 E0
G1 X72.044 Y46.801 E0.0041 F720
G1 X73.590 Y44.700 E0.1835
G1 X73.628 Y44.653 E0.1877
G1 X73.799 Y44.462 E0.2053
G1 X73.842 Y44.420 E0.2094
G1 X75.768 Y42.660 E0.3888
G1 X75.815 Y42.622 E0.3930
G1 X76.020 Y42.468 E0.4106
G1 X76.070 Y42.435 E0.4147
G1 X78.303 Y41.085 E0.5941
G1 X78.356 Y41.056 E0.5983
G1 X78.587 Y40.946 E0.6159
G1 X78.643 Y40.923 E0.6200
G1 X81.096 Y40.034 E0.7994
G1 X81.154 Y40.017 E0.8036
G1 X81.402 Y39.953 E0.8212
G1 X81.461 Y39.941 E0.8253
G1 X84.041 Y39.549 E1.0047
G1 X84.100 Y39.543 E1.0089
G1 X84.357 Y39.529 E1.0265
G1 X84.417 Y39.529 E1.0306
G1 X87.023 Y39.647 E1.2100
G1 X87.083 Y39.653 E1.2142
G1 X87.337 Y39.689 E1.2318
G1 X87.396 Y39.701 E1.2359
G1 X89.929 Y40.325 E1.4153
G1 X89.987 Y40.343 E1.4195
G1 X90.229 Y40.428 E1.4371
G1 X90.285 Y40.451 E1.4412
G1 X92.647 Y41.557 E1.6206
G1 X92.701 Y41.586 E1.6248
G1 X92.921 Y41.717 E1.6424
G1 X92.971 Y41.750 E1.6466
G1 X95.073 Y43.296 E1.8259
G1 X95.120 Y43.334 E1.8301
G1 X95.310 Y43.506 E1.8477
G1 X95.353 Y43.548 E1.8519
G1 X97.112 Y45.475 E2.0312
G1 X97.151 Y45.521 E2.0354
G1 X97.304 Y45.727 E2.0530
G1 X97.338 Y45.777 E2.0572
G1 X98.688 Y48.009 E2.2365
G1 X98.716 Y48.062 E2.2407
G1 X98.827 Y48.294 E2.2583
G1 X98.850 Y48.349 E2.2625
G1 X99.739 Y50.803 E2.4418
G1 X99.756 Y50.860 E2.4460
G1 X99.820 Y51.109 E2.4636
G1 X99.831 Y51.168 E2.4678
G1 X100.224 Y53.747 E2.6471
G1 X100.230 Y53.807 E2.6513
G1 X100.244 Y54.063 E2.6689
G1 X100.244 Y54.123 E2.6731
G1 X100.126 Y56.730 E2.8525
G1 X100.120 Y56.790 E2.8566
G1 X100.083 Y57.044 E2.8742
G1 X100.072 Y57.103 E2.8784
G1 X99.448 Y59.636 E3.0578
G1 X99.430 Y59.693 E3.0619
G1 X99.345 Y59.935 E3.0795
G1 X99.322 Y59.991 E3.0837
G1 X98.215 Y62.354 E3.2631
G1 X98.187 Y62.407 E3.2672
G1 X98.056 Y62.628 E3.2848
G1 X98.023 Y62.678 E3.2890
G1 X96.477 Y64.779 E3.4684
G1 X96.439 Y64.826 E3.4725
G1 X96.267 Y65.017 E3.4901
G1 X96.225 Y65.059 E3.4943
G1 X94.298 Y66.819 E3.6737
G1 X94.252 Y66.857 E3.6778
G1 X94.046 Y67.011 E3.6954
G1 X93.996 Y67.044 E3.6996
G1 X93.658 Y67.249 E3.7268
G1 X96.939 Y74.625 E4.2818
G1 X96.956 Y74.667 E4.2850
G1 X97.021 Y74.850 E4.2983
G1 X97.035 Y74.894 E4.3015
G1 X98.768 Y81.158 E4.7483
G1 X98.787 Y81.259 E4.7554
G1 X98.832 Y81.695 E4.7856
G1 X98.833 Y81.798 E4.7926
G1 X98.680 Y84.141 E4.9540
G1 X99.105 Y86.813 E5.1400
G1 X99.111 Y86.859 E5.1433
G1 X99.127 Y87.059 E5.1571
G1 X99.129 Y87.106 E5.1603
G1 X99.142 Y90.088 E5.3653
G1 X99.141 Y90.107 E5.3666
G1 X99.139 Y90.188 E5.3722
G1 X99.138 Y90.207 E5.3735
G1 X98.978 Y93.001 E5.5659
G1 X98.976 Y93.021 E5.5673
G1 X98.969 Y93.106 E5.5732
G1 X98.966 Y93.126 E5.5746
G1 X98.604 Y96.057 E5.7776
G1 X98.564 Y96.213 E5.7887
G1 X98.303 Y96.854 E5.8362
G1 X98.223 Y96.994 E5.8473
G1 X96.189 Y99.672 E6.0786
G1 X96.170 Y99.697 E6.0807
G1 X96.084 Y99.798 E6.0898
G1 X96.063 Y99.821 E6.0920
G1 X93.830 Y102.214 E6.3170
G1 X93.514 Y102.396 E6.3421
G1 X91.973 Y102.755 E6.4508
G1 X91.610 Y102.731 E6.4759
G1 X85.229 Y100.314 E6.9450
G1 X78.540 Y99.383 E7.4094
G1 X78.150 Y99.172 E7.4399
G1 X76.876 Y97.708 E7.5733
G1 X76.720 Y97.293 E7.6038
G1 X76.720 Y92.173 E7.9558
G1 X76.887 Y91.745 E7.9874
G1 X78.247 Y90.260 E8.1258
G1 X78.658 Y90.056 E8.1574
G1 X85.565 Y89.446 E8.6341
G1 X86.295 Y89.100 E8.6897
G1 X86.784 Y88.079 E8.7675
G1 X86.802 Y88.044 E8.7702
G1 X86.885 Y87.895 E8.7819
G1 X86.906 Y87.861 E8.7847
G1 X87.298 Y87.259 E8.8341
G1 X87.248 Y86.448 E8.8900
G1 X86.693 Y84.306 E9.0421
G1 X86.677 Y84.214 E9.0485
G1 X86.637 Y83.818 E9.0759
G1 X86.634 Y83.724 E9.0823
G1 X86.707 Y82.306 E9.1799
G1 X84.816 Y77.238 E9.5518
G1 X84.615 Y76.897 E9.5791
G1 X82.975 Y77.863 E9.7099
G1 X82.493 Y77.930 E9.7434
G1 X80.417 Y77.393 E9.8909
G1 X80.028 Y77.100 E9.9244
G1 X77.000 Y71.958 E10.3346
G1 X76.932 Y71.476 E10.3681
G1 X77.470 Y69.400 E10.5155
G1 X77.763 Y69.011 E10.5490
G1 X78.641 Y68.494 E10.6191
G1 X77.419 Y67.922 E10.7118
G1 X77.366 Y67.894 E10.7160
G1 X77.145 Y67.763 E10.7336
G1 X77.095 Y67.729 E10.7378
G1 X74.994 Y66.183 E10.9171
G1 X74.947 Y66.145 E10.9213
G1 X74.756 Y65.973 E10.9389
G1 X74.713 Y65.931 E10.9431
G1 X72.954 Y64.005 E11.1224
G1 X72.916 Y63.958 E11.1266
G1 X72.762 Y63.753 E11.1442
G1 X72.728 Y63.703 E11.1484
G1 X71.379 Y61.470 E11.3277
G1 X71.350 Y61.417 E11.3319
G1 X71.239 Y61.185 E11.3495
G1 X71.216 Y61.130 E11.3537
G1 X70.328 Y58.677 E11.5330
G1 X70.310 Y58.619 E11.5372
G1 X70.247 Y58.371 E11.5548
G1 X70.235 Y58.312 E11.5590
G1 X69.842 Y55.732 E11.7384
G1 X69.836 Y55.672 E11.7425
G1 X69.823 Y55.416 E11.7601
G1 X69.823 Y55.356 E11.7643
G1 X69.941 Y52.750 E11.9437
G1 X69.946 Y52.690 E11.9478
G1 X69.983 Y52.436 E11.9654
G1 X69.995 Y52.377 E11.9696
G1 X70.619 Y49.843 E12.1490
G1 X70.636 Y49.786 E12.1531
G1 X70.722 Y49.544 E12.1707
G1 X70.744 Y49.488 E12.1749
G1 X71.851 Y47.125 E12.3543
G1 X71.879 Y47.072 E12.3584
G1 X72.010 Y46.852 E12.3760
G1 X72.425 Y47.112 F3500
G92 E0
G1 X72.445 Y47.082 E0.0025 F720
G1 X73.977 Y45.000 E0.1802
G1 X74.000 Y44.972 E0.1827
G1 X74.156 Y44.799 E0.1987
G1 X74.181 Y44.774 E0.2012
G1 X76.090 Y43.030 E0.3789
G1 X76.118 Y43.007 E0.3814
G1 X76.304 Y42.868 E0.3974
G1 X76.334 Y42.848 E0.3999
G1 X78.546 Y41.511 E0.5776
G1 X78.578 Y41.493 E0.5801
G1 X78.788 Y41.393 E0.5961
G1 X78.821 Y41.379 E0.5985
G1 X81.252 Y40.499 E0.7763
G1 X81.286 Y40.489 E0.7787
G1 X81.512 Y40.431 E0.7947
G1 X81.547 Y40.424 E0.7972
G1 X84.103 Y40.035 E0.9750
G1 X84.138 Y40.031 E0.9774
G1 X84.371 Y40.019 E0.9934
G1 X84.407 Y40.019 E0.9959
G1 X86.989 Y40.136 E1.1736
G1 X87.025 Y40.139 E1.1761
G1 X87.255 Y40.173 E1.1921
G1 X87.291 Y40.180 E1.1946
G1 X89.801 Y40.798 E1.3723
G1 X89.835 Y40.809 E1.3748
G1 X90.054 Y40.886 E1.3908
G1 X90.088 Y40.900 E1.3933
G1 X92.429 Y41.996 E1.5710
G1 X92.461 Y42.013 E1.5735
G1 X92.661 Y42.132 E1.5895
G1 X92.691 Y42.152 E1.5920
G1 X94.773 Y43.684 E1.7697
G1 X94.801 Y43.707 E1.7722
G1 X94.974 Y43.862 E1.7882
G1 X94.999 Y43.888 E1.7907
G1 X96.743 Y45.796 E1.9684
G1 X96.766 Y45.824 E1.9709
G1 X96.905 Y46.010 E1.9869
G1 X96.925 Y46.040 E1.9893
G1 X98.262 Y48.253 E2.1671
