; G-Code generated by Simplify3D(R) Version 3.0.0
; Sep 21, 2017 at 12:47:40 
; Settings Summary
;   processName,Process1
;   applyToModels,halterung9
;   profileName,halterung (modified)
;   profileVersion,2017-09-21 12:28:34
;   baseProfile,German RepRap NEO (modified)
;   printMaterial,
;   printQuality,
;   printExtruders,
;   extruderName,Primary Extruder
;   extruderToolheadNumber,0
;   extruderDiameter,0.5
;   extruderAutoWidth,0
;   extruderWidth,0.49
;   extrusionMultiplier,0.93
;   extruderUseRetract,1
;   extruderRetractionDistance,6.5
;   extruderExtraRestartDistance,0
;   extruderRetractionZLift,0
;   extruderRetractionSpeed,4998
;   extruderUseCoasting,0
;   extruderCoastingDistance,0.2
;   extruderUseWipe,0
;   extruderWipeDistance,5
;   primaryExtruder,0
;   layerHeight,0.2
;   topSolidLayers,4
;   bottomSolidLayers,3
;   perimeterOutlines,3
;   printPerimetersInsideOut,1
;   startPointOption,2
;   startPointOriginX,0
;   startPointOriginY,0
;   startPointOriginZ,300
;   sequentialIslands,0
;   spiralVaseMode,0
;   firstLayerHeightPercentage,100
;   firstLayerWidthPercentage,100
;   firstLayerUnderspeed,0.3
;   useRaft,0
;   raftExtruder,0
;   raftLayers,3
;   raftOffset,3
;   raftSeparationDistance,0.1
;   raftInfill,85
;   disableRaftBaseLayers,0
;   useSkirt,1
;   skirtExtruder,0
;   skirtLayers,1
;   skirtOutlines,1
;   skirtOffset,2
;   usePrimePillar,0
;   primePillarExtruder,999
;   primePillarWidth,12
;   primePillarLocation,7
;   primePillarSpeedMultiplier,1
;   useOozeShield,0
;   oozeShieldExtruder,999
;   oozeShieldOffset,2
;   oozeShieldOutlines,1
;   oozeShieldSidewallShape,1
;   oozeShieldSidewallAngle,30
;   oozeShieldSpeedMultiplier,1
;   infillExtruder,0
;   internalInfillPattern,Full Honeycomb
;   externalInfillPattern,Rectilinear
;   infillPercentage,20
;   outlineOverlapPercentage,15
;   infillExtrusionWidthPercentage,100
;   minInfillLength,3
;   infillLayerInterval,1
;   infillAngles,0,120,-120
;   overlapInfillAngles,0
;   generateSupport,0
;   supportExtruder,0
;   supportInfillPercentage,30
;   supportExtraInflation,1
;   denseSupportLayers,0
;   denseSupportInfillPercentage,75
;   supportLayerInterval,1
;   supportHorizontalPartOffset,1.5
;   supportUpperSeparationLayers,2
;   supportLowerSeparationLayers,2
;   supportType,0
;   supportGridSpacing,4
;   maxOverhangAngle,45
;   supportAngles,45
;   temperatureName,Primary Extruder
;   temperatureNumber,0
;   temperatureSetpointCount,3
;   temperatureSetpointLayers,1,2,3
;   temperatureSetpointTemperatures,207,199,195
;   temperatureStabilizeAtStartup,1
;   temperatureHeatedBed,0
;   temperatureRelayBetweenLayers,0
;   temperatureRelayBetweenLoops,0
;   fanLayers,1,2
;   fanSpeeds,0,100
;   blipFanToFullPower,0
;   adjustSpeedForCooling,1
;   minSpeedLayerTime,15
;   minCoolingSpeedSlowdown,20
;   increaseFanForCooling,0
;   minFanLayerTime,45
;   maxCoolingFanSpeed,100
;   increaseFanForBridging,0
;   bridgingFanSpeed,100
;   use5D,1
;   relativeEdistances,0
;   allowEaxisZeroing,1
;   independentExtruderAxes,0
;   includeM10123,0
;   stickySupport,1
;   applyToolheadOffsets,0
;   gcodeXoffset,0
;   gcodeYoffset,0
;   gcodeZoffset,0
;   overrideMachineDefinition,1
;   machineTypeOverride,0
;   strokeXoverride,150
;   strokeYoverride,150
;   strokeZoverride,150
;   originOffsetXoverride,0
;   originOffsetYoverride,0
;   originOffsetZoverride,0
;   homeXdirOverride,-1
;   homeYdirOverride,-1
;   homeZdirOverride,-1
;   flipXoverride,1
;   flipYoverride,-1
;   flipZoverride,1
;   toolheadOffsets,0,0|0,0|0,0|0,0|0,0|0,0
;   overrideFirmwareConfiguration,0
;   firmwareTypeOverride,RepRap (Marlin/Repetier/Sprinter)
;   GPXconfigOverride,r2
;   baudRateOverride,115200
;   overridePrinterModels,0
;   printerModelsOverride
;   startingGcode,G28 ; home all axes
;   layerChangeGcode,
;   retractionGcode,
;   toolChangeGcode,
;   endingGcode,M104 S0 ; turn off extruder,M140 S0 ; turn off bed,G28 X0  ; home X axis,G28 Y0  ; home Y axis,M84 ; disable motors,M107
;   createX3G,0
;   celebration,0
;   celebrationSong,Random Song
;   createMB5G,0
;   postProcessing,
;   defaultSpeed,4800
;   outlineUnderspeed,0.55
;   solidInfillUnderspeed,0.8
;   supportUnderspeed,0.8
;   rapidXYspeed,3498
;   rapidZspeed,1002
;   minBridgingArea,50
;   bridgingExtraInflation,0
;   bridgingExtrusionMultiplier,1
;   bridgingSpeedMultiplier,1
;   filamentDiameter,1.75
;   filamentPricePerKg,46
;   filamentDensity,1.25
;   useMinPrintHeight,0
;   minPrintHeight,0
;   useMaxPrintHeight,0
;   maxPrintHeight,0
;   useDiaphragm,0
;   diaphragmLayerInterval,20
;   robustSlicing,1
;   mergeAllIntoSolid,0
;   onlyRetractWhenCrossingOutline,1
;   retractBetweenLayers,1
;   useRetractionMinTravel,0
;   retractionMinTravel,3
;   retractWhileWiping,0
;   onlyWipeOutlines,1
;   avoidCrossingOutline,0
;   maxMovementDetourFactor,10
;   toolChangeRetractionDistance,0
;   toolChangeExtraRestartDistance,0
;   toolChangeRetractionSpeed,360
;   allowThinWallGapFill,1
;   thinWallAllowedOverlapPercentage,10
;   horizontalSizeCompensation,0
G90
M82
M106 S0
M104 S207 T0
M109 S207 T0
G28 ; home all axes
G92 E0
G1 E-6.5000 F4998
G1 Z0.200 F1002
; layer 1, Z = 0.2
T0
; tool H0.200 W0.490
; skirt
G1 X51.112 Y4.514 F3498
G1 E0.0000 F1499
G92 E0
G1 X51.149 Y4.424 E0.0037 F1440
G1 X52.389 Y3.184 E0.0702
G1 X52.479 Y3.146 E0.0739
G1 X55.331 Y3.146 E0.1819
G1 X58.956 Y3.146 E0.3193
G1 X59.046 Y3.184 E0.3229
G1 X60.286 Y4.424 E0.3894
G1 X60.324 Y4.514 E0.3931
G1 X60.324 Y42.556 E1.8346
G1 X60.323 Y42.564 E1.8349
G1 X60.312 Y42.717 E1.8407
G1 X60.311 Y42.726 E1.8410
G1 X60.122 Y44.024 E1.8907
G1 X60.115 Y44.051 E1.8918
G1 X59.945 Y44.493 E1.9097
G1 X59.933 Y44.517 E1.9108
G1 X59.126 Y45.725 E1.9658
G1 X59.110 Y45.744 E1.9667
G1 X58.815 Y46.039 E1.9826
G1 X58.796 Y46.054 E1.9835
G1 X57.611 Y46.846 E2.0375
G1 X57.590 Y46.858 E2.0384
G1 X57.204 Y47.018 E2.0542
G1 X57.181 Y47.025 E2.0551
G1 X55.886 Y47.282 E2.1052
G1 X55.874 Y47.284 E2.1056
G1 X55.666 Y47.304 E2.1135
G1 X55.654 Y47.305 E2.1140
G1 X50.655 Y47.305 E2.3034
G1 X50.643 Y47.304 E2.3039
G1 X50.436 Y47.284 E2.3118
G1 X50.424 Y47.282 E2.3122
G1 X49.126 Y47.025 E2.3623
G1 X49.103 Y47.018 E2.3633
G1 X48.717 Y46.858 E2.3791
G1 X48.695 Y46.846 E2.3800
G1 X47.469 Y46.027 E2.4359
G1 X47.446 Y46.007 E2.4371
G1 X47.097 Y45.625 E2.4567
G1 X47.080 Y45.600 E2.4578
G1 X46.404 Y44.351 E2.5116
G1 X46.394 Y44.329 E2.5126
G1 X46.271 Y43.928 E2.5284
G1 X46.266 Y43.904 E2.5294
G1 X46.138 Y42.662 E2.5767
G1 X46.138 Y42.656 E2.5769
G1 X46.132 Y42.547 E2.5810
G1 X46.132 Y42.541 E2.5813
G1 X46.124 Y24.182 E3.2769
G1 X46.126 Y24.163 E3.2776
G1 X46.174 Y23.845 E3.2898
G1 X46.178 Y23.827 E3.2905
G1 X46.480 Y22.857 E3.3290
G1 X46.494 Y22.828 E3.3303
G1 X46.796 Y22.353 E3.3516
G1 X46.816 Y22.328 E3.3528
G1 X47.653 Y21.561 E3.3958
G1 X47.677 Y21.544 E3.3969
G1 X48.133 Y21.296 E3.4166
G1 X48.161 Y21.285 E3.4177
G1 X49.106 Y21.039 E3.4547
G1 X49.121 Y21.036 E3.4553
G1 X49.390 Y21.001 E3.4656
G1 X49.406 Y21.000 E3.4662
G1 X50.300 Y21.000 E3.5001
G1 X50.316 Y21.001 E3.5007
G1 X50.597 Y21.039 E3.5114
G1 X50.613 Y21.042 E3.5121
G1 X51.112 Y21.179 E3.5316
G1 X51.112 Y4.514 E4.1631
G92 E0
G1 E-6.5000 F4998
; inner perimeter
G1 X55.401 Y24.525 F3498
G1 E0.0000 F4998
G92 E0
G1 X56.854 Y24.525 E0.0550 F1224
G1 X56.854 Y27.131 E0.1538
G1 X55.401 Y24.525 E0.2668
G1 X56.497 Y40.488 F3498
G92 E0
G1 X56.854 Y40.520 E0.0136 F1224
G1 X56.854 Y42.390 E0.0844
G1 X56.762 Y43.016 E0.1084
G1 X56.492 Y43.421 E0.1268
G1 X56.060 Y43.710 E0.1465
G1 X55.429 Y43.835 E0.1709
G1 X50.879 Y43.835 E0.3433
G1 X50.246 Y43.709 E0.3677
G1 X49.864 Y43.454 E0.3852
G1 X49.672 Y43.098 E0.4005
G1 X49.602 Y42.423 E0.4262
G1 X49.601 Y40.305 E0.5065
G1 X49.974 Y40.286 E0.5206
G1 X49.995 Y40.493 E0.5285
G1 X50.073 Y40.921 E0.5450
G1 X50.236 Y41.376 E0.5633
G1 X50.471 Y41.799 E0.5816
G1 X50.773 Y42.178 E0.6000
G1 X51.134 Y42.501 E0.6183
G1 X51.542 Y42.761 E0.6367
G1 X51.987 Y42.950 E0.6550
G1 X52.456 Y43.064 E0.6733
G1 X52.900 Y43.100 E0.6902
G1 X53.808 Y43.084 E0.7246
G1 X54.198 Y43.013 E0.7396
G1 X54.552 Y42.903 E0.7536
G1 X54.890 Y42.751 E0.7677
G1 X55.207 Y42.560 E0.7817
G1 X55.499 Y42.332 E0.7958
G1 X55.761 Y42.070 E0.8098
G1 X55.990 Y41.778 E0.8238
G1 X56.182 Y41.461 E0.8379
G1 X56.335 Y41.123 E0.8519
G1 X56.445 Y40.770 E0.8660
G1 X56.497 Y40.488 E0.8768
G92 E0
G1 E-6.5000 F4998
; inner perimeter
G1 X54.092 Y6.126 F3498
G1 E0.0000 F4998
G92 E0
G1 X54.488 Y6.126 E0.0150 F1008
G1 X54.488 Y23.892 E0.6882
G1 X54.092 Y23.182 E0.7190
G1 X54.092 Y6.126 E1.3653
G92 E0
G1 E-6.5000 F4998
G1 X56.895 Y6.127 F3498
G1 E0.0000 F4998
G92 E0
G1 X57.344 Y6.126 E0.0170 F1008
G1 X57.344 Y42.426 E1.3924
G1 X57.231 Y43.196 E1.4219
G1 X56.845 Y43.774 E1.4483
G1 X56.251 Y44.171 E1.4754
G1 X55.478 Y44.325 E1.5052
G1 X50.831 Y44.325 E1.6813
G1 X50.055 Y44.171 E1.7113
G1 X49.491 Y43.794 E1.7370
G1 X49.194 Y43.246 E1.7606
G1 X49.112 Y42.448 E1.7910
G1 X49.104 Y24.453 E2.4728
G1 X49.183 Y24.201 E2.4828
G1 X49.340 Y24.057 E2.4909
G1 X49.636 Y23.980 E2.5025
G1 X50.059 Y23.980 E2.5185
G1 X50.295 Y24.045 E2.5278
G1 X50.384 Y24.142 E2.5328
G1 X50.444 Y24.416 E2.5434
G1 X50.445 Y40.073 E3.1367
G1 X50.480 Y40.424 E3.1501
G1 X50.548 Y40.793 E3.1643
G1 X50.684 Y41.173 E3.1796
G1 X50.880 Y41.525 E3.1948
G1 X51.131 Y41.840 E3.2101
G1 X51.431 Y42.109 E3.2254
G1 X51.771 Y42.326 E3.2407
G1 X52.142 Y42.483 E3.2560
G1 X52.535 Y42.579 E3.2713
G1 X52.916 Y42.610 E3.2857
G1 X53.759 Y42.595 E3.3177
G1 X54.081 Y42.536 E3.3301
G1 X54.378 Y42.444 E3.3419
G1 X54.662 Y42.316 E3.3537
G1 X54.929 Y42.156 E3.3655
G1 X55.174 Y41.964 E3.3773
G1 X55.394 Y41.744 E3.3891
G1 X55.587 Y41.499 E3.4009
G1 X55.748 Y41.233 E3.4127
G1 X55.876 Y40.949 E3.4245
G1 X55.969 Y40.652 E3.4363
G1 X56.025 Y40.346 E3.4481
G1 X56.043 Y40.057 E3.4590
G1 X56.043 Y26.683 E3.9658
G1 X54.567 Y24.035 E4.0806
G1 X56.895 Y24.035 E4.1688
G1 X56.895 Y6.127 E4.8474
G92 E0
G1 E-6.5000 F4998
; outer perimeter
G1 X53.602 Y5.636 F3498
G1 E0.0000 F4998
G92 E0
G1 X54.978 Y5.636 E0.0521 F792
G1 X54.978 Y23.545 E0.7307
G1 X56.405 Y23.545 E0.7848
G1 X56.405 Y5.636 E1.4634
G1 X57.834 Y5.636 E1.5175
G1 X57.834 Y42.461 E2.9129
G1 X57.700 Y43.376 E2.9479
G1 X57.199 Y44.127 E2.9822
G1 X56.442 Y44.633 E3.0166
G1 X55.526 Y44.815 E3.0520
G1 X50.783 Y44.815 E3.2317
G1 X49.864 Y44.633 E3.2672
G1 X49.118 Y44.134 E3.3013
G1 X48.717 Y43.393 E3.3332
G1 X48.622 Y42.474 E3.3682
G1 X48.614 Y24.379 E4.0538
G1 X48.754 Y23.929 E4.0717
G1 X49.099 Y23.614 E4.0894
G1 X49.573 Y23.490 E4.1079
G1 X50.125 Y23.490 E4.1289
G1 X50.562 Y23.610 E4.1460
G1 X50.835 Y23.910 E4.1614
G1 X50.934 Y24.363 E4.1790
G1 X50.935 Y40.048 E4.7733
G1 X50.966 Y40.356 E4.7850
G1 X51.023 Y40.665 E4.7970
G1 X51.131 Y40.970 E4.8092
G1 X51.288 Y41.251 E4.8214
G1 X51.489 Y41.503 E4.8336
G1 X51.728 Y41.718 E4.8458
G1 X52.000 Y41.890 E4.8580
G1 X52.297 Y42.017 E4.8702
G1 X52.613 Y42.094 E4.8826
G1 X52.931 Y42.119 E4.8946
G1 X53.711 Y42.106 E4.9242
G1 X53.964 Y42.059 E4.9339
G1 X54.205 Y41.985 E4.9435
G1 X54.434 Y41.882 E4.9530
G1 X54.650 Y41.751 E4.9626
G1 X54.849 Y41.596 E4.9721
G1 X55.027 Y41.418 E4.9817
G1 X55.183 Y41.220 E4.9912
G1 X55.313 Y41.004 E5.0008
G1 X55.417 Y40.774 E5.0103
G1 X55.492 Y40.534 E5.0199
G1 X55.538 Y40.286 E5.0294
G1 X55.553 Y40.042 E5.0387
G1 X55.553 Y26.811 E5.5401
G1 X53.602 Y23.309 E5.6920
G1 X53.602 Y5.636 E6.3616
G92 E0
G1 E-6.5000 F4998
; gap fill
G1 X49.526 Y25.010 F3498
G1 E0.0000 F4998
G92 E0
G1 X50.022 Y24.513 E0.0266 F1440
G1 X50.022 Y25.206 E0.0529
G1 X49.526 Y25.702 E0.0794
G1 X49.527 Y26.395 E0.1057
G1 X50.022 Y25.899 E0.1323
G1 X50.022 Y26.592 E0.1585
G1 X49.527 Y27.087 E0.1851
G1 X49.527 Y27.780 E0.2113
G1 X50.023 Y27.285 E0.2379
G1 X50.023 Y27.978 E0.2641
G1 X49.527 Y28.473 E0.2907
G1 X49.528 Y29.165 E0.3169
G1 X50.023 Y28.671 E0.3434
G1 X50.023 Y29.364 E0.3697
G1 X49.528 Y29.858 E0.3962
G1 X49.528 Y30.551 E0.4224
G1 X50.023 Y30.056 E0.4489
G1 X50.023 Y30.749 E0.4752
G1 X49.529 Y31.243 E0.5016
G1 X49.529 Y31.936 E0.5279
G1 X50.023 Y31.442 E0.5543
G1 X50.023 Y32.135 E0.5806
G1 X49.529 Y32.629 E0.6070
G1 X49.530 Y33.321 E0.6333
G1 X50.023 Y32.828 E0.6597
G1 X50.023 Y33.521 E0.6860
G1 X49.530 Y34.014 E0.7124
G1 X49.530 Y34.707 E0.7386
G1 X50.023 Y34.214 E0.7650
G1 X50.023 Y34.907 E0.7913
G1 X49.531 Y35.399 E0.8177
G1 X49.531 Y36.092 E0.8439
G1 X50.023 Y35.600 E0.8703
G1 X50.023 Y36.293 E0.8966
G1 X49.531 Y36.785 E0.9229
G1 X49.531 Y37.477 E0.9492
G1 X50.023 Y36.986 E0.9755
G1 X50.023 Y37.679 E1.0018
G1 X49.532 Y38.170 E1.0281
G1 X49.532 Y38.863 E1.0544
G1 X50.023 Y38.372 E1.0807
G1 X50.023 Y39.065 E1.1069
G1 X49.532 Y39.555 E1.1332
G1 X49.532 Y39.891 E1.1459
G1 X49.909 Y39.872 E1.1602
G1 X50.023 Y39.757 E1.1664
G92 E0
G1 E-6.5000 F4998
G1 X56.922 Y39.788 F3498
G1 E0.0000 F4998
G92 E0
G1 X56.629 Y40.081 E0.0157 F1440
G1 X56.464 Y40.066 E0.0220
G1 X56.464 Y39.553 E0.0414
G1 X56.922 Y39.095 E0.0660
G1 X56.922 Y38.402 E0.0922
G1 X56.464 Y38.860 E0.1168
G1 X56.464 Y38.167 E0.1430
G1 X56.922 Y37.709 E0.1676
G1 X56.922 Y37.016 E0.1938
G1 X56.464 Y37.474 E0.2183
G1 X56.464 Y36.781 E0.2446
G1 X56.922 Y36.323 E0.2691
G1 X56.922 Y35.630 E0.2954
G1 X56.464 Y36.088 E0.3199
G1 X56.464 Y35.395 E0.3462
G1 X56.922 Y34.937 E0.3707
G1 X56.922 Y34.244 E0.3970
G1 X56.464 Y34.702 E0.4215
G1 X56.464 Y34.009 E0.4478
G1 X56.922 Y33.552 E0.4723
G1 X56.922 Y32.859 E0.4986
G1 X56.464 Y33.316 E0.5231
G1 X56.464 Y32.623 E0.5494
G1 X56.922 Y32.166 E0.5739
G1 X56.922 Y31.473 E0.6002
G1 X56.464 Y31.930 E0.6247
G1 X56.464 Y31.237 E0.6509
G1 X56.922 Y30.780 E0.6755
G1 X56.922 Y30.087 E0.7017
G1 X56.464 Y30.545 E0.7263
G1 X56.464 Y29.852 E0.7525
G1 X56.922 Y29.394 E0.7771
G1 X56.922 Y28.701 E0.8033
G1 X56.464 Y29.159 E0.8279
G1 X56.464 Y28.466 E0.8541
G1 X56.886 Y28.044 E0.8767
G1 X56.638 Y27.599 E0.8960
G1 X56.464 Y27.773 E0.9053
; solid layer
G1 X56.258 Y25.207 F3498
G92 E0
G1 X56.437 Y25.028 E0.0096 F1152
G1 X55.371 Y43.419 F3498
G92 E0
G1 X56.437 Y42.352 E0.0571 F1152
G1 X56.437 Y41.845 E0.0764
G1 X56.333 Y42.016 E0.0840
G1 X56.074 Y42.347 E0.0999
G1 X55.776 Y42.644 E0.1159
G1 X55.444 Y42.903 E0.1318
G1 X55.083 Y43.121 E0.1478
G1 X54.887 Y43.209 E0.1559
G1 X54.678 Y43.419 E0.1671
G1 X51.954 Y43.370 F3498
G92 E0
G1 X51.906 Y43.419 E0.0026 F1152
G1 X51.213 Y43.419 E0.0288
G1 X51.455 Y43.176 E0.0418
G1 X51.348 Y43.131 E0.0462
G1 X51.018 Y42.921 E0.0611
G1 X50.586 Y43.352 E0.0842
G1 X50.409 Y43.317 E0.0910
G1 X50.181 Y43.165 E0.1014
G1 X50.146 Y43.100 E0.1042
G1 X50.634 Y42.612 E0.1303
G1 X50.469 Y42.464 E0.1387
G1 X50.300 Y42.252 E0.1490
G1 X50.031 Y42.522 E0.1634
G92 E0
G1 E-6.5000 F4998
; layer 2, Z = 0.4
M104 S199 T0
M106 S255
; inner perimeter
G1 X49.601 Y42.416 F3498
G1 Z0.400 F1002
G1 E0.0000 F4998
G92 E0
G1 X49.601 Y40.298 E0.0803 F2190
G1 X49.973 Y40.279 E0.0944
G1 X49.994 Y40.487 E0.1023
G1 X50.073 Y40.923 E0.1191
G1 X50.237 Y41.379 E0.1374
G1 X50.473 Y41.802 E0.1558
G1 X50.776 Y42.180 E0.1742
G1 X51.136 Y42.504 E0.1925
G1 X51.546 Y42.763 E0.2109
G1 X51.991 Y42.951 E0.2292
G1 X52.460 Y43.065 E0.2475
G1 X52.895 Y43.100 E0.2640
G1 X53.801 Y43.084 E0.2984
G1 X54.191 Y43.014 E0.3134
G1 X54.545 Y42.905 E0.3274
G1 X54.883 Y42.754 E0.3414
G1 X55.201 Y42.564 E0.3555
G1 X55.493 Y42.336 E0.3695
G1 X55.756 Y42.075 E0.3836
G1 X55.986 Y41.784 E0.3976
G1 X56.179 Y41.468 E0.4116
G1 X56.332 Y41.130 E0.4257
G1 X56.443 Y40.777 E0.4397
G1 X56.498 Y40.485 E0.4510
G1 X56.854 Y40.518 E0.4645
G1 X56.854 Y42.390 E0.5354
G1 X56.762 Y43.016 E0.5594
G1 X56.492 Y43.421 E0.5779
G1 X56.060 Y43.710 E0.5976
G1 X55.429 Y43.835 E0.6219
G1 X50.877 Y43.835 E0.7944
G1 X50.247 Y43.710 E0.8188
G1 X49.864 Y43.454 E0.8362
G1 X49.672 Y43.098 E0.8515
G1 X49.601 Y42.416 E0.8775
G92 E0
G1 E-6.5000 F4998
G1 X56.854 Y27.131 F3498
G1 E0.0000 F4998
G92 E0
G1 X55.401 Y24.525 E0.1130 F2190
G1 X56.854 Y24.525 E0.1681
G1 X56.854 Y27.131 E0.2668
G92 E0
G1 E-6.5000 F4998
; inner perimeter
G1 X49.111 Y42.441 F3498
G1 E0.0000 F4998
G92 E0
G1 X49.104 Y24.453 E0.6816 F1804
G1 X49.183 Y24.201 E0.6916
G1 X49.340 Y24.057 E0.6997
G1 X49.636 Y23.980 E0.7112
G1 X50.059 Y23.980 E0.7273
