; G-Code generated by Simplify3D(R) Version 3.0.0
; Sep 22, 2017 at 11:42:44 
; Settings Summary
;   processName,Process1
;   applyToModels,halterung11,halterung11(2),halterung11(3),halterung11(4),halterung11(5),halterung11(6),halterung9,halterung9(2),halterung9(3),halterung9(4),halterung9(5),halterung9(6)
;   profileName,1.5 fein (modified)
;   profileVersion,2017-09-21 12:38:00
;   baseProfile,German RepRap NEO (modified)
;   printMaterial,
;   printQuality,
;   printExtruders,
;   extruderName,Primary Extruder
;   extruderToolheadNumber,0
;   extruderDiameter,0.5
;   extruderAutoWidth,0
;   extruderWidth,0.49
;   extrusionMultiplier,0.92
;   extruderUseRetract,1
;   extruderRetractionDistance,6.5
;   extruderExtraRestartDistance,0
;   extruderRetractionZLift,0
;   extruderRetractionSpeed,4998
;   extruderUseCoasting,0
;   extruderCoastingDistance,0.2
;   extruderUseWipe,0
;   extruderWipeDistance,5
;   primaryExtruder,0
;   layerHeight,0.25
;   topSolidLayers,4
;   bottomSolidLayers,3
;   perimeterOutlines,3
;   printPerimetersInsideOut,1
;   startPointOption,2
;   startPointOriginX,0
;   startPointOriginY,0
;   startPointOriginZ,300
;   sequentialIslands,0
;   spiralVaseMode,0
;   firstLayerHeightPercentage,80
;   firstLayerWidthPercentage,100
;   firstLayerUnderspeed,0.3
;   useRaft,0
;   raftExtruder,0
;   raftLayers,3
;   raftOffset,3
;   raftSeparationDistance,0.1
;   raftInfill,85
;   disableRaftBaseLayers,0
;   useSkirt,1
;   skirtExtruder,0
;   skirtLayers,1
;   skirtOutlines,1
;   skirtOffset,2
;   usePrimePillar,0
;   primePillarExtruder,999
;   primePillarWidth,12
;   primePillarLocation,7
;   primePillarSpeedMultiplier,1
;   useOozeShield,0
;   oozeShieldExtruder,999
;   oozeShieldOffset,2
;   oozeShieldOutlines,1
;   oozeShieldSidewallShape,1
;   oozeShieldSidewallAngle,30
;   oozeShieldSpeedMultiplier,1
;   infillExtruder,0
;   internalInfillPattern,Full Honeycomb
;   externalInfillPattern,Rectilinear
;   infillPercentage,30
;   outlineOverlapPercentage,15
;   infillExtrusionWidthPercentage,100
;   minInfillLength,3
;   infillLayerInterval,1
;   infillAngles,0,120,-120
;   overlapInfillAngles,0
;   generateSupport,1
;   supportExtruder,0
;   supportInfillPercentage,30
;   supportExtraInflation,0
;   denseSupportLayers,0
;   denseSupportInfillPercentage,75
;   supportLayerInterval,1
;   supportHorizontalPartOffset,1.5
;   supportUpperSeparationLayers,2
;   supportLowerSeparationLayers,2
;   supportType,0
;   supportGridSpacing,4
;   maxOverhangAngle,45
;   supportAngles,45
;   temperatureName,Primary Extruder
;   temperatureNumber,0
;   temperatureSetpointCount,3
;   temperatureSetpointLayers,1,2,3
;   temperatureSetpointTemperatures,207,199,195
;   temperatureStabilizeAtStartup,1
;   temperatureHeatedBed,0
;   temperatureRelayBetweenLayers,0
;   temperatureRelayBetweenLoops,0
;   fanLayers,1,3
;   fanSpeeds,0,100
;   blipFanToFullPower,0
;   adjustSpeedForCooling,1
;   minSpeedLayerTime,15
;   minCoolingSpeedSlowdown,20
;   increaseFanForCooling,0
;   minFanLayerTime,45
;   maxCoolingFanSpeed,100
;   increaseFanForBridging,0
;   bridgingFanSpeed,100
;   use5D,1
;   relativeEdistances,0
;   allowEaxisZeroing,1
;   independentExtruderAxes,0
;   includeM10123,0
;   stickySupport,1
;   applyToolheadOffsets,0
;   gcodeXoffset,0
;   gcodeYoffset,0
;   gcodeZoffset,0
;   overrideMachineDefinition,1
;   machineTypeOverride,0
;   strokeXoverride,150
;   strokeYoverride,150
;   strokeZoverride,150
;   originOffsetXoverride,0
;   originOffsetYoverride,0
;   originOffsetZoverride,0
;   homeXdirOverride,-1
;   homeYdirOverride,-1
;   homeZdirOverride,-1
;   flipXoverride,1
;   flipYoverride,-1
;   flipZoverride,1
;   toolheadOffsets,0,0|0,0|0,0|0,0|0,0|0,0
;   overrideFirmwareConfiguration,0
;   firmwareTypeOverride,RepRap (Marlin/Repetier/Sprinter)
;   GPXconfigOverride,r2
;   baudRateOverride,115200
;   overridePrinterModels,0
;   printerModelsOverride
;   startingGcode,G28 ; home all axes
;   layerChangeGcode,
;   retractionGcode,
;   toolChangeGcode,
;   endingGcode,M104 S0 ; turn off extruder,M140 S0 ; turn off bed,G28 X0  ; home X axis,G28 Y0  ; home Y axis,M84 ; disable motors,M107
;   createX3G,0
;   celebration,0
;   celebrationSong,Random Song
;   createMB5G,0
;   postProcessing,
;   defaultSpeed,2400
;   outlineUnderspeed,0.5
;   solidInfillUnderspeed,0.8
;   supportUnderspeed,0.8
;   rapidXYspeed,3498
;   rapidZspeed,1002
;   minBridgingArea,50
;   bridgingExtraInflation,0
;   bridgingExtrusionMultiplier,1
;   bridgingSpeedMultiplier,1
;   filamentDiameter,1.75
;   filamentPricePerKg,46
;   filamentDensity,1.25
;   useMinPrintHeight,0
;   minPrintHeight,0
;   useMaxPrintHeight,0
;   maxPrintHeight,0
;   useDiaphragm,0
;   diaphragmLayerInterval,20
;   robustSlicing,1
;   mergeAllIntoSolid,0
;   onlyRetractWhenCrossingOutline,1
;   retractBetweenLayers,1
;   useRetractionMinTravel,0
;   retractionMinTravel,3
;   retractWhileWiping,0
;   onlyWipeOutlines,1
;   avoidCrossingOutline,0
;   maxMovementDetourFactor,10
;   toolChangeRetractionDistance,0
;   toolChangeExtraRestartDistance,0
;   toolChangeRetractionSpeed,360
;   allowThinWallGapFill,1
;   thinWallAllowedOverlapPercentage,10
;   horizontalSizeCompensation,0
G90
M82
M106 S0
M104 S207 T0
M109 S207 T0
G28 ; home all axes
G92 E0
G1 E-6.5000 F4998
G1 Z0.200 F1002
; layer 1, Z = 0.2
T0
; tool H0.250 W0.490
; skirt
G1 X17.722 Y7.474 F3498
G1 E0.0000 F1499
G92 E0
G1 X18.962 Y6.234 E0.0822 F720
G1 X19.052 Y6.197 E0.0868
G1 X22.624 Y6.197 E0.2541
G1 X25.528 Y6.197 E0.3902
G1 X25.618 Y6.234 E0.3948
G1 X26.859 Y7.474 E0.4770
G1 X26.896 Y7.564 E0.4815
G1 X26.896 Y45.606 E2.2640
G1 X26.896 Y45.615 E2.2644
G1 X26.885 Y45.768 E2.2716
G1 X26.884 Y45.776 E2.2720
G1 X26.695 Y47.074 E2.3335
G1 X26.688 Y47.101 E2.3347
G1 X26.518 Y47.543 E2.3569
G1 X26.506 Y47.567 E2.3582
G1 X25.698 Y48.775 E2.4263
G1 X25.683 Y48.794 E2.4274
G1 X25.388 Y49.089 E2.4470
G1 X25.369 Y49.105 E2.4481
G1 X24.184 Y49.897 E2.5149
G1 X24.163 Y49.908 E2.5160
G1 X23.777 Y50.068 E2.5356
G1 X23.753 Y50.075 E2.5367
G1 X22.458 Y50.332 E2.5986
G1 X22.447 Y50.334 E2.5992
G1 X22.239 Y50.355 E2.6089
G1 X22.227 Y50.355 E2.6095
G1 X17.228 Y50.355 E2.8438
G1 X17.216 Y50.355 E2.8443
G1 X17.009 Y50.334 E2.8541
G1 X16.997 Y50.333 E2.8546
G1 X15.699 Y50.075 E2.9166
G1 X15.676 Y50.068 E2.9177
G1 X15.289 Y49.908 E2.9374
G1 X15.268 Y49.897 E2.9385
G1 X14.041 Y49.077 E3.0076
G1 X14.019 Y49.058 E3.0090
G1 X13.670 Y48.675 E3.0333
G1 X13.653 Y48.651 E3.0347
G1 X12.977 Y47.401 E3.1012
G1 X12.967 Y47.379 E3.1024
G1 X12.844 Y46.978 E3.1220
G1 X12.839 Y46.955 E3.1231
G1 X12.711 Y45.712 E3.1817
G1 X12.711 Y45.706 E3.1820
G1 X12.705 Y45.598 E3.1870
G1 X12.705 Y45.591 E3.1873
G1 X12.697 Y27.232 E4.0476
G1 X12.698 Y27.213 E4.0484
G1 X12.747 Y26.896 E4.0635
G1 X12.751 Y26.877 E4.0644
G1 X13.053 Y25.907 E4.1120
G1 X13.067 Y25.878 E4.1135
G1 X13.368 Y25.403 E4.1399
G1 X13.389 Y25.378 E4.1414
G1 X14.226 Y24.612 E4.1945
G1 X14.250 Y24.594 E4.1959
G1 X14.706 Y24.346 E4.2202
G1 X14.733 Y24.335 E4.2216
G1 X15.679 Y24.089 E4.2674
G1 X15.694 Y24.086 E4.2681
G1 X15.963 Y24.051 E4.2808
G1 X15.979 Y24.050 E4.2816
G1 X16.873 Y24.050 E4.3235
G1 X16.889 Y24.052 E4.3242
G1 X17.170 Y24.089 E4.3375
G1 X17.186 Y24.093 E4.3383
G1 X17.684 Y24.229 E4.3625
G1 X17.684 Y7.564 E5.1433
G1 X17.722 Y7.474 E5.1479
G1 X33.394 Y7.564 F3498
G92 E0
G1 X33.431 Y7.474 E0.0046 F720
G1 X34.671 Y6.234 E0.0868
G1 X34.761 Y6.197 E0.0913
G1 X38.333 Y6.197 E0.2587
G1 X41.238 Y6.197 E0.3948
G1 X41.328 Y6.234 E0.3993
G1 X42.568 Y7.474 E0.4815
G1 X42.606 Y7.564 E0.4861
G1 X42.606 Y45.606 E2.2685
G1 X42.605 Y45.615 E2.2690
G1 X42.594 Y45.768 E2.2761
G1 X42.593 Y45.776 E2.2766
G1 X42.404 Y47.074 E2.3380
G1 X42.397 Y47.101 E2.3393
G1 X42.228 Y47.543 E2.3615
G1 X42.215 Y47.567 E2.3628
G1 X41.408 Y48.775 E2.4308
G1 X41.392 Y48.794 E2.4320
G1 X41.097 Y49.089 E2.4516
G1 X41.078 Y49.105 E2.4527
G1 X39.893 Y49.897 E2.5195
G1 X39.872 Y49.908 E2.5206
G1 X39.486 Y50.068 E2.5402
G1 X39.463 Y50.075 E2.5413
G1 X38.168 Y50.332 E2.6032
G1 X38.156 Y50.334 E2.6037
G1 X37.948 Y50.355 E2.6135
G1 X37.936 Y50.355 E2.6141
G1 X32.937 Y50.355 E2.8483
G1 X32.925 Y50.355 E2.8489
G1 X32.718 Y50.334 E2.8586
G1 X32.706 Y50.333 E2.8592
G1 X31.408 Y50.075 E2.9212
G1 X31.385 Y50.068 E2.9223
G1 X30.999 Y49.908 E2.9419
G1 X30.977 Y49.897 E2.9430
G1 X29.751 Y49.077 E3.0122
G1 X29.728 Y49.058 E3.0136
G1 X29.379 Y48.675 E3.0378
G1 X29.362 Y48.651 E3.0392
G1 X28.686 Y47.401 E3.1058
G1 X28.677 Y47.379 E3.1069
G1 X28.553 Y46.978 E3.1266
G1 X28.548 Y46.955 E3.1277
G1 X28.420 Y45.712 E3.1862
G1 X28.420 Y45.706 E3.1865
G1 X28.414 Y45.598 E3.1916
G1 X28.414 Y45.591 E3.1919
G1 X28.406 Y27.232 E4.0521
G1 X28.408 Y27.213 E4.0530
G1 X28.456 Y26.896 E4.0681
G1 X28.460 Y26.877 E4.0689
G1 X28.762 Y25.907 E4.1165
G1 X28.776 Y25.878 E4.1181
G1 X29.078 Y25.403 E4.1444
G1 X29.098 Y25.378 E4.1459
G1 X29.935 Y24.612 E4.1991
G1 X29.959 Y24.594 E4.2005
G1 X30.415 Y24.346 E4.2248
G1 X30.443 Y24.335 E4.2262
G1 X31.388 Y24.089 E4.2720
G1 X31.403 Y24.086 E4.2727
G1 X31.672 Y24.051 E4.2854
G1 X31.688 Y24.050 E4.2861
G1 X32.582 Y24.050 E4.3280
G1 X32.598 Y24.052 E4.3288
G1 X32.879 Y24.089 E4.3421
G1 X32.895 Y24.093 E4.3429
G1 X33.394 Y24.229 E4.3671
G1 X33.394 Y7.564 E5.1479
G1 X49.103 Y7.564 F3498
G92 E0
G1 X49.140 Y7.474 E0.0046 F720
G1 X50.381 Y6.234 E0.0868
G1 X50.471 Y6.197 E0.0913
G1 X54.042 Y6.197 E0.2587
G1 X56.947 Y6.197 E0.3948
G1 X57.037 Y6.234 E0.3993
G1 X58.278 Y7.474 E0.4815
G1 X58.315 Y7.564 E0.4861
G1 X58.315 Y45.606 E2.2685
G1 X58.315 Y45.615 E2.2690
G1 X58.303 Y45.768 E2.2761
G1 X58.302 Y45.776 E2.2766
G1 X58.114 Y47.074 E2.3380
G1 X58.107 Y47.101 E2.3393
G1 X57.937 Y47.543 E2.3615
G1 X57.924 Y47.567 E2.3628
G1 X57.117 Y48.775 E2.4308
G1 X57.102 Y48.794 E2.4320
G1 X56.806 Y49.089 E2.4516
G1 X56.788 Y49.105 E2.4527
G1 X55.603 Y49.897 E2.5195
G1 X55.581 Y49.908 E2.5206
G1 X55.195 Y50.068 E2.5402
G1 X55.172 Y50.075 E2.5413
G1 X53.877 Y50.332 E2.6032
G1 X53.865 Y50.334 E2.6037
G1 X53.658 Y50.355 E2.6135
G1 X53.646 Y50.355 E2.6141
G1 X48.646 Y50.355 E2.8483
G1 X48.634 Y50.355 E2.8489
G1 X48.427 Y50.334 E2.8586
G1 X48.415 Y50.333 E2.8592
G1 X47.118 Y50.075 E2.9212
G1 X47.095 Y50.068 E2.9223
G1 X46.708 Y49.908 E2.9419
G1 X46.687 Y49.897 E2.9430
G1 X45.460 Y49.077 E3.0122
G1 X45.437 Y49.058 E3.0136
G1 X45.089 Y48.675 E3.0378
G1 X45.071 Y48.651 E3.0392
G1 X44.395 Y47.401 E3.1058
G1 X44.386 Y47.379 E3.1069
G1 X44.262 Y46.978 E3.1266
G1 X44.257 Y46.955 E3.1277
G1 X44.130 Y45.712 E3.1862
G1 X44.129 Y45.706 E3.1865
G1 X44.124 Y45.598 E3.1916
G1 X44.124 Y45.591 E3.1919
G1 X44.115 Y27.232 E4.0521
G1 X44.117 Y27.214 E4.0530
G1 X44.165 Y26.896 E4.0681
G1 X44.169 Y26.878 E4.0689
G1 X44.472 Y25.907 E4.1165
G1 X44.485 Y25.878 E4.1181
G1 X44.787 Y25.403 E4.1444
G1 X44.808 Y25.378 E4.1459
G1 X45.644 Y24.612 E4.1991
G1 X45.669 Y24.594 E4.2005
G1 X46.124 Y24.346 E4.2248
G1 X46.152 Y24.335 E4.2262
G1 X47.097 Y24.089 E4.2720
G1 X47.113 Y24.086 E4.2727
G1 X47.382 Y24.051 E4.2854
G1 X47.397 Y24.050 E4.2861
G1 X48.291 Y24.050 E4.3280
G1 X48.307 Y24.052 E4.3288
G1 X48.589 Y24.089 E4.3421
G1 X48.605 Y24.093 E4.3429
G1 X49.103 Y24.229 E4.3671
G1 X49.103 Y7.564 E5.1479
G1 X64.812 Y7.564 F3498
G92 E0
G1 X64.850 Y7.474 E0.0046 F720
G1 X66.090 Y6.234 E0.0868
G1 X66.180 Y6.197 E0.0913
G1 X69.752 Y6.197 E0.2587
G1 X72.656 Y6.197 E0.3948
G1 X72.746 Y6.234 E0.3993
G1 X73.987 Y7.474 E0.4815
G1 X74.024 Y7.564 E0.4861
G1 X74.024 Y45.606 E2.2685
G1 X74.024 Y45.615 E2.2690
G1 X74.013 Y45.768 E2.2761
G1 X74.012 Y45.776 E2.2766
G1 X73.823 Y47.074 E2.3380
G1 X73.816 Y47.101 E2.3393
G1 X73.646 Y47.543 E2.3615
G1 X73.634 Y47.567 E2.3628
G1 X72.826 Y48.775 E2.4308
G1 X72.811 Y48.794 E2.4320
G1 X72.515 Y49.089 E2.4516
G1 X72.497 Y49.105 E2.4527
G1 X71.312 Y49.897 E2.5195
G1 X71.291 Y49.908 E2.5206
G1 X70.904 Y50.068 E2.5402
G1 X70.881 Y50.075 E2.5413
G1 X69.586 Y50.332 E2.6032
G1 X69.574 Y50.334 E2.6037
G1 X69.367 Y50.355 E2.6135
G1 X69.355 Y50.355 E2.6141
G1 X64.356 Y50.355 E2.8483
G1 X64.344 Y50.355 E2.8489
G1 X64.137 Y50.334 E2.8586
G1 X64.125 Y50.333 E2.8592
G1 X62.827 Y50.075 E2.9212
G1 X62.804 Y50.068 E2.9223
G1 X62.417 Y49.908 E2.9419
G1 X62.396 Y49.897 E2.9430
G1 X61.169 Y49.077 E3.0122
G1 X61.147 Y49.058 E3.0136
G1 X60.798 Y48.675 E3.0378
G1 X60.781 Y48.651 E3.0392
G1 X60.104 Y47.401 E3.1058
G1 X60.095 Y47.379 E3.1069
G1 X59.971 Y46.978 E3.1266
G1 X59.967 Y46.955 E3.1277
G1 X59.839 Y45.712 E3.1862
G1 X59.839 Y45.706 E3.1865
G1 X59.833 Y45.598 E3.1916
G1 X59.833 Y45.591 E3.1919
G1 X59.825 Y27.232 E4.0521
G1 X59.826 Y27.214 E4.0530
G1 X59.874 Y26.896 E4.0681
G1 X59.879 Y26.878 E4.0689
G1 X60.181 Y25.907 E4.1165
G1 X60.195 Y25.878 E4.1181
G1 X60.496 Y25.403 E4.1444
G1 X60.517 Y25.378 E4.1459
G1 X61.354 Y24.612 E4.1991
G1 X61.378 Y24.594 E4.2005
G1 X61.834 Y24.346 E4.2248
G1 X61.861 Y24.335 E4.2262
G1 X62.807 Y24.089 E4.2720
G1 X62.822 Y24.086 E4.2727
G1 X63.091 Y24.051 E4.2854
G1 X63.106 Y24.050 E4.2861
G1 X64.000 Y24.050 E4.3280
G1 X64.017 Y24.052 E4.3288
G1 X64.298 Y24.089 E4.3421
G1 X64.314 Y24.093 E4.3429
G1 X64.812 Y24.229 E4.3671
G1 X64.812 Y7.564 E5.1479
G1 X80.522 Y7.564 F3498
G92 E0
G1 X80.559 Y7.474 E0.0046 F720
G1 X81.799 Y6.234 E0.0868
G1 X81.889 Y6.197 E0.0913
G1 X85.461 Y6.197 E0.2587
G1 X88.366 Y6.197 E0.3948
G1 X88.456 Y6.234 E0.3993
G1 X89.696 Y7.474 E0.4815
G1 X89.733 Y7.564 E0.4861
G1 X89.733 Y45.606 E2.2685
G1 X89.733 Y45.615 E2.2690
G1 X89.722 Y45.768 E2.2761
G1 X89.721 Y45.776 E2.2766
G1 X89.532 Y47.074 E2.3380
G1 X89.525 Y47.101 E2.3393
G1 X89.355 Y47.543 E2.3615
G1 X89.343 Y47.567 E2.3628
G1 X88.536 Y48.775 E2.4308
G1 X88.520 Y48.794 E2.4320
G1 X88.225 Y49.089 E2.4516
G1 X88.206 Y49.105 E2.4527
G1 X87.021 Y49.897 E2.5195
G1 X87.000 Y49.908 E2.5206
G1 X86.614 Y50.068 E2.5402
G1 X86.591 Y50.075 E2.5413
G1 X85.296 Y50.332 E2.6032
G1 X85.284 Y50.334 E2.6037
G1 X85.076 Y50.355 E2.6135
G1 X85.064 Y50.355 E2.6141
G1 X80.065 Y50.355 E2.8483
G1 X80.053 Y50.355 E2.8489
G1 X79.846 Y50.334 E2.8586
G1 X79.834 Y50.333 E2.8592
G1 X78.536 Y50.075 E2.9212
G1 X78.513 Y50.068 E2.9223
G1 X78.127 Y49.908 E2.9419
G1 X78.105 Y49.897 E2.9430
G1 X76.879 Y49.077 E3.0122
G1 X76.856 Y49.058 E3.0136
G1 X76.507 Y48.675 E3.0378
G1 X76.490 Y48.651 E3.0392
G1 X75.814 Y47.401 E3.1058
G1 X75.804 Y47.379 E3.1069
G1 X75.681 Y46.978 E3.1266
G1 X75.676 Y46.955 E3.1277
G1 X75.548 Y45.712 E3.1862
G1 X75.548 Y45.706 E3.1865
G1 X75.542 Y45.598 E3.1916
G1 X75.542 Y45.591 E3.1919
G1 X75.534 Y27.232 E4.0521
G1 X75.535 Y27.214 E4.0530
G1 X75.584 Y26.896 E4.0681
G1 X75.588 Y26.878 E4.0689
G1 X75.890 Y25.907 E4.1165
G1 X75.904 Y25.878 E4.1181
G1 X76.205 Y25.403 E4.1444
G1 X76.226 Y25.378 E4.1459
G1 X77.063 Y24.612 E4.1991
G1 X77.087 Y24.594 E4.2005
G1 X77.543 Y24.346 E4.2248
G1 X77.571 Y24.335 E4.2262
G1 X78.516 Y24.089 E4.2720
G1 X78.531 Y24.086 E4.2727
G1 X78.800 Y24.051 E4.2854
G1 X78.816 Y24.050 E4.2861
G1 X79.710 Y24.050 E4.3280
G1 X79.726 Y24.052 E4.3288
G1 X80.007 Y24.089 E4.3421
G1 X80.023 Y24.093 E4.3429
G1 X80.522 Y24.229 E4.3671
G1 X80.522 Y7.564 E5.1479
G1 X96.231 Y7.564 F3498
G92 E0
G1 X96.268 Y7.474 E0.0046 F720
G1 X97.509 Y6.234 E0.0868
G1 X97.599 Y6.197 E0.0913
G1 X101.170 Y6.197 E0.2587
G1 X104.075 Y6.197 E0.3948
G1 X104.165 Y6.234 E0.3993
G1 X105.405 Y7.474 E0.4815
G1 X105.443 Y7.564 E0.4861
G1 X105.443 Y45.606 E2.2685
G1 X105.442 Y45.615 E2.2690
G1 X105.431 Y45.768 E2.2761
G1 X105.430 Y45.776 E2.2766
G1 X105.241 Y47.074 E2.3380
G1 X105.235 Y47.101 E2.3393
G1 X105.065 Y47.543 E2.3615
G1 X105.052 Y47.567 E2.3628
G1 X104.245 Y48.775 E2.4308
G1 X104.230 Y48.794 E2.4320
G1 X103.934 Y49.089 E2.4516
G1 X103.915 Y49.105 E2.4527
G1 X102.730 Y49.897 E2.5195
G1 X102.709 Y49.908 E2.5206
G1 X102.323 Y50.068 E2.5402
G1 X102.300 Y50.075 E2.5413
G1 X101.005 Y50.332 E2.6032
G1 X100.993 Y50.334 E2.6037
G1 X100.785 Y50.355 E2.6135
G1 X100.773 Y50.355 E2.6141
G1 X95.774 Y50.355 E2.8483
G1 X95.762 Y50.355 E2.8489
G1 X95.555 Y50.334 E2.8586
G1 X95.543 Y50.333 E2.8592
G1 X94.246 Y50.075 E2.9212
G1 X94.223 Y50.068 E2.9223
G1 X93.836 Y49.908 E2.9419
