; G-Code generated by Simplify3D(R) Version 3.0.0
; Sep 22, 2017 at 10:21:14 
; Settings Summary
;   processName,Process1
;   applyToModels,halterung11,halterung11(2),halterung11(3),halterung11(4),halterung11(5),halterung11(6),halterung11(7),halterung11(8),halterung11(9),halterung11(10),halterung11(11),halterung11(2)(2),halterung11(3)(2),halterung11(4)(2),halterung11(5)(2),halterung11(6)(2),halterung11(7)(2),halterung11(8)(2),halterung11(9)(2),halterung11(10)(2),halterung11(12),halterung11(2)(3),halterung11(3)(3),halterung11(4)(3),halterung11(5)(3),halterung11(6)(3),halterung11(7)(3),halterung11(8)(3),halterung11(9)(3),halterung11(10)(3)
;   profileName,1.5 fein (modified)
;   profileVersion,2017-09-21 12:38:00
;   baseProfile,German RepRap NEO (modified)
;   printMaterial,
;   printQuality,
;   printExtruders,
;   extruderName,Primary Extruder
;   extruderToolheadNumber,0
;   extruderDiameter,0.5
;   extruderAutoWidth,0
;   extruderWidth,0.49
;   extrusionMultiplier,0.92
;   extruderUseRetract,1
;   extruderRetractionDistance,6.5
;   extruderExtraRestartDistance,0
;   extruderRetractionZLift,0
;   extruderRetractionSpeed,4998
;   extruderUseCoasting,0
;   extruderCoastingDistance,0.2
;   extruderUseWipe,0
;   extruderWipeDistance,5
;   primaryExtruder,0
;   layerHeight,0.15
;   topSolidLayers,4
;   bottomSolidLayers,3
;   perimeterOutlines,3
;   printPerimetersInsideOut,1
;   startPointOption,2
;   startPointOriginX,0
;   startPointOriginY,0
;   startPointOriginZ,300
;   sequentialIslands,0
;   spiralVaseMode,0
;   firstLayerHeightPercentage,145
;   firstLayerWidthPercentage,100
;   firstLayerUnderspeed,0.3
;   useRaft,0
;   raftExtruder,0
;   raftLayers,3
;   raftOffset,3
;   raftSeparationDistance,0.1
;   raftInfill,85
;   disableRaftBaseLayers,0
;   useSkirt,1
;   skirtExtruder,0
;   skirtLayers,1
;   skirtOutlines,1
;   skirtOffset,2
;   usePrimePillar,0
;   primePillarExtruder,999
;   primePillarWidth,12
;   primePillarLocation,7
;   primePillarSpeedMultiplier,1
;   useOozeShield,0
;   oozeShieldExtruder,999
;   oozeShieldOffset,2
;   oozeShieldOutlines,1
;   oozeShieldSidewallShape,1
;   oozeShieldSidewallAngle,30
;   oozeShieldSpeedMultiplier,1
;   infillExtruder,0
;   internalInfillPattern,Full Honeycomb
;   externalInfillPattern,Rectilinear
;   infillPercentage,30
;   outlineOverlapPercentage,15
;   infillExtrusionWidthPercentage,100
;   minInfillLength,3
;   infillLayerInterval,1
;   infillAngles,0,120,-120
;   overlapInfillAngles,0
;   generateSupport,1
;   supportExtruder,0
;   supportInfillPercentage,30
;   supportExtraInflation,0
;   denseSupportLayers,0
;   denseSupportInfillPercentage,75
;   supportLayerInterval,1
;   supportHorizontalPartOffset,1.5
;   supportUpperSeparationLayers,2
;   supportLowerSeparationLayers,2
;   supportType,0
;   supportGridSpacing,4
;   maxOverhangAngle,45
;   supportAngles,45
;   temperatureName,Primary Extruder
;   temperatureNumber,0
;   temperatureSetpointCount,3
;   temperatureSetpointLayers,1,2,3
;   temperatureSetpointTemperatures,207,199,195
;   temperatureStabilizeAtStartup,1
;   temperatureHeatedBed,0
;   temperatureRelayBetweenLayers,0
;   temperatureRelayBetweenLoops,0
;   fanLayers,1,3
;   fanSpeeds,0,100
;   blipFanToFullPower,0
;   adjustSpeedForCooling,1
;   minSpeedLayerTime,15
;   minCoolingSpeedSlowdown,20
;   increaseFanForCooling,0
;   minFanLayerTime,45
;   maxCoolingFanSpeed,100
;   increaseFanForBridging,0
;   bridgingFanSpeed,100
;   use5D,1
;   relativeEdistances,0
;   allowEaxisZeroing,1
;   independentExtruderAxes,0
;   includeM10123,0
;   stickySupport,1
;   applyToolheadOffsets,0
;   gcodeXoffset,0
;   gcodeYoffset,0
;   gcodeZoffset,0
;   overrideMachineDefinition,1
;   machineTypeOverride,0
;   strokeXoverride,150
;   strokeYoverride,150
;   strokeZoverride,150
;   originOffsetXoverride,0
;   originOffsetYoverride,0
;   originOffsetZoverride,0
;   homeXdirOverride,-1
;   homeYdirOverride,-1
;   homeZdirOverride,-1
;   flipXoverride,1
;   flipYoverride,-1
;   flipZoverride,1
;   toolheadOffsets,0,0|0,0|0,0|0,0|0,0|0,0
;   overrideFirmwareConfiguration,0
;   firmwareTypeOverride,RepRap (Marlin/Repetier/Sprinter)
;   GPXconfigOverride,r2
;   baudRateOverride,115200
;   overridePrinterModels,0
;   printerModelsOverride
;   startingGcode,G28 ; home all axes
;   layerChangeGcode,
;   retractionGcode,
;   toolChangeGcode,
;   endingGcode,M104 S0 ; turn off extruder,M140 S0 ; turn off bed,G28 X0  ; home X axis,G28 Y0  ; home Y axis,M84 ; disable motors,M107
;   createX3G,0
;   celebration,0
;   celebrationSong,Random Song
;   createMB5G,0
;   postProcessing,
;   defaultSpeed,2400
;   outlineUnderspeed,0.5
;   solidInfillUnderspeed,0.8
;   supportUnderspeed,0.8
;   rapidXYspeed,3498
;   rapidZspeed,1002
;   minBridgingArea,50
;   bridgingExtraInflation,0
;   bridgingExtrusionMultiplier,1
;   bridgingSpeedMultiplier,1
;   filamentDiameter,1.75
;   filamentPricePerKg,46
;   filamentDensity,1.25
;   useMinPrintHeight,0
;   minPrintHeight,0
;   useMaxPrintHeight,0
;   maxPrintHeight,0
;   useDiaphragm,0
;   diaphragmLayerInterval,20
;   robustSlicing,1
;   mergeAllIntoSolid,0
;   onlyRetractWhenCrossingOutline,1
;   retractBetweenLayers,1
;   useRetractionMinTravel,0
;   retractionMinTravel,3
;   retractWhileWiping,0
;   onlyWipeOutlines,1
;   avoidCrossingOutline,0
;   maxMovementDetourFactor,10
;   toolChangeRetractionDistance,0
;   toolChangeExtraRestartDistance,0
;   toolChangeRetractionSpeed,360
;   allowThinWallGapFill,1
;   thinWallAllowedOverlapPercentage,10
;   horizontalSizeCompensation,0
G90
M82
M106 S0
M104 S207 T0
M109 S207 T0
G28 ; home all axes
G92 E0
G1 E-6.5000 F4998
G1 Z0.218 F1002
; layer 1, Z = 0.2175
T0
; tool H0.218 W0.490
; skirt
G1 X19.557 Y51.675 F3498
G1 E0.0000 F1499
G92 E0
G1 X19.569 Y51.671 E0.0005 F720
G1 X20.355 Y51.432 E0.0340
G1 X20.367 Y51.430 E0.0345
G1 X20.572 Y51.389 E0.0430
G1 X20.583 Y51.387 E0.0435
G1 X21.402 Y51.307 E0.0770
G1 X21.414 Y51.306 E0.0775
G1 X21.622 Y51.306 E0.0860
G1 X21.634 Y51.307 E0.0865
G1 X22.452 Y51.387 E0.1200
G1 X22.464 Y51.389 E0.1205
G1 X22.669 Y51.430 E0.1290
G1 X22.681 Y51.432 E0.1295
G1 X23.467 Y51.671 E0.1630
G1 X23.479 Y51.675 E0.1635
G1 X23.671 Y51.755 E0.1720
G1 X23.682 Y51.760 E0.1725
G1 X24.407 Y52.148 E0.2060
G1 X24.418 Y52.154 E0.2065
G1 X24.591 Y52.270 E0.2150
G1 X24.601 Y52.277 E0.2155
G1 X25.236 Y52.798 E0.2490
G1 X25.245 Y52.807 E0.2495
G1 X25.392 Y52.954 E0.2580
G1 X25.401 Y52.963 E0.2585
G1 X25.922 Y53.598 E0.2920
G1 X25.929 Y53.608 E0.2925
G1 X26.045 Y53.782 E0.3010
G1 X26.051 Y53.792 E0.3015
G1 X26.439 Y54.517 E0.3350
G1 X26.444 Y54.528 E0.3355
G1 X26.524 Y54.720 E0.3440
G1 X26.528 Y54.732 E0.3445
G1 X26.767 Y55.518 E0.3780
G1 X26.769 Y55.530 E0.3785
G1 X26.810 Y55.735 E0.3870
G1 X26.812 Y55.747 E0.3875
G1 X26.892 Y56.565 E0.4210
G1 X26.893 Y56.577 E0.4215
G1 X26.893 Y56.785 E0.4300
G1 X26.892 Y56.797 E0.4304
G1 X26.812 Y57.616 E0.4640
G1 X26.810 Y57.627 E0.4645
G1 X26.769 Y57.832 E0.4730
G1 X26.767 Y57.844 E0.4734
G1 X26.528 Y58.630 E0.5070
G1 X26.524 Y58.642 E0.5074
G1 X26.444 Y58.834 E0.5159
G1 X26.439 Y58.845 E0.5164
G1 X26.051 Y59.570 E0.5500
G1 X26.045 Y59.581 E0.5504
G1 X25.929 Y59.754 E0.5589
G1 X25.922 Y59.764 E0.5594
G1 X25.401 Y60.399 E0.5929
G1 X25.392 Y60.408 E0.5934
G1 X25.245 Y60.556 E0.6019
G1 X25.236 Y60.564 E0.6024
G1 X24.601 Y61.085 E0.6359
G1 X24.591 Y61.092 E0.6364
G1 X24.418 Y61.208 E0.6449
G1 X24.407 Y61.214 E0.6454
G1 X23.682 Y61.602 E0.6789
G1 X23.671 Y61.607 E0.6794
G1 X23.479 Y61.687 E0.6879
G1 X23.467 Y61.691 E0.6884
G1 X22.681 Y61.930 E0.7219
G1 X22.669 Y61.933 E0.7224
G1 X22.464 Y61.973 E0.7309
G1 X22.452 Y61.975 E0.7314
G1 X21.634 Y62.056 E0.7649
G1 X21.622 Y62.056 E0.7654
G1 X21.414 Y62.056 E0.7739
G1 X21.402 Y62.056 E0.7744
G1 X20.583 Y61.975 E0.8079
G1 X20.572 Y61.973 E0.8084
G1 X20.367 Y61.933 E0.8169
G1 X20.355 Y61.930 E0.8174
G1 X19.569 Y61.691 E0.8509
G1 X19.557 Y61.687 E0.8514
G1 X19.365 Y61.607 E0.8599
G1 X19.354 Y61.602 E0.8604
G1 X18.629 Y61.214 E0.8939
G1 X18.618 Y61.208 E0.8944
G1 X18.445 Y61.092 E0.9029
G1 X18.435 Y61.085 E0.9034
G1 X17.800 Y60.564 E0.9369
G1 X17.791 Y60.556 E0.9374
G1 X17.643 Y60.408 E0.9459
G1 X17.635 Y60.399 E0.9464
G1 X17.114 Y59.764 E0.9799
G1 X17.107 Y59.754 E0.9804
G1 X16.991 Y59.581 E0.9889
G1 X16.985 Y59.570 E0.9894
G1 X16.597 Y58.845 E1.0229
G1 X16.592 Y58.834 E1.0234
G1 X16.512 Y58.642 E1.0319
G1 X16.508 Y58.630 E1.0324
G1 X16.269 Y57.844 E1.0659
G1 X16.266 Y57.832 E1.0664
G1 X16.226 Y57.627 E1.0749
G1 X16.224 Y57.616 E1.0754
G1 X16.143 Y56.797 E1.1089
G1 X16.143 Y56.785 E1.1094
G1 X16.143 Y56.577 E1.1179
G1 X16.143 Y56.565 E1.1184
G1 X16.224 Y55.747 E1.1519
G1 X16.226 Y55.735 E1.1524
G1 X16.266 Y55.530 E1.1609
G1 X16.269 Y55.518 E1.1614
G1 X16.508 Y54.732 E1.1949
G1 X16.512 Y54.720 E1.1954
G1 X16.592 Y54.528 E1.2039
G1 X16.597 Y54.517 E1.2044
G1 X16.985 Y53.792 E1.2379
G1 X16.991 Y53.782 E1.2384
G1 X17.107 Y53.608 E1.2469
G1 X17.114 Y53.598 E1.2474
G1 X17.635 Y52.963 E1.2809
G1 X17.643 Y52.954 E1.2814
G1 X17.791 Y52.807 E1.2899
G1 X17.800 Y52.798 E1.2904
G1 X18.435 Y52.277 E1.3239
G1 X18.445 Y52.270 E1.3244
G1 X18.618 Y52.154 E1.3329
G1 X18.629 Y52.148 E1.3334
G1 X19.354 Y51.760 E1.3669
G1 X19.365 Y51.755 E1.3674
G1 X19.557 Y51.675 E1.3759
G1 X27.772 Y54.720 F3498
G92 E0
G1 X27.852 Y54.528 E0.0085 F720
G1 X27.857 Y54.517 E0.0090
G1 X28.245 Y53.792 E0.0425
G1 X28.251 Y53.782 E0.0430
G1 X28.367 Y53.608 E0.0515
G1 X28.374 Y53.598 E0.0520
G1 X28.896 Y52.963 E0.0855
G1 X28.904 Y52.954 E0.0860
G1 X29.051 Y52.807 E0.0945
G1 X29.060 Y52.798 E0.0950
G1 X29.696 Y52.277 E0.1285
G1 X29.705 Y52.270 E0.1290
G1 X29.879 Y52.154 E0.1375
G1 X29.889 Y52.148 E0.1380
G1 X30.614 Y51.760 E0.1715
G1 X30.625 Y51.755 E0.1720
G1 X30.818 Y51.675 E0.1805
G1 X30.829 Y51.671 E0.1810
G1 X31.616 Y51.432 E0.2145
G1 X31.627 Y51.430 E0.2150
G1 X31.832 Y51.389 E0.2235
G1 X31.844 Y51.387 E0.2240
G1 X32.662 Y51.307 E0.2575
G1 X32.674 Y51.306 E0.2580
G1 X32.882 Y51.306 E0.2665
G1 X32.894 Y51.307 E0.2670
G1 X33.713 Y51.387 E0.3005
G1 X33.725 Y51.389 E0.3010
G1 X33.929 Y51.430 E0.3095
G1 X33.941 Y51.432 E0.3100
G1 X34.727 Y51.671 E0.3435
G1 X34.739 Y51.675 E0.3440
G1 X34.931 Y51.755 E0.3525
G1 X34.942 Y51.760 E0.3530
G1 X35.667 Y52.148 E0.3865
G1 X35.678 Y52.154 E0.3870
G1 X35.851 Y52.270 E0.3955
G1 X35.861 Y52.277 E0.3960
G1 X36.496 Y52.798 E0.4295
G1 X36.505 Y52.807 E0.4300
G1 X36.653 Y52.954 E0.4385
G1 X36.661 Y52.963 E0.4389
G1 X37.182 Y53.598 E0.4725
G1 X37.190 Y53.608 E0.4729
G1 X37.305 Y53.782 E0.4815
G1 X37.312 Y53.792 E0.4819
G1 X37.699 Y54.517 E0.5155
G1 X37.704 Y54.528 E0.5159
G1 X37.784 Y54.720 E0.5244
G1 X37.788 Y54.732 E0.5249
G1 X38.027 Y55.518 E0.5585
G1 X38.030 Y55.530 E0.5589
G1 X38.070 Y55.735 E0.5674
G1 X38.072 Y55.747 E0.5679
G1 X38.153 Y56.565 E0.6014
G1 X38.153 Y56.577 E0.6019
G1 X38.153 Y56.785 E0.6104
G1 X38.153 Y56.797 E0.6109
G1 X38.072 Y57.616 E0.6444
G1 X38.070 Y57.627 E0.6449
G1 X38.030 Y57.832 E0.6534
G1 X38.027 Y57.844 E0.6539
G1 X37.788 Y58.630 E0.6874
G1 X37.784 Y58.642 E0.6879
G1 X37.704 Y58.834 E0.6964
G1 X37.699 Y58.845 E0.6969
G1 X37.312 Y59.570 E0.7304
G1 X37.305 Y59.581 E0.7309
G1 X37.190 Y59.754 E0.7394
G1 X37.182 Y59.764 E0.7399
G1 X36.661 Y60.399 E0.7734
G1 X36.653 Y60.408 E0.7739
G1 X36.505 Y60.556 E0.7824
G1 X36.496 Y60.564 E0.7829
G1 X35.861 Y61.085 E0.8164
G1 X35.851 Y61.092 E0.8169
G1 X35.678 Y61.208 E0.8254
G1 X35.667 Y61.214 E0.8259
G1 X34.942 Y61.602 E0.8594
G1 X34.931 Y61.607 E0.8599
G1 X34.739 Y61.687 E0.8684
G1 X34.727 Y61.691 E0.8689
G1 X33.941 Y61.930 E0.9024
G1 X33.929 Y61.933 E0.9029
G1 X33.725 Y61.973 E0.9114
G1 X33.713 Y61.975 E0.9119
G1 X32.894 Y62.056 E0.9454
G1 X32.882 Y62.056 E0.9459
G1 X32.674 Y62.056 E0.9544
G1 X32.662 Y62.056 E0.9549
G1 X31.844 Y61.975 E0.9884
G1 X31.832 Y61.973 E0.9889
G1 X31.627 Y61.933 E0.9974
G1 X31.616 Y61.930 E0.9979
G1 X30.829 Y61.691 E1.0314
G1 X30.818 Y61.687 E1.0319
G1 X30.625 Y61.607 E1.0404
G1 X30.614 Y61.602 E1.0409
G1 X29.889 Y61.214 E1.0744
G1 X29.879 Y61.208 E1.0749
G1 X29.705 Y61.092 E1.0834
G1 X29.696 Y61.085 E1.0839
G1 X29.060 Y60.564 E1.1174
G1 X29.051 Y60.556 E1.1179
G1 X28.904 Y60.408 E1.1264
G1 X28.896 Y60.399 E1.1269
G1 X28.374 Y59.764 E1.1604
G1 X28.367 Y59.754 E1.1609
G1 X28.251 Y59.581 E1.1694
G1 X28.245 Y59.570 E1.1699
G1 X27.857 Y58.845 E1.2034
G1 X27.852 Y58.834 E1.2039
G1 X27.772 Y58.642 E1.2124
G1 X27.768 Y58.630 E1.2129
G1 X27.530 Y57.844 E1.2464
G1 X27.527 Y57.832 E1.2469
G1 X27.486 Y57.627 E1.2554
G1 X27.484 Y57.616 E1.2559
G1 X27.404 Y56.797 E1.2894
G1 X27.403 Y56.785 E1.2899
G1 X27.403 Y56.577 E1.2984
G1 X27.404 Y56.565 E1.2989
G1 X27.484 Y55.747 E1.3324
G1 X27.486 Y55.735 E1.3329
G1 X27.527 Y55.530 E1.3414
G1 X27.530 Y55.518 E1.3419
G1 X27.768 Y54.732 E1.3754
G1 X27.772 Y54.720 E1.3759
G1 X30.818 Y62.935 F3498
G92 E0
G1 X30.829 Y62.931 E0.0005 F720
G1 X31.616 Y62.693 E0.0340
G1 X31.627 Y62.690 E0.0345
G1 X31.832 Y62.649 E0.0430
G1 X31.844 Y62.647 E0.0435
G1 X32.662 Y62.567 E0.0770
G1 X32.674 Y62.566 E0.0775
G1 X32.882 Y62.566 E0.0860
G1 X32.894 Y62.567 E0.0865
G1 X33.713 Y62.647 E0.1200
G1 X33.725 Y62.649 E0.1205
G1 X33.929 Y62.690 E0.1290
G1 X33.941 Y62.693 E0.1295
G1 X34.727 Y62.931 E0.1630
G1 X34.739 Y62.935 E0.1635
G1 X34.931 Y63.015 E0.1720
G1 X34.942 Y63.020 E0.1725
G1 X35.667 Y63.408 E0.2060
G1 X35.678 Y63.414 E0.2065
G1 X35.851 Y63.530 E0.2150
G1 X35.861 Y63.537 E0.2155
G1 X36.496 Y64.059 E0.2490
G1 X36.505 Y64.067 E0.2495
G1 X36.653 Y64.214 E0.2580
G1 X36.661 Y64.223 E0.2585
G1 X37.182 Y64.859 E0.2920
G1 X37.190 Y64.868 E0.2925
G1 X37.305 Y65.042 E0.3010
G1 X37.312 Y65.052 E0.3015
G1 X37.699 Y65.777 E0.3350
G1 X37.704 Y65.788 E0.3355
G1 X37.784 Y65.981 E0.3440
G1 X37.788 Y65.992 E0.3445
G1 X38.027 Y66.779 E0.3780
G1 X38.030 Y66.790 E0.3785
G1 X38.070 Y66.995 E0.3870
G1 X38.072 Y67.007 E0.3875
G1 X38.153 Y67.825 E0.4210
G1 X38.153 Y67.837 E0.4215
G1 X38.153 Y68.046 E0.4300
G1 X38.153 Y68.058 E0.4304
G1 X38.072 Y68.876 E0.4640
G1 X38.070 Y68.888 E0.4644
G1 X38.030 Y69.092 E0.4730
G1 X38.027 Y69.104 E0.4734
G1 X37.788 Y69.891 E0.5070
G1 X37.784 Y69.902 E0.5074
G1 X37.704 Y70.095 E0.5159
G1 X37.699 Y70.106 E0.5164
G1 X37.312 Y70.831 E0.5500
G1 X37.305 Y70.841 E0.5504
G1 X37.190 Y71.014 E0.5589
G1 X37.182 Y71.024 E0.5594
G1 X36.661 Y71.660 E0.5929
G1 X36.653 Y71.668 E0.5934
G1 X36.505 Y71.816 E0.6019
G1 X36.496 Y71.824 E0.6024
G1 X35.861 Y72.346 E0.6359
G1 X35.851 Y72.353 E0.6364
G1 X35.678 Y72.469 E0.6449
G1 X35.667 Y72.475 E0.6454
G1 X34.942 Y72.862 E0.6789
G1 X34.931 Y72.867 E0.6794
G1 X34.739 Y72.947 E0.6879
G1 X34.728 Y72.951 E0.6884
G1 X33.941 Y73.190 E0.7219
G1 X33.929 Y73.193 E0.7224
G1 X33.725 Y73.234 E0.7309
G1 X33.713 Y73.235 E0.7314
G1 X32.894 Y73.316 E0.7649
G1 X32.882 Y73.316 E0.7654
G1 X32.674 Y73.316 E0.7739
G1 X32.662 Y73.316 E0.7744
G1 X31.844 Y73.235 E0.8079
G1 X31.832 Y73.234 E0.8084
G1 X31.627 Y73.193 E0.8169
G1 X31.616 Y73.190 E0.8174
G1 X30.829 Y72.951 E0.8509
G1 X30.818 Y72.947 E0.8514
G1 X30.625 Y72.867 E0.8599
G1 X30.614 Y72.862 E0.8604
G1 X29.889 Y72.475 E0.8939
G1 X29.879 Y72.469 E0.8944
G1 X29.705 Y72.353 E0.9029
G1 X29.696 Y72.346 E0.9034
G1 X29.060 Y71.824 E0.9369
G1 X29.051 Y71.816 E0.9374
G1 X28.904 Y71.668 E0.9459
G1 X28.896 Y71.660 E0.9464
G1 X28.374 Y71.024 E0.9799
G1 X28.367 Y71.014 E0.9804
G1 X28.251 Y70.841 E0.9889
G1 X28.245 Y70.831 E0.9894
G1 X27.857 Y70.106 E1.0229
G1 X27.852 Y70.095 E1.0234
G1 X27.772 Y69.902 E1.0319
G1 X27.768 Y69.891 E1.0324
G1 X27.530 Y69.104 E1.0659
G1 X27.527 Y69.092 E1.0664
G1 X27.486 Y68.888 E1.0749
G1 X27.484 Y68.876 E1.0754
G1 X27.404 Y68.058 E1.1089
G1 X27.403 Y68.046 E1.1094
G1 X27.403 Y67.837 E1.1179
G1 X27.404 Y67.825 E1.1184
G1 X27.484 Y67.007 E1.1519
G1 X27.486 Y66.995 E1.1524
G1 X27.527 Y66.790 E1.1609
G1 X27.530 Y66.779 E1.1614
G1 X27.768 Y65.992 E1.1949
G1 X27.772 Y65.981 E1.1954
G1 X27.852 Y65.788 E1.2039
G1 X27.857 Y65.777 E1.2044
G1 X28.245 Y65.052 E1.2379
G1 X28.251 Y65.042 E1.2384
G1 X28.367 Y64.868 E1.2469
G1 X28.374 Y64.859 E1.2474
G1 X28.896 Y64.223 E1.2809
G1 X28.904 Y64.214 E1.2814
