; G-Code generated by Simplify3D(R) Version 3.0.0
; Sep 21, 2017 at 11:50:35 
; Settings Summary
;   processName,Process1
;   applyToModels,halterung6
;   profileName,1.5 fein (modified)
;   profileVersion,2017-06-09 12:06:14
;   baseProfile,German RepRap NEO (modified)
;   printMaterial,
;   printQuality,
;   printExtruders,
;   extruderName,Primary Extruder
;   extruderToolheadNumber,0
;   extruderDiameter,0.5
;   extruderAutoWidth,0
;   extruderWidth,0.49
;   extrusionMultiplier,0.9
;   extruderUseRetract,1
;   extruderRetractionDistance,6.5
;   extruderExtraRestartDistance,0
;   extruderRetractionZLift,0
;   extruderRetractionSpeed,4998
;   extruderUseCoasting,0
;   extruderCoastingDistance,0.2
;   extruderUseWipe,0
;   extruderWipeDistance,5
;   primaryExtruder,0
;   layerHeight,0.2
;   topSolidLayers,3
;   bottomSolidLayers,3
;   perimeterOutlines,3
;   printPerimetersInsideOut,1
;   startPointOption,2
;   startPointOriginX,0
;   startPointOriginY,0
;   startPointOriginZ,300
;   sequentialIslands,0
;   spiralVaseMode,0
;   firstLayerHeightPercentage,75
;   firstLayerWidthPercentage,100
;   firstLayerUnderspeed,0.3
;   useRaft,0
;   raftExtruder,0
;   raftLayers,3
;   raftOffset,3
;   raftSeparationDistance,0.1
;   raftInfill,85
;   disableRaftBaseLayers,0
;   useSkirt,1
;   skirtExtruder,0
;   skirtLayers,1
;   skirtOutlines,3
;   skirtOffset,2
;   usePrimePillar,0
;   primePillarExtruder,999
;   primePillarWidth,12
;   primePillarLocation,7
;   primePillarSpeedMultiplier,1
;   useOozeShield,0
;   oozeShieldExtruder,999
;   oozeShieldOffset,2
;   oozeShieldOutlines,1
;   oozeShieldSidewallShape,1
;   oozeShieldSidewallAngle,30
;   oozeShieldSpeedMultiplier,1
;   infillExtruder,0
;   internalInfillPattern,Full Honeycomb
;   externalInfillPattern,Rectilinear
;   infillPercentage,25
;   outlineOverlapPercentage,15
;   infillExtrusionWidthPercentage,100
;   minInfillLength,3
;   infillLayerInterval,1
;   infillAngles,0,120,-120
;   overlapInfillAngles,0
;   generateSupport,0
;   supportExtruder,0
;   supportInfillPercentage,30
;   supportExtraInflation,1
;   denseSupportLayers,0
;   denseSupportInfillPercentage,75
;   supportLayerInterval,1
;   supportHorizontalPartOffset,1.5
;   supportUpperSeparationLayers,2
;   supportLowerSeparationLayers,2
;   supportType,0
;   supportGridSpacing,4
;   maxOverhangAngle,45
;   supportAngles,45
;   temperatureName,Primary Extruder
;   temperatureNumber,0
;   temperatureSetpointCount,3
;   temperatureSetpointLayers,1,2,3
;   temperatureSetpointTemperatures,207,199,193
;   temperatureStabilizeAtStartup,1
;   temperatureHeatedBed,0
;   temperatureRelayBetweenLayers,0
;   temperatureRelayBetweenLoops,0
;   fanLayers,1,4
;   fanSpeeds,0,100
;   blipFanToFullPower,0
;   adjustSpeedForCooling,1
;   minSpeedLayerTime,15
;   minCoolingSpeedSlowdown,20
;   increaseFanForCooling,0
;   minFanLayerTime,45
;   maxCoolingFanSpeed,100
;   increaseFanForBridging,0
;   bridgingFanSpeed,100
;   use5D,1
;   relativeEdistances,0
;   allowEaxisZeroing,1
;   independentExtruderAxes,0
;   includeM10123,0
;   stickySupport,1
;   applyToolheadOffsets,0
;   gcodeXoffset,0
;   gcodeYoffset,0
;   gcodeZoffset,0
;   overrideMachineDefinition,1
;   machineTypeOverride,0
;   strokeXoverride,150
;   strokeYoverride,150
;   strokeZoverride,150
;   originOffsetXoverride,0
;   originOffsetYoverride,0
;   originOffsetZoverride,0
;   homeXdirOverride,-1
;   homeYdirOverride,-1
;   homeZdirOverride,-1
;   flipXoverride,1
;   flipYoverride,-1
;   flipZoverride,1
;   toolheadOffsets,0,0|0,0|0,0|0,0|0,0|0,0
;   overrideFirmwareConfiguration,0
;   firmwareTypeOverride,RepRap (Marlin/Repetier/Sprinter)
;   GPXconfigOverride,r2
;   baudRateOverride,115200
;   overridePrinterModels,0
;   printerModelsOverride
;   startingGcode,G28 ; home all axes
;   layerChangeGcode,
;   retractionGcode,
;   toolChangeGcode,
;   endingGcode,M104 S0 ; turn off extruder,M140 S0 ; turn off bed,G28 X0  ; home X axis,G28 Y0  ; home Y axis,M84 ; disable motors,M107
;   createX3G,0
;   celebration,0
;   celebrationSong,Random Song
;   createMB5G,0
;   postProcessing,
;   defaultSpeed,2700
;   outlineUnderspeed,0.5
;   solidInfillUnderspeed,0.8
;   supportUnderspeed,0.8
;   rapidXYspeed,3498
;   rapidZspeed,1002
;   minBridgingArea,50
;   bridgingExtraInflation,0
;   bridgingExtrusionMultiplier,1
;   bridgingSpeedMultiplier,1
;   filamentDiameter,1.75
;   filamentPricePerKg,46
;   filamentDensity,1.25
;   useMinPrintHeight,0
;   minPrintHeight,0
;   useMaxPrintHeight,0
;   maxPrintHeight,0
;   useDiaphragm,0
;   diaphragmLayerInterval,20
;   robustSlicing,1
;   mergeAllIntoSolid,0
;   onlyRetractWhenCrossingOutline,1
;   retractBetweenLayers,1
;   useRetractionMinTravel,0
;   retractionMinTravel,3
;   retractWhileWiping,0
;   onlyWipeOutlines,1
;   avoidCrossingOutline,0
;   maxMovementDetourFactor,10
;   toolChangeRetractionDistance,0
;   toolChangeExtraRestartDistance,0
;   toolChangeRetractionSpeed,360
;   allowThinWallGapFill,1
;   thinWallAllowedOverlapPercentage,10
;   horizontalSizeCompensation,0
G90
M82
M106 S0
M104 S207 T0
M109 S207 T0
G28 ; home all axes
G92 E0
G1 E-6.5000 F4998
G1 Z0.150 F1002
; layer 1, Z = 0.15
T0
; tool H0.200 W0.490
; skirt
G1 X72.048 Y57.244 F3498
G1 E0.0000 F1499
G92 E0
G1 X73.564 Y55.728 E0.0786 F810
G1 X74.014 Y55.542 E0.0965
G1 X81.197 Y55.542 E0.3599
G1 X81.647 Y55.728 E0.3777
G1 X83.163 Y57.244 E0.4564
G1 X83.350 Y57.695 E0.4742
G1 X83.350 Y93.004 E1.7690
G1 X83.348 Y93.048 E1.7706
G1 X83.334 Y93.237 E1.7776
G1 X83.330 Y93.281 E1.7792
G1 X83.130 Y94.650 E1.8299
G1 X83.096 Y94.782 E1.8349
G1 X82.887 Y95.326 E1.8563
G1 X82.824 Y95.447 E1.8613
G1 X81.960 Y96.740 E1.9183
G1 X81.883 Y96.833 E1.9227
G1 X81.520 Y97.197 E1.9416
G1 X81.427 Y97.273 E1.9460
G1 X80.162 Y98.119 E2.0018
G1 X80.056 Y98.175 E2.0062
G1 X79.580 Y98.372 E2.0251
G1 X79.465 Y98.407 E2.0295
G1 X78.099 Y98.679 E2.0806
G1 X78.040 Y98.688 E2.0828
G1 X77.784 Y98.713 E2.0922
G1 X77.724 Y98.716 E2.0944
G1 X72.427 Y98.716 E2.2886
G1 X72.367 Y98.713 E2.2908
G1 X72.112 Y98.688 E2.3002
G1 X72.053 Y98.679 E2.3024
G1 X70.684 Y98.408 E2.3536
G1 X70.569 Y98.373 E2.3580
G1 X70.093 Y98.176 E2.3769
G1 X69.987 Y98.119 E2.3813
G1 X68.722 Y97.273 E2.4371
G1 X68.629 Y97.197 E2.4415
G1 X68.265 Y96.833 E2.4604
G1 X68.189 Y96.740 E2.4648
G1 X67.343 Y95.475 E2.5206
G1 X67.287 Y95.369 E2.5250
G1 X67.090 Y94.894 E2.5439
G1 X67.055 Y94.779 E2.5483
G1 X66.793 Y93.464 E2.5974
G1 X66.787 Y93.425 E2.5989
G1 X66.765 Y93.259 E2.6050
G1 X66.761 Y93.220 E2.6065
G1 X66.656 Y91.676 E2.6632
G1 X66.655 Y91.656 E2.6640
G1 X66.652 Y91.567 E2.6672
G1 X66.651 Y91.546 E2.6680
G1 X66.650 Y73.981 E3.3121
G1 X66.676 Y73.807 E3.3185
G1 X66.889 Y73.084 E3.3462
G1 X66.962 Y72.924 E3.3526
G1 X67.612 Y71.919 E3.3965
G1 X67.659 Y71.856 E3.3994
G1 X67.874 Y71.601 E3.4116
G1 X67.928 Y71.544 E3.4145
G1 X68.725 Y70.815 E3.4541
G1 X68.846 Y70.728 E3.4596
G1 X69.407 Y70.423 E3.4830
G1 X69.545 Y70.368 E3.4884
G1 X70.579 Y70.099 E3.5276
G1 X70.655 Y70.084 E3.5305
G1 X70.986 Y70.042 E3.5427
G1 X71.064 Y70.037 E3.5456
G1 X71.861 Y70.037 E3.5748
G1 X71.861 Y57.695 E4.0273
G1 X72.048 Y57.244 E4.0452
G1 X72.463 Y57.522 F3498
G92 E0
G1 X73.841 Y56.144 E0.0715 F810
G1 X74.112 Y56.032 E0.0822
G1 X81.099 Y56.032 E0.3384
G1 X81.369 Y56.144 E0.3492
G1 X82.748 Y57.522 E0.4206
G1 X82.860 Y57.792 E0.4314
G1 X82.860 Y92.995 E1.7222
G1 X82.859 Y93.022 E1.7232
G1 X82.846 Y93.192 E1.7295
G1 X82.843 Y93.219 E1.7305
G1 X82.649 Y94.553 E1.7799
G1 X82.629 Y94.632 E1.7829
G1 X82.439 Y95.125 E1.8022
G1 X82.402 Y95.197 E1.8052
G1 X81.566 Y96.448 E1.8604
G1 X81.520 Y96.504 E1.8630
G1 X81.190 Y96.834 E1.8801
G1 X81.135 Y96.879 E1.8828
G1 X79.909 Y97.698 E1.9368
G1 X79.846 Y97.732 E1.9395
G1 X79.415 Y97.910 E1.9566
G1 X79.346 Y97.931 E1.9592
G1 X78.016 Y98.196 E2.0089
G1 X77.980 Y98.201 E2.0103
G1 X77.748 Y98.224 E2.0188
G1 X77.712 Y98.226 E2.0201
G1 X72.439 Y98.226 E2.2135
G1 X72.403 Y98.224 E2.2148
G1 X72.172 Y98.201 E2.2233
G1 X72.137 Y98.196 E2.2246
G1 X70.803 Y97.932 E2.2745
G1 X70.734 Y97.911 E2.2771
G1 X70.303 Y97.732 E2.2942
G1 X70.239 Y97.698 E2.2969
G1 X69.014 Y96.879 E2.3509
G1 X68.958 Y96.834 E2.3536
G1 X68.628 Y96.504 E2.3707
G1 X68.583 Y96.448 E2.3733
G1 X67.764 Y95.223 E2.4273
G1 X67.730 Y95.159 E2.4300
G1 X67.552 Y94.729 E2.4471
G1 X67.531 Y94.660 E2.4497
G1 X67.275 Y93.376 E2.4977
G1 X67.272 Y93.353 E2.4986
G1 X67.252 Y93.202 E2.5042
G1 X67.249 Y93.179 E2.5050
G1 X67.145 Y91.647 E2.5613
G1 X67.144 Y91.635 E2.5618
G1 X67.141 Y91.554 E2.5647
G1 X67.141 Y91.542 E2.5652
G1 X67.140 Y74.016 E3.2078
G1 X67.156 Y73.912 E3.2117
G1 X67.349 Y73.256 E3.2368
G1 X67.393 Y73.160 E3.2406
G1 X68.015 Y72.198 E3.2827
G1 X68.043 Y72.160 E3.2844
G1 X68.238 Y71.929 E3.2955
G1 X68.271 Y71.895 E3.2972
G1 X69.034 Y71.196 E3.3351
G1 X69.107 Y71.144 E3.3384
G1 X69.615 Y70.868 E3.3596
G1 X69.698 Y70.835 E3.3629
G1 X70.687 Y70.577 E3.4004
G1 X70.733 Y70.568 E3.4021
G1 X71.033 Y70.530 E3.4132
G1 X71.080 Y70.527 E3.4149
G1 X72.112 Y70.527 E3.4528
G1 X72.161 Y70.530 E3.4546
G1 X72.351 Y70.556 E3.4616
G1 X72.351 Y57.792 E3.9296
G1 X72.463 Y57.522 E3.9404
G1 X72.878 Y57.800 F3498
G92 E0
G1 X74.119 Y56.559 E0.0643 F810
G1 X74.209 Y56.522 E0.0679
G1 X81.002 Y56.522 E0.3170
G1 X81.092 Y56.559 E0.3206
G1 X82.332 Y57.800 E0.3849
G1 X82.370 Y57.890 E0.3885
G1 X82.370 Y92.986 E1.6754
G1 X82.369 Y92.995 E1.6758
G1 X82.358 Y93.148 E1.6814
G1 X82.357 Y93.157 E1.6817
G1 X82.168 Y94.455 E1.7298
G1 X82.161 Y94.481 E1.7308
G1 X81.992 Y94.924 E1.7482
G1 X81.979 Y94.948 E1.7492
G1 X81.172 Y96.156 E1.8025
G1 X81.156 Y96.174 E1.8033
G1 X80.861 Y96.470 E1.8187
G1 X80.842 Y96.485 E1.8196
G1 X79.657 Y97.277 E1.8718
G1 X79.636 Y97.288 E1.8727
G1 X79.250 Y97.448 E1.8880
G1 X79.227 Y97.455 E1.8889
G1 X77.932 Y97.713 E1.9373
G1 X77.920 Y97.715 E1.9378
G1 X77.712 Y97.735 E1.9454
G1 X77.700 Y97.736 E1.9459
G1 X72.451 Y97.736 E2.1383
G1 X72.439 Y97.735 E2.1388
G1 X72.232 Y97.715 E2.1464
G1 X72.220 Y97.713 E2.1469
G1 X70.922 Y97.456 E2.1954
G1 X70.899 Y97.449 E2.1962
G1 X70.513 Y97.289 E2.2116
G1 X70.491 Y97.277 E2.2125
G1 X69.306 Y96.485 E2.2648
G1 X69.288 Y96.470 E2.2656
G1 X68.992 Y96.174 E2.2810
G1 X68.977 Y96.156 E2.2818
G1 X68.185 Y94.971 E2.3341
G1 X68.174 Y94.950 E2.3350
G1 X68.014 Y94.563 E2.3503
G1 X68.007 Y94.540 E2.3512
G1 X67.758 Y93.288 E2.3980
G1 X67.756 Y93.280 E2.3983
G1 X67.738 Y93.145 E2.4033
G1 X67.737 Y93.138 E2.4036
G1 X67.634 Y91.618 E2.4594
G1 X67.634 Y91.614 E2.4596
G1 X67.631 Y91.542 E2.4622
G1 X67.631 Y91.538 E2.4624
G1 X67.630 Y74.052 E3.1036
G1 X67.635 Y74.017 E3.1049
G1 X67.809 Y73.429 E3.1274
G1 X67.824 Y73.397 E3.1287
G1 X68.418 Y72.477 E3.1688
G1 X68.427 Y72.465 E3.1694
G1 X68.603 Y72.257 E3.1793
G1 X68.613 Y72.246 E3.1799
G1 X69.343 Y71.578 E3.2162
G1 X69.367 Y71.561 E3.2173
G1 X69.823 Y71.313 E3.2363
G1 X69.850 Y71.302 E3.2374
G1 X70.796 Y71.055 E3.2732
G1 X70.811 Y71.052 E3.2738
G1 X71.080 Y71.018 E3.2837
G1 X71.096 Y71.017 E3.2843
G1 X72.096 Y71.017 E3.3210
G1 X72.112 Y71.018 E3.3216
G1 X72.393 Y71.056 E3.3320
G1 X72.409 Y71.059 E3.3326
G1 X72.841 Y71.177 E3.3490
G1 X72.841 Y57.890 E3.8362
G1 X72.878 Y57.800 E3.8398
G92 E0
G1 E-6.5000 F4998
; inner perimeter
G1 X71.750 Y74.487 F3498
G1 E0.0000 F4998
G92 E0
G1 X71.751 Y90.114 E0.5730 F675
G1 X71.791 Y90.510 E0.5876
G1 X71.869 Y90.937 E0.6036
G1 X72.032 Y91.392 E0.6213
G1 X72.267 Y91.815 E0.6390
G1 X72.569 Y92.194 E0.6568
G1 X72.930 Y92.518 E0.6746
G1 X73.338 Y92.777 E0.6923
G1 X73.784 Y92.966 E0.7101
G1 X74.252 Y93.081 E0.7278
G1 X74.686 Y93.116 E0.7437
G1 X75.542 Y93.116 E0.7751
G1 X75.879 Y93.096 E0.7875
G1 X76.244 Y93.029 E0.8011
G1 X76.598 Y92.919 E0.8147
G1 X76.936 Y92.768 E0.8283
G1 X77.253 Y92.576 E0.8418
G1 X77.545 Y92.348 E0.8554
G1 X77.807 Y92.086 E0.8690
G1 X78.036 Y91.795 E0.8826
G1 X78.228 Y91.478 E0.8962
G1 X78.381 Y91.140 E0.9098
G1 X78.491 Y90.786 E0.9234
G1 X78.543 Y90.504 E0.9339
G1 X78.900 Y90.537 E0.9470
G1 X78.900 Y92.821 E1.0308
G1 X78.808 Y93.447 E1.0540
G1 X78.538 Y93.852 E1.0718
G1 X78.106 Y94.140 E1.0909
G1 X77.475 Y94.266 E1.1145
G1 X72.675 Y94.266 E1.2905
G1 X72.042 Y94.140 E1.3141
G1 X71.610 Y93.852 E1.3332
G1 X71.322 Y93.419 E1.3522
G1 X71.189 Y92.755 E1.3771
G1 X71.101 Y91.460 E1.4247
G1 X71.100 Y74.720 E2.0385
G1 X71.173 Y74.607 E2.0435
G1 X71.271 Y74.517 E2.0483
G1 X71.388 Y74.487 E2.0528
G1 X71.750 Y74.487 E2.0660
G92 E0
G1 E-6.5000 F4998
G1 X77.292 Y74.542 F3498
G1 E0.0000 F4998
G92 E0
G1 X78.900 Y74.542 E0.0589 F675
G1 X78.900 Y77.024 E0.1500
G1 X77.292 Y74.542 E0.2584
G92 E0
G1 E-6.5000 F4998
; inner perimeter
G1 X75.821 Y59.502 F3498
G1 E0.0000 F4998
G92 E0
G1 X76.217 Y59.502 E0.0145 F540
G1 X76.217 Y73.784 E0.5382
G1 X75.821 Y73.172 E0.5649
G1 X75.821 Y59.502 E1.0662
G92 E0
G1 E-6.5000 F4998
G1 X78.624 Y59.502 F3498
G1 E0.0000 F4998
G92 E0
G1 X79.390 Y59.502 E0.0281 F540
G1 X79.390 Y92.856 E1.2511
G1 X79.277 Y93.627 E1.2797
G1 X78.891 Y94.205 E1.3052
G1 X78.297 Y94.602 E1.3314
G1 X77.524 Y94.756 E1.3603
G1 X72.627 Y94.756 E1.5399
G1 X71.851 Y94.602 E1.5689
G1 X71.257 Y94.205 E1.5951
G1 X70.860 Y93.611 E1.6213
G1 X70.703 Y92.820 E1.6508
G1 X70.611 Y91.477 E1.7002
G1 X70.610 Y74.575 E2.3200
G1 X70.796 Y74.288 E2.3325
G1 X71.030 Y74.074 E2.3441
G1 X71.325 Y73.997 E2.3553
G1 X71.855 Y73.997 E2.3748
G1 X72.091 Y74.061 E2.3837
G1 X72.180 Y74.159 E2.3886
G1 X72.240 Y74.433 E2.3989
G1 X72.241 Y90.089 E2.9730
G1 X72.276 Y90.441 E2.9859
G1 X72.344 Y90.810 E2.9997
G1 X72.480 Y91.189 E3.0145
G1 X72.676 Y91.542 E3.0293
G1 X72.927 Y91.857 E3.0440
G1 X73.227 Y92.126 E3.0588
G1 X73.567 Y92.342 E3.0736
G1 X73.938 Y92.500 E3.0884
G1 X74.331 Y92.596 E3.1032
G1 X74.705 Y92.626 E3.1170
G1 X75.528 Y92.626 E3.1471
G1 X75.820 Y92.609 E3.1579
G1 X76.127 Y92.553 E3.1693
G1 X76.424 Y92.460 E3.1807
G1 X76.708 Y92.333 E3.1921
G1 X76.975 Y92.172 E3.2036
G1 X77.220 Y91.980 E3.2150
G1 X77.440 Y91.760 E3.2264
G1 X77.633 Y91.515 E3.2378
G1 X77.794 Y91.249 E3.2492
G1 X77.922 Y90.965 E3.2606
G1 X78.015 Y90.668 E3.2720
G1 X78.071 Y90.362 E3.2835
G1 X78.089 Y90.073 E3.2941
G1 X78.089 Y76.674 E3.7854
G1 X76.391 Y74.052 E3.9000
G1 X78.624 Y74.052 E3.9819
G1 X78.624 Y59.502 E4.5154
G92 E0
G1 E-6.5000 F4998
; outer perimeter
G1 X75.331 Y59.012 F3498
G1 E0.0000 F4998
G92 E0
G1 X76.707 Y59.012 E0.0505 F405
G1 X76.707 Y73.562 E0.5840
G1 X78.134 Y73.562 E0.6363
G1 X78.134 Y59.012 E1.1699
G1 X79.880 Y59.012 E1.2339
G1 X79.880 Y92.892 E2.4762
G1 X79.746 Y93.807 E2.5102
G1 X79.245 Y94.558 E2.5433
G1 X78.488 Y95.064 E2.5766
G1 X77.572 Y95.246 E2.6109
G1 X72.579 Y95.246 E2.7940
G1 X71.660 Y95.064 E2.8283
G1 X70.904 Y94.558 E2.8617
G1 X70.398 Y93.802 E2.8950
G1 X70.216 Y92.885 E2.9293
G1 X70.121 Y91.493 E2.9805
G1 X70.120 Y74.430 E3.6061
G1 X70.419 Y73.969 E3.6263
G1 X70.789 Y73.630 E3.6447
G1 X71.263 Y73.507 E3.6626
G1 X71.921 Y73.507 E3.6868
G1 X72.358 Y73.626 E3.7034
G1 X72.631 Y73.926 E3.7183
G1 X72.730 Y74.380 E3.7353
G1 X72.731 Y90.064 E4.3104
G1 X72.762 Y90.372 E4.3218
G1 X72.819 Y90.682 E4.3333
G1 X72.927 Y90.986 E4.3452
G1 X73.084 Y91.268 E4.3570
G1 X73.285 Y91.519 E4.3688
G1 X73.524 Y91.734 E4.3806
G1 X73.796 Y91.907 E4.3924
G1 X74.093 Y92.033 E4.4042
G1 X74.409 Y92.110 E4.4162
G1 X74.725 Y92.136 E4.4278
G1 X75.514 Y92.136 E4.4567
G1 X75.762 Y92.121 E4.4658
G1 X76.010 Y92.076 E4.4751
G1 X76.251 Y92.001 E4.4843
G1 X76.480 Y91.898 E4.4936
G1 X76.696 Y91.768 E4.5028
G1 X76.895 Y91.613 E4.5120
G1 X77.073 Y91.434 E4.5213
G1 X77.229 Y91.236 E4.5305
G1 X77.359 Y91.021 E4.5398
G1 X77.463 Y90.791 E4.5490
G1 X77.538 Y90.550 E4.5582
G1 X77.584 Y90.303 E4.5675
G1 X77.599 Y90.058 E4.5765
G1 X77.599 Y76.818 E5.0620
G1 X75.331 Y73.317 E5.2149
G1 X75.331 Y59.012 E5.7395
G92 E0
G1 E-6.5000 F4998
; gap fill
G1 X78.510 Y77.726 F3498
G1 E0.0000 F4998
G92 E0
G1 X78.722 Y77.515 E0.0110 F810
G1 X78.968 Y77.896 E0.0276
G1 X78.968 Y77.962 E0.0300
G1 X78.510 Y78.419 E0.0537
G1 X78.510 Y79.112 E0.0791
G1 X78.968 Y78.654 E0.1029
G1 X78.968 Y79.347 E0.1283
G1 X78.510 Y79.805 E0.1520
G1 X78.510 Y80.498 E0.1775
G1 X78.968 Y80.040 E0.2012
G1 X78.968 Y80.733 E0.2266
G1 X78.510 Y81.191 E0.2503
