; G-Code generated by Simplify3D(R) Version 3.0.0
; Sep 20, 2017 at 6:01:53 
; Settings Summary
;   processName,Process1
;   applyToModels,lock,lock(2)
;   profileName,1.5 fein (modified)
;   profileVersion,2017-06-09 12:06:14
;   baseProfile,German RepRap NEO (modified)
;   printMaterial,
;   printQuality,
;   printExtruders,
;   extruderName,Primary Extruder
;   extruderToolheadNumber,0
;   extruderDiameter,0.5
;   extruderAutoWidth,0
;   extruderWidth,0.49
;   extrusionMultiplier,0.9
;   extruderUseRetract,1
;   extruderRetractionDistance,6.5
;   extruderExtraRestartDistance,0
;   extruderRetractionZLift,0
;   extruderRetractionSpeed,5000
;   extruderUseCoasting,0
;   extruderCoastingDistance,0.2
;   extruderUseWipe,0
;   extruderWipeDistance,5
;   primaryExtruder,0
;   layerHeight,0.1
;   topSolidLayers,4
;   bottomSolidLayers,3
;   perimeterOutlines,3
;   printPerimetersInsideOut,1
;   startPointOption,2
;   startPointOriginX,0
;   startPointOriginY,0
;   startPointOriginZ,300
;   sequentialIslands,0
;   spiralVaseMode,0
;   firstLayerHeightPercentage,140
;   firstLayerWidthPercentage,100
;   firstLayerUnderspeed,0.3
;   useRaft,0
;   raftExtruder,0
;   raftLayers,3
;   raftOffset,3
;   raftSeparationDistance,0.1
;   raftInfill,85
;   disableRaftBaseLayers,0
;   useSkirt,1
;   skirtExtruder,0
;   skirtLayers,1
;   skirtOutlines,5
;   skirtOffset,2
;   usePrimePillar,0
;   primePillarExtruder,999
;   primePillarWidth,12
;   primePillarLocation,7
;   primePillarSpeedMultiplier,1
;   useOozeShield,0
;   oozeShieldExtruder,999
;   oozeShieldOffset,2
;   oozeShieldOutlines,1
;   oozeShieldSidewallShape,1
;   oozeShieldSidewallAngle,30
;   oozeShieldSpeedMultiplier,1
;   infillExtruder,0
;   internalInfillPattern,Full Honeycomb
;   externalInfillPattern,Rectilinear
;   infillPercentage,15
;   outlineOverlapPercentage,15
;   infillExtrusionWidthPercentage,100
;   minInfillLength,3
;   infillLayerInterval,1
;   infillAngles,0,120,-120
;   overlapInfillAngles,0
;   generateSupport,1
;   supportExtruder,0
;   supportInfillPercentage,30
;   supportExtraInflation,1
;   denseSupportLayers,0
;   denseSupportInfillPercentage,75
;   supportLayerInterval,1
;   supportHorizontalPartOffset,1.5
;   supportUpperSeparationLayers,2
;   supportLowerSeparationLayers,2
;   supportType,0
;   supportGridSpacing,4
;   maxOverhangAngle,45
;   supportAngles,45
;   temperatureName,Primary Extruder
;   temperatureNumber,0
;   temperatureSetpointCount,3
;   temperatureSetpointLayers,1,2,3
;   temperatureSetpointTemperatures,207,199,193
;   temperatureStabilizeAtStartup,1
;   temperatureHeatedBed,0
;   temperatureRelayBetweenLayers,0
;   temperatureRelayBetweenLoops,0
;   fanLayers,1,4
;   fanSpeeds,0,100
;   blipFanToFullPower,0
;   adjustSpeedForCooling,1
;   minSpeedLayerTime,15
;   minCoolingSpeedSlowdown,20
;   increaseFanForCooling,0
;   minFanLayerTime,45
;   maxCoolingFanSpeed,100
;   increaseFanForBridging,0
;   bridgingFanSpeed,100
;   use5D,1
;   relativeEdistances,0
;   allowEaxisZeroing,1
;   independentExtruderAxes,0
;   includeM10123,0
;   stickySupport,1
;   applyToolheadOffsets,0
;   gcodeXoffset,0
;   gcodeYoffset,0
;   gcodeZoffset,0
;   overrideMachineDefinition,1
;   machineTypeOverride,0
;   strokeXoverride,150
;   strokeYoverride,150
;   strokeZoverride,150
;   originOffsetXoverride,0
;   originOffsetYoverride,0
;   originOffsetZoverride,0
;   homeXdirOverride,-1
;   homeYdirOverride,-1
;   homeZdirOverride,-1
;   flipXoverride,1
;   flipYoverride,-1
;   flipZoverride,1
;   toolheadOffsets,0,0|0,0|0,0|0,0|0,0|0,0
;   overrideFirmwareConfiguration,0
;   firmwareTypeOverride,RepRap (Marlin/Repetier/Sprinter)
;   GPXconfigOverride,r2
;   baudRateOverride,115200
;   overridePrinterModels,0
;   printerModelsOverride
;   startingGcode,G28 ; home all axes
;   layerChangeGcode,
;   retractionGcode,
;   toolChangeGcode,
;   endingGcode,M104 S0 ; turn off extruder,M140 S0 ; turn off bed,G28 X0  ; home X axis,G28 Y0  ; home Y axis,M84 ; disable motors,M107
;   createX3G,0
;   celebration,0
;   celebrationSong,Random Song
;   createMB5G,0
;   postProcessing,
;   defaultSpeed,2400
;   outlineUnderspeed,0.5
;   solidInfillUnderspeed,0.8
;   supportUnderspeed,0.8
;   rapidXYspeed,3500
;   rapidZspeed,1000
;   minBridgingArea,50
;   bridgingExtraInflation,0
;   bridgingExtrusionMultiplier,1
;   bridgingSpeedMultiplier,1
;   filamentDiameter,1.75
;   filamentPricePerKg,46
;   filamentDensity,1.25
;   useMinPrintHeight,0
;   minPrintHeight,0
;   useMaxPrintHeight,0
;   maxPrintHeight,0
;   useDiaphragm,0
;   diaphragmLayerInterval,20
;   robustSlicing,1
;   mergeAllIntoSolid,0
;   onlyRetractWhenCrossingOutline,1
;   retractBetweenLayers,1
;   useRetractionMinTravel,0
;   retractionMinTravel,3
;   retractWhileWiping,0
;   onlyWipeOutlines,1
;   avoidCrossingOutline,0
;   maxMovementDetourFactor,10
;   toolChangeRetractionDistance,0
;   toolChangeExtraRestartDistance,0
;   toolChangeRetractionSpeed,360
;   allowThinWallGapFill,1
;   thinWallAllowedOverlapPercentage,10
;   horizontalSizeCompensation,0
G90
M82
M106 S0
M104 S207 T0
M109 S207 T0
G28 ; home all axes
G92 E0
G1 E-6.5000 F5000
G1 Z0.140 F1000
; layer 1, Z = 0.14
T0
; tool H0.140 W0.490
; skirt
G1 X67.470 Y62.073 F3500
G1 E0.0000 F1500
G92 E0
G1 X68.020 Y61.661 E0.0176 F720
G1 X69.286 Y61.221 E0.0520
G1 X69.393 Y61.190 E0.0549
G1 X69.698 Y61.117 E0.0629
G1 X69.807 Y61.097 E0.0658
G1 X70.331 Y61.027 E0.0794
G1 X70.404 Y61.020 E0.0812
G1 X70.610 Y61.006 E0.0865
G1 X70.683 Y61.004 E0.0884
G1 X79.511 Y61.004 E0.3150
G1 X79.597 Y61.007 E0.3172
G1 X79.837 Y61.026 E0.3234
G1 X79.923 Y61.036 E0.3256
G1 X80.440 Y61.117 E0.3391
G1 X80.559 Y61.142 E0.3422
G1 X80.892 Y61.233 E0.3510
G1 X81.008 Y61.272 E0.3542
G1 X82.215 Y61.750 E0.3875
G1 X82.732 Y62.165 E0.4045
G1 X83.427 Y63.187 E0.4362
G1 X84.219 Y62.073 E0.4713
G1 X84.768 Y61.661 E0.4890
G1 X86.035 Y61.221 E0.5234
G1 X86.141 Y61.190 E0.5262
G1 X86.446 Y61.117 E0.5343
G1 X86.555 Y61.097 E0.5371
G1 X87.080 Y61.027 E0.5507
G1 X87.152 Y61.020 E0.5526
G1 X87.358 Y61.006 E0.5579
G1 X87.431 Y61.004 E0.5597
G1 X96.260 Y61.004 E0.7864
G1 X96.345 Y61.007 E0.7886
G1 X96.586 Y61.026 E0.7947
G1 X96.671 Y61.036 E0.7969
G1 X97.188 Y61.117 E0.8104
G1 X97.308 Y61.142 E0.8135
G1 X97.640 Y61.233 E0.8224
G1 X97.756 Y61.272 E0.8255
G1 X98.964 Y61.750 E0.8589
G1 X99.481 Y62.165 E0.8759
G1 X100.544 Y63.731 E0.9245
G1 X100.739 Y64.364 E0.9415
G1 X100.739 Y87.913 E1.5459
G1 X100.403 Y88.723 E1.5684
G1 X98.612 Y90.515 E1.6335
G1 X97.801 Y90.851 E1.6560
G1 X85.809 Y90.851 E1.9638
G1 X84.999 Y90.515 E1.9863
G1 X83.431 Y88.947 E2.0432
G1 X81.863 Y90.515 E2.1002
G1 X81.053 Y90.851 E2.1227
G1 X69.061 Y90.851 E2.4305
G1 X68.251 Y90.515 E2.4530
G1 X66.459 Y88.723 E2.5180
G1 X66.123 Y87.913 E2.5406
G1 X66.123 Y64.328 E3.1459
G1 X66.332 Y63.674 E3.1636
G1 X67.470 Y62.073 E3.2140
G1 X67.826 Y62.419 F3500
G92 E0
G1 X68.253 Y62.099 E0.0137 F720
G1 X69.436 Y61.688 E0.0459
G1 X69.519 Y61.663 E0.0481
G1 X69.799 Y61.597 E0.0555
G1 X69.884 Y61.581 E0.0577
G1 X70.388 Y61.514 E0.0707
G1 X70.445 Y61.508 E0.0722
G1 X70.634 Y61.495 E0.0771
G1 X70.691 Y61.494 E0.0785
G1 X79.502 Y61.494 E0.3047
G1 X79.569 Y61.496 E0.3064
G1 X79.790 Y61.513 E0.3121
G1 X79.856 Y61.521 E0.3138
G1 X80.350 Y61.599 E0.3267
G1 X80.443 Y61.618 E0.3291
G1 X80.750 Y61.702 E0.3373
G1 X80.840 Y61.732 E0.3397
G1 X81.966 Y62.179 E0.3708
G1 X82.368 Y62.501 E0.3840
G1 X83.349 Y63.945 E0.4288
G1 X83.427 Y64.198 E0.4356
G1 X83.524 Y63.896 E0.4438
G1 X84.574 Y62.419 E0.4903
G1 X85.001 Y62.099 E0.5040
G1 X86.184 Y61.688 E0.5361
G1 X86.267 Y61.664 E0.5384
G1 X86.547 Y61.597 E0.5458
G1 X86.632 Y61.581 E0.5480
G1 X87.136 Y61.514 E0.5610
G1 X87.193 Y61.508 E0.5625
G1 X87.382 Y61.495 E0.5674
G1 X87.439 Y61.494 E0.5688
G1 X96.250 Y61.494 E0.7950
G1 X96.317 Y61.496 E0.7967
G1 X96.538 Y61.513 E0.8024
G1 X96.604 Y61.521 E0.8041
G1 X97.099 Y61.599 E0.8170
G1 X97.192 Y61.618 E0.8194
G1 X97.498 Y61.702 E0.8276
G1 X97.588 Y61.732 E0.8300
G1 X98.715 Y62.179 E0.8611
G1 X99.117 Y62.501 E0.8743
G1 X100.098 Y63.945 E0.9191
G1 X100.249 Y64.438 E0.9324
G1 X100.249 Y87.815 E1.5324
G1 X99.988 Y88.446 E1.5499
G1 X98.334 Y90.100 E1.6100
G1 X97.704 Y90.361 E1.6275
G1 X85.907 Y90.361 E1.9303
G1 X85.276 Y90.100 E1.9478
G1 X83.622 Y88.446 E2.0079
G1 X83.431 Y87.984 E2.0207
G1 X83.240 Y88.446 E2.0335
G1 X81.586 Y90.100 E2.0936
G1 X80.955 Y90.361 E2.1111
G1 X69.158 Y90.361 E2.4139
G1 X68.528 Y90.100 E2.4314
G1 X66.874 Y88.446 E2.4915
G1 X66.613 Y87.815 E2.5090
G1 X66.613 Y64.405 E3.1099
G1 X66.776 Y63.896 E3.1236
G1 X67.826 Y62.419 E3.1701
G1 X68.181 Y62.765 F3500
G92 E0
G1 X68.486 Y62.536 E0.0098 F720
G1 X69.585 Y62.155 E0.0397
G1 X69.644 Y62.137 E0.0412
G1 X69.900 Y62.076 E0.0480
G1 X69.961 Y62.065 E0.0496
G1 X70.445 Y62.000 E0.0621
G1 X70.485 Y61.996 E0.0632
G1 X70.658 Y61.985 E0.0676
G1 X70.699 Y61.984 E0.0687
G1 X79.492 Y61.984 E0.2944
G1 X79.540 Y61.985 E0.2956
G1 X79.742 Y62.001 E0.3008
G1 X79.790 Y62.007 E0.3020
G1 X80.261 Y62.081 E0.3143
G1 X80.328 Y62.095 E0.3160
G1 X80.608 Y62.171 E0.3235
G1 X80.672 Y62.193 E0.3252
G1 X81.717 Y62.607 E0.3541
G1 X82.005 Y62.837 E0.3635
G1 X82.903 Y64.159 E0.4046
G1 X83.011 Y64.511 E0.4140
G1 X83.011 Y87.718 E1.0097
G1 X82.824 Y88.168 E1.0222
G1 X81.308 Y89.684 E1.0772
G1 X80.858 Y89.871 E1.0897
G1 X69.256 Y89.871 E1.3875
G1 X68.806 Y89.684 E1.4001
G1 X67.290 Y88.168 E1.4551
G1 X67.103 Y87.718 E1.4676
G1 X67.103 Y64.481 E2.0641
G1 X67.219 Y64.117 E2.0739
G1 X68.181 Y62.765 E2.1164
G1 X83.851 Y64.481 F3500
G92 E0
G1 X83.967 Y64.117 E0.0098 F720
G1 X84.929 Y62.765 E0.0524
G1 X85.234 Y62.536 E0.0622
G1 X86.333 Y62.155 E0.0920
G1 X86.392 Y62.137 E0.0936
G1 X86.649 Y62.076 E0.1004
G1 X86.710 Y62.065 E0.1020
G1 X87.193 Y62.000 E0.1145
G1 X87.234 Y61.996 E0.1155
G1 X87.407 Y61.985 E0.1200
G1 X87.447 Y61.984 E0.1210
G1 X96.241 Y61.984 E0.3468
G1 X96.288 Y61.985 E0.3480
G1 X96.491 Y62.001 E0.3532
G1 X96.538 Y62.007 E0.3544
G1 X97.009 Y62.081 E0.3667
G1 X97.076 Y62.095 E0.3684
G1 X97.356 Y62.171 E0.3759
G1 X97.421 Y62.193 E0.3776
G1 X98.466 Y62.607 E0.4065
G1 X98.753 Y62.837 E0.4159
G1 X99.651 Y64.159 E0.4569
G1 X99.759 Y64.511 E0.4664
G1 X99.759 Y87.718 E1.0621
G1 X99.573 Y88.168 E1.0746
G1 X98.056 Y89.684 E1.1296
G1 X97.606 Y89.871 E1.1421
G1 X86.004 Y89.871 E1.4399
G1 X85.554 Y89.684 E1.4524
G1 X84.038 Y88.168 E1.5075
G1 X83.851 Y87.718 E1.5200
G1 X83.851 Y64.481 E2.1164
G1 X84.341 Y64.557 F3500
G92 E0
G1 X84.411 Y64.339 E0.0059 F720
G1 X85.284 Y63.112 E0.0445
G1 X85.467 Y62.974 E0.0504
G1 X86.482 Y62.622 E0.0780
G1 X86.518 Y62.611 E0.0790
G1 X86.750 Y62.556 E0.0851
G1 X86.787 Y62.549 E0.0860
G1 X87.250 Y62.487 E0.0980
G1 X87.274 Y62.485 E0.0987
G1 X87.431 Y62.474 E0.1027
G1 X87.455 Y62.474 E0.1033
G1 X96.231 Y62.474 E0.3286
G1 X96.260 Y62.475 E0.3293
G1 X96.443 Y62.489 E0.3340
G1 X96.472 Y62.492 E0.3348
G1 X96.920 Y62.563 E0.3464
G1 X96.960 Y62.571 E0.3475
G1 X97.214 Y62.640 E0.3542
G1 X97.253 Y62.653 E0.3553
G1 X98.217 Y63.035 E0.3819
G1 X98.389 Y63.174 E0.3876
G1 X99.204 Y64.374 E0.4248
G1 X99.269 Y64.585 E0.4305
G1 X99.269 Y87.620 E1.0218
G1 X99.157 Y87.891 E1.0293
G1 X97.779 Y89.269 E1.0793
G1 X97.509 Y89.381 E1.0868
G1 X86.102 Y89.381 E1.3796
G1 X85.832 Y89.269 E1.3871
G1 X84.453 Y87.891 E1.4372
G1 X84.341 Y87.620 E1.4447
G1 X84.341 Y64.557 E2.0367
G1 X82.521 Y64.585 F3500
G92 E0
G1 X82.521 Y87.620 E0.5913 F720
G1 X82.409 Y87.891 E0.5988
G1 X81.031 Y89.269 E0.6488
G1 X80.760 Y89.381 E0.6563
G1 X69.353 Y89.381 E0.9491
G1 X69.083 Y89.269 E0.9566
G1 X67.705 Y87.891 E1.0067
G1 X67.593 Y87.620 E1.0142
G1 X67.593 Y64.557 E1.6062
G1 X67.663 Y64.339 E1.6121
G1 X68.536 Y63.112 E1.6507
G1 X68.719 Y62.974 E1.6566
G1 X69.734 Y62.622 E1.6842
G1 X69.769 Y62.611 E1.6851
G1 X70.002 Y62.556 E1.6913
G1 X70.038 Y62.549 E1.6922
G1 X70.502 Y62.487 E1.7042
G1 X70.526 Y62.485 E1.7048
G1 X70.683 Y62.474 E1.7089
G1 X70.707 Y62.474 E1.7095
G1 X79.483 Y62.474 E1.9348
G1 X79.511 Y62.475 E1.9355
G1 X79.695 Y62.489 E1.9402
G1 X79.723 Y62.492 E1.9410
G1 X80.172 Y62.563 E1.9526
G1 X80.212 Y62.571 E1.9537
G1 X80.466 Y62.640 E1.9604
G1 X80.504 Y62.653 E1.9615
G1 X81.468 Y63.035 E1.9881
G1 X81.641 Y63.174 E1.9937
G1 X82.456 Y64.374 E2.0310
G1 X82.521 Y64.585 E2.0367
G1 X82.031 Y64.659 F3500
G92 E0
G1 X82.031 Y87.523 E0.5869 F720
G1 X81.994 Y87.613 E0.5894
G1 X80.753 Y88.854 E0.6344
G1 X80.663 Y88.891 E0.6369
G1 X69.451 Y88.891 E0.9247
G1 X69.361 Y88.854 E0.9272
G1 X68.120 Y87.613 E0.9723
G1 X68.083 Y87.523 E0.9748
G1 X68.083 Y64.634 E1.5623
G1 X68.106 Y64.561 E1.5643
G1 X68.891 Y63.458 E1.5990
G1 X68.952 Y63.412 E1.6010
G1 X69.883 Y63.088 E1.6263
G1 X69.895 Y63.085 E1.6266
G1 X70.103 Y63.035 E1.6321
G1 X70.115 Y63.033 E1.6324
G1 X70.558 Y62.974 E1.6439
G1 X70.567 Y62.973 E1.6441
G1 X70.707 Y62.964 E1.6477
G1 X70.715 Y62.964 E1.6479
G1 X79.473 Y62.964 E1.8727
G1 X79.483 Y62.964 E1.8730
G1 X79.647 Y62.977 E1.8772
G1 X79.657 Y62.978 E1.8774
G1 X80.083 Y63.045 E1.8885
G1 X80.096 Y63.047 E1.8888
G1 X80.323 Y63.109 E1.8949
G1 X80.336 Y63.114 E1.8953
G1 X81.219 Y63.464 E1.9196
G1 X81.277 Y63.510 E1.9215
G1 X82.009 Y64.588 E1.9550
G1 X82.031 Y64.659 E1.9569
G1 X84.831 Y64.634 F3500
G92 E0
G1 X84.855 Y64.561 E0.0020 F720
G1 X85.639 Y63.458 E0.0367
G1 X85.700 Y63.412 E0.0387
G1 X86.631 Y63.088 E0.0640
G1 X86.643 Y63.085 E0.0643
G1 X86.852 Y63.035 E0.0698
G1 X86.864 Y63.033 E0.0701
G1 X87.307 Y62.974 E0.0816
G1 X87.315 Y62.973 E0.0818
G1 X87.455 Y62.964 E0.0854
G1 X87.464 Y62.964 E0.0856
G1 X96.222 Y62.964 E0.3104
G1 X96.231 Y62.964 E0.3107
G1 X96.396 Y62.977 E0.3149
G1 X96.405 Y62.978 E0.3151
G1 X96.831 Y63.045 E0.3262
G1 X96.844 Y63.047 E0.3266
G1 X97.072 Y63.109 E0.3326
G1 X97.085 Y63.114 E0.3330
G1 X97.968 Y63.464 E0.3573
G1 X98.025 Y63.510 E0.3592
G1 X98.758 Y64.588 E0.3927
G1 X98.779 Y64.659 E0.3946
G1 X98.779 Y87.523 E0.9815
G1 X98.742 Y87.613 E0.9840
G1 X97.501 Y88.854 E1.0290
G1 X97.411 Y88.891 E1.0315
G1 X86.199 Y88.891 E1.3193
G1 X86.109 Y88.854 E1.3218
G1 X84.869 Y87.613 E1.3668
G1 X84.831 Y87.523 E1.3693
G1 X84.831 Y64.634 E1.9569
G92 E0
G1 E-6.5000 F5000
; inner perimeter
G1 X88.301 Y66.434 F3500
G1 E0.0000 F5000
G92 E0
G1 X95.309 Y66.434 E0.1799 F600
G1 X95.309 Y81.994 E0.5793
G1 X94.681 Y81.804 E0.5961
G1 X88.609 Y81.804 E0.7520
G1 X88.301 Y81.898 E0.7602
G1 X88.301 Y66.434 E1.1572
; inner perimeter
G1 X87.811 Y65.944 F3500
G92 E0
G1 X95.799 Y65.944 E0.2050 F480
G1 X95.799 Y82.845 E0.6389
G1 X95.345 Y82.516 E0.6533
G1 X94.609 Y82.294 E0.6730
G1 X88.682 Y82.294 E0.8251
G1 X87.811 Y82.561 E0.8485
G1 X87.811 Y65.944 E1.2751
; outer perimeter
G1 X87.321 Y65.485 F3500
G92 E0
G1 X87.324 Y65.484 E0.0001 F360
G1 X87.550 Y65.454 E0.0059
G1 X96.120 Y65.454 E0.2259
G1 X96.289 Y65.480 E0.2303
G1 X96.289 Y86.401 E0.7673
G1 X87.321 Y86.401 E0.9975
G1 X87.321 Y65.485 E1.5344
; inner perimeter
; inner perimeter
; outer perimeter
G1 X88.756 Y82.784 F3500
G92 E0
G1 X88.175 Y82.962 E0.0156 F360
G1 X87.909 Y83.158 E0.0241
G1 X87.742 Y83.350 E0.0306
G1 X87.632 Y83.536 E0.0361
G1 X87.557 Y83.726 E0.0414
G1 X87.514 Y83.917 E0.0464
G1 X87.499 Y84.108 E0.0513
G1 X87.512 Y84.298 E0.0562
G1 X87.553 Y84.489 E0.0612
G1 X87.626 Y84.680 E0.0665
G1 X87.741 Y84.877 E0.0723
G1 X87.909 Y85.070 E0.0789
G1 X88.175 Y85.265 E0.0874
G1 X88.756 Y85.443 E0.1030
G1 X94.536 Y85.443 E0.2513
G1 X95.125 Y85.266 E0.2671
G1 X95.394 Y85.071 E0.2757
G1 X95.563 Y84.879 E0.2822
G1 X95.675 Y84.693 E0.2878
G1 X95.751 Y84.502 E0.2931
G1 X95.795 Y84.311 E0.2981
G1 X95.810 Y84.120 E0.3030
G1 X95.797 Y83.929 E0.3079
G1 X95.755 Y83.738 E0.3130
G1 X95.681 Y83.547 E0.3182
G1 X95.564 Y83.349 E0.3241
G1 X95.394 Y83.157 E0.3307
G1 X95.125 Y82.962 E0.3392
G1 X94.536 Y82.784 E0.3550
G1 X88.756 Y82.784 E0.5034
G92 E0
G1 E-6.5000 F5000
; gap fill
G1 X87.743 Y85.877 F3500
G1 E0.0000 F5000
G92 E0
G1 X87.977 Y85.643 E0.0085 F720
G1 X87.983 Y85.647 E0.0087
G1 X88.505 Y85.807 E0.0227
G1 X88.333 Y85.979 E0.0290
G1 X89.026 Y85.979 E0.0467
G1 X89.141 Y85.865 E0.0509
G1 X89.834 Y85.865 E0.0687
G1 X89.719 Y85.979 E0.0729
G1 X90.412 Y85.979 E0.0906
G1 X90.527 Y85.865 E0.0948
