; G-Code generated by Simplify3D(R) Version 3.0.0
; Sep 2, 2017 at 5:29:52 
; Settings Summary
;   processName,Process1
;   applyToModels,newbodysep
;   profileName,juli (modified)
;   profileVersion,2017-06-09 12:06:14
;   baseProfile,German RepRap NEO (modified)
;   printMaterial,
;   printQuality,
;   printExtruders,
;   extruderName,Primary Extruder
;   extruderToolheadNumber,0
;   extruderDiameter,0.5
;   extruderAutoWidth,0
;   extruderWidth,0.49
;   extrusionMultiplier,0.9
;   extruderUseRetract,1
;   extruderRetractionDistance,6.5
;   extruderExtraRestartDistance,0
;   extruderRetractionZLift,0
;   extruderRetractionSpeed,5000
;   extruderUseCoasting,0
;   extruderCoastingDistance,0.2
;   extruderUseWipe,0
;   extruderWipeDistance,5
;   primaryExtruder,0
;   layerHeight,0.2
;   topSolidLayers,4
;   bottomSolidLayers,3
;   perimeterOutlines,3
;   printPerimetersInsideOut,1
;   startPointOption,2
;   startPointOriginX,0
;   startPointOriginY,0
;   startPointOriginZ,300
;   sequentialIslands,0
;   spiralVaseMode,0
;   firstLayerHeightPercentage,150
;   firstLayerWidthPercentage,100
;   firstLayerUnderspeed,0.3
;   useRaft,0
;   raftExtruder,0
;   raftLayers,3
;   raftOffset,3
;   raftSeparationDistance,0.1
;   raftInfill,85
;   disableRaftBaseLayers,0
;   useSkirt,1
;   skirtExtruder,0
;   skirtLayers,1
;   skirtOutlines,4
;   skirtOffset,2
;   usePrimePillar,0
;   primePillarExtruder,999
;   primePillarWidth,12
;   primePillarLocation,7
;   primePillarSpeedMultiplier,1
;   useOozeShield,0
;   oozeShieldExtruder,999
;   oozeShieldOffset,2
;   oozeShieldOutlines,1
;   oozeShieldSidewallShape,1
;   oozeShieldSidewallAngle,30
;   oozeShieldSpeedMultiplier,1
;   infillExtruder,0
;   internalInfillPattern,Full Honeycomb
;   externalInfillPattern,Rectilinear
;   infillPercentage,15
;   outlineOverlapPercentage,15
;   infillExtrusionWidthPercentage,100
;   minInfillLength,3
;   infillLayerInterval,1
;   infillAngles,0,120,-120
;   overlapInfillAngles,0
;   generateSupport,1
;   supportExtruder,0
;   supportInfillPercentage,30
;   supportExtraInflation,0
;   denseSupportLayers,0
;   denseSupportInfillPercentage,75
;   supportLayerInterval,1
;   supportHorizontalPartOffset,2
;   supportUpperSeparationLayers,2
;   supportLowerSeparationLayers,2
;   supportType,0
;   supportGridSpacing,4
;   maxOverhangAngle,45
;   supportAngles,45
;   temperatureName,Primary Extruder
;   temperatureNumber,0
;   temperatureSetpointCount,3
;   temperatureSetpointLayers,1,2,3
;   temperatureSetpointTemperatures,207,199,192
;   temperatureStabilizeAtStartup,1
;   temperatureHeatedBed,0
;   temperatureRelayBetweenLayers,0
;   temperatureRelayBetweenLoops,0
;   fanLayers,1,3
;   fanSpeeds,0,100
;   blipFanToFullPower,0
;   adjustSpeedForCooling,1
;   minSpeedLayerTime,15
;   minCoolingSpeedSlowdown,20
;   increaseFanForCooling,0
;   minFanLayerTime,45
;   maxCoolingFanSpeed,100
;   increaseFanForBridging,0
;   bridgingFanSpeed,100
;   use5D,1
;   relativeEdistances,0
;   allowEaxisZeroing,1
;   independentExtruderAxes,0
;   includeM10123,0
;   stickySupport,1
;   applyToolheadOffsets,0
;   gcodeXoffset,0
;   gcodeYoffset,0
;   gcodeZoffset,0
;   overrideMachineDefinition,1
;   machineTypeOverride,0
;   strokeXoverride,150
;   strokeYoverride,150
;   strokeZoverride,150
;   originOffsetXoverride,0
;   originOffsetYoverride,0
;   originOffsetZoverride,0
;   homeXdirOverride,-1
;   homeYdirOverride,-1
;   homeZdirOverride,-1
;   flipXoverride,1
;   flipYoverride,-1
;   flipZoverride,1
;   toolheadOffsets,0,0|0,0|0,0|0,0|0,0|0,0
;   overrideFirmwareConfiguration,0
;   firmwareTypeOverride,RepRap (Marlin/Repetier/Sprinter)
;   GPXconfigOverride,r2
;   baudRateOverride,115200
;   overridePrinterModels,0
;   printerModelsOverride
;   startingGcode,G28 ; home all axes
;   layerChangeGcode,
;   retractionGcode,
;   toolChangeGcode,
;   endingGcode,M104 S0 ; turn off extruder,M140 S0 ; turn off bed,G28 X0  ; home X axis,G28 Y0  ; home Y axis,M84 ; disable motors,M107
;   createX3G,0
;   celebration,0
;   celebrationSong,Random Song
;   createMB5G,0
;   postProcessing,
;   defaultSpeed,2400
;   outlineUnderspeed,0.5
;   solidInfillUnderspeed,0.8
;   supportUnderspeed,0.8
;   rapidXYspeed,3500
;   rapidZspeed,1000
;   minBridgingArea,50
;   bridgingExtraInflation,0
;   bridgingExtrusionMultiplier,1
;   bridgingSpeedMultiplier,1
;   filamentDiameter,1.75
;   filamentPricePerKg,46
;   filamentDensity,1.25
;   useMinPrintHeight,0
;   minPrintHeight,0
;   useMaxPrintHeight,0
;   maxPrintHeight,0
;   useDiaphragm,0
;   diaphragmLayerInterval,20
;   robustSlicing,1
;   mergeAllIntoSolid,0
;   onlyRetractWhenCrossingOutline,1
;   retractBetweenLayers,1
;   useRetractionMinTravel,0
;   retractionMinTravel,3
;   retractWhileWiping,0
;   onlyWipeOutlines,1
;   avoidCrossingOutline,0
;   maxMovementDetourFactor,10
;   toolChangeRetractionDistance,0
;   toolChangeExtraRestartDistance,0
;   toolChangeRetractionSpeed,360
;   allowThinWallGapFill,1
;   thinWallAllowedOverlapPercentage,10
;   horizontalSizeCompensation,0
G90
M82
M106 S0
M104 S207 T0
M109 S207 T0
G28 ; home all axes
G92 E0
G1 E-6.5000 F5000
G1 Z0.300 F1000
; layer 1, Z = 0.3
T0
; tool H0.300 W0.490
; skirt
G1 X22.516 Y21.143 F3500
G1 E0.0000 F1500
G92 E0
G1 X22.646 Y21.036 E0.0093 F720
G1 X23.114 Y20.723 E0.0402
G1 X23.263 Y20.644 E0.0495
G1 X27.045 Y19.082 E0.2746
G1 X27.208 Y19.033 E0.2839
G1 X27.764 Y18.924 E0.3151
G1 X27.933 Y18.908 E0.3245
G1 X30.215 Y18.918 E0.4500
G1 X30.387 Y18.936 E0.4595
G1 X30.953 Y19.054 E0.4912
G1 X31.117 Y19.107 E0.5008
G1 X35.009 Y20.787 E0.7339
G1 X35.171 Y20.879 E0.7441
G1 X35.675 Y21.242 E0.7784
G1 X35.814 Y21.367 E0.7886
G1 X38.447 Y24.315 E1.0060
G1 X38.535 Y24.432 E1.0141
G1 X38.795 Y24.849 E1.0411
G1 X38.862 Y24.980 E1.0492
G1 X39.318 Y26.102 E1.1158
G1 X40.713 Y26.103 E1.1925
G1 X41.086 Y25.085 E1.2522
G1 X41.156 Y24.938 E1.2611
G1 X41.435 Y24.472 E1.2910
G1 X41.531 Y24.341 E1.3000
G1 X44.187 Y21.371 E1.5191
G1 X44.331 Y21.243 E1.5297
G1 X44.856 Y20.871 E1.5651
G1 X45.025 Y20.777 E1.5757
G1 X49.061 Y19.109 E1.8160
G1 X49.225 Y19.060 E1.8253
G1 X49.783 Y18.950 E1.8566
G1 X49.953 Y18.934 E1.8660
G1 X51.927 Y18.945 E1.9746
G1 X52.093 Y18.962 E1.9838
G1 X52.638 Y19.072 E2.0144
G1 X52.797 Y19.121 E2.0235
G1 X56.571 Y20.689 E2.2483
G1 X56.720 Y20.768 E2.2576
G1 X57.187 Y21.081 E2.2885
G1 X57.317 Y21.188 E2.2978
G1 X60.279 Y24.154 E2.5283
G1 X60.386 Y24.284 E2.5376
G1 X60.698 Y24.752 E2.5685
G1 X60.777 Y24.900 E2.5778
G1 X62.341 Y28.679 E2.8027
G1 X62.389 Y28.840 E2.8120
G1 X62.499 Y29.391 E2.8429
G1 X62.515 Y29.559 E2.8521
G1 X62.516 Y57.755 E4.4030
G1 X64.979 Y65.537 E4.8520
G1 X65.009 Y65.665 E4.8592
G1 X65.076 Y66.099 E4.8834
G1 X65.086 Y66.230 E4.8906
G1 X65.086 Y73.376 E5.2837
G1 X64.825 Y74.006 E5.3212
G1 X63.171 Y75.660 E5.4498
G1 X62.541 Y75.921 E5.4874
G1 X62.511 Y75.921 E5.4890
G1 X62.509 Y79.339 E5.6770
G1 X62.248 Y79.969 E5.7145
G1 X60.594 Y81.622 E5.8431
G1 X59.964 Y81.883 E5.8806
G1 X53.969 Y81.883 E6.2104
G1 X53.339 Y81.622 E6.2479
G1 X51.685 Y79.968 E6.3766
G1 X51.424 Y79.337 E6.4141
G1 X51.424 Y69.338 E6.9641
G1 X46.334 Y69.338 E7.2440
G1 X46.334 Y79.338 E7.7941
G1 X46.073 Y79.968 E7.8316
G1 X44.419 Y81.622 E7.9603
G1 X43.788 Y81.883 E7.9978
G1 X19.897 Y81.883 E9.3119
G1 X19.266 Y81.622 E9.3495
G1 X17.612 Y79.968 E9.4781
G1 X17.351 Y79.338 E9.5157
G1 X17.351 Y75.728 E9.7142
G1 X17.187 Y75.660 E9.7240
G1 X15.533 Y74.006 E9.8527
G1 X15.272 Y73.376 E9.8902
G1 X15.272 Y67.028 E10.2394
G1 X12.950 Y59.401 E10.6778
G1 X12.922 Y59.277 E10.6848
G1 X12.860 Y58.859 E10.7081
G1 X12.851 Y58.733 E10.7150
G1 X12.851 Y45.854 E11.4234
G1 X13.112 Y45.224 E11.4609
G1 X14.766 Y43.570 E11.5896
G1 X15.396 Y43.309 E11.6271
G1 X17.315 Y43.309 E11.7327
G1 X17.314 Y29.504 E12.4920
G1 X17.331 Y29.336 E12.5013
G1 X17.441 Y28.784 E12.5322
G1 X17.490 Y28.623 E12.5415
G1 X19.056 Y24.845 E12.7664
G1 X19.136 Y24.696 E12.7757
G1 X19.449 Y24.228 E12.8067
G1 X19.556 Y24.098 E12.8160
G1 X22.516 Y21.143 E13.0460
G1 X22.845 Y21.506 F3500
G92 E0
G1 X22.938 Y21.430 E0.0066 F720
G1 X23.366 Y21.144 E0.0349
G1 X23.473 Y21.088 E0.0416
G1 X27.210 Y19.545 E0.2640
G1 X27.326 Y19.510 E0.2706
G1 X27.835 Y19.410 E0.2992
G1 X27.956 Y19.398 E0.3058
G1 X30.188 Y19.408 E0.4286
G1 X30.311 Y19.421 E0.4354
G1 X30.828 Y19.529 E0.4645
G1 X30.946 Y19.566 E0.4713
G1 X34.790 Y21.226 E0.7016
G1 X34.906 Y21.292 E0.7089
G1 X35.367 Y21.624 E0.7402
G1 X35.466 Y21.713 E0.7475
G1 X38.068 Y24.626 E0.9623
G1 X38.131 Y24.710 E0.9681
G1 X38.368 Y25.090 E0.9928
G1 X38.416 Y25.184 E0.9986
G1 X38.988 Y26.591 E1.0821
G1 X41.056 Y26.594 E1.1958
G1 X41.538 Y25.275 E1.2731
G1 X41.588 Y25.170 E1.2795
G1 X41.843 Y24.744 E1.3068
G1 X41.912 Y24.650 E1.3132
G1 X44.534 Y21.718 E1.5295
G1 X44.637 Y21.627 E1.5371
G1 X45.117 Y21.286 E1.5695
G1 X45.238 Y21.220 E1.5771
G1 X49.226 Y19.571 E1.8144
G1 X49.343 Y19.536 E1.8211
G1 X49.853 Y19.436 E1.8498
G1 X49.975 Y19.424 E1.8565
G1 X51.900 Y19.435 E1.9624
G1 X52.019 Y19.447 E1.9689
G1 X52.518 Y19.548 E1.9969
G1 X52.631 Y19.582 E2.0035
G1 X56.361 Y21.132 E2.2256
G1 X56.467 Y21.189 E2.2322
G1 X56.894 Y21.475 E2.2605
G1 X56.987 Y21.551 E2.2671
G1 X59.915 Y24.483 E2.4951
G1 X59.991 Y24.576 E2.5017
G1 X60.277 Y25.004 E2.5299
G1 X60.333 Y25.110 E2.5366
G1 X61.879 Y28.844 E2.7588
G1 X61.913 Y28.959 E2.7655
G1 X62.014 Y29.463 E2.7937
G1 X62.025 Y29.583 E2.8003
G1 X62.026 Y57.830 E4.3541
G1 X64.506 Y65.667 E4.8062
G1 X64.528 Y65.759 E4.8114
G1 X64.589 Y66.155 E4.8334
G1 X64.596 Y66.249 E4.8386
G1 X64.596 Y73.278 E5.2252
G1 X64.409 Y73.728 E5.2520
G1 X62.893 Y75.245 E5.3700
G1 X62.443 Y75.431 E5.3968
G1 X62.022 Y75.431 E5.4200
G1 X62.019 Y79.241 E5.6295
G1 X61.833 Y79.691 E5.6563
G1 X60.317 Y81.206 E5.7742
G1 X59.867 Y81.393 E5.8010
G1 X54.067 Y81.393 E6.1201
G1 X53.616 Y81.206 E6.1469
G1 X52.100 Y79.690 E6.2648
G1 X51.914 Y79.240 E6.2916
G1 X51.914 Y68.848 E6.8632
G1 X45.844 Y68.848 E7.1971
G1 X45.844 Y79.240 E7.7687
G1 X45.657 Y79.691 E7.7955
G1 X44.141 Y81.207 E7.9134
G1 X43.691 Y81.393 E7.9402
G1 X19.994 Y81.393 E9.2437
G1 X19.544 Y81.207 E9.2705
G1 X18.028 Y79.691 E9.3884
G1 X17.841 Y79.240 E9.4152
G1 X17.841 Y75.401 E9.6264
G1 X17.464 Y75.245 E9.6488
G1 X15.948 Y73.728 E9.7668
G1 X15.762 Y73.278 E9.7936
G1 X15.762 Y66.955 E10.1414
G1 X13.424 Y59.276 E10.5829
G1 X13.404 Y59.187 E10.5879
G1 X13.348 Y58.805 E10.6091
G1 X13.341 Y58.715 E10.6141
G1 X13.341 Y45.952 E11.3162
G1 X13.527 Y45.501 E11.3430
G1 X15.044 Y43.985 E11.4609
G1 X15.494 Y43.799 E11.4877
G1 X17.805 Y43.799 E11.6148
G1 X17.804 Y29.528 E12.3998
G1 X17.816 Y29.408 E12.4064
G1 X17.917 Y28.903 E12.4347
G1 X17.952 Y28.788 E12.4413
G1 X19.500 Y25.055 E12.6636
G1 X19.556 Y24.949 E12.6702
G1 X19.843 Y24.521 E12.6986
G1 X19.919 Y24.428 E12.7052
G1 X22.845 Y21.506 E12.9326
G1 X23.174 Y21.870 F3500
G92 E0
G1 X23.230 Y21.824 E0.0040 F720
G1 X23.618 Y21.566 E0.0296
G1 X23.682 Y21.532 E0.0336
G1 X27.374 Y20.007 E0.2533
G1 X27.444 Y19.986 E0.2574
G1 X27.905 Y19.895 E0.2832
G1 X27.978 Y19.888 E0.2872
G1 X30.161 Y19.898 E0.4073
G1 X30.235 Y19.906 E0.4114
G1 X30.704 Y20.004 E0.4377
G1 X30.774 Y20.026 E0.4418
G1 X34.571 Y21.665 E0.6693
G1 X34.641 Y21.705 E0.6737
G1 X35.059 Y22.006 E0.7020
G1 X35.118 Y22.060 E0.7064
G1 X37.688 Y24.936 E0.9186
G1 X37.726 Y24.987 E0.9221
G1 X37.941 Y25.332 E0.9444
G1 X37.970 Y25.388 E0.9479
G1 X38.659 Y27.081 E1.0485
G1 X41.398 Y27.084 E1.1992
G1 X41.990 Y25.465 E1.2940
G1 X42.020 Y25.402 E1.2978
G1 X42.252 Y25.016 E1.3226
G1 X42.293 Y24.960 E1.3264
G1 X44.881 Y22.066 E1.5399
G1 X44.942 Y22.011 E1.5445
G1 X45.378 Y21.702 E1.5738
G1 X45.450 Y21.662 E1.5784
G1 X49.391 Y20.033 E1.8129
G1 X49.461 Y20.012 E1.8169
G1 X49.924 Y19.921 E1.8429
G1 X49.996 Y19.915 E1.8469
G1 X51.874 Y19.924 E1.9502
G1 X51.945 Y19.932 E1.9541
G1 X52.397 Y20.023 E1.9795
G1 X52.465 Y20.044 E1.9834
G1 X56.151 Y21.575 E2.2029
G1 X56.214 Y21.609 E2.2069
G1 X56.601 Y21.868 E2.2325
G1 X56.657 Y21.914 E2.2365
G1 X59.551 Y24.813 E2.4618
G1 X59.597 Y24.868 E2.4658
G1 X59.856 Y25.256 E2.4914
G1 X59.890 Y25.319 E2.4953
G1 X61.417 Y29.009 E2.7150
G1 X61.438 Y29.078 E2.7189
G1 X61.528 Y29.535 E2.7446
G1 X61.535 Y29.607 E2.7485
G1 X61.536 Y57.906 E4.3051
G1 X64.033 Y65.797 E4.7604
G1 X64.046 Y65.852 E4.7635
G1 X64.102 Y66.211 E4.7834
G1 X64.106 Y66.267 E4.7865
G1 X64.106 Y73.181 E5.1668
G1 X63.994 Y73.451 E5.1829
G1 X62.616 Y74.829 E5.2901
G1 X62.346 Y74.941 E5.3062
G1 X61.532 Y74.941 E5.3509
G1 X61.529 Y79.144 E5.5821
G1 X61.417 Y79.414 E5.5982
G1 X60.039 Y80.791 E5.7054
G1 X59.769 Y80.903 E5.7214
G1 X54.164 Y80.903 E6.0297
G1 X53.894 Y80.791 E6.0458
G1 X52.516 Y79.413 E6.1530
G1 X52.404 Y79.142 E6.1691
G1 X52.404 Y68.358 E6.7623
G1 X45.354 Y68.358 E7.1501
G1 X45.354 Y79.143 E7.7433
G1 X45.242 Y79.413 E7.7594
G1 X43.864 Y80.791 E7.8666
G1 X43.593 Y80.903 E7.8827
G1 X20.091 Y80.903 E9.1754
G1 X19.821 Y80.791 E9.1915
G1 X18.443 Y79.413 E9.2987
G1 X18.331 Y79.143 E9.3148
G1 X18.331 Y74.941 E9.5459
G1 X18.012 Y74.941 E9.5634
G1 X17.742 Y74.829 E9.5795
G1 X16.363 Y73.451 E9.6867
G1 X16.252 Y73.181 E9.7028
G1 X16.252 Y66.882 E10.0493
G1 X13.898 Y59.150 E10.4938
G1 X13.886 Y59.097 E10.4968
G1 X13.835 Y58.751 E10.5161
G1 X13.831 Y58.697 E10.5190
G1 X13.831 Y46.049 E11.2147
G1 X13.943 Y45.779 E11.2308
G1 X15.321 Y44.401 E11.3380
G1 X15.591 Y44.289 E11.3541
G1 X18.295 Y44.289 E11.5028
G1 X18.294 Y29.552 E12.3134
G1 X18.302 Y29.480 E12.3174
G1 X18.393 Y29.023 E12.3430
G1 X18.414 Y28.953 E12.3470
G1 X19.943 Y25.265 E12.5666
G1 X19.977 Y25.201 E12.5706
G1 X20.237 Y24.813 E12.5963
G1 X20.282 Y24.758 E12.6002
G1 X23.174 Y21.870 E12.8250
G1 X23.503 Y22.234 F3500
G92 E0
G1 X23.522 Y22.219 E0.0013 F720
G1 X23.870 Y21.987 E0.0243
G1 X23.891 Y21.975 E0.0257
G1 X27.539 Y20.469 E0.2427
G1 X27.562 Y20.462 E0.2441
G1 X27.976 Y20.381 E0.2673
G1 X28.000 Y20.379 E0.2686
G1 X30.134 Y20.388 E0.3860
G1 X30.159 Y20.390 E0.3874
G1 X30.579 Y20.478 E0.4110
G1 X30.603 Y20.486 E0.4123
G1 X34.353 Y22.105 E0.6370
G1 X34.376 Y22.118 E0.6385
G1 X34.751 Y22.388 E0.6639
G1 X34.771 Y22.406 E0.6654
G1 X37.309 Y25.247 E0.8749
G1 X37.321 Y25.264 E0.8761
G1 X37.514 Y25.573 E0.8961
G1 X37.524 Y25.592 E0.8973
G1 X38.329 Y27.571 E1.0148
G1 X41.741 Y27.574 E1.2025
G1 X42.442 Y25.655 E1.3149
G1 X42.452 Y25.634 E1.3161
G1 X42.660 Y25.288 E1.3383
G1 X42.674 Y25.269 E1.3396
G1 X45.228 Y22.413 E1.5504
G1 X45.248 Y22.394 E1.5519
G1 X45.639 Y22.118 E1.5782
G1 X45.663 Y22.104 E1.5797
G1 X49.555 Y20.495 E1.8114
G1 X49.579 Y20.488 E1.8127
G1 X49.994 Y20.407 E1.8360
G1 X50.018 Y20.405 E1.8373
G1 X51.848 Y20.414 E1.9380
G1 X51.871 Y20.417 E1.9393
G1 X52.277 Y20.499 E1.9620
G1 X52.299 Y20.506 E1.9633
G1 X55.941 Y22.018 E2.1802
G1 X55.962 Y22.030 E2.1816
G1 X56.309 Y22.262 E2.2045
G1 X56.327 Y22.277 E2.2058
G1 X59.188 Y25.142 E2.4285
G1 X59.203 Y25.160 E2.4298
G1 X59.435 Y25.508 E2.4528
G1 X59.446 Y25.529 E2.4541
G1 X60.955 Y29.174 E2.6711
G1 X60.962 Y29.197 E2.6724
G1 X61.043 Y29.607 E2.6954
G1 X61.045 Y29.631 E2.6967
G1 X61.046 Y57.982 E4.2561
G1 X63.560 Y65.927 E4.7145
G1 X63.565 Y65.945 E4.7156
G1 X63.615 Y66.267 E4.7335
G1 X63.616 Y66.286 E4.7345
G1 X63.616 Y73.083 E5.1084
G1 X63.579 Y73.173 E5.1137
G1 X62.338 Y74.414 E5.2102
G1 X62.248 Y74.451 E5.2156
G1 X61.042 Y74.451 E5.2819
G1 X61.040 Y79.046 E5.5347
G1 X61.002 Y79.136 E5.5400
G1 X59.762 Y80.376 E5.6365
G1 X59.672 Y80.413 E5.6418
G1 X54.261 Y80.413 E5.9394
G1 X54.171 Y80.375 E5.9448
G1 X52.931 Y79.135 E6.0413
G1 X52.894 Y79.045 E6.0467
G1 X52.894 Y67.868 E6.6614
G1 X44.864 Y67.868 E7.1031
G1 X44.864 Y79.046 E7.7179
G1 X44.826 Y79.136 E7.7233
G1 X43.586 Y80.376 E7.8198
G1 X43.496 Y80.413 E7.8251
G1 X20.189 Y80.413 E9.1071
G1 X20.099 Y80.376 E9.1125
G1 X18.858 Y79.136 E9.2089
G1 X18.821 Y79.046 E9.2143
G1 X18.821 Y74.451 E9.4670
G1 X18.109 Y74.451 E9.5062
G1 X18.019 Y74.414 E9.5115
G1 X16.779 Y73.173 E9.6080
G1 X16.742 Y73.083 E9.6134
G1 X16.742 Y66.809 E9.9585
G1 X14.372 Y59.025 E10.4060
G1 X14.368 Y59.007 E10.4070
G1 X14.322 Y58.697 E10.4243
G1 X14.321 Y58.679 E10.4253
G1 X14.321 Y46.147 E11.1146
G1 X14.358 Y46.056 E11.1200
