; G-Code generated by Simplify3D(R) Version 3.0.0
; Sep 2, 2017 at 8:47:36 
; Settings Summary
;   processName,Process1
;   applyToModels,riegelnew
;   profileName,juli (modified)
;   profileVersion,2017-06-09 12:06:14
;   baseProfile,German RepRap NEO (modified)
;   printMaterial,
;   printQuality,
;   printExtruders,
;   extruderName,Primary Extruder
;   extruderToolheadNumber,0
;   extruderDiameter,0.5
;   extruderAutoWidth,0
;   extruderWidth,0.49
;   extrusionMultiplier,0.9
;   extruderUseRetract,1
;   extruderRetractionDistance,6.5
;   extruderExtraRestartDistance,0
;   extruderRetractionZLift,0
;   extruderRetractionSpeed,5000
;   extruderUseCoasting,0
;   extruderCoastingDistance,0.2
;   extruderUseWipe,0
;   extruderWipeDistance,5
;   primaryExtruder,0
;   layerHeight,0.2
;   topSolidLayers,4
;   bottomSolidLayers,3
;   perimeterOutlines,3
;   printPerimetersInsideOut,1
;   startPointOption,2
;   startPointOriginX,0
;   startPointOriginY,0
;   startPointOriginZ,300
;   sequentialIslands,0
;   spiralVaseMode,0
;   firstLayerHeightPercentage,150
;   firstLayerWidthPercentage,100
;   firstLayerUnderspeed,0.3
;   useRaft,0
;   raftExtruder,0
;   raftLayers,3
;   raftOffset,3
;   raftSeparationDistance,0.1
;   raftInfill,85
;   disableRaftBaseLayers,0
;   useSkirt,1
;   skirtExtruder,0
;   skirtLayers,1
;   skirtOutlines,4
;   skirtOffset,2
;   usePrimePillar,0
;   primePillarExtruder,999
;   primePillarWidth,12
;   primePillarLocation,7
;   primePillarSpeedMultiplier,1
;   useOozeShield,0
;   oozeShieldExtruder,999
;   oozeShieldOffset,2
;   oozeShieldOutlines,1
;   oozeShieldSidewallShape,1
;   oozeShieldSidewallAngle,30
;   oozeShieldSpeedMultiplier,1
;   infillExtruder,0
;   internalInfillPattern,Full Honeycomb
;   externalInfillPattern,Rectilinear
;   infillPercentage,15
;   outlineOverlapPercentage,15
;   infillExtrusionWidthPercentage,100
;   minInfillLength,3
;   infillLayerInterval,1
;   infillAngles,0,120,-120
;   overlapInfillAngles,0
;   generateSupport,1
;   supportExtruder,0
;   supportInfillPercentage,30
;   supportExtraInflation,0
;   denseSupportLayers,0
;   denseSupportInfillPercentage,75
;   supportLayerInterval,1
;   supportHorizontalPartOffset,2
;   supportUpperSeparationLayers,2
;   supportLowerSeparationLayers,2
;   supportType,0
;   supportGridSpacing,4
;   maxOverhangAngle,45
;   supportAngles,45
;   temperatureName,Primary Extruder
;   temperatureNumber,0
;   temperatureSetpointCount,3
;   temperatureSetpointLayers,1,2,3
;   temperatureSetpointTemperatures,207,199,192
;   temperatureStabilizeAtStartup,1
;   temperatureHeatedBed,0
;   temperatureRelayBetweenLayers,0
;   temperatureRelayBetweenLoops,0
;   fanLayers,1,3
;   fanSpeeds,0,100
;   blipFanToFullPower,0
;   adjustSpeedForCooling,1
;   minSpeedLayerTime,15
;   minCoolingSpeedSlowdown,20
;   increaseFanForCooling,0
;   minFanLayerTime,45
;   maxCoolingFanSpeed,100
;   increaseFanForBridging,0
;   bridgingFanSpeed,100
;   use5D,1
;   relativeEdistances,0
;   allowEaxisZeroing,1
;   independentExtruderAxes,0
;   includeM10123,0
;   stickySupport,1
;   applyToolheadOffsets,0
;   gcodeXoffset,0
;   gcodeYoffset,0
;   gcodeZoffset,0
;   overrideMachineDefinition,1
;   machineTypeOverride,0
;   strokeXoverride,150
;   strokeYoverride,150
;   strokeZoverride,150
;   originOffsetXoverride,0
;   originOffsetYoverride,0
;   originOffsetZoverride,0
;   homeXdirOverride,-1
;   homeYdirOverride,-1
;   homeZdirOverride,-1
;   flipXoverride,1
;   flipYoverride,-1
;   flipZoverride,1
;   toolheadOffsets,0,0|0,0|0,0|0,0|0,0|0,0
;   overrideFirmwareConfiguration,0
;   firmwareTypeOverride,RepRap (Marlin/Repetier/Sprinter)
;   GPXconfigOverride,r2
;   baudRateOverride,115200
;   overridePrinterModels,0
;   printerModelsOverride
;   startingGcode,G28 ; home all axes
;   layerChangeGcode,
;   retractionGcode,
;   toolChangeGcode,
;   endingGcode,M104 S0 ; turn off extruder,M140 S0 ; turn off bed,G28 X0  ; home X axis,G28 Y0  ; home Y axis,M84 ; disable motors,M107
;   createX3G,0
;   celebration,0
;   celebrationSong,Random Song
;   createMB5G,0
;   postProcessing,
;   defaultSpeed,2400
;   outlineUnderspeed,0.5
;   solidInfillUnderspeed,0.8
;   supportUnderspeed,0.8
;   rapidXYspeed,3500
;   rapidZspeed,1000
;   minBridgingArea,50
;   bridgingExtraInflation,0
;   bridgingExtrusionMultiplier,1
;   bridgingSpeedMultiplier,1
;   filamentDiameter,1.75
;   filamentPricePerKg,46
;   filamentDensity,1.25
;   useMinPrintHeight,0
;   minPrintHeight,0
;   useMaxPrintHeight,0
;   maxPrintHeight,0
;   useDiaphragm,0
;   diaphragmLayerInterval,20
;   robustSlicing,1
;   mergeAllIntoSolid,0
;   onlyRetractWhenCrossingOutline,1
;   retractBetweenLayers,1
;   useRetractionMinTravel,0
;   retractionMinTravel,3
;   retractWhileWiping,0
;   onlyWipeOutlines,1
;   avoidCrossingOutline,0
;   maxMovementDetourFactor,10
;   toolChangeRetractionDistance,0
;   toolChangeExtraRestartDistance,0
;   toolChangeRetractionSpeed,360
;   allowThinWallGapFill,1
;   thinWallAllowedOverlapPercentage,10
;   horizontalSizeCompensation,0
G90
M82
M106 S0
M104 S207 T0
M109 S207 T0
G28 ; home all axes
G92 E0
G1 E-6.5000 F5000
G1 Z0.300 F1000
; layer 1, Z = 0.3
T0
; tool H0.300 W0.490
; skirt
G1 X102.844 Y96.912 F3500
G1 E0.0000 F1500
G92 E0
G1 X102.912 Y96.842 E0.0054 F720
G1 X103.326 Y96.461 E0.0363
G1 X103.399 Y96.401 E0.0415
G1 X103.652 Y96.215 E0.0588
G1 X103.731 Y96.163 E0.0640
G1 X104.213 Y95.884 E0.0946
G1 X104.294 Y95.843 E0.0996
G1 X104.572 Y95.719 E0.1164
G1 X104.657 Y95.687 E0.1214
G1 X105.183 Y95.517 E0.1517
G1 X105.269 Y95.495 E0.1567
G1 X105.561 Y95.433 E0.1730
G1 X105.649 Y95.419 E0.1779
G1 X106.119 Y95.371 E0.2039
G1 X106.163 Y95.367 E0.2064
G1 X106.311 Y95.359 E0.2145
G1 X106.355 Y95.358 E0.2169
G1 X114.444 Y95.358 E0.6619
G1 X114.497 Y95.360 E0.6648
G1 X114.672 Y95.371 E0.6745
G1 X114.725 Y95.375 E0.6774
G1 X115.196 Y95.434 E0.7035
G1 X115.299 Y95.453 E0.7092
G1 X115.637 Y95.538 E0.7284
G1 X115.737 Y95.569 E0.7342
G1 X116.258 Y95.769 E0.7649
G1 X116.351 Y95.812 E0.7705
G1 X116.651 Y95.970 E0.7891
G1 X116.738 Y96.023 E0.7947
G1 X117.191 Y96.336 E0.8250
G1 X117.268 Y96.396 E0.8304
G1 X117.514 Y96.611 E0.8484
G1 X117.584 Y96.679 E0.8537
G1 X117.949 Y97.080 E0.8836
G1 X118.008 Y97.153 E0.8887
G1 X118.192 Y97.406 E0.9059
G1 X118.243 Y97.485 E0.9111
G1 X118.508 Y97.949 E0.9405
G1 X118.549 Y98.030 E0.9455
G1 X118.671 Y98.306 E0.9621
G1 X118.703 Y98.391 E0.9671
G1 X118.863 Y98.895 E0.9962
G1 X118.885 Y98.981 E1.0010
G1 X118.945 Y99.269 E1.0172
G1 X118.959 Y99.356 E1.0221
G1 X119.005 Y99.807 E1.0470
G1 X119.009 Y99.850 E1.0494
G1 X119.016 Y99.996 E1.0575
G1 X119.017 Y100.040 E1.0599
G1 X119.017 Y104.210 E1.2892
G1 X119.016 Y104.255 E1.2917
G1 X119.008 Y104.404 E1.2999
G1 X119.004 Y104.449 E1.3024
G1 X118.957 Y104.899 E1.3273
G1 X118.943 Y104.989 E1.3323
G1 X118.880 Y105.284 E1.3489
G1 X118.856 Y105.372 E1.3539
G1 X118.691 Y105.875 E1.3830
G1 X118.658 Y105.961 E1.3881
G1 X118.532 Y106.241 E1.4050
G1 X118.489 Y106.323 E1.4101
G1 X118.219 Y106.784 E1.4395
G1 X118.166 Y106.863 E1.4447
G1 X117.977 Y107.115 E1.4620
G1 X117.917 Y107.188 E1.4672
G1 X117.548 Y107.582 E1.4969
G1 X117.478 Y107.649 E1.5023
G1 X117.230 Y107.860 E1.5201
G1 X117.152 Y107.919 E1.5255
G1 X116.699 Y108.223 E1.5555
G1 X116.613 Y108.274 E1.5610
G1 X116.316 Y108.427 E1.5794
G1 X116.225 Y108.467 E1.5849
G1 X115.709 Y108.660 E1.6152
G1 X115.611 Y108.690 E1.6208
G1 X115.280 Y108.771 E1.6395
G1 X115.180 Y108.789 E1.6452
G1 X114.715 Y108.845 E1.6709
G1 X114.664 Y108.850 E1.6737
G1 X114.493 Y108.860 E1.6831
G1 X114.441 Y108.861 E1.6860
G1 X106.360 Y108.861 E2.1305
G1 X106.317 Y108.860 E2.1329
G1 X106.173 Y108.853 E2.1408
G1 X106.130 Y108.850 E2.1432
G1 X105.663 Y108.803 E2.1690
G1 X105.576 Y108.790 E2.1738
G1 X105.292 Y108.731 E2.1898
G1 X105.208 Y108.709 E2.1946
G1 X104.688 Y108.546 E2.2245
G1 X104.604 Y108.515 E2.2295
G1 X104.330 Y108.397 E2.2459
G1 X104.249 Y108.357 E2.2508
G1 X103.769 Y108.087 E2.2811
G1 X103.691 Y108.037 E2.2862
G1 X103.437 Y107.855 E2.3034
G1 X103.365 Y107.797 E2.3085
G1 X102.948 Y107.423 E2.3393
G1 X102.879 Y107.354 E2.3447
G1 X102.662 Y107.110 E2.3627
G1 X102.601 Y107.033 E2.3680
G1 X102.274 Y106.567 E2.3993
G1 X102.220 Y106.479 E2.4050
G1 X102.059 Y106.178 E2.4238
G1 X102.016 Y106.085 E2.4295
G1 X101.806 Y105.547 E2.4612
G1 X101.773 Y105.446 E2.4670
G1 X101.686 Y105.103 E2.4865
G1 X101.667 Y104.999 E2.4923
G1 X101.605 Y104.510 E2.5195
G1 X101.600 Y104.456 E2.5224
G1 X101.589 Y104.278 E2.5322
G1 X101.587 Y104.224 E2.5352
G1 X101.587 Y100.026 E2.7661
G1 X101.589 Y99.974 E2.7690
G1 X101.599 Y99.800 E2.7785
G1 X101.604 Y99.748 E2.7814
G1 X101.664 Y99.259 E2.8085
G1 X101.683 Y99.157 E2.8142
G1 X101.766 Y98.822 E2.8332
G1 X101.796 Y98.723 E2.8389
G1 X102.001 Y98.185 E2.8706
G1 X102.042 Y98.093 E2.8761
G1 X102.198 Y97.794 E2.8947
G1 X102.250 Y97.707 E2.9002
G1 X102.572 Y97.236 E2.9316
G1 X102.631 Y97.159 E2.9370
G1 X102.844 Y96.912 E2.9549
G1 X103.206 Y97.243 F3500
G92 E0
G1 X103.254 Y97.193 E0.0038 F720
G1 X103.648 Y96.830 E0.0333
G1 X103.700 Y96.787 E0.0370
G1 X103.932 Y96.617 E0.0528
G1 X103.988 Y96.580 E0.0565
G1 X104.447 Y96.315 E0.0857
G1 X104.505 Y96.285 E0.0892
G1 X104.759 Y96.172 E0.1045
G1 X104.820 Y96.149 E0.1081
G1 X105.321 Y95.988 E0.1371
G1 X105.382 Y95.971 E0.1406
G1 X105.649 Y95.915 E0.1556
G1 X105.712 Y95.905 E0.1591
G1 X106.163 Y95.859 E0.1840
G1 X106.195 Y95.856 E0.1858
G1 X106.330 Y95.849 E0.1932
G1 X106.361 Y95.848 E0.1949
G1 X114.436 Y95.848 E0.6391
G1 X114.474 Y95.849 E0.6412
G1 X114.635 Y95.859 E0.6500
G1 X114.672 Y95.863 E0.6521
G1 X115.121 Y95.918 E0.6770
G1 X115.194 Y95.932 E0.6811
G1 X115.504 Y96.009 E0.6986
G1 X115.575 Y96.032 E0.7027
G1 X116.069 Y96.222 E0.7318
G1 X116.135 Y96.252 E0.7358
G1 X116.409 Y96.397 E0.7529
G1 X116.471 Y96.434 E0.7569
G1 X116.901 Y96.731 E0.7856
G1 X116.956 Y96.774 E0.7895
G1 X117.181 Y96.970 E0.8059
G1 X117.231 Y97.019 E0.8097
G1 X117.577 Y97.400 E0.8380
G1 X117.620 Y97.452 E0.8417
G1 X117.788 Y97.683 E0.8574
G1 X117.824 Y97.740 E0.8611
G1 X118.077 Y98.181 E0.8891
G1 X118.106 Y98.239 E0.8926
G1 X118.217 Y98.491 E0.9078
G1 X118.240 Y98.552 E0.9114
G1 X118.392 Y99.032 E0.9391
G1 X118.408 Y99.093 E0.9426
G1 X118.463 Y99.356 E0.9574
G1 X118.473 Y99.419 E0.9608
G1 X118.517 Y99.851 E0.9847
G1 X118.519 Y99.882 E0.9864
G1 X118.526 Y100.015 E0.9938
G1 X118.527 Y100.046 E0.9955
G1 X118.527 Y104.203 E1.2241
G1 X118.526 Y104.235 E1.2259
G1 X118.519 Y104.372 E1.2335
G1 X118.517 Y104.404 E1.2352
G1 X118.471 Y104.835 E1.2590
G1 X118.461 Y104.899 E1.2626
G1 X118.403 Y105.169 E1.2778
G1 X118.386 Y105.232 E1.2814
G1 X118.230 Y105.710 E1.3091
G1 X118.206 Y105.772 E1.3127
G1 X118.090 Y106.028 E1.3281
G1 X118.060 Y106.086 E1.3318
G1 X117.803 Y106.524 E1.3597
G1 X117.766 Y106.580 E1.3634
G1 X117.593 Y106.811 E1.3793
G1 X117.550 Y106.863 E1.3830
G1 X117.200 Y107.237 E1.4111
G1 X117.149 Y107.285 E1.4150
G1 X116.923 Y107.478 E1.4313
G1 X116.868 Y107.520 E1.4351
G1 X116.438 Y107.808 E1.4636
G1 X116.376 Y107.845 E1.4675
G1 X116.105 Y107.984 E1.4843
G1 X116.040 Y108.013 E1.4883
G1 X115.551 Y108.196 E1.5170
G1 X115.481 Y108.218 E1.5210
G1 X115.178 Y108.291 E1.5381
G1 X115.107 Y108.304 E1.5421
G1 X114.664 Y108.358 E1.5667
G1 X114.627 Y108.361 E1.5687
G1 X114.471 Y108.370 E1.5773
G1 X114.434 Y108.371 E1.5793
G1 X106.366 Y108.371 E2.0231
G1 X106.335 Y108.371 E2.0248
G1 X106.204 Y108.364 E2.0320
G1 X106.173 Y108.362 E2.0337
G1 X105.724 Y108.316 E2.0585
G1 X105.663 Y108.307 E2.0620
G1 X105.402 Y108.254 E2.0766
G1 X105.342 Y108.238 E2.0800
G1 X104.847 Y108.083 E2.1086
G1 X104.787 Y108.060 E2.1121
G1 X104.536 Y107.952 E2.1271
G1 X104.479 Y107.924 E2.1306
G1 X104.021 Y107.666 E2.1595
G1 X103.965 Y107.630 E2.1632
G1 X103.734 Y107.465 E2.1788
G1 X103.682 Y107.423 E2.1825
G1 X103.285 Y107.068 E2.2118
G1 X103.236 Y107.018 E2.2156
G1 X103.037 Y106.795 E2.2320
G1 X102.994 Y106.740 E2.2359
G1 X102.684 Y106.297 E2.2656
G1 X102.645 Y106.235 E2.2697
G1 X102.498 Y105.959 E2.2869
G1 X102.467 Y105.893 E2.2909
G1 X102.268 Y105.383 E2.3210
G1 X102.244 Y105.310 E2.3252
G1 X102.165 Y104.997 E2.3430
G1 X102.151 Y104.923 E2.3471
G1 X102.092 Y104.456 E2.3730
G1 X102.088 Y104.418 E2.3751
G1 X102.078 Y104.255 E2.3841
G1 X102.077 Y104.216 E2.3862
G1 X102.077 Y100.034 E2.6163
G1 X102.078 Y99.996 E2.6183
G1 X102.088 Y99.837 E2.6271
G1 X102.091 Y99.800 E2.6291
G1 X102.148 Y99.333 E2.6550
G1 X102.162 Y99.261 E2.6591
G1 X102.238 Y98.954 E2.6764
G1 X102.260 Y98.884 E2.6805
G1 X102.454 Y98.372 E2.7106
G1 X102.484 Y98.306 E2.7146
G1 X102.626 Y98.033 E2.7315
G1 X102.663 Y97.971 E2.7355
G1 X102.969 Y97.524 E2.7653
G1 X103.011 Y97.469 E2.7691
G1 X103.206 Y97.243 E2.7855
G1 X103.567 Y97.574 F3500
G92 E0
G1 X103.597 Y97.544 E0.0023 F720
G1 X103.970 Y97.200 E0.0303
G1 X104.002 Y97.174 E0.0325
G1 X104.211 Y97.020 E0.0468
G1 X104.245 Y96.998 E0.0490
G1 X104.681 Y96.746 E0.0767
G1 X104.716 Y96.728 E0.0789
G1 X104.946 Y96.625 E0.0927
G1 X104.983 Y96.612 E0.0949
G1 X105.459 Y96.458 E0.1224
G1 X105.496 Y96.448 E0.1245
G1 X105.737 Y96.397 E0.1381
G1 X105.775 Y96.391 E0.1402
G1 X106.207 Y96.347 E0.1641
G1 X106.226 Y96.345 E0.1651
G1 X106.349 Y96.339 E0.1719
G1 X106.368 Y96.338 E0.1729
G1 X114.429 Y96.338 E0.6163
G1 X114.451 Y96.339 E0.6176
G1 X114.597 Y96.348 E0.6256
G1 X114.620 Y96.350 E0.6268
G1 X115.046 Y96.403 E0.6505
G1 X115.090 Y96.411 E0.6529
G1 X115.370 Y96.481 E0.6688
G1 X115.413 Y96.495 E0.6713
G1 X115.879 Y96.674 E0.6988
G1 X115.919 Y96.692 E0.7012
G1 X116.168 Y96.823 E0.7166
G1 X116.205 Y96.846 E0.7190
G1 X116.611 Y97.126 E0.7462
G1 X116.644 Y97.152 E0.7485
G1 X116.848 Y97.330 E0.7634
G1 X116.878 Y97.359 E0.7657
G1 X117.206 Y97.720 E0.7925
G1 X117.231 Y97.751 E0.7947
G1 X117.384 Y97.961 E0.8090
G1 X117.406 Y97.995 E0.8112
G1 X117.645 Y98.413 E0.8377
G1 X117.662 Y98.448 E0.8398
G1 X117.763 Y98.677 E0.8536
G1 X117.777 Y98.713 E0.8557
G1 X117.922 Y99.168 E0.8820
G1 X117.931 Y99.205 E0.8841
G1 X117.981 Y99.444 E0.8975
G1 X117.987 Y99.481 E0.8996
G1 X118.029 Y99.894 E0.9224
G1 X118.030 Y99.913 E0.9234
G1 X118.037 Y100.034 E0.9301
G1 X118.037 Y100.053 E0.9311
G1 X118.037 Y104.197 E1.1591
G1 X118.037 Y104.216 E1.1601
G1 X118.030 Y104.340 E1.1670
G1 X118.029 Y104.359 E1.1680
G1 X117.985 Y104.771 E1.1908
G1 X117.979 Y104.809 E1.1929
G1 X117.927 Y105.054 E1.2067
G1 X117.917 Y105.091 E1.2088
G1 X117.768 Y105.545 E1.2351
G1 X117.754 Y105.582 E1.2373
G1 X117.649 Y105.814 E1.2513
G1 X117.631 Y105.850 E1.2535
G1 X117.387 Y106.264 E1.2799
G1 X117.365 Y106.298 E1.2821
G1 X117.208 Y106.507 E1.2965
G1 X117.182 Y106.538 E1.2987
G1 X116.851 Y106.892 E1.3254
G1 X116.821 Y106.921 E1.3277
G1 X116.616 Y107.096 E1.3425
G1 X116.583 Y107.121 E1.3448
G1 X116.177 Y107.394 E1.3717
G1 X116.140 Y107.415 E1.3741
G1 X115.894 Y107.542 E1.3893
G1 X115.854 Y107.559 E1.3917
G1 X115.393 Y107.732 E1.4188
G1 X115.351 Y107.745 E1.4212
G1 X115.077 Y107.812 E1.4367
G1 X115.034 Y107.820 E1.4391
G1 X114.612 Y107.870 E1.4624
G1 X114.591 Y107.872 E1.4636
G1 X114.449 Y107.881 E1.4715
G1 X114.427 Y107.881 E1.4727
G1 X106.372 Y107.881 E1.9157
G1 X106.354 Y107.881 E1.9167
G1 X106.235 Y107.875 E1.9233
G1 X106.216 Y107.874 E1.9243
G1 X105.786 Y107.830 E1.9481
G1 X105.749 Y107.825 E1.9501
G1 X105.513 Y107.776 E1.9634
G1 X105.477 Y107.767 E1.9654
G1 X105.005 Y107.619 E1.9926
G1 X104.969 Y107.606 E1.9947
G1 X104.742 Y107.507 E2.0083
G1 X104.708 Y107.490 E2.0105
G1 X104.273 Y107.246 E2.0379
G1 X104.240 Y107.224 E2.0401
G1 X104.030 Y107.074 E2.0543
G1 X103.999 Y107.049 E2.0565
G1 X103.623 Y106.712 E2.0842
G1 X103.593 Y106.682 E2.0865
G1 X103.413 Y106.480 E2.1014
G1 X103.387 Y106.447 E2.1038
G1 X103.093 Y106.028 E2.1319
G1 X103.070 Y105.991 E2.1343
G1 X102.936 Y105.741 E2.1499
G1 X102.918 Y105.701 E2.1523
G1 X102.730 Y105.218 E2.1808
G1 X102.716 Y105.175 E2.1833
G1 X102.644 Y104.891 E2.1994
G1 X102.635 Y104.846 E2.2019
G1 X102.579 Y104.402 E2.2265
G1 X102.577 Y104.380 E2.2278
G1 X102.568 Y104.232 E2.2360
G1 X102.567 Y104.209 E2.2372
G1 X102.567 Y100.041 E2.4665
G1 X102.568 Y100.019 E2.4677
G1 X102.577 Y99.875 E2.4756
G1 X102.579 Y99.852 E2.4769
