; G-Code generated by Simplify3D(R) Version 3.0.0
; Aug 27, 2017 at 5:55:40 
; Settings Summary
;   processName,Process1
;   applyToModels,schnittblock
;   profileName,juli (modified)
;   profileVersion,2017-06-09 12:06:14
;   baseProfile,German RepRap NEO (modified)
;   printMaterial,
;   printQuality,
;   printExtruders,
;   extruderName,Primary Extruder
;   extruderToolheadNumber,0
;   extruderDiameter,0.5
;   extruderAutoWidth,0
;   extruderWidth,0.49
;   extrusionMultiplier,0.9
;   extruderUseRetract,1
;   extruderRetractionDistance,6.5
;   extruderExtraRestartDistance,0
;   extruderRetractionZLift,0
;   extruderRetractionSpeed,5000
;   extruderUseCoasting,0
;   extruderCoastingDistance,0.2
;   extruderUseWipe,0
;   extruderWipeDistance,5
;   primaryExtruder,0
;   layerHeight,0.2
;   topSolidLayers,4
;   bottomSolidLayers,3
;   perimeterOutlines,3
;   printPerimetersInsideOut,1
;   startPointOption,2
;   startPointOriginX,0
;   startPointOriginY,0
;   startPointOriginZ,300
;   sequentialIslands,0
;   spiralVaseMode,0
;   firstLayerHeightPercentage,100
;   firstLayerWidthPercentage,100
;   firstLayerUnderspeed,0.3
;   useRaft,0
;   raftExtruder,0
;   raftLayers,3
;   raftOffset,3
;   raftSeparationDistance,0.1
;   raftInfill,85
;   disableRaftBaseLayers,0
;   useSkirt,1
;   skirtExtruder,0
;   skirtLayers,1
;   skirtOutlines,4
;   skirtOffset,2
;   usePrimePillar,0
;   primePillarExtruder,999
;   primePillarWidth,12
;   primePillarLocation,7
;   primePillarSpeedMultiplier,1
;   useOozeShield,0
;   oozeShieldExtruder,999
;   oozeShieldOffset,2
;   oozeShieldOutlines,1
;   oozeShieldSidewallShape,1
;   oozeShieldSidewallAngle,30
;   oozeShieldSpeedMultiplier,1
;   infillExtruder,0
;   internalInfillPattern,Full Honeycomb
;   externalInfillPattern,Rectilinear
;   infillPercentage,50
;   outlineOverlapPercentage,15
;   infillExtrusionWidthPercentage,100
;   minInfillLength,3
;   infillLayerInterval,1
;   infillAngles,0,120,-120
;   overlapInfillAngles,0
;   generateSupport,0
;   supportExtruder,0
;   supportInfillPercentage,30
;   supportExtraInflation,0
;   denseSupportLayers,0
;   denseSupportInfillPercentage,75
;   supportLayerInterval,1
;   supportHorizontalPartOffset,2
;   supportUpperSeparationLayers,2
;   supportLowerSeparationLayers,2
;   supportType,0
;   supportGridSpacing,4
;   maxOverhangAngle,45
;   supportAngles,45
;   temperatureName,Primary Extruder
;   temperatureNumber,0
;   temperatureSetpointCount,3
;   temperatureSetpointLayers,1,2,3
;   temperatureSetpointTemperatures,207,199,192
;   temperatureStabilizeAtStartup,1
;   temperatureHeatedBed,0
;   temperatureRelayBetweenLayers,0
;   temperatureRelayBetweenLoops,0
;   fanLayers,1,3
;   fanSpeeds,0,100
;   blipFanToFullPower,0
;   adjustSpeedForCooling,1
;   minSpeedLayerTime,15
;   minCoolingSpeedSlowdown,20
;   increaseFanForCooling,0
;   minFanLayerTime,45
;   maxCoolingFanSpeed,100
;   increaseFanForBridging,0
;   bridgingFanSpeed,100
;   use5D,1
;   relativeEdistances,0
;   allowEaxisZeroing,1
;   independentExtruderAxes,0
;   includeM10123,0
;   stickySupport,1
;   applyToolheadOffsets,0
;   gcodeXoffset,0
;   gcodeYoffset,0
;   gcodeZoffset,0
;   overrideMachineDefinition,1
;   machineTypeOverride,0
;   strokeXoverride,150
;   strokeYoverride,150
;   strokeZoverride,150
;   originOffsetXoverride,0
;   originOffsetYoverride,0
;   originOffsetZoverride,0
;   homeXdirOverride,-1
;   homeYdirOverride,-1
;   homeZdirOverride,-1
;   flipXoverride,1
;   flipYoverride,-1
;   flipZoverride,1
;   toolheadOffsets,0,0|0,0|0,0|0,0|0,0|0,0
;   overrideFirmwareConfiguration,0
;   firmwareTypeOverride,RepRap (Marlin/Repetier/Sprinter)
;   GPXconfigOverride,r2
;   baudRateOverride,115200
;   overridePrinterModels,0
;   printerModelsOverride
;   startingGcode,G28 ; home all axes
;   layerChangeGcode,
;   retractionGcode,
;   toolChangeGcode,
;   endingGcode,M104 S0 ; turn off extruder,M140 S0 ; turn off bed,G28 X0  ; home X axis,G28 Y0  ; home Y axis,M84 ; disable motors,M107
;   createX3G,0
;   celebration,0
;   celebrationSong,Random Song
;   createMB5G,0
;   postProcessing,
;   defaultSpeed,2400
;   outlineUnderspeed,0.5
;   solidInfillUnderspeed,0.8
;   supportUnderspeed,0.8
;   rapidXYspeed,3500
;   rapidZspeed,1000
;   minBridgingArea,50
;   bridgingExtraInflation,0
;   bridgingExtrusionMultiplier,1
;   bridgingSpeedMultiplier,1
;   filamentDiameter,1.75
;   filamentPricePerKg,46
;   filamentDensity,1.25
;   useMinPrintHeight,0
;   minPrintHeight,0
;   useMaxPrintHeight,0
;   maxPrintHeight,0
;   useDiaphragm,0
;   diaphragmLayerInterval,20
;   robustSlicing,1
;   mergeAllIntoSolid,0
;   onlyRetractWhenCrossingOutline,1
;   retractBetweenLayers,1
;   useRetractionMinTravel,0
;   retractionMinTravel,3
;   retractWhileWiping,0
;   onlyWipeOutlines,1
;   avoidCrossingOutline,0
;   maxMovementDetourFactor,10
;   toolChangeRetractionDistance,0
;   toolChangeExtraRestartDistance,0
;   toolChangeRetractionSpeed,360
;   allowThinWallGapFill,1
;   thinWallAllowedOverlapPercentage,10
;   horizontalSizeCompensation,0
G90
M82
M106 S0
M104 S207 T0
M109 S207 T0
G28 ; home all axes
G92 E0
G1 E-6.5000 F5000
G1 Z0.200 F1000
; layer 1, Z = 0.2
T0
; tool H0.200 W0.490
; skirt
G1 X64.046 Y61.170 F3500
G1 E0.0000 F1500
G92 E0
G1 X65.700 Y59.516 E0.0858 F720
G1 X66.330 Y59.255 E0.1108
G1 X83.670 Y59.255 E0.7466
G1 X84.300 Y59.516 E0.7716
G1 X85.954 Y61.170 E0.8574
G1 X86.215 Y61.800 E0.8824
G1 X86.215 Y88.200 E1.8505
G1 X85.954 Y88.830 E1.8755
G1 X84.300 Y90.484 E1.9613
G1 X83.670 Y90.745 E1.9863
G1 X66.330 Y90.745 E2.6221
G1 X65.700 Y90.484 E2.6471
G1 X64.046 Y88.830 E2.7329
G1 X63.785 Y88.200 E2.7579
G1 X63.785 Y61.800 E3.7260
G1 X64.046 Y61.170 E3.7510
G1 X64.462 Y61.447 F3500
G92 E0
G1 X65.978 Y59.931 E0.0786 F720
G1 X66.428 Y59.745 E0.0965
G1 X83.572 Y59.745 E0.7252
G1 X84.022 Y59.931 E0.7430
G1 X85.538 Y61.447 E0.8217
G1 X85.725 Y61.898 E0.8395
G1 X85.725 Y88.102 E1.8004
G1 X85.538 Y88.553 E1.8183
G1 X84.022 Y90.069 E1.8969
G1 X83.572 Y90.255 E1.9148
G1 X66.428 Y90.255 E2.5435
G1 X65.978 Y90.069 E2.5613
G1 X64.462 Y88.553 E2.6400
G1 X64.275 Y88.102 E2.6578
G1 X64.275 Y61.898 E3.6187
G1 X64.462 Y61.447 E3.6366
G1 X64.877 Y61.725 F3500
G92 E0
G1 X66.255 Y60.347 E0.0715 F720
G1 X66.525 Y60.235 E0.0822
G1 X83.475 Y60.235 E0.7037
G1 X83.745 Y60.347 E0.7144
G1 X85.123 Y61.725 E0.7859
G1 X85.235 Y61.995 E0.7966
G1 X85.235 Y88.005 E1.7504
G1 X85.123 Y88.275 E1.7611
G1 X83.745 Y89.653 E1.8326
G1 X83.475 Y89.765 E1.8433
G1 X66.525 Y89.765 E2.4648
G1 X66.255 Y89.653 E2.4756
G1 X64.877 Y88.275 E2.5470
G1 X64.765 Y88.005 E2.5578
G1 X64.765 Y61.995 E3.5115
G1 X64.877 Y61.725 E3.5222
G1 X65.292 Y62.003 F3500
G92 E0
G1 X66.533 Y60.762 E0.0643 F720
G1 X66.623 Y60.725 E0.0679
G1 X83.377 Y60.725 E0.6823
G1 X83.467 Y60.762 E0.6858
G1 X84.708 Y62.003 E0.7502
G1 X84.745 Y62.093 E0.7538
G1 X84.745 Y87.907 E1.7004
G1 X84.708 Y87.997 E1.7039
G1 X83.467 Y89.238 E1.7683
G1 X83.377 Y89.275 E1.7718
G1 X66.623 Y89.275 E2.3862
G1 X66.533 Y89.238 E2.3898
G1 X65.292 Y87.997 E2.4541
G1 X65.255 Y87.907 E2.4577
G1 X65.255 Y62.093 E3.4043
G1 X65.292 Y62.003 E3.4079
G92 E0
G1 E-6.5000 F5000
; inner perimeter
G1 X68.725 Y64.195 F3500
G1 E0.0000 F5000
G92 E0
G1 X81.275 Y64.195 E0.4602 F600
G1 X81.275 Y85.805 E1.2526
G1 X68.725 Y85.805 E1.7128
G1 X68.725 Y64.195 E2.5053
; inner perimeter
G1 X68.235 Y63.705 F3500
G92 E0
G1 X81.765 Y63.705 E0.4961 F480
G1 X81.765 Y86.295 E1.3245
G1 X68.235 Y86.295 E1.8206
G1 X68.235 Y63.705 E2.6490
; outer perimeter
G1 X67.745 Y63.215 F3500
G92 E0
G1 X82.255 Y63.215 E0.5321 F360
G1 X82.255 Y86.785 E1.3964
G1 X67.745 Y86.785 E1.9285
G1 X67.745 Y63.215 E2.7928
; solid layer
G1 X69.142 Y64.920 F3500
G92 E0
G1 X69.451 Y64.611 E0.0160 F576
G1 X70.144 Y64.611 E0.0414
G1 X69.141 Y65.613 E0.0934
G1 X69.141 Y66.306 E0.1188
G1 X70.837 Y64.611 E0.2067
G1 X71.529 Y64.611 E0.2321
G1 X69.141 Y66.999 E0.3560
G1 X69.141 Y67.692 E0.3814
G1 X72.222 Y64.611 E0.5411
G1 X72.915 Y64.611 E0.5666
G1 X69.141 Y68.385 E0.7623
G1 X69.141 Y69.078 E0.7877
G1 X73.608 Y64.611 E1.0193
G1 X74.301 Y64.611 E1.0447
G1 X69.141 Y69.771 E1.3123
G1 X69.141 Y70.464 E1.3377
G1 X74.994 Y64.611 E1.6412
G1 X75.687 Y64.611 E1.6666
G1 X69.141 Y71.157 E2.0061
G1 X69.141 Y71.850 E2.0315
G1 X76.380 Y64.611 E2.4069
G1 X77.073 Y64.611 E2.4323
G1 X69.141 Y72.543 E2.8436
G1 X69.141 Y73.236 E2.8690
G1 X77.766 Y64.611 E3.3163
G1 X78.459 Y64.611 E3.3417
G1 X69.141 Y73.929 E3.8249
G1 X69.141 Y74.622 E3.8503
G1 X79.152 Y64.611 E4.3694
G1 X79.845 Y64.611 E4.3949
G1 X69.141 Y75.315 E4.9499
G1 X69.141 Y76.008 E4.9753
G1 X80.538 Y64.611 E5.5663
G1 X80.859 Y64.611 E5.5781
G1 X80.859 Y64.984 E5.5917
G1 X69.141 Y76.701 E6.1994
G1 X69.141 Y77.394 E6.2248
G1 X80.859 Y65.677 E6.8324
G1 X80.859 Y66.370 E6.8578
G1 X69.141 Y78.087 E7.4654
G1 X69.141 Y78.780 E7.4908
G1 X80.859 Y67.063 E8.0985
G1 X80.859 Y67.756 E8.1239
G1 X69.141 Y79.473 E8.7315
G1 X69.141 Y80.166 E8.7569
G1 X80.859 Y68.449 E9.3645
G1 X80.859 Y69.142 E9.3899
G1 X69.141 Y80.859 E9.9976
G1 X69.141 Y81.551 E10.0230
G1 X80.859 Y69.834 E10.6306
G1 X80.859 Y70.527 E10.6560
G1 X69.141 Y82.244 E11.2636
G1 X69.141 Y82.937 E11.2890
G1 X80.859 Y71.220 E11.8967
G1 X80.859 Y71.913 E11.9221
G1 X69.141 Y83.630 E12.5297
G1 X69.141 Y84.323 E12.5551
G1 X80.859 Y72.606 E13.1627
G1 X80.859 Y73.299 E13.1881
G1 X69.141 Y85.016 E13.7958
G1 X69.141 Y85.389 E13.8094
G1 X69.462 Y85.389 E13.8212
G1 X80.859 Y73.992 E14.4122
G1 X80.859 Y74.685 E14.4376
G1 X70.155 Y85.389 E14.9927
G1 X70.848 Y85.389 E15.0181
G1 X80.859 Y75.378 E15.5372
G1 X80.859 Y76.071 E15.5626
G1 X71.541 Y85.389 E16.0458
G1 X72.234 Y85.389 E16.0712
G1 X80.859 Y76.764 E16.5185
G1 X80.859 Y77.457 E16.5439
G1 X72.927 Y85.389 E16.9552
G1 X73.620 Y85.389 E16.9806
G1 X80.859 Y78.150 E17.3560
G1 X80.859 Y78.843 E17.3814
G1 X74.313 Y85.389 E17.7208
G1 X75.006 Y85.389 E17.7463
G1 X80.859 Y79.536 E18.0498
G1 X80.859 Y80.229 E18.0752
G1 X75.699 Y85.389 E18.3428
G1 X76.392 Y85.389 E18.3682
G1 X80.859 Y80.922 E18.5998
G1 X80.859 Y81.615 E18.6252
G1 X77.085 Y85.389 E18.8209
G1 X77.778 Y85.389 E18.8463
G1 X80.859 Y82.308 E19.0061
G1 X80.859 Y83.001 E19.0315
G1 X78.471 Y85.389 E19.1553
G1 X79.164 Y85.389 E19.1808
G1 X80.859 Y83.694 E19.2686
G1 X80.859 Y84.387 E19.2941
G1 X79.857 Y85.389 E19.3460
G1 X80.549 Y85.389 E19.3714
G1 X80.859 Y85.080 E19.3875
G92 E0
G1 E-6.5000 F5000
; layer 2, Z = 0.4
M104 S199 T0
; inner perimeter
G1 X81.275 Y85.805 F3500
G1 Z0.400 F1000
G1 E0.0000 F5000
G92 E0
G1 X68.725 Y85.805 E0.4602 F2000
G1 X68.725 Y64.195 E1.2526
G1 X81.275 Y64.195 E1.7128
G1 X81.275 Y85.805 E2.5053
; inner perimeter
G1 X81.765 Y86.295 F3500
G92 E0
G1 X68.235 Y86.295 E0.4961 F1600
G1 X68.235 Y63.705 E1.3245
G1 X81.765 Y63.705 E1.8206
G1 X81.765 Y86.295 E2.6490
; outer perimeter
G1 X82.255 Y86.785 F3500
G92 E0
G1 X67.745 Y86.785 E0.5321 F1200
G1 X67.745 Y63.215 E1.3964
G1 X82.255 Y63.215 E1.9285
G1 X82.255 Y86.785 E2.7928
; solid layer
G1 X69.451 Y85.389 F3500
G92 E0
G1 X69.141 Y85.080 E0.0160 F1920
G1 X69.141 Y84.387 E0.0414
G1 X70.144 Y85.389 E0.0934
G1 X70.836 Y85.389 E0.1188
G1 X69.141 Y83.694 E0.2067
G1 X69.141 Y83.001 E0.2321
G1 X71.529 Y85.389 E0.3560
G1 X72.222 Y85.389 E0.3814
G1 X69.141 Y82.308 E0.5411
G1 X69.141 Y81.615 E0.5665
G1 X72.915 Y85.389 E0.7623
G1 X73.608 Y85.389 E0.7877
G1 X69.141 Y80.922 E1.0193
G1 X69.141 Y80.229 E1.0447
G1 X74.301 Y85.389 E1.3123
G1 X74.994 Y85.389 E1.3377
G1 X69.141 Y79.536 E1.6412
G1 X69.141 Y78.843 E1.6666
G1 X75.687 Y85.389 E2.0061
G1 X76.380 Y85.389 E2.0315
G1 X69.141 Y78.150 E2.4069
G1 X69.141 Y77.457 E2.4323
G1 X77.073 Y85.389 E2.8436
G1 X77.766 Y85.389 E2.8690
G1 X69.141 Y76.764 E3.3163
G1 X69.141 Y76.071 E3.3417
G1 X78.459 Y85.389 E3.8249
G1 X79.152 Y85.389 E3.8503
G1 X69.141 Y75.378 E4.3694
G1 X69.141 Y74.685 E4.3948
G1 X79.845 Y85.389 E4.9499
G1 X80.538 Y85.389 E4.9753
G1 X69.141 Y73.992 E5.5663
G1 X69.141 Y73.299 E5.5917
G1 X80.859 Y85.016 E6.1993
G1 X80.859 Y84.323 E6.2248
G1 X69.141 Y72.606 E6.8324
G1 X69.141 Y71.913 E6.8578
G1 X80.859 Y83.630 E7.4654
G1 X80.859 Y82.937 E7.4908
G1 X69.141 Y71.220 E8.0984
G1 X69.141 Y70.527 E8.1239
G1 X80.859 Y82.244 E8.7315
G1 X80.859 Y81.551 E8.7569
G1 X69.141 Y69.834 E9.3645
G1 X69.141 Y69.141 E9.3899
G1 X80.859 Y80.858 E9.9975
G1 X80.859 Y80.166 E10.0230
G1 X69.141 Y68.449 E10.6306
G1 X69.141 Y67.756 E10.6560
G1 X80.859 Y79.473 E11.2636
G1 X80.859 Y78.780 E11.2890
G1 X69.141 Y67.063 E11.8966
G1 X69.141 Y66.370 E11.9221
G1 X80.859 Y78.087 E12.5297
G1 X80.859 Y77.394 E12.5551
G1 X69.141 Y65.677 E13.1627
G1 X69.141 Y64.984 E13.1881
G1 X80.859 Y76.701 E13.7957
G1 X80.859 Y76.008 E13.8212
G1 X69.462 Y64.611 E14.4122
G1 X70.155 Y64.611 E14.4376
G1 X80.859 Y75.315 E14.9926
G1 X80.859 Y74.622 E15.0180
G1 X70.848 Y64.611 E15.5372
G1 X71.541 Y64.611 E15.5626
G1 X80.859 Y73.929 E16.0458
G1 X80.859 Y73.236 E16.0712
G1 X72.234 Y64.611 E16.5184
G1 X72.927 Y64.611 E16.5439
G1 X80.859 Y72.543 E16.9552
G1 X80.859 Y71.850 E16.9806
G1 X73.620 Y64.611 E17.3560
G1 X74.313 Y64.611 E17.3814
G1 X80.859 Y71.157 E17.7208
G1 X80.859 Y70.464 E17.7462
G1 X75.006 Y64.611 E18.0498
G1 X75.699 Y64.611 E18.0752
G1 X80.859 Y69.771 E18.3427
G1 X80.859 Y69.078 E18.3682
G1 X76.392 Y64.611 E18.5998
G1 X77.085 Y64.611 E18.6252
G1 X80.859 Y68.385 E18.8209
G1 X80.859 Y67.692 E18.8463
G1 X77.778 Y64.611 E19.0061
G1 X78.471 Y64.611 E19.0315
G1 X80.859 Y66.999 E19.1553
G1 X80.859 Y66.306 E19.1807
G1 X79.164 Y64.611 E19.2686
G1 X79.856 Y64.611 E19.2941
G1 X80.859 Y65.613 E19.3460
G1 X80.859 Y64.920 E19.3714
G1 X80.549 Y64.611 E19.3875
G92 E0
G1 E-6.5000 F5000
; layer 3, Z = 0.6
M104 S192 T0
M106 S255
; inner perimeter
G1 X81.275 Y64.195 F3500
G1 Z0.600 F1000
G1 E0.0000 F5000
G92 E0
G1 X81.275 Y85.805 E0.7924 F2000
G1 X68.725 Y85.805 E1.2526
G1 X68.725 Y64.195 E2.0451
G1 X81.275 Y64.195 E2.5053
; inner perimeter
G1 X81.765 Y63.705 F3500
G92 E0
G1 X81.765 Y86.295 E0.8284 F1600
G1 X68.235 Y86.295 E1.3245
G1 X68.235 Y63.705 E2.1529
G1 X81.765 Y63.705 E2.6490
; outer perimeter
G1 X82.255 Y63.215 F3500
G92 E0
G1 X82.255 Y86.785 E0.8643 F1200
G1 X67.745 Y86.785 E1.3964
G1 X67.745 Y63.215 E2.2607
G1 X82.255 Y63.215 E2.7928
; solid layer
G1 X69.142 Y64.920 F3500
G92 E0
G1 X69.451 Y64.611 E0.0160 F1920
G1 X70.144 Y64.611 E0.0414
G1 X69.141 Y65.613 E0.0934
G1 X69.141 Y66.306 E0.1188
G1 X70.837 Y64.611 E0.2067
G1 X71.529 Y64.611 E0.2321
G1 X69.141 Y66.999 E0.3560
G1 X69.141 Y67.692 E0.3814
G1 X72.222 Y64.611 E0.5411
G1 X72.915 Y64.611 E0.5666
G1 X69.141 Y68.385 E0.7623
G1 X69.141 Y69.078 E0.7877
G1 X73.608 Y64.611 E1.0193
G1 X74.301 Y64.611 E1.0447
G1 X69.141 Y69.771 E1.3123
G1 X69.141 Y70.464 E1.3377
G1 X74.994 Y64.611 E1.6412
G1 X75.687 Y64.611 E1.6666
G1 X69.141 Y71.157 E2.0061
G1 X69.141 Y71.850 E2.0315
G1 X76.380 Y64.611 E2.4069
G1 X77.073 Y64.611 E2.4323
G1 X69.141 Y72.543 E2.8436
G1 X69.141 Y73.236 E2.8690
G1 X77.766 Y64.611 E3.3163
G1 X78.459 Y64.611 E3.3417
G1 X69.141 Y73.929 E3.8249
G1 X69.141 Y74.622 E3.8503
G1 X79.152 Y64.611 E4.3694
G1 X79.845 Y64.611 E4.3949
G1 X69.141 Y75.315 E4.9499
G1 X69.141 Y76.008 E4.9753
G1 X80.538 Y64.611 E5.5663
G1 X80.859 Y64.611 E5.5781
G1 X80.859 Y64.984 E5.5917
G1 X69.141 Y76.701 E6.1994
G1 X69.141 Y77.394 E6.2248
G1 X80.859 Y65.677 E6.8324
G1 X80.859 Y66.370 E6.8578
G1 X69.141 Y78.087 E7.4654
G1 X69.141 Y78.780 E7.4908
G1 X80.859 Y67.063 E8.0985
G1 X80.859 Y67.756 E8.1239
G1 X69.141 Y79.473 E8.7315
G1 X69.141 Y80.166 E8.7569
G1 X80.859 Y68.449 E9.3645
G1 X80.859 Y69.142 E9.3899
G1 X69.141 Y80.859 E9.9976
G1 X69.141 Y81.551 E10.0230
G1 X80.859 Y69.834 E10.6306
G1 X80.859 Y70.527 E10.6560
G1 X69.141 Y82.244 E11.2636
G1 X69.141 Y82.937 E11.2890
G1 X80.859 Y71.220 E11.8967
G1 X80.859 Y71.913 E11.9221
G1 X69.141 Y83.630 E12.5297
G1 X69.141 Y84.323 E12.5551
G1 X80.859 Y72.606 E13.1627
G1 X80.859 Y73.299 E13.1881
G1 X69.141 Y85.016 E13.7958
G1 X69.141 Y85.389 E13.8094
G1 X69.462 Y85.389 E13.8212
G1 X80.859 Y73.992 E14.4122
G1 X80.859 Y74.685 E14.4376
G1 X70.155 Y85.389 E14.9927
G1 X70.848 Y85.389 E15.0181
G1 X80.859 Y75.378 E15.5372
G1 X80.859 Y76.071 E15.5626
