; G-Code generated by Simplify3D(R) Version 3.0.0
; Sep 2, 2017 at 3:52:30 
; Settings Summary
;   processName,Process1
;   applyToModels,screw,screwtop
;   profileName,juli (modified)
;   profileVersion,2017-06-09 12:06:14
;   baseProfile,German RepRap NEO (modified)
;   printMaterial,
;   printQuality,
;   printExtruders,
;   extruderName,Primary Extruder
;   extruderToolheadNumber,0
;   extruderDiameter,0.5
;   extruderAutoWidth,0
;   extruderWidth,0.49
;   extrusionMultiplier,0.9
;   extruderUseRetract,1
;   extruderRetractionDistance,6.5
;   extruderExtraRestartDistance,0
;   extruderRetractionZLift,0
;   extruderRetractionSpeed,5000
;   extruderUseCoasting,0
;   extruderCoastingDistance,0.2
;   extruderUseWipe,0
;   extruderWipeDistance,5
;   primaryExtruder,0
;   layerHeight,0.1
;   topSolidLayers,4
;   bottomSolidLayers,3
;   perimeterOutlines,3
;   printPerimetersInsideOut,1
;   startPointOption,2
;   startPointOriginX,0
;   startPointOriginY,0
;   startPointOriginZ,300
;   sequentialIslands,0
;   spiralVaseMode,0
;   firstLayerHeightPercentage,200
;   firstLayerWidthPercentage,100
;   firstLayerUnderspeed,0.3
;   useRaft,0
;   raftExtruder,0
;   raftLayers,3
;   raftOffset,3
;   raftSeparationDistance,0.1
;   raftInfill,85
;   disableRaftBaseLayers,0
;   useSkirt,1
;   skirtExtruder,0
;   skirtLayers,1
;   skirtOutlines,4
;   skirtOffset,2
;   usePrimePillar,0
;   primePillarExtruder,999
;   primePillarWidth,12
;   primePillarLocation,7
;   primePillarSpeedMultiplier,1
;   useOozeShield,0
;   oozeShieldExtruder,999
;   oozeShieldOffset,2
;   oozeShieldOutlines,1
;   oozeShieldSidewallShape,1
;   oozeShieldSidewallAngle,30
;   oozeShieldSpeedMultiplier,1
;   infillExtruder,0
;   internalInfillPattern,Full Honeycomb
;   externalInfillPattern,Rectilinear
;   infillPercentage,30
;   outlineOverlapPercentage,15
;   infillExtrusionWidthPercentage,100
;   minInfillLength,3
;   infillLayerInterval,1
;   infillAngles,0,120,-120
;   overlapInfillAngles,0
;   generateSupport,0
;   supportExtruder,0
;   supportInfillPercentage,30
;   supportExtraInflation,0
;   denseSupportLayers,0
;   denseSupportInfillPercentage,75
;   supportLayerInterval,1
;   supportHorizontalPartOffset,2
;   supportUpperSeparationLayers,2
;   supportLowerSeparationLayers,2
;   supportType,0
;   supportGridSpacing,4
;   maxOverhangAngle,45
;   supportAngles,45
;   temperatureName,Primary Extruder
;   temperatureNumber,0
;   temperatureSetpointCount,3
;   temperatureSetpointLayers,1,2,3
;   temperatureSetpointTemperatures,207,199,192
;   temperatureStabilizeAtStartup,1
;   temperatureHeatedBed,0
;   temperatureRelayBetweenLayers,0
;   temperatureRelayBetweenLoops,0
;   fanLayers,1,3
;   fanSpeeds,0,100
;   blipFanToFullPower,0
;   adjustSpeedForCooling,1
;   minSpeedLayerTime,15
;   minCoolingSpeedSlowdown,20
;   increaseFanForCooling,0
;   minFanLayerTime,45
;   maxCoolingFanSpeed,100
;   increaseFanForBridging,0
;   bridgingFanSpeed,100
;   use5D,1
;   relativeEdistances,0
;   allowEaxisZeroing,1
;   independentExtruderAxes,0
;   includeM10123,0
;   stickySupport,1
;   applyToolheadOffsets,0
;   gcodeXoffset,0
;   gcodeYoffset,0
;   gcodeZoffset,0
;   overrideMachineDefinition,1
;   machineTypeOverride,0
;   strokeXoverride,150
;   strokeYoverride,150
;   strokeZoverride,150
;   originOffsetXoverride,0
;   originOffsetYoverride,0
;   originOffsetZoverride,0
;   homeXdirOverride,-1
;   homeYdirOverride,-1
;   homeZdirOverride,-1
;   flipXoverride,1
;   flipYoverride,-1
;   flipZoverride,1
;   toolheadOffsets,0,0|0,0|0,0|0,0|0,0|0,0
;   overrideFirmwareConfiguration,0
;   firmwareTypeOverride,RepRap (Marlin/Repetier/Sprinter)
;   GPXconfigOverride,r2
;   baudRateOverride,115200
;   overridePrinterModels,0
;   printerModelsOverride
;   startingGcode,G28 ; home all axes
;   layerChangeGcode,
;   retractionGcode,
;   toolChangeGcode,
;   endingGcode,M104 S0 ; turn off extruder,M140 S0 ; turn off bed,G28 X0  ; home X axis,G28 Y0  ; home Y axis,M84 ; disable motors,M107
;   createX3G,0
;   celebration,0
;   celebrationSong,Random Song
;   createMB5G,0
;   postProcessing,
;   defaultSpeed,2400
;   outlineUnderspeed,0.5
;   solidInfillUnderspeed,0.8
;   supportUnderspeed,0.8
;   rapidXYspeed,3500
;   rapidZspeed,1000
;   minBridgingArea,50
;   bridgingExtraInflation,0
;   bridgingExtrusionMultiplier,1
;   bridgingSpeedMultiplier,1
;   filamentDiameter,1.75
;   filamentPricePerKg,46
;   filamentDensity,1.25
;   useMinPrintHeight,0
;   minPrintHeight,0
;   useMaxPrintHeight,0
;   maxPrintHeight,0
;   useDiaphragm,0
;   diaphragmLayerInterval,20
;   robustSlicing,1
;   mergeAllIntoSolid,0
;   onlyRetractWhenCrossingOutline,1
;   retractBetweenLayers,1
;   useRetractionMinTravel,0
;   retractionMinTravel,3
;   retractWhileWiping,0
;   onlyWipeOutlines,1
;   avoidCrossingOutline,0
;   maxMovementDetourFactor,10
;   toolChangeRetractionDistance,0
;   toolChangeExtraRestartDistance,0
;   toolChangeRetractionSpeed,360
;   allowThinWallGapFill,1
;   thinWallAllowedOverlapPercentage,10
;   horizontalSizeCompensation,0
G90
M82
M106 S0
M104 S207 T0
M109 S207 T0
G28 ; home all axes
G92 E0
G1 E-6.5000 F5000
G1 Z0.200 F1000
; layer 1, Z = 0.2
T0
; tool H0.200 W0.490
; skirt
G1 X19.308 Y16.155 F3500
G1 E0.0000 F1500
G92 E0
G1 X19.627 Y15.835 E0.0166 F720
G1 X28.799 Y10.535 E0.4050
G1 X29.235 Y10.418 E0.4216
G1 X30.759 Y10.417 E0.4774
G1 X31.195 Y10.534 E0.4940
G1 X40.372 Y15.827 E0.8825
G1 X40.691 Y16.146 E0.8990
G1 X41.453 Y17.465 E0.9549
G1 X41.570 Y17.902 E0.9715
G1 X41.574 Y28.495 E1.3599
G1 X41.458 Y28.932 E1.3765
G1 X40.696 Y30.251 E1.4323
G1 X40.377 Y30.571 E1.4489
G1 X32.433 Y35.162 E1.7854
G1 X37.685 Y38.210 E2.0081
G1 X38.004 Y38.530 E2.0246
G1 X38.763 Y39.851 E2.0805
G1 X38.879 Y40.288 E2.0970
G1 X38.858 Y49.316 E2.4281
G1 X38.740 Y49.752 E2.4447
G1 X37.976 Y51.070 E2.5006
G1 X37.656 Y51.388 E2.5171
G1 X29.826 Y55.885 E2.8482
G1 X29.390 Y56.001 E2.8648
G1 X27.866 Y55.998 E2.9206
G1 X27.431 Y55.880 E2.9372
G1 X19.621 Y51.348 E3.2683
G1 X19.303 Y51.028 E3.2848
G1 X18.544 Y49.707 E3.3407
G1 X18.428 Y49.270 E3.3572
G1 X18.449 Y40.242 E3.6883
G1 X18.566 Y39.806 E3.7049
G1 X19.331 Y38.488 E3.7607
G1 X19.651 Y38.169 E3.7773
G1 X26.236 Y34.388 E4.0557
G1 X19.632 Y30.579 E4.3353
G1 X19.313 Y30.259 E4.3518
G1 X18.551 Y28.940 E4.4077
G1 X18.434 Y28.504 E4.4242
G1 X18.430 Y17.910 E4.8127
G1 X18.546 Y17.474 E4.8293
G1 X19.308 Y16.155 E4.8851
G1 X19.700 Y16.455 F3500
G92 E0
G1 X19.928 Y16.227 E0.0118 F720
G1 X28.989 Y10.991 E0.3956
G1 X29.300 Y10.908 E0.4074
G1 X30.694 Y10.907 E0.4585
G1 X31.006 Y10.991 E0.4703
G1 X40.071 Y16.220 E0.8541
G1 X40.299 Y16.448 E0.8659
G1 X40.997 Y17.655 E0.9170
G1 X41.080 Y17.966 E0.9289
G1 X41.084 Y28.431 E1.3126
G1 X41.001 Y28.743 E1.3244
G1 X40.304 Y29.951 E1.3756
G1 X40.076 Y30.179 E1.3874
G1 X31.455 Y35.161 E1.7525
G1 X37.384 Y38.601 E2.0039
G1 X37.611 Y38.830 E2.0157
G1 X38.306 Y40.039 E2.0668
G1 X38.388 Y40.351 E2.0787
G1 X38.368 Y49.251 E2.4050
G1 X38.284 Y49.562 E2.4169
G1 X37.584 Y50.768 E2.4680
G1 X37.356 Y50.996 E2.4798
G1 X29.638 Y55.428 E2.8062
G1 X29.326 Y55.511 E2.8180
G1 X27.932 Y55.508 E2.8691
G1 X27.621 Y55.424 E2.8809
G1 X19.923 Y50.956 E3.2073
G1 X19.696 Y50.728 E3.2191
G1 X19.001 Y49.519 E3.2703
G1 X18.918 Y49.207 E3.2821
G1 X18.938 Y40.307 E3.6084
G1 X19.023 Y39.996 E3.6203
G1 X19.723 Y38.790 E3.6714
G1 X19.951 Y38.562 E3.6832
G1 X27.218 Y34.389 E3.9905
G1 X19.933 Y30.186 E4.2989
G1 X19.705 Y29.958 E4.3107
G1 X19.007 Y28.751 E4.3619
G1 X18.924 Y28.440 E4.3737
G1 X18.920 Y17.975 E4.7574
G1 X19.003 Y17.663 E4.7693
G1 X19.700 Y16.455 E4.8204
G1 X20.092 Y16.756 F3500
G92 E0
G1 X20.229 Y16.619 E0.0071 F720
G1 X29.178 Y11.448 E0.3861
G1 X29.365 Y11.398 E0.3932
G1 X30.630 Y11.397 E0.4396
G1 X30.817 Y11.447 E0.4467
G1 X39.770 Y16.612 E0.8257
G1 X39.907 Y16.749 E0.8328
G1 X40.540 Y17.844 E0.8792
G1 X40.590 Y18.031 E0.8863
G1 X40.594 Y28.367 E1.2653
G1 X40.544 Y28.554 E1.2724
G1 X39.912 Y29.650 E1.3188
G1 X39.775 Y29.787 E1.3259
G1 X30.826 Y34.958 E1.7049
G1 X30.639 Y35.008 E1.7120
G1 X30.216 Y35.008 E1.7275
G1 X37.082 Y38.993 E2.0186
G1 X37.218 Y39.130 E2.0257
G1 X37.849 Y40.227 E2.0721
G1 X37.898 Y40.414 E2.0792
G1 X37.879 Y49.185 E2.4008
G1 X37.828 Y49.372 E2.4079
G1 X37.193 Y50.466 E2.4543
G1 X37.056 Y50.603 E2.4614
G1 X29.450 Y54.971 E2.7830
G1 X29.263 Y55.021 E2.7901
G1 X27.998 Y55.018 E2.8365
G1 X27.811 Y54.968 E2.8436
G1 X20.225 Y50.565 E3.1652
G1 X20.088 Y50.428 E3.1723
G1 X19.458 Y49.331 E3.2187
G1 X19.409 Y49.144 E3.2258
G1 X19.428 Y40.373 E3.5474
G1 X19.479 Y40.186 E3.5545
G1 X20.114 Y39.092 E3.6009
G1 X20.251 Y38.955 E3.6080
G1 X27.857 Y34.587 E3.9297
G1 X28.044 Y34.537 E3.9368
G1 X28.457 Y34.538 E3.9519
G1 X20.234 Y29.794 E4.3001
G1 X20.097 Y29.657 E4.3072
G1 X19.464 Y28.562 E4.3536
G1 X19.414 Y28.375 E4.3606
G1 X19.410 Y18.039 E4.7397
G1 X19.460 Y17.852 E4.7468
G1 X20.092 Y16.756 E4.7932
G1 X20.484 Y17.057 F3500
G92 E0
G1 X20.530 Y17.011 E0.0024 F720
G1 X29.367 Y11.904 E0.3766
G1 X29.430 Y11.888 E0.3790
G1 X30.566 Y11.887 E0.4207
G1 X30.628 Y11.904 E0.4230
G1 X39.469 Y17.004 E0.7973
G1 X39.515 Y17.050 E0.7997
G1 X40.084 Y18.033 E0.8413
G1 X40.100 Y18.096 E0.8437
G1 X40.104 Y28.303 E1.2180
G1 X40.087 Y28.365 E1.2204
G1 X39.520 Y29.349 E1.2620
G1 X39.474 Y29.395 E1.2644
G1 X30.637 Y34.501 E1.6387
G1 X30.574 Y34.518 E1.6410
G1 X29.438 Y34.519 E1.6827
G1 X29.376 Y34.502 E1.6851
G1 X20.535 Y29.402 E2.0593
G1 X20.489 Y29.356 E2.0617
G1 X19.920 Y28.372 E2.1034
G1 X19.904 Y28.310 E2.1057
G1 X19.900 Y18.103 E2.4800
G1 X19.916 Y18.041 E2.4824
G1 X20.484 Y17.057 E2.5240
G92 E0
G1 E-6.5000 F5000
G1 X28.045 Y35.044 F3500
G1 E0.0000 F5000
G92 E0
G1 X28.107 Y35.027 E0.0024 F720
G1 X29.244 Y35.030 E0.0440
G1 X29.306 Y35.047 E0.0464
G1 X36.780 Y39.384 E0.3633
G1 X36.826 Y39.430 E0.3657
G1 X37.392 Y40.415 E0.4073
G1 X37.408 Y40.478 E0.4097
G1 X37.389 Y49.120 E0.7266
G1 X37.372 Y49.182 E0.7289
G1 X36.801 Y50.165 E0.7706
G1 X36.756 Y50.210 E0.7730
G1 X29.262 Y54.514 E1.0899
G1 X29.200 Y54.531 E1.0922
G1 X28.063 Y54.528 E1.1339
G1 X28.001 Y54.511 E1.1363
G1 X20.527 Y50.174 E1.4532
G1 X20.481 Y50.128 E1.4555
G1 X19.915 Y49.143 E1.4972
G1 X19.899 Y49.080 E1.4996
G1 X19.918 Y40.438 E1.8164
G1 X19.935 Y40.376 E1.8188
G1 X20.505 Y39.393 E1.8605
G1 X20.551 Y39.348 E1.8628
G1 X28.045 Y35.044 E2.1797
G92 E0
G1 E-6.5000 F5000
; inner perimeter
G1 X28.667 Y38.688 F3500
G1 E0.0000 F5000
G92 E0
G1 X33.935 Y41.745 E0.2234 F600
G1 X33.922 Y47.836 E0.4467
G1 X28.640 Y50.870 E0.6701
G1 X23.372 Y47.813 E0.8934
G1 X23.385 Y41.722 E1.1168
G1 X28.667 Y38.688 E1.3401
; inner perimeter
G1 X28.668 Y38.122 F3500
G92 E0
G1 X34.426 Y41.464 E0.2441 F480
G1 X34.411 Y48.120 E0.4882
G1 X28.638 Y51.436 E0.7323
G1 X22.881 Y48.094 E0.9764
G1 X22.896 Y41.438 E1.2205
G1 X28.668 Y38.122 E1.4646
; outer perimeter
G1 X28.670 Y37.556 F3500
G92 E0
G1 X34.917 Y41.182 E0.2648 F360
G1 X34.900 Y48.404 E0.5297
G1 X28.637 Y52.002 E0.7945
G1 X22.390 Y48.376 E1.0594
G1 X22.407 Y41.154 E1.3242
G1 X28.670 Y37.556 E1.5891
; solid layer
G1 X23.801 Y42.182 F3500
G92 E0
G1 X24.314 Y41.669 E0.0266 F576
G1 X25.942 Y40.734 E0.0954
G1 X23.799 Y42.876 E0.2066
G1 X23.798 Y43.571 E0.2320
G1 X27.570 Y39.798 E0.4276
G1 X28.666 Y39.169 E0.4740
G1 X28.809 Y39.252 E0.4801
G1 X23.796 Y44.265 E0.7400
G1 X23.795 Y44.960 E0.7655
G1 X29.248 Y39.506 E1.0483
G1 X29.686 Y39.761 E1.0669
G1 X23.793 Y45.654 E1.3725
G1 X23.791 Y46.349 E1.3980
G1 X30.125 Y40.015 E1.7264
G1 X30.563 Y40.270 E1.7450
G1 X23.790 Y47.043 E2.0963
G1 X23.789 Y47.573 E2.1157
G1 X23.893 Y47.633 E2.1201
G1 X31.002 Y40.524 E2.4888
G1 X31.440 Y40.779 E2.5074
G1 X24.331 Y47.888 E2.8760
G1 X24.770 Y48.142 E2.8946
G1 X31.879 Y41.033 E3.2633
G1 X32.317 Y41.288 E3.2819
G1 X25.208 Y48.397 E3.6505
G1 X25.647 Y48.651 E3.6691
G1 X32.756 Y41.542 E4.0378
G1 X33.194 Y41.797 E4.0564
G1 X26.085 Y48.906 E4.4250
G1 X26.524 Y49.160 E4.4436
G1 X33.518 Y42.166 E4.8063
G1 X33.516 Y42.861 E4.8318
G1 X26.962 Y49.415 E5.1717
G1 X27.401 Y49.669 E5.1903
G1 X33.515 Y43.555 E5.5074
G1 X33.513 Y44.250 E5.5328
G1 X27.839 Y49.924 E5.8271
G1 X28.278 Y50.178 E5.8457
G1 X33.512 Y44.944 E6.1171
G1 X33.510 Y45.639 E6.1426
G1 X28.920 Y50.229 E6.3806
G1 X30.548 Y49.294 E6.4494
G1 X33.508 Y46.333 E6.6030
G1 X33.507 Y47.028 E6.6284
G1 X32.176 Y48.359 E6.6974
G92 E0
G1 E-6.5000 F5000
; inner perimeter
; inner perimeter
; outer perimeter
G1 X30.005 Y31.991 F3500
G1 E0.0000 F5000
G92 E0
G1 X22.393 Y27.600 E0.3222 F360
G1 X22.390 Y18.812 E0.6445
G1 X29.999 Y14.415 E0.9667
G1 X37.611 Y18.806 E1.2889
G1 X37.614 Y27.594 E1.6112
G1 X30.005 Y31.991 E1.9334
; inner perimeter
; inner perimeter
; outer perimeter
G1 X30.021 Y31.592 F3500
G92 E0
G1 X37.276 Y27.381 E0.3076 F360
G1 X37.258 Y18.992 E0.6152
G1 X29.983 Y14.814 E0.9228
G1 X22.728 Y19.025 E1.2305
G1 X22.746 Y27.414 E1.5381
G1 X30.021 Y31.592 E1.8457
G92 E0
G1 E-6.5000 F5000
; layer 2, Z = 0.3
M104 S199 T0
; tool H0.100 W0.490
; inner perimeter
; inner perimeter
; outer perimeter
G1 X30.005 Y31.991 F3500
G1 Z0.300 F1000
G1 E0.0000 F5000
G92 E0
G1 X22.393 Y27.600 E0.1611 F1200
G1 X22.390 Y18.812 E0.3222
G1 X29.999 Y14.415 E0.4834
G1 X37.611 Y18.806 E0.6445
G1 X37.614 Y27.594 E0.8056
G1 X30.005 Y31.991 E0.9667
; inner perimeter
; inner perimeter
; outer perimeter
G1 X30.021 Y31.592 F3500
G92 E0
G1 X37.276 Y27.381 E0.1538 F1200
G1 X37.258 Y18.992 E0.3076
G1 X29.983 Y14.814 E0.4614
G1 X22.728 Y19.025 E0.6152
G1 X22.746 Y27.414 E0.7690
G1 X30.021 Y31.592 E0.9228
G92 E0
G1 E-6.5000 F5000
; inner perimeter
G1 X28.667 Y38.688 F3500
G1 E0.0000 F5000
G92 E0
G1 X33.935 Y41.745 E0.1117 F2000
G1 X33.922 Y47.836 E0.2234
G1 X28.640 Y50.870 E0.3350
G1 X23.372 Y47.813 E0.4467
G1 X23.385 Y41.722 E0.5584
G1 X28.667 Y38.688 E0.6701
; inner perimeter
G1 X28.668 Y38.122 F3500
G92 E0
G1 X34.426 Y41.464 E0.1221 F1600
G1 X34.411 Y48.120 E0.2441
G1 X28.638 Y51.436 E0.3662
G1 X22.881 Y48.094 E0.4882
G1 X22.896 Y41.438 E0.6103
G1 X28.668 Y38.122 E0.7323
; outer perimeter
G1 X28.670 Y37.556 F3500
G92 E0
G1 X34.917 Y41.182 E0.1324 F1200
G1 X34.900 Y48.404 E0.2648
G1 X28.637 Y52.002 E0.3973
G1 X22.390 Y48.376 E0.5297
G1 X22.407 Y41.154 E0.6621
G1 X28.670 Y37.556 E0.7945
; solid layer
G1 X32.842 Y41.593 F3500
G92 E0
G1 X33.518 Y42.268 E0.0175 F1920
G1 X33.516 Y42.959 E0.0302
G1 X31.191 Y40.634 E0.0905
G1 X29.540 Y39.676 E0.1255
G1 X33.514 Y43.651 E0.2285
G1 X33.513 Y44.342 E0.2412
G1 X28.459 Y39.288 E0.3723
G1 X28.019 Y39.541 E0.3816
G1 X33.511 Y45.033 E0.5240
G1 X33.510 Y45.725 E0.5367
G1 X27.578 Y39.794 E0.6905
G1 X27.138 Y40.046 E0.6998
G1 X33.508 Y46.416 E0.8649
G1 X33.507 Y47.108 E0.8776
G1 X26.698 Y40.299 E1.0541
G1 X26.258 Y40.552 E1.0635
G1 X33.376 Y47.670 E1.2480
G1 X32.935 Y47.922 E1.2573
G1 X25.818 Y40.805 E1.4419
G1 X25.378 Y41.058 E1.4512
G1 X32.495 Y48.175 E1.6357
G1 X32.055 Y48.428 E1.6450
G1 X24.938 Y41.310 E1.8296
G1 X24.497 Y41.563 E1.8389
G1 X31.615 Y48.681 E2.0235
G1 X31.175 Y48.934 E2.0328
G1 X24.057 Y41.816 E2.2173
G1 X23.801 Y41.963 E2.2227
G1 X23.801 Y42.252 E2.2280
G1 X30.735 Y49.186 E2.4078
G1 X30.295 Y49.439 E2.4171
G1 X23.799 Y42.944 E2.5856
G1 X23.797 Y43.635 E2.5982
G1 X29.854 Y49.692 E2.7553
G1 X29.414 Y49.945 E2.7646
G1 X23.796 Y44.327 E2.9103
G1 X23.794 Y45.018 E2.9229
G1 X28.974 Y50.198 E3.0572
G1 X28.641 Y50.389 E3.0643
G1 X28.240 Y50.156 E3.0728
G1 X23.793 Y45.709 E3.1881
G1 X23.791 Y46.401 E3.2008
G1 X26.588 Y49.198 E3.2733
G1 X24.937 Y48.240 E3.3083
G1 X23.790 Y47.092 E3.3381
G92 E0
G1 E-6.5000 F5000
; layer 3, Z = 0.4
M104 S192 T0
M106 S255
; inner perimeter
G1 X23.372 Y47.813 F3500
G1 Z0.400 F1000
G1 E0.0000 F5000
G92 E0
G1 X23.385 Y41.722 E0.1117 F2000
G1 X28.667 Y38.688 E0.2234
G1 X33.935 Y41.745 E0.3350
G1 X33.922 Y47.836 E0.4467
G1 X28.640 Y50.870 E0.5584
G1 X23.372 Y47.813 E0.6701
; inner perimeter
G1 X22.881 Y48.094 F3500
G92 E0
G1 X22.896 Y41.438 E0.1221 F1600
G1 X28.668 Y38.122 E0.2441
G1 X34.426 Y41.464 E0.3662
G1 X34.411 Y48.120 E0.4882
G1 X28.638 Y51.436 E0.6103
G1 X22.881 Y48.094 E0.7323
; outer perimeter
G1 X22.390 Y48.376 F3500
G92 E0
G1 X22.407 Y41.154 E0.1324 F1200
