; G-Code generated by Simplify3D(R) Version 3.0.0
; Sep 20, 2017 at 11:47:06 
; Settings Summary
;   processName,Process1
;   applyToModels,stoepsel05,stoepsel06,haltermittelstop
;   profileName,1.5 fein (modified)
;   profileVersion,2017-06-09 12:06:14
;   baseProfile,German RepRap NEO (modified)
;   printMaterial,
;   printQuality,
;   printExtruders,
;   extruderName,Primary Extruder
;   extruderToolheadNumber,0
;   extruderDiameter,0.5
;   extruderAutoWidth,0
;   extruderWidth,0.49
;   extrusionMultiplier,0.9
;   extruderUseRetract,1
;   extruderRetractionDistance,6.5
;   extruderExtraRestartDistance,0
;   extruderRetractionZLift,0
;   extruderRetractionSpeed,5000
;   extruderUseCoasting,0
;   extruderCoastingDistance,0.2
;   extruderUseWipe,0
;   extruderWipeDistance,5
;   primaryExtruder,0
;   layerHeight,0.1
;   topSolidLayers,4
;   bottomSolidLayers,3
;   perimeterOutlines,3
;   printPerimetersInsideOut,1
;   startPointOption,2
;   startPointOriginX,0
;   startPointOriginY,0
;   startPointOriginZ,300
;   sequentialIslands,0
;   spiralVaseMode,0
;   firstLayerHeightPercentage,140
;   firstLayerWidthPercentage,100
;   firstLayerUnderspeed,0.3
;   useRaft,0
;   raftExtruder,0
;   raftLayers,3
;   raftOffset,3
;   raftSeparationDistance,0.1
;   raftInfill,85
;   disableRaftBaseLayers,0
;   useSkirt,1
;   skirtExtruder,0
;   skirtLayers,1
;   skirtOutlines,2
;   skirtOffset,2
;   usePrimePillar,0
;   primePillarExtruder,999
;   primePillarWidth,12
;   primePillarLocation,7
;   primePillarSpeedMultiplier,1
;   useOozeShield,0
;   oozeShieldExtruder,999
;   oozeShieldOffset,2
;   oozeShieldOutlines,1
;   oozeShieldSidewallShape,1
;   oozeShieldSidewallAngle,30
;   oozeShieldSpeedMultiplier,1
;   infillExtruder,0
;   internalInfillPattern,Full Honeycomb
;   externalInfillPattern,Rectilinear
;   infillPercentage,15
;   outlineOverlapPercentage,15
;   infillExtrusionWidthPercentage,100
;   minInfillLength,3
;   infillLayerInterval,1
;   infillAngles,0,120,-120
;   overlapInfillAngles,0
;   generateSupport,0
;   supportExtruder,0
;   supportInfillPercentage,30
;   supportExtraInflation,1
;   denseSupportLayers,0
;   denseSupportInfillPercentage,75
;   supportLayerInterval,1
;   supportHorizontalPartOffset,1.5
;   supportUpperSeparationLayers,2
;   supportLowerSeparationLayers,2
;   supportType,0
;   supportGridSpacing,4
;   maxOverhangAngle,45
;   supportAngles,45
;   temperatureName,Primary Extruder
;   temperatureNumber,0
;   temperatureSetpointCount,3
;   temperatureSetpointLayers,1,2,3
;   temperatureSetpointTemperatures,207,199,192
;   temperatureStabilizeAtStartup,1
;   temperatureHeatedBed,0
;   temperatureRelayBetweenLayers,0
;   temperatureRelayBetweenLoops,0
;   fanLayers,1,4
;   fanSpeeds,0,100
;   blipFanToFullPower,0
;   adjustSpeedForCooling,1
;   minSpeedLayerTime,15
;   minCoolingSpeedSlowdown,20
;   increaseFanForCooling,0
;   minFanLayerTime,45
;   maxCoolingFanSpeed,100
;   increaseFanForBridging,0
;   bridgingFanSpeed,100
;   use5D,1
;   relativeEdistances,0
;   allowEaxisZeroing,1
;   independentExtruderAxes,0
;   includeM10123,0
;   stickySupport,1
;   applyToolheadOffsets,0
;   gcodeXoffset,0
;   gcodeYoffset,0
;   gcodeZoffset,0
;   overrideMachineDefinition,1
;   machineTypeOverride,0
;   strokeXoverride,150
;   strokeYoverride,150
;   strokeZoverride,150
;   originOffsetXoverride,0
;   originOffsetYoverride,0
;   originOffsetZoverride,0
;   homeXdirOverride,-1
;   homeYdirOverride,-1
;   homeZdirOverride,-1
;   flipXoverride,1
;   flipYoverride,-1
;   flipZoverride,1
;   toolheadOffsets,0,0|0,0|0,0|0,0|0,0|0,0
;   overrideFirmwareConfiguration,0
;   firmwareTypeOverride,RepRap (Marlin/Repetier/Sprinter)
;   GPXconfigOverride,r2
;   baudRateOverride,115200
;   overridePrinterModels,0
;   printerModelsOverride
;   startingGcode,G28 ; home all axes
;   layerChangeGcode,
;   retractionGcode,
;   toolChangeGcode,
;   endingGcode,M104 S0 ; turn off extruder,M140 S0 ; turn off bed,G28 X0  ; home X axis,G28 Y0  ; home Y axis,M84 ; disable motors,M107
;   createX3G,0
;   celebration,0
;   celebrationSong,Random Song
;   createMB5G,0
;   postProcessing,
;   defaultSpeed,2400
;   outlineUnderspeed,0.5
;   solidInfillUnderspeed,0.8
;   supportUnderspeed,0.8
;   rapidXYspeed,3500
;   rapidZspeed,1000
;   minBridgingArea,50
;   bridgingExtraInflation,0
;   bridgingExtrusionMultiplier,1
;   bridgingSpeedMultiplier,1
;   filamentDiameter,1.75
;   filamentPricePerKg,46
;   filamentDensity,1.25
;   useMinPrintHeight,0
;   minPrintHeight,0
;   useMaxPrintHeight,0
;   maxPrintHeight,0
;   useDiaphragm,0
;   diaphragmLayerInterval,20
;   robustSlicing,1
;   mergeAllIntoSolid,0
;   onlyRetractWhenCrossingOutline,1
;   retractBetweenLayers,1
;   useRetractionMinTravel,0
;   retractionMinTravel,3
;   retractWhileWiping,0
;   onlyWipeOutlines,1
;   avoidCrossingOutline,0
;   maxMovementDetourFactor,10
;   toolChangeRetractionDistance,0
;   toolChangeExtraRestartDistance,0
;   toolChangeRetractionSpeed,360
;   allowThinWallGapFill,1
;   thinWallAllowedOverlapPercentage,10
;   horizontalSizeCompensation,0
G90
M82
M106 S0
M104 S207 T0
M109 S207 T0
G28 ; home all axes
G92 E0
G1 E-6.5000 F5000
G1 Z0.140 F1000
; layer 1, Z = 0.14
T0
; tool H0.140 W0.490
; skirt
G1 X15.357 Y11.341 F3500
G1 E0.0000 F1500
G92 E0
G1 X15.381 Y11.211 E0.0034 F720
G1 X15.680 Y10.407 E0.0254
G1 X15.748 Y10.293 E0.0288
G1 X17.123 Y8.710 E0.0826
G1 X17.157 Y8.676 E0.0839
G1 X17.392 Y8.468 E0.0919
G1 X17.431 Y8.439 E0.0932
G1 X18.576 Y7.671 E0.1286
G1 X18.641 Y7.636 E0.1305
G1 X19.082 Y7.455 E0.1427
G1 X19.153 Y7.433 E0.1446
G1 X20.431 Y7.189 E0.1780
G1 X20.499 Y7.182 E0.1798
G1 X20.943 Y7.181 E0.1911
G1 X21.011 Y7.188 E0.1929
G1 X22.290 Y7.426 E0.2263
G1 X22.361 Y7.447 E0.2282
G1 X22.803 Y7.626 E0.2404
G1 X22.868 Y7.661 E0.2423
G1 X24.068 Y8.458 E0.2793
G1 X24.121 Y8.500 E0.2810
G1 X24.434 Y8.805 E0.2923
G1 X24.478 Y8.856 E0.2940
G1 X25.621 Y10.470 E0.3448
G1 X25.671 Y10.571 E0.3477
G1 X25.894 Y11.268 E0.3664
G1 X25.912 Y11.380 E0.3693
G1 X25.932 Y20.177 E0.5952
G1 X26.320 Y20.370 E0.6063
G1 X26.335 Y20.377 E0.6067
G1 X26.428 Y20.429 E0.6094
G1 X26.442 Y20.438 E0.6099
G1 X27.286 Y20.956 E0.6353
G1 X27.299 Y20.964 E0.6357
G1 X27.382 Y21.020 E0.6382
G1 X27.395 Y21.029 E0.6386
G1 X28.211 Y21.632 E0.6647
G1 X28.225 Y21.643 E0.6651
G1 X28.315 Y21.716 E0.6681
G1 X28.329 Y21.728 E0.6686
G1 X29.088 Y22.413 E0.6948
G1 X29.101 Y22.425 E0.6953
G1 X29.183 Y22.507 E0.6983
G1 X29.196 Y22.520 E0.6987
G1 X29.884 Y23.276 E0.7250
G1 X29.896 Y23.290 E0.7254
G1 X29.970 Y23.380 E0.7284
G1 X29.981 Y23.394 E0.7289
G1 X30.592 Y24.213 E0.7551
G1 X30.602 Y24.228 E0.7556
G1 X30.667 Y24.325 E0.7586
G1 X30.676 Y24.340 E0.7590
G1 X31.204 Y25.216 E0.7853
G1 X31.213 Y25.231 E0.7857
G1 X31.268 Y25.334 E0.7887
G1 X31.276 Y25.350 E0.7892
G1 X31.715 Y26.273 E0.8154
G1 X31.723 Y26.289 E0.8159
G1 X31.767 Y26.397 E0.8189
G1 X31.774 Y26.413 E0.8193
G1 X32.120 Y27.375 E0.8456
G1 X32.126 Y27.392 E0.8460
G1 X32.160 Y27.503 E0.8490
G1 X32.165 Y27.521 E0.8495
G1 X32.416 Y28.512 E0.8757
G1 X32.420 Y28.530 E0.8762
G1 X32.443 Y28.643 E0.8792
G1 X32.446 Y28.661 E0.8796
G1 X32.598 Y29.672 E0.9059
G1 X32.600 Y29.690 E0.9063
G1 X32.612 Y29.806 E0.9093
G1 X32.613 Y29.824 E0.9098
G1 X32.666 Y30.845 E0.9360
G1 X32.666 Y30.863 E0.9365
G1 X32.667 Y30.979 E0.9395
G1 X32.666 Y30.997 E0.9399
G1 X32.618 Y32.018 E0.9662
G1 X32.617 Y32.036 E0.9666
G1 X32.606 Y32.152 E0.9696
G1 X32.604 Y32.170 E0.9701
G1 X32.456 Y33.181 E0.9963
G1 X32.453 Y33.199 E0.9968
G1 X32.431 Y33.313 E0.9998
G1 X32.427 Y33.331 E1.0002
G1 X32.180 Y34.323 E1.0265
G1 X32.176 Y34.340 E1.0269
G1 X32.142 Y34.452 E1.0299
G1 X32.137 Y34.469 E1.0304
G1 X31.794 Y35.432 E1.0566
G1 X31.788 Y35.449 E1.0571
G1 X31.744 Y35.556 E1.0601
G1 X31.736 Y35.573 E1.0605
G1 X31.301 Y36.498 E1.0868
G1 X31.293 Y36.514 E1.0872
G1 X31.239 Y36.617 E1.0902
G1 X31.230 Y36.633 E1.0907
G1 X30.706 Y37.511 E1.1169
G1 X30.697 Y37.526 E1.1174
G1 X30.632 Y37.623 E1.1204
G1 X30.622 Y37.637 E1.1208
G1 X30.015 Y38.460 E1.1471
G1 X30.004 Y38.474 E1.1475
G1 X29.930 Y38.564 E1.1505
G1 X29.919 Y38.578 E1.1510
G1 X29.234 Y39.337 E1.1772
G1 X29.221 Y39.350 E1.1777
G1 X29.139 Y39.432 E1.1807
G1 X29.126 Y39.445 E1.1811
G1 X28.370 Y40.133 E1.2074
G1 X28.357 Y40.145 E1.2079
G1 X28.267 Y40.219 E1.2108
G1 X28.253 Y40.230 E1.2113
G1 X27.433 Y40.841 E1.2375
G1 X27.418 Y40.851 E1.2380
G1 X27.322 Y40.916 E1.2410
G1 X27.307 Y40.926 E1.2414
G1 X26.431 Y41.453 E1.2677
G1 X26.415 Y41.462 E1.2682
G1 X26.313 Y41.517 E1.2711
G1 X26.297 Y41.525 E1.2716
G1 X25.374 Y41.965 E1.2978
G1 X25.357 Y41.972 E1.2983
G1 X25.250 Y42.017 E1.3013
G1 X25.233 Y42.023 E1.3017
G1 X24.271 Y42.370 E1.3280
G1 X24.254 Y42.375 E1.3285
G1 X24.143 Y42.409 E1.3314
G1 X24.126 Y42.414 E1.3319
G1 X23.135 Y42.665 E1.3581
G1 X23.117 Y42.669 E1.3586
G1 X23.003 Y42.692 E1.3616
G1 X22.985 Y42.695 E1.3620
G1 X21.974 Y42.847 E1.3883
G1 X21.957 Y42.850 E1.3888
G1 X21.841 Y42.861 E1.3917
G1 X21.823 Y42.863 E1.3922
G1 X20.802 Y42.915 E1.4184
G1 X20.784 Y42.916 E1.4189
G1 X20.668 Y42.916 E1.4219
G1 X20.650 Y42.915 E1.4224
G1 X19.629 Y42.868 E1.4486
G1 X19.611 Y42.866 E1.4491
G1 X19.495 Y42.855 E1.4520
G1 X19.477 Y42.853 E1.4525
G1 X18.555 Y42.718 E1.4764
G1 X18.557 Y42.719 E1.4764
G1 X18.589 Y42.731 E1.4773
G1 X19.300 Y43.038 E1.4972
G1 X19.338 Y43.057 E1.4983
G1 X19.572 Y43.192 E1.5052
G1 X19.607 Y43.214 E1.5063
G1 X20.229 Y43.673 E1.5261
G1 X20.257 Y43.696 E1.5271
G1 X20.429 Y43.851 E1.5330
G1 X20.454 Y43.876 E1.5339
G1 X20.844 Y44.304 E1.5488
G1 X20.868 Y44.332 E1.5497
G1 X21.010 Y44.523 E1.5558
G1 X21.030 Y44.554 E1.5568
G1 X21.043 Y44.574 E1.5574
G1 X21.621 Y44.575 E1.5722
G1 X21.644 Y44.575 E1.5728
G1 X21.793 Y44.585 E1.5767
G1 X21.816 Y44.587 E1.5773
G1 X22.242 Y44.641 E1.5883
G1 X22.286 Y44.649 E1.5894
G1 X22.566 Y44.721 E1.5968
G1 X22.609 Y44.734 E1.5980
G1 X23.072 Y44.914 E1.6107
G1 X23.111 Y44.932 E1.6119
G1 X23.360 Y45.064 E1.6191
G1 X23.397 Y45.087 E1.6202
G1 X23.800 Y45.367 E1.6328
G1 X23.833 Y45.393 E1.6339
G1 X24.036 Y45.572 E1.6408
G1 X24.066 Y45.601 E1.6419
G1 X24.391 Y45.961 E1.6543
G1 X24.416 Y45.992 E1.6554
G1 X24.568 Y46.202 E1.6620
G1 X24.590 Y46.236 E1.6630
G1 X24.826 Y46.652 E1.6753
G1 X24.844 Y46.687 E1.6763
G1 X24.944 Y46.916 E1.6828
G1 X24.957 Y46.953 E1.6838
G1 X25.100 Y47.404 E1.6959
G1 X25.109 Y47.440 E1.6969
G1 X25.158 Y47.676 E1.7031
G1 X25.163 Y47.713 E1.7040
G1 X25.205 Y48.119 E1.7145
G1 X25.206 Y48.138 E1.7150
G1 X25.213 Y48.258 E1.7181
G1 X25.213 Y48.277 E1.7185
G1 X25.213 Y53.487 E1.8523
G1 X25.212 Y53.507 E1.8528
G1 X25.205 Y53.635 E1.8561
G1 X25.204 Y53.654 E1.8566
G1 X25.159 Y54.065 E1.8672
G1 X25.153 Y54.103 E1.8682
G1 X25.100 Y54.348 E1.8746
G1 X25.090 Y54.385 E1.8756
G1 X24.941 Y54.836 E1.8878
G1 X24.926 Y54.873 E1.8888
G1 X24.821 Y55.105 E1.8953
G1 X24.803 Y55.140 E1.8964
G1 X24.559 Y55.551 E1.9086
G1 X24.537 Y55.585 E1.9097
G1 X24.379 Y55.794 E1.9164
G1 X24.353 Y55.825 E1.9174
G1 X24.023 Y56.176 E1.9298
G1 X23.993 Y56.205 E1.9309
G1 X23.787 Y56.379 E1.9378
G1 X23.754 Y56.404 E1.9389
G1 X23.349 Y56.674 E1.9514
G1 X23.312 Y56.696 E1.9525
G1 X23.065 Y56.822 E1.9596
G1 X23.026 Y56.839 E1.9607
G1 X22.568 Y57.009 E1.9732
G1 X22.526 Y57.022 E1.9743
G1 X22.256 Y57.087 E1.9815
G1 X22.213 Y57.095 E1.9826
G1 X21.799 Y57.145 E1.9933
G1 X21.777 Y57.146 E1.9938
G1 X21.635 Y57.155 E1.9975
G1 X21.613 Y57.156 E1.9981
G1 X12.518 Y57.155 E2.2315
G1 X12.499 Y57.155 E2.2320
G1 X12.377 Y57.148 E2.2351
G1 X12.358 Y57.147 E2.2356
G1 X11.929 Y57.103 E2.2467
G1 X11.892 Y57.097 E2.2477
G1 X11.657 Y57.048 E2.2538
G1 X11.620 Y57.038 E2.2548
G1 X11.152 Y56.890 E2.2674
G1 X11.116 Y56.877 E2.2684
G1 X10.889 Y56.778 E2.2747
G1 X10.855 Y56.760 E2.2757
G1 X10.423 Y56.516 E2.2885
G1 X10.389 Y56.494 E2.2895
G1 X10.180 Y56.343 E2.2961
G1 X10.149 Y56.318 E2.2971
G1 X9.776 Y55.982 E2.3100
G1 X9.746 Y55.952 E2.3111
G1 X9.567 Y55.749 E2.3181
G1 X9.541 Y55.716 E2.3191
G1 X9.250 Y55.298 E2.3322
G1 X9.227 Y55.261 E2.3333
G1 X9.094 Y55.010 E2.3406
G1 X9.076 Y54.970 E2.3417
G1 X8.891 Y54.492 E2.3549
G1 X8.877 Y54.449 E2.3561
G1 X8.806 Y54.169 E2.3635
G1 X8.798 Y54.125 E2.3646
G1 X8.743 Y53.688 E2.3759
G1 X8.741 Y53.665 E2.3765
G1 X8.732 Y53.517 E2.3803
G1 X8.731 Y53.494 E2.3809
G1 X8.731 Y48.263 E2.5152
G1 X8.732 Y48.240 E2.5158
G1 X8.741 Y48.093 E2.5196
G1 X8.743 Y48.070 E2.5202
G1 X8.799 Y47.623 E2.5317
G1 X8.807 Y47.579 E2.5329
G1 X8.877 Y47.302 E2.5402
G1 X8.890 Y47.259 E2.5414
G1 X9.075 Y46.779 E2.5546
G1 X9.093 Y46.739 E2.5557
G1 X9.223 Y46.492 E2.5628
G1 X9.245 Y46.455 E2.5640
G1 X9.534 Y46.034 E2.5771
G1 X9.560 Y46.001 E2.5781
G1 X9.737 Y45.798 E2.5851
G1 X9.766 Y45.768 E2.5861
G1 X10.139 Y45.426 E2.5991
G1 X10.170 Y45.401 E2.6001
G1 X10.380 Y45.247 E2.6068
G1 X10.414 Y45.225 E2.6079
G1 X10.848 Y44.976 E2.6207
G1 X10.883 Y44.958 E2.6217
G1 X11.113 Y44.857 E2.6282
G1 X11.150 Y44.843 E2.6292
G1 X11.622 Y44.692 E2.6419
G1 X11.659 Y44.682 E2.6429
G1 X11.897 Y44.633 E2.6491
G1 X11.934 Y44.627 E2.6501
G1 X12.361 Y44.582 E2.6611
G1 X12.380 Y44.581 E2.6616
G1 X12.502 Y44.575 E2.6647
G1 X12.521 Y44.574 E2.6652
G1 X12.753 Y44.574 E2.6712
G1 X12.771 Y44.549 E2.6720
G1 X12.793 Y44.519 E2.6729
G1 X13.277 Y43.947 E2.6922
G1 X13.302 Y43.921 E2.6931
G1 X13.469 Y43.759 E2.6991
G1 X13.496 Y43.735 E2.7000
G1 X13.948 Y43.375 E2.7148
G1 X13.977 Y43.355 E2.7157
G1 X14.167 Y43.231 E2.7215
G1 X14.197 Y43.213 E2.7224
G1 X14.883 Y42.855 E2.7423
G1 X14.920 Y42.839 E2.7434
G1 X15.168 Y42.743 E2.7502
G1 X15.208 Y42.730 E2.7512
G1 X15.957 Y42.533 E2.7711
G1 X15.990 Y42.526 E2.7720
G1 X16.205 Y42.491 E2.7776
G1 X16.239 Y42.487 E2.7785
G1 X16.791 Y42.447 E2.7927
G1 X16.818 Y42.446 E2.7934
G1 X16.992 Y42.446 E2.7978
G1 X17.019 Y42.447 E2.7985
G1 X17.548 Y42.486 E2.8122
G1 X17.555 Y42.487 E2.8123
G1 X17.337 Y42.433 E2.8181
G1 X17.320 Y42.428 E2.8185
G1 X17.210 Y42.395 E2.8215
G1 X17.193 Y42.390 E2.8219
G1 X16.217 Y42.045 E2.8485
G1 X16.200 Y42.038 E2.8490
G1 X16.091 Y41.993 E2.8520
G1 X16.074 Y41.986 E2.8525
G1 X15.149 Y41.551 E2.8787
G1 X15.132 Y41.543 E2.8792
G1 X15.030 Y41.488 E2.8822
G1 X15.014 Y41.479 E2.8826
G1 X14.136 Y40.956 E2.9089
G1 X14.121 Y40.946 E2.9093
G1 X14.024 Y40.882 E2.9123
G1 X14.009 Y40.871 E2.9128
G1 X13.187 Y40.264 E2.9390
G1 X13.173 Y40.253 E2.9395
G1 X13.083 Y40.180 E2.9425
G1 X13.069 Y40.168 E2.9429
G1 X12.310 Y39.483 E2.9692
G1 X12.297 Y39.471 E2.9696
G1 X12.214 Y39.389 E2.9726
G1 X12.202 Y39.376 E2.9731
G1 X11.514 Y38.620 E2.9993
G1 X11.502 Y38.606 E2.9998
G1 X11.428 Y38.516 E3.0028
G1 X11.417 Y38.502 E3.0032
G1 X10.806 Y37.682 E3.0295
G1 X10.795 Y37.668 E3.0299
G1 X10.731 Y37.571 E3.0329
G1 X10.721 Y37.556 E3.0334
G1 X10.193 Y36.680 E3.0596
G1 X10.184 Y36.665 E3.0601
G1 X10.129 Y36.562 E3.0631
G1 X10.121 Y36.546 E3.0635
G1 X9.682 Y35.623 E3.0898
G1 X9.675 Y35.607 E3.0902
G1 X9.630 Y35.499 E3.0932
G1 X9.624 Y35.482 E3.0937
G1 X9.277 Y34.521 E3.1199
G1 X9.271 Y34.504 E3.1204
G1 X9.237 Y34.392 E3.1234
G1 X9.232 Y34.375 E3.1238
G1 X8.982 Y33.384 E3.1501
G1 X8.978 Y33.366 E3.1505
G1 X8.955 Y33.252 E3.1535
G1 X8.952 Y33.235 E3.1540
G1 X8.799 Y32.224 E3.1802
G1 X8.797 Y32.206 E3.1807
G1 X8.785 Y32.090 E3.1837
G1 X8.784 Y32.072 E3.1841
G1 X8.732 Y31.051 E3.2104
G1 X8.731 Y31.033 E3.2108
G1 X8.731 Y30.917 E3.2138
G1 X8.731 Y30.899 E3.2143
G1 X8.779 Y29.878 E3.2405
G1 X8.780 Y29.860 E3.2410
G1 X8.792 Y29.744 E3.2440
G1 X8.794 Y29.726 E3.2444
G1 X8.941 Y28.715 E3.2707
G1 X8.944 Y28.697 E3.2711
G1 X8.967 Y28.583 E3.2741
G1 X8.971 Y28.565 E3.2746
G1 X9.217 Y27.573 E3.3008
G1 X9.222 Y27.556 E3.3013
G1 X9.255 Y27.444 E3.3043
G1 X9.261 Y27.427 E3.3047
G1 X9.603 Y26.464 E3.3310
G1 X9.609 Y26.447 E3.3314
G1 X9.654 Y26.339 E3.3344
G1 X9.661 Y26.323 E3.3349
G1 X10.096 Y25.398 E3.3611
G1 X10.104 Y25.382 E3.3616
G1 X10.159 Y25.279 E3.3646
G1 X10.167 Y25.263 E3.3650
G1 X10.691 Y24.385 E3.3913
G1 X10.701 Y24.370 E3.3917
G1 X10.765 Y24.273 E3.3947
G1 X10.775 Y24.258 E3.3952
G1 X11.382 Y23.436 E3.4214
G1 X11.394 Y23.422 E3.4219
G1 X11.467 Y23.332 E3.4249
G1 X11.479 Y23.318 E3.4253
G1 X12.164 Y22.559 E3.4516
G1 X12.176 Y22.546 E3.4520
