; G-Code generated by Simplify3D(R) Version 3.0.0
; Sep 21, 2017 at 12:32:08 
; Settings Summary
;   processName,Process1
;   applyToModels,stoepsel08,stoepsel08(2)
;   profileName,1.5 fein (modified)
;   profileVersion,2017-09-18 16:32:13
;   baseProfile,German RepRap NEO (modified)
;   printMaterial,
;   printQuality,
;   printExtruders,
;   extruderName,Primary Extruder
;   extruderToolheadNumber,0
;   extruderDiameter,0.5
;   extruderAutoWidth,0
;   extruderWidth,0.49
;   extrusionMultiplier,0.9
;   extruderUseRetract,1
;   extruderRetractionDistance,6.5
;   extruderExtraRestartDistance,0
;   extruderRetractionZLift,0
;   extruderRetractionSpeed,4998
;   extruderUseCoasting,0
;   extruderCoastingDistance,0.2
;   extruderUseWipe,0
;   extruderWipeDistance,5
;   primaryExtruder,0
;   layerHeight,0.15
;   topSolidLayers,4
;   bottomSolidLayers,3
;   perimeterOutlines,3
;   printPerimetersInsideOut,1
;   startPointOption,2
;   startPointOriginX,0
;   startPointOriginY,0
;   startPointOriginZ,300
;   sequentialIslands,0
;   spiralVaseMode,0
;   firstLayerHeightPercentage,130
;   firstLayerWidthPercentage,100
;   firstLayerUnderspeed,0.3
;   useRaft,0
;   raftExtruder,0
;   raftLayers,3
;   raftOffset,3
;   raftSeparationDistance,0.1
;   raftInfill,85
;   disableRaftBaseLayers,0
;   useSkirt,1
;   skirtExtruder,0
;   skirtLayers,1
;   skirtOutlines,3
;   skirtOffset,2
;   usePrimePillar,0
;   primePillarExtruder,999
;   primePillarWidth,12
;   primePillarLocation,7
;   primePillarSpeedMultiplier,1
;   useOozeShield,0
;   oozeShieldExtruder,999
;   oozeShieldOffset,2
;   oozeShieldOutlines,1
;   oozeShieldSidewallShape,1
;   oozeShieldSidewallAngle,30
;   oozeShieldSpeedMultiplier,1
;   infillExtruder,0
;   internalInfillPattern,Full Honeycomb
;   externalInfillPattern,Rectilinear
;   infillPercentage,15
;   outlineOverlapPercentage,15
;   infillExtrusionWidthPercentage,100
;   minInfillLength,3
;   infillLayerInterval,1
;   infillAngles,0,120,-120
;   overlapInfillAngles,0
;   generateSupport,1
;   supportExtruder,0
;   supportInfillPercentage,30
;   supportExtraInflation,0
;   denseSupportLayers,0
;   denseSupportInfillPercentage,75
;   supportLayerInterval,1
;   supportHorizontalPartOffset,1.5
;   supportUpperSeparationLayers,2
;   supportLowerSeparationLayers,2
;   supportType,0
;   supportGridSpacing,4
;   maxOverhangAngle,45
;   supportAngles,45
;   temperatureName,Primary Extruder
;   temperatureNumber,0
;   temperatureSetpointCount,3
;   temperatureSetpointLayers,1,2,3
;   temperatureSetpointTemperatures,207,199,192
;   temperatureStabilizeAtStartup,1
;   temperatureHeatedBed,0
;   temperatureRelayBetweenLayers,0
;   temperatureRelayBetweenLoops,0
;   fanLayers,1,3
;   fanSpeeds,0,100
;   blipFanToFullPower,0
;   adjustSpeedForCooling,1
;   minSpeedLayerTime,15
;   minCoolingSpeedSlowdown,20
;   increaseFanForCooling,0
;   minFanLayerTime,45
;   maxCoolingFanSpeed,100
;   increaseFanForBridging,0
;   bridgingFanSpeed,100
;   use5D,1
;   relativeEdistances,0
;   allowEaxisZeroing,1
;   independentExtruderAxes,0
;   includeM10123,0
;   stickySupport,1
;   applyToolheadOffsets,0
;   gcodeXoffset,0
;   gcodeYoffset,0
;   gcodeZoffset,0
;   overrideMachineDefinition,1
;   machineTypeOverride,0
;   strokeXoverride,150
;   strokeYoverride,150
;   strokeZoverride,150
;   originOffsetXoverride,0
;   originOffsetYoverride,0
;   originOffsetZoverride,0
;   homeXdirOverride,-1
;   homeYdirOverride,-1
;   homeZdirOverride,-1
;   flipXoverride,1
;   flipYoverride,-1
;   flipZoverride,1
;   toolheadOffsets,0,0|0,0|0,0|0,0|0,0|0,0
;   overrideFirmwareConfiguration,0
;   firmwareTypeOverride,RepRap (Marlin/Repetier/Sprinter)
;   GPXconfigOverride,r2
;   baudRateOverride,115200
;   overridePrinterModels,0
;   printerModelsOverride
;   startingGcode,G28 ; home all axes
;   layerChangeGcode,
;   retractionGcode,
;   toolChangeGcode,
;   endingGcode,M104 S0 ; turn off extruder,M140 S0 ; turn off bed,G28 X0  ; home X axis,G28 Y0  ; home Y axis,M84 ; disable motors,M107
;   createX3G,0
;   celebration,0
;   celebrationSong,Random Song
;   createMB5G,0
;   postProcessing,
;   defaultSpeed,2400
;   outlineUnderspeed,0.5
;   solidInfillUnderspeed,0.8
;   supportUnderspeed,0.8
;   rapidXYspeed,3498
;   rapidZspeed,1002
;   minBridgingArea,50
;   bridgingExtraInflation,0
;   bridgingExtrusionMultiplier,1
;   bridgingSpeedMultiplier,1
;   filamentDiameter,1.75
;   filamentPricePerKg,46
;   filamentDensity,1.25
;   useMinPrintHeight,0
;   minPrintHeight,0
;   useMaxPrintHeight,0
;   maxPrintHeight,0
;   useDiaphragm,0
;   diaphragmLayerInterval,20
;   robustSlicing,1
;   mergeAllIntoSolid,0
;   onlyRetractWhenCrossingOutline,1
;   retractBetweenLayers,1
;   useRetractionMinTravel,0
;   retractionMinTravel,3
;   retractWhileWiping,0
;   onlyWipeOutlines,1
;   avoidCrossingOutline,0
;   maxMovementDetourFactor,10
;   toolChangeRetractionDistance,0
;   toolChangeExtraRestartDistance,0
;   toolChangeRetractionSpeed,360
;   allowThinWallGapFill,1
;   thinWallAllowedOverlapPercentage,10
;   horizontalSizeCompensation,0
G90
M82
M106 S0
M104 S207 T0
M109 S207 T0
G28 ; home all axes
G92 E0
G1 E-6.5000 F4998
G1 Z0.195 F1002
; layer 1, Z = 0.195
T0
; tool H0.195 W0.490
; skirt
G1 X8.837 Y64.172 F3498
G1 E0.0000 F1499
G92 E0
G1 X9.321 Y64.108 E0.0175 F720
G1 X9.362 Y64.104 E0.0189
G1 X9.535 Y64.092 E0.0251
G1 X9.575 Y64.091 E0.0266
G1 X18.314 Y64.091 E0.3390
G1 X18.361 Y64.093 E0.3407
G1 X18.564 Y64.108 E0.3480
G1 X18.611 Y64.114 E0.3497
G1 X19.083 Y64.188 E0.3667
G1 X19.150 Y64.202 E0.3692
G1 X19.432 Y64.279 E0.3796
G1 X19.497 Y64.301 E0.3821
G1 X20.641 Y64.756 E0.4261
G1 X20.928 Y64.987 E0.4393
G1 X21.824 Y66.308 E0.4964
G1 X21.932 Y66.660 E0.5095
G1 X21.932 Y89.865 E1.3392
G1 X21.745 Y90.316 E1.3566
G1 X20.229 Y91.832 E1.4333
G1 X19.779 Y92.018 E1.4507
G1 X8.018 Y92.018 E1.8712
G1 X7.568 Y91.832 E1.8886
G1 X6.052 Y90.316 E1.9652
G1 X5.865 Y89.865 E1.9827
G1 X5.865 Y66.629 E2.8134
G1 X5.981 Y66.266 E2.8270
G1 X6.941 Y64.915 E2.8863
G1 X7.246 Y64.686 E2.8999
G1 X8.458 Y64.263 E2.9458
G1 X8.518 Y64.245 E2.9481
G1 X8.776 Y64.184 E2.9575
G1 X8.837 Y64.172 E2.9598
G1 X22.614 Y66.629 F3498
G92 E0
G1 X22.729 Y66.266 E0.0136 F720
G1 X23.689 Y64.915 E0.0729
G1 X23.994 Y64.686 E0.0865
G1 X25.206 Y64.263 E0.1324
G1 X25.266 Y64.245 E0.1346
G1 X25.524 Y64.184 E0.1441
G1 X25.585 Y64.172 E0.1464
G1 X26.070 Y64.108 E0.1638
G1 X26.110 Y64.104 E0.1653
G1 X26.283 Y64.092 E0.1715
G1 X26.324 Y64.091 E0.1729
G1 X35.062 Y64.091 E0.4854
G1 X35.110 Y64.093 E0.4871
G1 X35.312 Y64.108 E0.4943
G1 X35.359 Y64.114 E0.4960
G1 X35.831 Y64.188 E0.5131
G1 X35.898 Y64.202 E0.5155
G1 X36.180 Y64.279 E0.5260
G1 X36.245 Y64.301 E0.5284
G1 X37.390 Y64.756 E0.5725
G1 X37.676 Y64.987 E0.5856
G1 X38.572 Y66.308 E0.6427
G1 X38.680 Y66.660 E0.6559
G1 X38.680 Y89.865 E1.4855
G1 X38.494 Y90.316 E1.5029
G1 X36.978 Y91.832 E1.5796
G1 X36.527 Y92.018 E1.5970
G1 X24.766 Y92.018 E2.0175
G1 X24.316 Y91.832 E2.0349
G1 X22.800 Y90.316 E2.1116
G1 X22.614 Y89.865 E2.1290
G1 X22.614 Y66.629 E2.9598
G1 X23.104 Y66.705 F3498
G92 E0
G1 X23.173 Y66.488 E0.0082 F720
G1 X24.044 Y65.261 E0.0620
G1 X24.227 Y65.123 E0.0702
G1 X25.356 Y64.730 E0.1129
G1 X25.392 Y64.719 E0.1142
G1 X25.626 Y64.663 E0.1228
G1 X25.662 Y64.656 E0.1242
G1 X26.126 Y64.594 E0.1409
G1 X26.151 Y64.592 E0.1418
G1 X26.307 Y64.582 E0.1474
G1 X26.332 Y64.581 E0.1483
G1 X35.053 Y64.581 E0.4600
G1 X35.081 Y64.582 E0.4611
G1 X35.264 Y64.596 E0.4676
G1 X35.293 Y64.600 E0.4687
G1 X35.742 Y64.670 E0.4849
G1 X35.782 Y64.678 E0.4864
G1 X36.038 Y64.748 E0.4959
G1 X36.076 Y64.761 E0.4973
G1 X37.140 Y65.185 E0.5382
G1 X37.312 Y65.323 E0.5461
G1 X38.126 Y66.522 E0.5980
G1 X38.190 Y66.733 E0.6058
G1 X38.190 Y89.768 E1.4294
G1 X38.078 Y90.038 E1.4398
G1 X36.700 Y91.416 E1.5095
G1 X36.430 Y91.528 E1.5200
G1 X24.864 Y91.528 E1.9335
G1 X24.594 Y91.416 E1.9440
G1 X23.215 Y90.038 E2.0136
G1 X23.104 Y89.768 E2.0241
G1 X23.104 Y66.705 E2.8486
G1 X21.442 Y66.733 F3498
G92 E0
G1 X21.442 Y89.768 E0.8235 F720
G1 X21.330 Y90.038 E0.8340
G1 X19.952 Y91.416 E0.9037
G1 X19.682 Y91.528 E0.9141
G1 X8.116 Y91.528 E1.3277
G1 X7.845 Y91.416 E1.3381
G1 X6.467 Y90.038 E1.4078
G1 X6.355 Y89.768 E1.4183
G1 X6.355 Y66.705 E2.2428
G1 X6.425 Y66.488 E2.2510
G1 X7.296 Y65.261 E2.3048
G1 X7.479 Y65.123 E2.3130
G1 X8.608 Y64.730 E2.3557
G1 X8.643 Y64.719 E2.3570
G1 X8.877 Y64.663 E2.3656
G1 X8.914 Y64.656 E2.3670
G1 X9.378 Y64.594 E2.3837
G1 X9.402 Y64.592 E2.3846
G1 X9.559 Y64.582 E2.3902
G1 X9.583 Y64.581 E2.3911
G1 X18.304 Y64.581 E2.7028
G1 X18.333 Y64.582 E2.7039
G1 X18.516 Y64.596 E2.7104
G1 X18.544 Y64.600 E2.7115
G1 X18.994 Y64.670 E2.7277
G1 X19.034 Y64.678 E2.7292
G1 X19.289 Y64.748 E2.7387
G1 X19.328 Y64.761 E2.7401
G1 X20.392 Y65.185 E2.7810
G1 X20.564 Y65.323 E2.7889
G1 X21.377 Y66.522 E2.8408
G1 X21.442 Y66.733 E2.8486
G1 X20.952 Y66.807 F3498
G92 E0
G1 X20.952 Y89.670 E0.8174 F720
G1 X20.915 Y89.760 E0.8209
G1 X19.674 Y91.001 E0.8836
G1 X19.584 Y91.038 E0.8871
G1 X8.213 Y91.038 E1.2937
G1 X8.123 Y91.001 E1.2972
G1 X6.883 Y89.760 E1.3599
G1 X6.845 Y89.670 E1.3634
G1 X6.845 Y66.782 E2.1817
G1 X6.868 Y66.709 E2.1844
G1 X7.651 Y65.607 E2.2328
G1 X7.712 Y65.561 E2.2355
G1 X8.757 Y65.196 E2.2751
G1 X8.769 Y65.193 E2.2755
G1 X8.979 Y65.143 E2.2832
G1 X8.991 Y65.141 E2.2836
G1 X9.435 Y65.081 E2.2996
G1 X9.443 Y65.080 E2.2999
G1 X9.583 Y65.071 E2.3050
G1 X9.592 Y65.071 E2.3053
G1 X18.295 Y65.071 E2.6164
G1 X18.304 Y65.071 E2.6168
G1 X18.469 Y65.084 E2.6227
G1 X18.478 Y65.085 E2.6230
G1 X18.904 Y65.152 E2.6384
G1 X18.918 Y65.155 E2.6389
G1 X19.147 Y65.217 E2.6474
G1 X19.160 Y65.222 E2.6479
G1 X20.142 Y65.613 E2.6857
G1 X20.200 Y65.659 E2.6883
G1 X20.931 Y66.736 E2.7349
G1 X20.952 Y66.807 E2.7375
G1 X23.594 Y66.782 F3498
G92 E0
G1 X23.617 Y66.709 E0.0027 F720
G1 X24.400 Y65.607 E0.0511
G1 X24.461 Y65.561 E0.0538
G1 X25.506 Y65.196 E0.0934
G1 X25.518 Y65.193 E0.0938
G1 X25.727 Y65.143 E0.1015
G1 X25.739 Y65.141 E0.1020
G1 X26.183 Y65.081 E0.1180
G1 X26.191 Y65.080 E0.1183
G1 X26.332 Y65.071 E0.1233
G1 X26.340 Y65.071 E0.1236
G1 X35.043 Y65.071 E0.4347
G1 X35.053 Y65.071 E0.4351
G1 X35.217 Y65.084 E0.4410
G1 X35.226 Y65.085 E0.4413
G1 X35.653 Y65.152 E0.4567
G1 X35.666 Y65.155 E0.4572
G1 X35.895 Y65.217 E0.4657
G1 X35.908 Y65.222 E0.4662
G1 X36.891 Y65.613 E0.5040
G1 X36.948 Y65.659 E0.5066
G1 X37.679 Y66.736 E0.5532
G1 X37.700 Y66.807 E0.5558
G1 X37.700 Y89.670 E1.3733
G1 X37.663 Y89.760 E1.3768
G1 X36.422 Y91.001 E1.4395
G1 X36.332 Y91.038 E1.4430
G1 X24.961 Y91.038 E1.8495
G1 X24.871 Y91.001 E1.8530
G1 X23.631 Y89.760 E1.9157
G1 X23.594 Y89.670 E1.9192
G1 X23.594 Y66.782 E2.7375
G92 E0
G1 E-6.5000 F4998
; inner perimeter
G1 X27.064 Y68.541 F3498
G1 E0.0000 F4998
G92 E0
G1 X34.230 Y68.541 E0.2562 F600
G1 X34.230 Y84.163 E0.8148
G1 X33.530 Y83.952 E0.8409
G1 X27.458 Y83.952 E1.0580
G1 X27.064 Y84.072 E1.0727
G1 X27.064 Y68.541 E1.6280
; inner perimeter
G1 X26.574 Y68.051 F3498
G92 E0
G1 X34.720 Y68.051 E0.2913 F480
G1 X34.720 Y85.045 E0.8988
G1 X34.194 Y84.664 E0.9221
G1 X33.457 Y84.442 E0.9496
G1 X27.531 Y84.442 E1.1615
G1 X26.574 Y84.735 E1.1973
G1 X26.574 Y68.051 E1.7938
G92 E0
G1 E-6.5000 F4998
G1 X34.720 Y87.480 F3498
G1 E0.0000 F4998
G92 E0
G1 X34.720 Y88.058 E0.0207 F480
G1 X33.914 Y88.058 E0.0495
G1 X34.720 Y87.480 E0.0850
G92 E0
G1 E-6.5000 F4998
; outer perimeter
G1 X26.084 Y67.632 F3498
G1 E0.0000 F4998
G92 E0
G1 X26.201 Y67.591 E0.0044 F360
G1 X26.427 Y67.561 E0.0126
G1 X34.941 Y67.561 E0.3170
G1 X35.123 Y67.589 E0.3236
G1 X35.210 Y67.624 E0.3269
G1 X35.210 Y88.548 E1.0750
G1 X26.084 Y88.548 E1.4013
G1 X26.084 Y67.632 E2.1492
; inner perimeter
; inner perimeter
; outer perimeter
G1 X27.604 Y84.932 F3498
G92 E0
G1 X27.023 Y85.109 E0.0217 F360
G1 X26.757 Y85.305 E0.0335
G1 X26.590 Y85.498 E0.0426
G1 X26.478 Y85.689 E0.0506
G1 X26.404 Y85.880 E0.0579
G1 X26.361 Y86.071 E0.0649
G1 X26.348 Y86.253 E0.0714
G1 X26.360 Y86.443 E0.0782
G1 X26.403 Y86.642 E0.0855
G1 X26.478 Y86.833 E0.0928
G1 X26.590 Y87.025 E0.1008
G1 X26.757 Y87.217 E0.1099
G1 X27.023 Y87.413 E0.1217
G1 X27.604 Y87.591 E0.1434
G1 X33.385 Y87.591 E0.3501
G1 X33.973 Y87.413 E0.3721
G1 X34.243 Y87.218 E0.3840
G1 X34.412 Y87.026 E0.3931
G1 X34.527 Y86.835 E0.4011
G1 X34.602 Y86.643 E0.4085
G1 X34.646 Y86.452 E0.4155
G1 X34.659 Y86.269 E0.4220
G1 X34.646 Y86.071 E0.4291
G1 X34.602 Y85.879 E0.4362
G1 X34.527 Y85.688 E0.4435
G1 X34.412 Y85.496 E0.4515
G1 X34.243 Y85.304 E0.4606
G1 X33.973 Y85.109 E0.4725
G1 X33.385 Y84.932 E0.4945
G1 X27.604 Y84.932 E0.7012
G92 E0
G1 E-6.5000 F4998
; gap fill
G1 X26.505 Y88.111 F3498
G1 E0.0000 F4998
G92 E0
G1 X26.825 Y87.790 E0.0162 F720
G1 X26.831 Y87.795 E0.0165
G1 X27.354 Y87.955 E0.0360
G1 X27.182 Y88.127 E0.0447
G1 X27.875 Y88.127 E0.0695
G1 X27.989 Y88.012 E0.0753
G1 X28.682 Y88.012 E0.1001
G1 X28.568 Y88.127 E0.1059
G1 X29.261 Y88.127 E0.1306
G1 X29.375 Y88.012 E0.1364
G1 X30.068 Y88.012 E0.1612
G1 X29.954 Y88.127 E0.1670
G1 X30.647 Y88.127 E0.1918
G1 X30.761 Y88.012 E0.1976
G1 X31.454 Y88.012 E0.2224
G1 X31.339 Y88.127 E0.2282
G1 X32.032 Y88.127 E0.2529
G1 X32.147 Y88.012 E0.2587
G1 X32.840 Y88.012 E0.2835
G1 X32.725 Y88.127 E0.2893
G92 E0
G1 E-6.5000 F4998
; solid layer
G1 X33.814 Y83.574 F3498
G1 E0.0000 F4998
G92 E0
G1 X33.792 Y83.596 E0.0011 F576
G1 X33.591 Y83.535 E0.0086
G1 X33.159 Y83.535 E0.0240
G1 X33.814 Y82.881 E0.0571
G1 X33.814 Y82.188 E0.0819
G1 X32.466 Y83.535 E0.1500
G1 X31.773 Y83.535 E0.1748
G1 X33.814 Y81.495 E0.2780
G1 X33.814 Y80.802 E0.3028
G1 X31.080 Y83.535 E0.4410
G1 X30.387 Y83.535 E0.4657
G1 X33.814 Y80.109 E0.6390
G1 X33.814 Y79.416 E0.6638
G1 X29.695 Y83.535 E0.8720
G1 X29.002 Y83.535 E0.8968
G1 X33.814 Y78.723 E1.1401
G1 X33.814 Y78.030 E1.1649
G1 X28.309 Y83.535 E1.4433
G1 X27.616 Y83.535 E1.4680
G1 X33.814 Y77.337 E1.7814
G1 X33.814 Y76.644 E1.8062
G1 X27.480 Y82.978 E2.1265
G1 X27.480 Y82.285 E2.1512
G1 X33.814 Y75.951 E2.4715
G1 X33.814 Y75.258 E2.4963
G1 X27.480 Y81.592 E2.8165
G1 X27.480 Y80.899 E2.8413
G1 X33.814 Y74.565 E3.1615
G1 X33.814 Y73.872 E3.1863
G1 X27.480 Y80.206 E3.5066
G1 X27.480 Y79.513 E3.5313
G1 X33.814 Y73.179 E3.8516
G1 X33.814 Y72.486 E3.8764
G1 X27.480 Y78.820 E4.1966
G1 X27.480 Y78.127 E4.2214
G1 X33.814 Y71.793 E4.5416
G1 X33.814 Y71.100 E4.5664
G1 X27.480 Y77.434 E4.8867
G1 X27.480 Y76.741 E4.9115
G1 X33.814 Y70.407 E5.2317
G1 X33.814 Y69.714 E5.2565
G1 X27.480 Y76.048 E5.5767
G1 X27.480 Y75.355 E5.6015
G1 X33.814 Y69.021 E5.9218
G1 X33.814 Y68.957 E5.9240
G1 X33.185 Y68.957 E5.9465
G1 X27.480 Y74.662 E6.2350
G1 X27.480 Y73.969 E6.2598
G1 X32.492 Y68.957 E6.5132
G1 X31.799 Y68.957 E6.5379
G1 X27.480 Y73.276 E6.7563
G1 X27.480 Y72.583 E6.7811
G1 X31.106 Y68.957 E6.9644
G1 X30.413 Y68.957 E6.9892
G1 X27.480 Y71.890 E7.1375
G1 X27.480 Y71.197 E7.1623
G1 X29.720 Y68.957 E7.2755
G1 X29.027 Y68.957 E7.3003
G1 X27.480 Y70.504 E7.3785
G1 X27.480 Y69.811 E7.4033
G1 X28.334 Y68.957 E7.4465
G1 X27.641 Y68.957 E7.4712
G1 X27.480 Y69.118 E7.4794
G92 E0
G1 E-6.5000 F4998
; inner perimeter
G1 X17.482 Y68.541 F3498
G1 E0.0000 F4998
G92 E0
G1 X17.482 Y84.163 E0.5585 F600
G1 X16.781 Y83.952 E0.5847
G1 X10.709 Y83.952 E0.8018
G1 X10.315 Y84.072 E0.8165
G1 X10.315 Y68.541 E1.3718
G1 X17.482 Y68.541 E1.6280
; inner perimeter
G1 X17.972 Y68.051 F3498
G92 E0
G1 X17.972 Y85.045 E0.6076 F480
G1 X17.446 Y84.664 E0.6308
G1 X16.709 Y84.442 E0.6583
G1 X10.783 Y84.442 E0.8702
G1 X9.825 Y84.735 E0.9060
G1 X9.825 Y68.051 E1.5025
G1 X17.972 Y68.051 E1.7938
G1 X17.972 Y87.477 F3498
G92 E0
G1 X17.972 Y88.058 E0.0208 F480
G1 X17.170 Y88.058 E0.0494
G1 X17.972 Y87.477 E0.0848
; outer perimeter
G1 X18.462 Y67.624 F3498
G92 E0
G1 X18.462 Y88.548 E0.7481 F360
G1 X9.335 Y88.548 E1.0744
G1 X9.335 Y67.632 E1.8222
G1 X9.452 Y67.591 E1.8266
G1 X9.678 Y67.561 E1.8348
G1 X18.193 Y67.561 E2.1392
G1 X18.375 Y67.589 E2.1458
G1 X18.462 Y67.624 E2.1492
; inner perimeter
; inner perimeter
; outer perimeter
G1 X17.225 Y85.109 F3498
G92 E0
G1 X16.637 Y84.932 E0.0220 F360
G1 X10.856 Y84.932 E0.2286
G1 X10.275 Y85.109 E0.2504
G1 X10.009 Y85.305 E0.2622
