; G-Code generated by Simplify3D(R) Version 3.0.0
; Feb 21, 2018 at 4:48:14 
; Settings Summary
;   processName,Process1
;   applyToModels,stopper_2mm,stopper_2mm(2),stopper_2mm(3),stopper_2mm(4)
;   profileName,Renkforce (modified)
;   profileVersion,2017-10-17 11:10:50
;   baseProfile,German RepRap NEO (modified)
;   printMaterial,
;   printQuality,
;   printExtruders,
;   extruderName,Primary Extruder
;   extruderToolheadNumber,0
;   extruderDiameter,0.5
;   extruderAutoWidth,0
;   extruderWidth,0.49
;   extrusionMultiplier,0.94
;   extruderUseRetract,1
;   extruderRetractionDistance,6.5
;   extruderExtraRestartDistance,0
;   extruderRetractionZLift,0
;   extruderRetractionSpeed,4998
;   extruderUseCoasting,0
;   extruderCoastingDistance,0.2
;   extruderUseWipe,0
;   extruderWipeDistance,5
;   primaryExtruder,0
;   layerHeight,0.2
;   topSolidLayers,4
;   bottomSolidLayers,3
;   perimeterOutlines,3
;   printPerimetersInsideOut,1
;   startPointOption,2
;   startPointOriginX,0
;   startPointOriginY,0
;   startPointOriginZ,300
;   sequentialIslands,0
;   spiralVaseMode,0
;   firstLayerHeightPercentage,100
;   firstLayerWidthPercentage,100
;   firstLayerUnderspeed,0.28
;   useRaft,0
;   raftExtruder,0
;   raftLayers,3
;   raftOffset,3
;   raftSeparationDistance,0.1
;   raftInfill,85
;   disableRaftBaseLayers,0
;   useSkirt,1
;   skirtExtruder,0
;   skirtLayers,1
;   skirtOutlines,7
;   skirtOffset,3
;   usePrimePillar,0
;   primePillarExtruder,999
;   primePillarWidth,12
;   primePillarLocation,7
;   primePillarSpeedMultiplier,1
;   useOozeShield,0
;   oozeShieldExtruder,999
;   oozeShieldOffset,2
;   oozeShieldOutlines,1
;   oozeShieldSidewallShape,1
;   oozeShieldSidewallAngle,30
;   oozeShieldSpeedMultiplier,1
;   infillExtruder,0
;   internalInfillPattern,Full Honeycomb
;   externalInfillPattern,Rectilinear
;   infillPercentage,15
;   outlineOverlapPercentage,15
;   infillExtrusionWidthPercentage,100
;   minInfillLength,3
;   infillLayerInterval,1
;   infillAngles,0,120,-120
;   overlapInfillAngles,0
;   generateSupport,0
;   supportExtruder,0
;   supportInfillPercentage,30
;   supportExtraInflation,0
;   denseSupportLayers,0
;   denseSupportInfillPercentage,75
;   supportLayerInterval,1
;   supportHorizontalPartOffset,1.5
;   supportUpperSeparationLayers,2
;   supportLowerSeparationLayers,2
;   supportType,0
;   supportGridSpacing,5
;   maxOverhangAngle,45
;   supportAngles,45
;   temperatureName,Primary Extruder
;   temperatureNumber,0
;   temperatureSetpointCount,3
;   temperatureSetpointLayers,1,2,3
;   temperatureSetpointTemperatures,197,193,189
;   temperatureStabilizeAtStartup,1
;   temperatureHeatedBed,0
;   temperatureRelayBetweenLayers,0
;   temperatureRelayBetweenLoops,0
;   fanLayers,1,3
;   fanSpeeds,0,80
;   blipFanToFullPower,0
;   adjustSpeedForCooling,1
;   minSpeedLayerTime,15
;   minCoolingSpeedSlowdown,20
;   increaseFanForCooling,0
;   minFanLayerTime,45
;   maxCoolingFanSpeed,100
;   increaseFanForBridging,0
;   bridgingFanSpeed,100
;   use5D,1
;   relativeEdistances,0
;   allowEaxisZeroing,1
;   independentExtruderAxes,0
;   includeM10123,0
;   stickySupport,1
;   applyToolheadOffsets,0
;   gcodeXoffset,0
;   gcodeYoffset,0
;   gcodeZoffset,0
;   overrideMachineDefinition,1
;   machineTypeOverride,0
;   strokeXoverride,150
;   strokeYoverride,150
;   strokeZoverride,150
;   originOffsetXoverride,0
;   originOffsetYoverride,0
;   originOffsetZoverride,0
;   homeXdirOverride,-1
;   homeYdirOverride,-1
;   homeZdirOverride,-1
;   flipXoverride,1
;   flipYoverride,-1
;   flipZoverride,1
;   toolheadOffsets,0,0|0,0|0,0|0,0|0,0|0,0
;   overrideFirmwareConfiguration,0
;   firmwareTypeOverride,RepRap (Marlin/Repetier/Sprinter)
;   GPXconfigOverride,r2
;   baudRateOverride,115200
;   overridePrinterModels,0
;   printerModelsOverride
;   startingGcode,G28 ; home all axes
;   layerChangeGcode,
;   retractionGcode,
;   toolChangeGcode,
;   endingGcode,M104 S0 ; turn off extruder,M140 S0 ; turn off bed,G28 X0  ; home X axis,G28 Y0  ; home Y axis,M84 ; disable motors,M107
;   createX3G,0
;   celebration,0
;   celebrationSong,Random Song
;   createMB5G,0
;   postProcessing,
;   defaultSpeed,1800
;   outlineUnderspeed,0.5
;   solidInfillUnderspeed,0.8
;   supportUnderspeed,0.8
;   rapidXYspeed,3498
;   rapidZspeed,1002
;   minBridgingArea,50
;   bridgingExtraInflation,0
;   bridgingExtrusionMultiplier,1
;   bridgingSpeedMultiplier,1
;   filamentDiameter,1.75
;   filamentPricePerKg,46
;   filamentDensity,1.25
;   useMinPrintHeight,0
;   minPrintHeight,0
;   useMaxPrintHeight,0
;   maxPrintHeight,0
;   useDiaphragm,0
;   diaphragmLayerInterval,20
;   robustSlicing,1
;   mergeAllIntoSolid,0
;   onlyRetractWhenCrossingOutline,1
;   retractBetweenLayers,1
;   useRetractionMinTravel,0
;   retractionMinTravel,3
;   retractWhileWiping,0
;   onlyWipeOutlines,1
;   avoidCrossingOutline,0
;   maxMovementDetourFactor,10
;   toolChangeRetractionDistance,0
;   toolChangeExtraRestartDistance,0
;   toolChangeRetractionSpeed,360
;   allowThinWallGapFill,1
;   thinWallAllowedOverlapPercentage,10
;   horizontalSizeCompensation,0
G90
M82
M106 S0
M104 S197 T0
M109 S197 T0
G28 ; home all axes
G92 E0
G1 E-6.5000 F4998
G1 Z0.200 F1002
; layer 1, Z = 0.2
T0
; tool H0.200 W0.490
; skirt
G1 X16.469 Y10.890 F3498
G1 E0.0000 F1499
G92 E0
G1 X19.122 Y8.237 E0.1437 F504
G1 X20.293 Y7.752 E0.1922
G1 X32.045 Y7.752 E0.6423
G1 X33.169 Y8.218 E0.6889
G1 X34.293 Y7.752 E0.7355
G1 X46.045 Y7.752 E1.1856
G1 X47.169 Y8.218 E1.2322
G1 X48.293 Y7.752 E1.2788
G1 X60.045 Y7.752 E1.7289
G1 X61.169 Y8.218 E1.7755
G1 X62.293 Y7.752 E1.8221
G1 X74.045 Y7.752 E2.2722
G1 X75.216 Y8.237 E2.3207
G1 X77.869 Y10.890 E2.4644
G1 X78.354 Y12.061 E2.5129
G1 X78.354 Y21.313 E2.8673
G1 X77.869 Y22.484 E2.9158
G1 X75.216 Y25.137 E3.0595
G1 X74.045 Y25.622 E3.1081
G1 X62.293 Y25.622 E3.5582
G1 X61.169 Y25.157 E3.6048
G1 X60.045 Y25.622 E3.6513
G1 X48.293 Y25.622 E4.1015
G1 X47.169 Y25.157 E4.1480
G1 X46.045 Y25.622 E4.1946
G1 X34.293 Y25.622 E4.6447
G1 X33.169 Y25.157 E4.6913
G1 X32.045 Y25.622 E4.7379
G1 X20.293 Y25.622 E5.1880
G1 X19.122 Y25.137 E5.2365
G1 X16.469 Y22.484 E5.3803
G1 X15.984 Y21.313 E5.4288
G1 X15.984 Y12.061 E5.7831
G1 X16.469 Y10.890 E5.8317
G1 X16.884 Y11.168 F3498
G92 E0
G1 X19.399 Y8.653 E0.1362 F504
G1 X20.390 Y8.242 E0.1773
G1 X31.947 Y8.242 E0.6199
G1 X32.938 Y8.653 E0.6610
G1 X33.169 Y8.883 E0.6735
G1 X33.399 Y8.653 E0.6860
G1 X34.390 Y8.242 E0.7271
G1 X45.947 Y8.242 E1.1697
G1 X46.938 Y8.653 E1.2108
G1 X47.169 Y8.883 E1.2233
G1 X47.399 Y8.653 E1.2358
G1 X48.390 Y8.242 E1.2768
G1 X59.947 Y8.242 E1.7195
G1 X60.938 Y8.653 E1.7605
G1 X61.169 Y8.883 E1.7730
G1 X61.399 Y8.653 E1.7855
G1 X62.390 Y8.242 E1.8266
G1 X73.947 Y8.242 E2.2692
G1 X74.938 Y8.653 E2.3103
G1 X77.453 Y11.168 E2.4465
G1 X77.864 Y12.159 E2.4876
G1 X77.864 Y21.216 E2.8345
G1 X77.453 Y22.206 E2.8755
G1 X74.938 Y24.722 E3.0118
G1 X73.947 Y25.132 E3.0529
G1 X62.390 Y25.132 E3.4955
G1 X61.399 Y24.722 E3.5366
G1 X61.169 Y24.491 E3.5491
G1 X60.938 Y24.722 E3.5616
G1 X59.947 Y25.132 E3.6026
G1 X48.390 Y25.132 E4.0453
G1 X47.399 Y24.722 E4.0863
G1 X47.169 Y24.491 E4.0988
G1 X46.938 Y24.722 E4.1113
G1 X45.947 Y25.132 E4.1524
G1 X34.390 Y25.132 E4.5950
G1 X33.399 Y24.722 E4.6361
G1 X33.169 Y24.491 E4.6486
G1 X32.938 Y24.722 E4.6611
G1 X31.947 Y25.132 E4.7021
G1 X20.390 Y25.132 E5.1448
G1 X19.399 Y24.722 E5.1858
G1 X16.884 Y22.206 E5.3221
G1 X16.474 Y21.216 E5.3631
G1 X16.474 Y12.159 E5.7100
G1 X16.884 Y11.168 E5.7511
G1 X17.299 Y11.446 F3498
G92 E0
G1 X19.677 Y9.068 E0.1288 F504
G1 X20.487 Y8.732 E0.1624
G1 X31.850 Y8.732 E0.5975
G1 X32.660 Y9.068 E0.6311
G1 X33.169 Y9.576 E0.6587
G1 X33.677 Y9.068 E0.6862
G1 X34.487 Y8.732 E0.7198
G1 X45.850 Y8.732 E1.1550
G1 X46.660 Y9.068 E1.1886
G1 X47.169 Y9.576 E1.2161
G1 X47.677 Y9.068 E1.2436
G1 X48.487 Y8.732 E1.2772
G1 X59.850 Y8.732 E1.7124
G1 X60.660 Y9.068 E1.7460
G1 X61.169 Y9.576 E1.7735
G1 X61.677 Y9.068 E1.8011
G1 X62.487 Y8.732 E1.8347
G1 X73.850 Y8.732 E2.2698
G1 X74.660 Y9.068 E2.3034
G1 X77.038 Y11.446 E2.4322
G1 X77.374 Y12.256 E2.4658
G1 X77.374 Y21.119 E2.8052
G1 X77.038 Y21.929 E2.8388
G1 X74.660 Y24.307 E2.9676
G1 X73.850 Y24.642 E3.0012
G1 X62.487 Y24.642 E3.4364
G1 X61.677 Y24.307 E3.4700
G1 X61.169 Y23.798 E3.4975
G1 X60.660 Y24.307 E3.5250
G1 X59.850 Y24.642 E3.5586
G1 X48.487 Y24.642 E3.9938
G1 X47.677 Y24.307 E4.0274
G1 X47.169 Y23.798 E4.0549
G1 X46.660 Y24.307 E4.0825
G1 X45.850 Y24.642 E4.1161
G1 X34.487 Y24.642 E4.5512
G1 X33.677 Y24.307 E4.5848
G1 X33.169 Y23.798 E4.6124
G1 X32.660 Y24.307 E4.6399
G1 X31.850 Y24.642 E4.6735
G1 X20.487 Y24.642 E5.1087
G1 X19.677 Y24.307 E5.1423
G1 X17.299 Y21.929 E5.2710
G1 X16.964 Y21.119 E5.3046
G1 X16.964 Y12.256 E5.6441
G1 X17.299 Y11.446 E5.6777
G1 X17.715 Y11.723 F3498
G92 E0
G1 X19.955 Y9.483 E0.1213 F504
G1 X20.585 Y9.222 E0.1474
G1 X31.752 Y9.222 E0.5752
G1 X32.383 Y9.483 E0.6013
G1 X33.169 Y10.269 E0.6438
G1 X33.955 Y9.483 E0.6864
G1 X34.585 Y9.222 E0.7125
G1 X45.752 Y9.222 E1.1403
G1 X46.383 Y9.483 E1.1664
G1 X47.169 Y10.269 E1.2089
G1 X47.955 Y9.483 E1.2515
G1 X48.585 Y9.222 E1.2776
G1 X59.752 Y9.222 E1.7053
G1 X60.383 Y9.483 E1.7315
G1 X61.169 Y10.269 E1.7740
G1 X61.955 Y9.483 E1.8166
G1 X62.585 Y9.222 E1.8427
G1 X73.752 Y9.222 E2.2704
G1 X74.383 Y9.483 E2.2966
G1 X76.623 Y11.723 E2.4179
G1 X76.884 Y12.354 E2.4440
G1 X76.884 Y21.021 E2.7760
G1 X76.623 Y21.651 E2.8021
G1 X74.383 Y23.891 E2.9234
G1 X73.752 Y24.152 E2.9496
G1 X62.585 Y24.152 E3.3773
G1 X61.955 Y23.891 E3.4034
G1 X61.169 Y23.105 E3.4460
G1 X60.383 Y23.891 E3.4885
G1 X59.752 Y24.152 E3.5147
G1 X48.585 Y24.152 E3.9424
G1 X47.955 Y23.891 E3.9685
G1 X47.169 Y23.105 E4.0111
G1 X46.383 Y23.891 E4.0536
G1 X45.752 Y24.152 E4.0798
G1 X34.585 Y24.152 E4.5075
G1 X33.955 Y23.891 E4.5336
G1 X33.169 Y23.105 E4.5762
G1 X32.383 Y23.891 E4.6187
G1 X31.752 Y24.152 E4.6449
G1 X20.585 Y24.152 E5.0726
G1 X19.955 Y23.891 E5.0987
G1 X17.715 Y21.651 E5.2200
G1 X17.454 Y21.021 E5.2461
G1 X17.454 Y12.354 E5.5781
G1 X17.715 Y11.723 E5.6042
G1 X18.130 Y12.001 F3498
G92 E0
G1 X20.232 Y9.899 E0.1138 F504
G1 X20.682 Y9.712 E0.1325
G1 X31.655 Y9.712 E0.5528
G1 X32.105 Y9.899 E0.5714
G1 X33.169 Y10.962 E0.6290
G1 X34.232 Y9.899 E0.6866
G1 X34.682 Y9.712 E0.7053
G1 X45.655 Y9.712 E1.1255
G1 X46.105 Y9.899 E1.1442
G1 X47.169 Y10.962 E1.2018
G1 X48.232 Y9.899 E1.2594
G1 X48.682 Y9.712 E1.2781
G1 X59.655 Y9.712 E1.6983
G1 X60.105 Y9.899 E1.7170
G1 X61.169 Y10.962 E1.7746
G1 X62.232 Y9.899 E1.8322
G1 X62.682 Y9.712 E1.8508
G1 X73.655 Y9.712 E2.2711
G1 X74.105 Y9.899 E2.2897
G1 X76.207 Y12.001 E2.4036
G1 X76.394 Y12.451 E2.4222
G1 X76.394 Y20.924 E2.7467
G1 X76.207 Y21.374 E2.7654
G1 X74.105 Y23.476 E2.8792
G1 X73.655 Y23.662 E2.8979
G1 X62.682 Y23.662 E3.3181
G1 X62.232 Y23.476 E3.3368
G1 X61.169 Y22.412 E3.3944
G1 X60.105 Y23.476 E3.4520
G1 X59.655 Y23.662 E3.4707
G1 X48.682 Y23.662 E3.8909
G1 X48.232 Y23.476 E3.9096
G1 X47.169 Y22.412 E3.9672
G1 X46.105 Y23.476 E4.0248
G1 X45.655 Y23.662 E4.0434
G1 X34.682 Y23.662 E4.4637
G1 X34.232 Y23.476 E4.4824
G1 X33.169 Y22.412 E4.5400
G1 X32.105 Y23.476 E4.5975
G1 X31.655 Y23.662 E4.6162
G1 X20.682 Y23.662 E5.0365
G1 X20.232 Y23.476 E5.0551
G1 X18.130 Y21.374 E5.1690
G1 X17.944 Y20.924 E5.1876
G1 X17.944 Y12.451 E5.5121
G1 X18.130 Y12.001 E5.5308
G1 X18.546 Y12.278 F3498
G92 E0
G1 X20.510 Y10.314 E0.1064 F504
G1 X20.780 Y10.202 E0.1176
G1 X31.558 Y10.202 E0.5304
G1 X31.828 Y10.314 E0.5416
G1 X33.169 Y11.655 E0.6142
G1 X34.510 Y10.314 E0.6868
G1 X34.780 Y10.202 E0.6980
G1 X45.558 Y10.202 E1.1108
G1 X45.828 Y10.314 E1.1220
G1 X47.169 Y11.655 E1.1946
G1 X48.510 Y10.314 E1.2673
G1 X48.780 Y10.202 E1.2785
G1 X59.558 Y10.202 E1.6912
G1 X59.828 Y10.314 E1.7024
G1 X61.169 Y11.655 E1.7751
G1 X62.510 Y10.314 E1.8477
G1 X62.780 Y10.202 E1.8589
G1 X73.558 Y10.202 E2.2717
G1 X73.828 Y10.314 E2.2829
G1 X75.792 Y12.278 E2.3893
G1 X75.904 Y12.548 E2.4005
G1 X75.904 Y20.826 E2.7175
G1 X75.792 Y21.096 E2.7287
G1 X73.828 Y23.060 E2.8351
G1 X73.558 Y23.172 E2.8463
G1 X62.780 Y23.172 E3.2590
G1 X62.510 Y23.060 E3.2702
G1 X61.169 Y21.719 E3.3429
G1 X59.828 Y23.060 E3.4155
G1 X59.558 Y23.172 E3.4267
G1 X48.780 Y23.172 E3.8395
G1 X48.510 Y23.060 E3.8507
G1 X47.169 Y21.719 E3.9233
G1 X45.828 Y23.060 E3.9959
G1 X45.558 Y23.172 E4.0071
G1 X34.780 Y23.172 E4.4199
G1 X34.510 Y23.060 E4.4311
G1 X33.169 Y21.719 E4.5037
G1 X31.828 Y23.060 E4.5764
G1 X31.558 Y23.172 E4.5876
G1 X20.780 Y23.172 E5.0004
G1 X20.510 Y23.060 E5.0116
G1 X18.546 Y21.096 E5.1179
G1 X18.434 Y20.826 E5.1291
G1 X18.434 Y12.548 E5.4462
G1 X18.546 Y12.278 E5.4574
G1 X18.961 Y12.556 F3498
G92 E0
G1 X20.787 Y10.730 E0.0989 F504
G1 X20.877 Y10.692 E0.1026
G1 X31.460 Y10.692 E0.5080
G1 X31.550 Y10.730 E0.5117
G1 X33.169 Y12.348 E0.5994
G1 X34.787 Y10.730 E0.6870
G1 X34.877 Y10.692 E0.6908
G1 X45.460 Y10.692 E1.0961
G1 X45.550 Y10.730 E1.0998
G1 X47.169 Y12.348 E1.1875
G1 X48.787 Y10.730 E1.2751
G1 X48.877 Y10.692 E1.2789
G1 X59.460 Y10.692 E1.6842
G1 X59.550 Y10.730 E1.6879
G1 X61.169 Y12.348 E1.7756
G1 X62.787 Y10.730 E1.8632
G1 X62.877 Y10.692 E1.8670
G1 X73.460 Y10.692 E2.2723
G1 X73.550 Y10.730 E2.2760
G1 X75.376 Y12.556 E2.3749
G1 X75.414 Y12.646 E2.3787
G1 X75.414 Y20.729 E2.6882
G1 X75.376 Y20.819 E2.6920
G1 X73.550 Y22.645 E2.7909
G1 X73.460 Y22.682 E2.7946
G1 X62.877 Y22.682 E3.1999
G1 X62.787 Y22.645 E3.2037
G1 X61.169 Y21.026 E3.2913
G1 X59.550 Y22.645 E3.3790
G1 X59.460 Y22.682 E3.3827
G1 X48.877 Y22.682 E3.7880
G1 X48.787 Y22.645 E3.7918
G1 X47.169 Y21.026 E3.8794
G1 X45.550 Y22.645 E3.9671
G1 X45.460 Y22.682 E3.9708
G1 X34.877 Y22.682 E4.3761
G1 X34.787 Y22.645 E4.3799
G1 X33.169 Y21.026 E4.4675
G1 X31.550 Y22.645 E4.5552
G1 X31.460 Y22.682 E4.5589
G1 X20.877 Y22.682 E4.9642
G1 X20.787 Y22.645 E4.9680
G1 X18.961 Y20.819 E5.0669
G1 X18.924 Y20.729 E5.0706
G1 X18.924 Y12.646 E5.3802
G1 X18.961 Y12.556 E5.3839
G92 E0
G1 E-6.5000 F4998
; inner perimeter
G1 X23.394 Y15.162 F3498
G1 E0.0000 F4998
G92 E0
G1 X28.944 Y15.162 E0.2126 F420
G1 X28.944 Y18.212 E0.3294
G1 X23.394 Y18.212 E0.5419
G1 X23.394 Y15.162 E0.6587
; inner perimeter
G1 X22.904 Y14.672 F3498
G92 E0
G1 X29.434 Y14.672 E0.2501 F336
G1 X29.434 Y18.702 E0.4044
G1 X22.904 Y18.702 E0.6545
G1 X22.904 Y14.672 E0.8089
; outer perimeter
G1 X22.414 Y14.182 F3498
G92 E0
G1 X29.924 Y14.182 E0.2876 F252
G1 X29.924 Y19.192 E0.4795
G1 X22.414 Y19.192 E0.7671
G1 X22.414 Y14.182 E0.9590
; solid layer
G1 X23.810 Y15.792 F3498
G92 E0
G1 X24.023 Y15.579 E0.0116 F403
G1 X24.716 Y15.579 E0.0381
G1 X23.810 Y16.485 E0.0872
G1 X23.810 Y17.178 E0.1137
G1 X25.409 Y15.579 E0.2003
G1 X26.102 Y15.579 E0.2269
G1 X23.885 Y17.796 E0.3470
G1 X24.578 Y17.796 E0.3735
G1 X26.795 Y15.579 E0.4936
G1 X27.488 Y15.579 E0.5201
G1 X25.271 Y17.796 E0.6402
G1 X25.964 Y17.796 E0.6667
G1 X28.181 Y15.579 E0.7868
G1 X28.527 Y15.579 E0.8001
G1 X28.527 Y15.926 E0.8134
G1 X26.657 Y17.796 E0.9146
G1 X27.350 Y17.796 E0.9412
G1 X28.527 Y16.619 E1.0049
G1 X28.527 Y17.312 E1.0315
G1 X28.043 Y17.796 E1.0577
G92 E0
G1 E-6.5000 F4998
; inner perimeter
G1 X37.394 Y18.212 F3498
G1 E0.0000 F4998
G92 E0
G1 X37.394 Y15.162 E0.1168 F420
G1 X42.944 Y15.162 E0.3294
G1 X42.944 Y18.212 E0.4462
G1 X37.394 Y18.212 E0.6587
; inner perimeter
G1 X36.904 Y18.702 F3498
G92 E0
G1 X36.904 Y14.672 E0.1543 F336
G1 X43.434 Y14.672 E0.4044
G1 X43.434 Y18.702 E0.5588
G1 X36.904 Y18.702 E0.8089
; outer perimeter
G1 X36.414 Y19.192 F3498
G92 E0
G1 X36.414 Y14.182 E0.1919 F252
G1 X43.924 Y14.182 E0.4795
G1 X43.924 Y19.192 E0.6714
G1 X36.414 Y19.192 E0.9590
; solid layer
G1 X37.810 Y15.651 F3498
G92 E0
G1 X37.883 Y15.579 E0.0039 F403
G1 X38.576 Y15.579 E0.0305
G1 X37.810 Y16.344 E0.0719
G1 X37.810 Y17.037 E0.0985
G1 X39.269 Y15.579 E0.1775
G1 X39.962 Y15.579 E0.2040
G1 X37.810 Y17.730 E0.3205
G1 X37.810 Y17.796 E0.3230
G1 X38.438 Y17.796 E0.3471
G1 X40.655 Y15.579 E0.4672
G1 X41.348 Y15.579 E0.4937
G1 X39.131 Y17.796 E0.6138
G1 X39.824 Y17.796 E0.6403
G1 X42.041 Y15.579 E0.7604
G1 X42.527 Y15.579 E0.7790
G1 X42.527 Y15.785 E0.7869
G1 X40.517 Y17.796 E0.8958
