; G-Code generated by Simplify3D(R) Version 3.0.0
; Aug 27, 2017 at 4:29:33 
; Settings Summary
;   processName,Process1
;   applyToModels,verriegelung_schlitt
;   profileName,juli (modified)
;   profileVersion,2017-06-09 12:06:14
;   baseProfile,German RepRap NEO (modified)
;   printMaterial,
;   printQuality,
;   printExtruders,
;   extruderName,Primary Extruder
;   extruderToolheadNumber,0
;   extruderDiameter,0.5
;   extruderAutoWidth,0
;   extruderWidth,0.49
;   extrusionMultiplier,0.9
;   extruderUseRetract,1
;   extruderRetractionDistance,6.5
;   extruderExtraRestartDistance,0
;   extruderRetractionZLift,0
;   extruderRetractionSpeed,5000
;   extruderUseCoasting,0
;   extruderCoastingDistance,0.2
;   extruderUseWipe,0
;   extruderWipeDistance,5
;   primaryExtruder,0
;   layerHeight,0.1
;   topSolidLayers,4
;   bottomSolidLayers,3
;   perimeterOutlines,3
;   printPerimetersInsideOut,1
;   startPointOption,2
;   startPointOriginX,0
;   startPointOriginY,0
;   startPointOriginZ,300
;   sequentialIslands,0
;   spiralVaseMode,0
;   firstLayerHeightPercentage,200
;   firstLayerWidthPercentage,100
;   firstLayerUnderspeed,0.3
;   useRaft,0
;   raftExtruder,0
;   raftLayers,3
;   raftOffset,3
;   raftSeparationDistance,0.1
;   raftInfill,85
;   disableRaftBaseLayers,0
;   useSkirt,1
;   skirtExtruder,0
;   skirtLayers,1
;   skirtOutlines,5
;   skirtOffset,2
;   usePrimePillar,0
;   primePillarExtruder,999
;   primePillarWidth,12
;   primePillarLocation,7
;   primePillarSpeedMultiplier,1
;   useOozeShield,0
;   oozeShieldExtruder,999
;   oozeShieldOffset,2
;   oozeShieldOutlines,1
;   oozeShieldSidewallShape,1
;   oozeShieldSidewallAngle,30
;   oozeShieldSpeedMultiplier,1
;   infillExtruder,0
;   internalInfillPattern,Full Honeycomb
;   externalInfillPattern,Rectilinear
;   infillPercentage,20
;   outlineOverlapPercentage,15
;   infillExtrusionWidthPercentage,100
;   minInfillLength,3
;   infillLayerInterval,1
;   infillAngles,0,120,-120
;   overlapInfillAngles,0
;   generateSupport,0
;   supportExtruder,0
;   supportInfillPercentage,30
;   supportExtraInflation,0
;   denseSupportLayers,0
;   denseSupportInfillPercentage,75
;   supportLayerInterval,1
;   supportHorizontalPartOffset,2
;   supportUpperSeparationLayers,2
;   supportLowerSeparationLayers,2
;   supportType,0
;   supportGridSpacing,4
;   maxOverhangAngle,45
;   supportAngles,45
;   temperatureName,Primary Extruder
;   temperatureNumber,0
;   temperatureSetpointCount,3
;   temperatureSetpointLayers,1,2,3
;   temperatureSetpointTemperatures,207,199,192
;   temperatureStabilizeAtStartup,1
;   temperatureHeatedBed,0
;   temperatureRelayBetweenLayers,0
;   temperatureRelayBetweenLoops,0
;   fanLayers,1,3
;   fanSpeeds,0,100
;   blipFanToFullPower,0
;   adjustSpeedForCooling,1
;   minSpeedLayerTime,15
;   minCoolingSpeedSlowdown,20
;   increaseFanForCooling,0
;   minFanLayerTime,45
;   maxCoolingFanSpeed,100
;   increaseFanForBridging,0
;   bridgingFanSpeed,100
;   use5D,1
;   relativeEdistances,0
;   allowEaxisZeroing,1
;   independentExtruderAxes,0
;   includeM10123,0
;   stickySupport,1
;   applyToolheadOffsets,0
;   gcodeXoffset,0
;   gcodeYoffset,0
;   gcodeZoffset,0
;   overrideMachineDefinition,1
;   machineTypeOverride,0
;   strokeXoverride,150
;   strokeYoverride,150
;   strokeZoverride,150
;   originOffsetXoverride,0
;   originOffsetYoverride,0
;   originOffsetZoverride,0
;   homeXdirOverride,-1
;   homeYdirOverride,-1
;   homeZdirOverride,-1
;   flipXoverride,1
;   flipYoverride,-1
;   flipZoverride,1
;   toolheadOffsets,0,0|0,0|0,0|0,0|0,0|0,0
;   overrideFirmwareConfiguration,0
;   firmwareTypeOverride,RepRap (Marlin/Repetier/Sprinter)
;   GPXconfigOverride,r2
;   baudRateOverride,115200
;   overridePrinterModels,0
;   printerModelsOverride
;   startingGcode,G28 ; home all axes
;   layerChangeGcode,
;   retractionGcode,
;   toolChangeGcode,
;   endingGcode,M104 S0 ; turn off extruder,M140 S0 ; turn off bed,G28 X0  ; home X axis,G28 Y0  ; home Y axis,M84 ; disable motors,M107
;   createX3G,0
;   celebration,0
;   celebrationSong,Random Song
;   createMB5G,0
;   postProcessing,
;   defaultSpeed,2400
;   outlineUnderspeed,0.5
;   solidInfillUnderspeed,0.8
;   supportUnderspeed,0.8
;   rapidXYspeed,3500
;   rapidZspeed,1000
;   minBridgingArea,50
;   bridgingExtraInflation,0
;   bridgingExtrusionMultiplier,1
;   bridgingSpeedMultiplier,1
;   filamentDiameter,1.75
;   filamentPricePerKg,46
;   filamentDensity,1.25
;   useMinPrintHeight,0
;   minPrintHeight,0
;   useMaxPrintHeight,0
;   maxPrintHeight,0
;   useDiaphragm,0
;   diaphragmLayerInterval,20
;   robustSlicing,1
;   mergeAllIntoSolid,0
;   onlyRetractWhenCrossingOutline,1
;   retractBetweenLayers,1
;   useRetractionMinTravel,0
;   retractionMinTravel,3
;   retractWhileWiping,0
;   onlyWipeOutlines,1
;   avoidCrossingOutline,0
;   maxMovementDetourFactor,10
;   toolChangeRetractionDistance,0
;   toolChangeExtraRestartDistance,0
;   toolChangeRetractionSpeed,360
;   allowThinWallGapFill,1
;   thinWallAllowedOverlapPercentage,10
;   horizontalSizeCompensation,0
G90
M82
M106 S0
M104 S207 T0
M109 S207 T0
G28 ; home all axes
G92 E0
G1 E-6.5000 F5000
G1 Z0.200 F1000
; layer 1, Z = 0.2
T0
; tool H0.200 W0.490
; skirt
G1 X54.257 Y64.552 F3500
G1 E0.0000 F1500
G92 E0
G1 X55.067 Y64.216 E0.0322 F720
G1 X61.101 Y64.216 E0.2534
G1 X61.912 Y64.552 E0.2856
G1 X63.704 Y66.343 E0.3785
G1 X64.039 Y67.154 E0.4107
G1 X64.039 Y74.374 E0.6754
G1 X85.961 Y74.374 E1.4793
G1 X85.961 Y67.154 E1.7441
G1 X86.296 Y66.343 E1.7762
G1 X88.088 Y64.552 E1.8691
G1 X88.899 Y64.216 E1.9013
G1 X94.933 Y64.216 E2.1226
G1 X95.743 Y64.552 E2.1547
G1 X97.535 Y66.343 E2.2477
G1 X97.871 Y67.154 E2.2798
G1 X97.871 Y82.846 E2.8553
G1 X97.535 Y83.657 E2.8874
G1 X95.743 Y85.448 E2.9803
G1 X94.933 Y85.784 E3.0125
G1 X55.067 Y85.784 E4.4743
G1 X54.257 Y85.448 E4.5065
G1 X52.465 Y83.657 E4.5994
G1 X52.129 Y82.846 E4.6316
G1 X52.129 Y67.154 E5.2070
G1 X52.465 Y66.343 E5.2392
G1 X54.257 Y64.552 E5.3321
G1 X54.534 Y64.967 F3500
G92 E0
G1 X55.165 Y64.706 E0.0250 F720
G1 X61.004 Y64.706 E0.2391
G1 X61.634 Y64.967 E0.2642
G1 X63.288 Y66.621 E0.3499
G1 X63.549 Y67.251 E0.3749
G1 X63.549 Y74.864 E0.6541
G1 X75.020 Y74.864 E1.0747
G1 X75.025 Y74.866 E1.0749
G1 X75.030 Y74.864 E1.0751
G1 X86.451 Y74.864 E1.4939
G1 X86.451 Y67.251 E1.7731
G1 X86.712 Y66.621 E1.7981
G1 X88.366 Y64.967 E1.8839
G1 X88.996 Y64.706 E1.9089
G1 X94.835 Y64.706 E2.1230
G1 X95.466 Y64.967 E2.1480
G1 X97.120 Y66.621 E2.2338
G1 X97.381 Y67.251 E2.2588
G1 X97.381 Y82.749 E2.8271
G1 X97.120 Y83.379 E2.8521
G1 X95.466 Y85.033 E2.9379
G1 X94.835 Y85.294 E2.9629
G1 X75.030 Y85.294 E3.6891
G1 X75.025 Y85.292 E3.6893
G1 X75.020 Y85.294 E3.6895
G1 X55.165 Y85.294 E4.4176
G1 X54.534 Y85.033 E4.4426
G1 X52.880 Y83.379 E4.5284
G1 X52.619 Y82.749 E4.5534
G1 X52.619 Y67.251 E5.1217
G1 X52.880 Y66.621 E5.1467
G1 X54.534 Y64.967 E5.2325
G1 X54.812 Y65.382 F3500
G92 E0
G1 X55.262 Y65.196 E0.0179 F720
G1 X60.906 Y65.196 E0.2248
G1 X61.357 Y65.382 E0.2427
G1 X62.873 Y66.899 E0.3213
G1 X63.059 Y67.349 E0.3392
G1 X63.059 Y75.354 E0.6328
G1 X74.922 Y75.354 E1.0678
G1 X75.025 Y75.397 E1.0718
G1 X75.128 Y75.354 E1.0759
G1 X86.941 Y75.354 E1.5091
G1 X86.941 Y67.349 E1.8026
G1 X87.127 Y66.899 E1.8205
G1 X88.643 Y65.382 E1.8991
G1 X89.094 Y65.196 E1.9170
G1 X94.738 Y65.196 E2.1240
G1 X95.188 Y65.382 E2.1418
G1 X96.704 Y66.899 E2.2205
G1 X96.891 Y67.349 E2.2383
G1 X96.891 Y82.651 E2.7995
G1 X96.704 Y83.101 E2.8173
G1 X95.188 Y84.618 E2.8960
G1 X94.738 Y84.804 E2.9138
G1 X75.128 Y84.804 E3.6329
G1 X75.025 Y84.762 E3.6370
G1 X74.922 Y84.804 E3.6411
G1 X55.262 Y84.804 E4.3620
G1 X54.812 Y84.618 E4.3799
G1 X53.296 Y83.101 E4.4585
G1 X53.109 Y82.651 E4.4764
G1 X53.109 Y67.349 E5.0375
G1 X53.296 Y66.899 E5.0554
G1 X54.812 Y65.382 E5.1340
G1 X55.089 Y65.798 F3500
G92 E0
G1 X55.360 Y65.686 E0.0107 F720
G1 X60.809 Y65.686 E0.2105
G1 X61.079 Y65.798 E0.2213
G1 X62.457 Y67.176 E0.2927
G1 X62.569 Y67.446 E0.3035
G1 X62.569 Y75.844 E0.6114
G1 X74.825 Y75.844 E1.0608
G1 X75.025 Y75.927 E1.0688
G1 X75.225 Y75.844 E1.0767
G1 X87.431 Y75.844 E1.5243
G1 X87.431 Y67.446 E1.8322
G1 X87.543 Y67.176 E1.8429
G1 X88.921 Y65.798 E1.9144
G1 X89.191 Y65.686 E1.9251
G1 X94.640 Y65.686 E2.1250
G1 X94.911 Y65.798 E2.1357
G1 X96.289 Y67.176 E2.2072
G1 X96.401 Y67.446 E2.2179
G1 X96.401 Y82.554 E2.7719
G1 X96.289 Y82.824 E2.7826
G1 X94.911 Y84.202 E2.8541
G1 X94.640 Y84.314 E2.8648
G1 X75.225 Y84.314 E3.5767
G1 X75.025 Y84.231 E3.5847
G1 X74.825 Y84.314 E3.5926
G1 X55.360 Y84.314 E4.3064
G1 X55.089 Y84.202 E4.3171
G1 X53.711 Y82.824 E4.3886
G1 X53.599 Y82.554 E4.3993
G1 X53.599 Y67.446 E4.9533
G1 X53.711 Y67.176 E4.9640
G1 X55.089 Y65.798 E5.0355
G1 X55.367 Y66.213 F3500
G92 E0
G1 X55.457 Y66.176 E0.0036 F720
G1 X60.711 Y66.176 E0.1962
G1 X60.801 Y66.213 E0.1998
G1 X62.042 Y67.454 E0.2641
G1 X62.079 Y67.544 E0.2677
G1 X62.079 Y76.334 E0.5901
G1 X74.728 Y76.334 E1.0539
G1 X74.818 Y76.371 E1.0574
G1 X75.025 Y76.579 E1.0682
G1 X75.233 Y76.371 E1.0790
G1 X75.323 Y76.334 E1.0825
G1 X87.921 Y76.334 E1.5445
G1 X87.921 Y67.544 E1.8668
G1 X87.958 Y67.454 E1.8704
G1 X89.199 Y66.213 E1.9347
G1 X89.289 Y66.176 E1.9383
G1 X94.543 Y66.176 E2.1310
G1 X94.633 Y66.213 E2.1346
G1 X95.873 Y67.454 E2.1989
G1 X95.911 Y67.544 E2.2025
G1 X95.911 Y82.456 E2.7493
G1 X95.873 Y82.546 E2.7529
G1 X94.633 Y83.787 E2.8172
G1 X94.543 Y83.824 E2.8208
G1 X75.323 Y83.824 E3.5256
G1 X75.233 Y83.787 E3.5291
G1 X75.025 Y83.579 E3.5399
G1 X74.818 Y83.787 E3.5507
G1 X74.728 Y83.824 E3.5542
G1 X55.457 Y83.824 E4.2609
G1 X55.367 Y83.787 E4.2644
G1 X54.127 Y82.546 E4.3288
G1 X54.089 Y82.456 E4.3324
G1 X54.089 Y67.544 E4.8792
G1 X54.127 Y67.454 E4.8828
G1 X55.367 Y66.213 E4.9471
G92 E0
G1 E-6.5000 F5000
; inner perimeter
G1 X57.559 Y69.646 F3500
G1 E0.0000 F5000
G92 E0
G1 X58.609 Y69.646 E0.0385 F600
G1 X58.609 Y79.804 E0.4110
G1 X71.520 Y79.804 E0.8844
G1 X71.520 Y80.354 E0.9046
G1 X57.559 Y80.354 E1.4165
G1 X57.559 Y69.646 E1.8092
; inner perimeter
G1 X57.069 Y69.156 F3500
G92 E0
G1 X59.099 Y69.156 E0.0744 F480
G1 X59.099 Y79.314 E0.4469
G1 X72.010 Y79.314 E0.9204
G1 X72.010 Y80.844 E0.9765
G1 X57.069 Y80.844 E1.5243
G1 X57.069 Y69.156 E1.9529
; outer perimeter
G1 X56.579 Y68.666 F3500
G92 E0
G1 X59.589 Y68.666 E0.1104 F360
G1 X59.589 Y78.824 E0.4829
G1 X73.605 Y78.824 E0.9968
G1 X73.605 Y79.145 E1.0086
G1 X72.500 Y79.145 E1.0491
G1 X72.500 Y81.135 E1.1221
G1 X73.605 Y81.135 E1.1626
G1 X73.605 Y81.334 E1.1699
G1 X56.579 Y81.334 E1.7943
G1 X56.579 Y68.666 E2.2588
; solid layer
G1 X57.976 Y70.542 F3500
G92 E0
G1 X58.193 Y70.325 E0.0113 F576
G1 X58.193 Y71.018 E0.0367
G1 X57.976 Y71.235 E0.0479
G1 X57.976 Y71.928 E0.0733
G1 X58.193 Y71.711 E0.0846
G1 X58.193 Y72.404 E0.1100
G1 X57.976 Y72.621 E0.1212
G1 X57.976 Y73.314 E0.1467
G1 X58.193 Y73.097 E0.1579
G1 X58.193 Y73.790 E0.1833
G1 X57.976 Y74.007 E0.1946
G1 X57.976 Y74.700 E0.2200
G1 X58.193 Y74.483 E0.2312
G1 X58.193 Y75.176 E0.2566
G1 X57.976 Y75.393 E0.2679
G1 X57.976 Y76.086 E0.2933
G1 X58.193 Y75.869 E0.3046
G1 X58.193 Y76.562 E0.3300
G1 X57.976 Y76.779 E0.3412
G1 X57.976 Y77.472 E0.3666
G1 X58.193 Y77.255 E0.3779
G1 X58.193 Y77.948 E0.4033
G1 X57.976 Y78.165 E0.4146
G1 X57.976 Y78.858 E0.4400
G1 X58.193 Y78.641 E0.4512
G1 X58.193 Y79.334 E0.4766
G1 X57.976 Y79.551 E0.4879
G92 E0
G1 E-6.5000 F5000
; inner perimeter
G1 X78.470 Y79.804 F3500
G1 E0.0000 F5000
G92 E0
G1 X91.391 Y79.804 E0.4738 F600
G1 X91.391 Y69.646 E0.8463
G1 X92.441 Y69.646 E0.8848
G1 X92.441 Y80.354 E1.2775
G1 X78.470 Y80.354 E1.7897
G1 X78.470 Y79.804 E1.8099
; inner perimeter
G1 X77.980 Y79.314 F3500
G92 E0
G1 X90.901 Y79.314 E0.4738 F480
G1 X90.901 Y69.156 E0.8463
G1 X92.931 Y69.156 E0.9207
G1 X92.931 Y80.844 E1.3493
G1 X77.980 Y80.844 E1.8976
G1 X77.980 Y79.314 E1.9537
; outer perimeter
G1 X76.445 Y79.145 F3500
G92 E0
G1 X76.445 Y78.824 E0.0118 F360
G1 X90.411 Y78.824 E0.5239
G1 X90.411 Y68.666 E0.8964
G1 X93.421 Y68.666 E1.0068
G1 X93.421 Y81.334 E1.4713
G1 X76.445 Y81.334 E2.0938
G1 X76.445 Y81.135 E2.1011
G1 X77.490 Y81.135 E2.1394
G1 X77.490 Y79.145 E2.2124
G1 X76.445 Y79.145 E2.2507
; solid layer
G1 X91.807 Y79.675 F3500
G92 E0
G1 X92.024 Y79.458 E0.0113 F576
G1 X92.024 Y78.765 E0.0367
G1 X91.807 Y78.982 E0.0479
G1 X91.807 Y78.289 E0.0733
G1 X92.024 Y78.072 E0.0846
G1 X92.024 Y77.379 E0.1100
G1 X91.807 Y77.596 E0.1212
G1 X91.807 Y76.903 E0.1467
G1 X92.024 Y76.686 E0.1579
G1 X92.024 Y75.993 E0.1833
G1 X91.807 Y76.210 E0.1946
G1 X91.807 Y75.517 E0.2200
G1 X92.024 Y75.300 E0.2312
G1 X92.024 Y74.607 E0.2566
G1 X91.807 Y74.824 E0.2679
G1 X91.807 Y74.131 E0.2933
G1 X92.024 Y73.914 E0.3046
G1 X92.024 Y73.221 E0.3300
G1 X91.807 Y73.438 E0.3412
G1 X91.807 Y72.745 E0.3666
G1 X92.024 Y72.528 E0.3779
G1 X92.024 Y71.835 E0.4033
G1 X91.807 Y72.052 E0.4146
G1 X91.807 Y71.359 E0.4400
G1 X92.024 Y71.142 E0.4512
G1 X92.024 Y70.449 E0.4766
G1 X91.807 Y70.666 E0.4879
G92 E0
G1 E-6.5000 F5000
; layer 2, Z = 0.3
M104 S199 T0
; tool H0.100 W0.490
; inner perimeter
G1 X91.391 Y69.646 F3500
G1 Z0.300 F1000
G1 E0.0000 F5000
G92 E0
G1 X92.441 Y69.646 E0.0193 F1858
G1 X92.441 Y80.354 E0.2156
G1 X78.470 Y80.354 E0.4717
G1 X78.470 Y79.804 E0.4818
G1 X91.391 Y79.804 E0.7187
G1 X91.391 Y69.646 E0.9050
; inner perimeter
G1 X90.901 Y69.156 F3500
G92 E0
G1 X92.931 Y69.156 E0.0372 F1487
G1 X92.931 Y80.844 E0.2515
G1 X77.980 Y80.844 E0.5256
G1 X77.980 Y79.314 E0.5537
G1 X90.901 Y79.314 E0.7906
G1 X90.901 Y69.156 E0.9768
; outer perimeter
G1 X90.411 Y68.666 F3500
G92 E0
G1 X93.421 Y68.666 E0.0552 F1115
G1 X93.421 Y81.334 E0.2875
G1 X76.445 Y81.334 E0.5987
G1 X76.445 Y81.135 E0.6023
G1 X77.490 Y81.135 E0.6215
G1 X77.490 Y79.145 E0.6580
G1 X76.445 Y79.145 E0.6771
G1 X76.445 Y78.824 E0.6830
G1 X90.411 Y78.824 E0.9391
G1 X90.411 Y68.666 E1.1253
; solid layer
G1 X91.807 Y70.325 F3500
G92 E0
G1 X92.024 Y70.542 E0.0056 F1784
G1 X92.024 Y71.235 E0.0183
G1 X91.807 Y71.018 E0.0240
G1 X91.807 Y71.711 E0.0367
G1 X92.024 Y71.928 E0.0423
G1 X92.024 Y72.621 E0.0550
G1 X91.807 Y72.404 E0.0606
G1 X91.807 Y73.097 E0.0733
G1 X92.024 Y73.314 E0.0790
G1 X92.024 Y74.007 E0.0917
G1 X91.807 Y73.790 E0.0973
G1 X91.807 Y74.483 E0.1100
G1 X92.024 Y74.700 E0.1156
G1 X92.024 Y75.393 E0.1283
G1 X91.807 Y75.176 E0.1339
G1 X91.807 Y75.869 E0.1467
G1 X92.024 Y76.086 E0.1523
G1 X92.024 Y76.779 E0.1650
G1 X91.807 Y76.562 E0.1706
G1 X91.807 Y77.255 E0.1833
G1 X92.024 Y77.472 E0.1889
G1 X92.024 Y78.165 E0.2017
G1 X91.807 Y77.948 E0.2073
G1 X91.807 Y78.641 E0.2200
G1 X92.024 Y78.858 E0.2256
G1 X92.024 Y79.551 E0.2383
G1 X91.807 Y79.334 E0.2439
G92 E0
G1 E-6.5000 F5000
; inner perimeter
G1 X71.520 Y79.804 F3500
G1 E0.0000 F5000
G92 E0
G1 X71.520 Y80.354 E0.0101 F1858
G1 X57.559 Y80.354 E0.2661
G1 X57.559 Y69.646 E0.4624
G1 X58.609 Y69.646 E0.4816
G1 X58.609 Y79.804 E0.6679
G1 X71.520 Y79.804 E0.9046
; inner perimeter
G1 X72.010 Y79.314 F3500
G92 E0
G1 X72.010 Y80.844 E0.0281 F1487
G1 X57.069 Y80.844 E0.3020
G1 X57.069 Y69.156 E0.5163
G1 X59.099 Y69.156 E0.5535
G1 X59.099 Y79.314 E0.7397
G1 X72.010 Y79.314 E0.9765
; outer perimeter
G1 X73.605 Y79.145 F3500
G92 E0
G1 X72.500 Y79.145 E0.0203 F1115
G1 X72.500 Y81.135 E0.0568
G1 X73.605 Y81.135 E0.0770
G1 X73.605 Y81.334 E0.0807
G1 X56.579 Y81.334 E0.3928
G1 X56.579 Y68.666 E0.6251
G1 X59.589 Y68.666 E0.6803
G1 X59.589 Y78.824 E0.8665
G1 X73.605 Y78.824 E1.1235
G1 X73.605 Y79.145 E1.1294
; solid layer
G1 X57.976 Y79.458 F3500
G92 E0
G1 X58.193 Y79.675 E0.0056 F1784
G1 X58.193 Y78.982 E0.0183
G1 X57.976 Y78.765 E0.0240
G1 X57.976 Y78.072 E0.0367
G1 X58.193 Y78.289 E0.0423
G1 X58.193 Y77.596 E0.0550
G1 X57.976 Y77.379 E0.0606
G1 X57.976 Y76.686 E0.0733
G1 X58.193 Y76.903 E0.0790
G1 X58.193 Y76.210 E0.0917
G1 X57.976 Y75.993 E0.0973
G1 X57.976 Y75.300 E0.1100
G1 X58.193 Y75.517 E0.1156
G1 X58.193 Y74.824 E0.1283
G1 X57.976 Y74.607 E0.1339
G1 X57.976 Y73.914 E0.1467
G1 X58.193 Y74.131 E0.1523
G1 X58.193 Y73.438 E0.1650
G1 X57.976 Y73.221 E0.1706
G1 X57.976 Y72.528 E0.1833
G1 X58.193 Y72.745 E0.1889
G1 X58.193 Y72.052 E0.2017
G1 X57.976 Y71.835 E0.2073
