; G-Code generated by Simplify3D(R) Version 3.0.0
; Aug 27, 2017 at 3:38:20 
; Settings Summary
;   processName,Process1
;   applyToModels,verriegelung
;   profileName,juli (modified)
;   profileVersion,2017-06-09 12:06:14
;   baseProfile,German RepRap NEO (modified)
;   printMaterial,
;   printQuality,
;   printExtruders,
;   extruderName,Primary Extruder
;   extruderToolheadNumber,0
;   extruderDiameter,0.5
;   extruderAutoWidth,0
;   extruderWidth,0.49
;   extrusionMultiplier,0.9
;   extruderUseRetract,1
;   extruderRetractionDistance,6.5
;   extruderExtraRestartDistance,0
;   extruderRetractionZLift,0
;   extruderRetractionSpeed,5000
;   extruderUseCoasting,0
;   extruderCoastingDistance,0.2
;   extruderUseWipe,0
;   extruderWipeDistance,5
;   primaryExtruder,0
;   layerHeight,0.1
;   topSolidLayers,4
;   bottomSolidLayers,3
;   perimeterOutlines,3
;   printPerimetersInsideOut,1
;   startPointOption,2
;   startPointOriginX,0
;   startPointOriginY,0
;   startPointOriginZ,300
;   sequentialIslands,0
;   spiralVaseMode,0
;   firstLayerHeightPercentage,200
;   firstLayerWidthPercentage,100
;   firstLayerUnderspeed,0.3
;   useRaft,0
;   raftExtruder,0
;   raftLayers,3
;   raftOffset,3
;   raftSeparationDistance,0.1
;   raftInfill,85
;   disableRaftBaseLayers,0
;   useSkirt,1
;   skirtExtruder,0
;   skirtLayers,1
;   skirtOutlines,5
;   skirtOffset,2
;   usePrimePillar,0
;   primePillarExtruder,999
;   primePillarWidth,12
;   primePillarLocation,7
;   primePillarSpeedMultiplier,1
;   useOozeShield,0
;   oozeShieldExtruder,999
;   oozeShieldOffset,2
;   oozeShieldOutlines,1
;   oozeShieldSidewallShape,1
;   oozeShieldSidewallAngle,30
;   oozeShieldSpeedMultiplier,1
;   infillExtruder,0
;   internalInfillPattern,Full Honeycomb
;   externalInfillPattern,Rectilinear
;   infillPercentage,20
;   outlineOverlapPercentage,15
;   infillExtrusionWidthPercentage,100
;   minInfillLength,3
;   infillLayerInterval,1
;   infillAngles,0,120,-120
;   overlapInfillAngles,0
;   generateSupport,0
;   supportExtruder,0
;   supportInfillPercentage,30
;   supportExtraInflation,0
;   denseSupportLayers,0
;   denseSupportInfillPercentage,75
;   supportLayerInterval,1
;   supportHorizontalPartOffset,2
;   supportUpperSeparationLayers,2
;   supportLowerSeparationLayers,2
;   supportType,0
;   supportGridSpacing,4
;   maxOverhangAngle,45
;   supportAngles,45
;   temperatureName,Primary Extruder
;   temperatureNumber,0
;   temperatureSetpointCount,3
;   temperatureSetpointLayers,1,2,3
;   temperatureSetpointTemperatures,207,199,192
;   temperatureStabilizeAtStartup,1
;   temperatureHeatedBed,0
;   temperatureRelayBetweenLayers,0
;   temperatureRelayBetweenLoops,0
;   fanLayers,1,3
;   fanSpeeds,0,100
;   blipFanToFullPower,0
;   adjustSpeedForCooling,1
;   minSpeedLayerTime,15
;   minCoolingSpeedSlowdown,20
;   increaseFanForCooling,0
;   minFanLayerTime,45
;   maxCoolingFanSpeed,100
;   increaseFanForBridging,0
;   bridgingFanSpeed,100
;   use5D,1
;   relativeEdistances,0
;   allowEaxisZeroing,1
;   independentExtruderAxes,0
;   includeM10123,0
;   stickySupport,1
;   applyToolheadOffsets,0
;   gcodeXoffset,0
;   gcodeYoffset,0
;   gcodeZoffset,0
;   overrideMachineDefinition,1
;   machineTypeOverride,0
;   strokeXoverride,150
;   strokeYoverride,150
;   strokeZoverride,150
;   originOffsetXoverride,0
;   originOffsetYoverride,0
;   originOffsetZoverride,0
;   homeXdirOverride,-1
;   homeYdirOverride,-1
;   homeZdirOverride,-1
;   flipXoverride,1
;   flipYoverride,-1
;   flipZoverride,1
;   toolheadOffsets,0,0|0,0|0,0|0,0|0,0|0,0
;   overrideFirmwareConfiguration,0
;   firmwareTypeOverride,RepRap (Marlin/Repetier/Sprinter)
;   GPXconfigOverride,r2
;   baudRateOverride,115200
;   overridePrinterModels,0
;   printerModelsOverride
;   startingGcode,G28 ; home all axes
;   layerChangeGcode,
;   retractionGcode,
;   toolChangeGcode,
;   endingGcode,M104 S0 ; turn off extruder,M140 S0 ; turn off bed,G28 X0  ; home X axis,G28 Y0  ; home Y axis,M84 ; disable motors,M107
;   createX3G,0
;   celebration,0
;   celebrationSong,Random Song
;   createMB5G,0
;   postProcessing,
;   defaultSpeed,2400
;   outlineUnderspeed,0.5
;   solidInfillUnderspeed,0.8
;   supportUnderspeed,0.8
;   rapidXYspeed,3500
;   rapidZspeed,1000
;   minBridgingArea,50
;   bridgingExtraInflation,0
;   bridgingExtrusionMultiplier,1
;   bridgingSpeedMultiplier,1
;   filamentDiameter,1.75
;   filamentPricePerKg,46
;   filamentDensity,1.25
;   useMinPrintHeight,0
;   minPrintHeight,0
;   useMaxPrintHeight,0
;   maxPrintHeight,0
;   useDiaphragm,0
;   diaphragmLayerInterval,20
;   robustSlicing,1
;   mergeAllIntoSolid,0
;   onlyRetractWhenCrossingOutline,1
;   retractBetweenLayers,1
;   useRetractionMinTravel,0
;   retractionMinTravel,3
;   retractWhileWiping,0
;   onlyWipeOutlines,1
;   avoidCrossingOutline,0
;   maxMovementDetourFactor,10
;   toolChangeRetractionDistance,0
;   toolChangeExtraRestartDistance,0
;   toolChangeRetractionSpeed,360
;   allowThinWallGapFill,1
;   thinWallAllowedOverlapPercentage,10
;   horizontalSizeCompensation,0
G90
M82
M106 S0
M104 S207 T0
M109 S207 T0
G28 ; home all axes
G92 E0
G1 E-6.5000 F5000
G1 Z0.200 F1000
; layer 1, Z = 0.2
T0
; tool H0.200 W0.490
; skirt
G1 X54.087 Y63.097 F3500
G1 E0.0000 F1500
G92 E0
G1 X54.897 Y62.761 E0.0322 F720
G1 X95.103 Y62.761 E1.5065
G1 X95.913 Y63.097 E1.5386
G1 X97.705 Y64.889 E1.6316
G1 X98.041 Y65.699 E1.6637
G1 X98.041 Y84.301 E2.3459
G1 X97.705 Y85.111 E2.3780
G1 X95.913 Y86.903 E2.4709
G1 X95.103 Y87.239 E2.5031
G1 X54.897 Y87.239 E3.9774
G1 X54.087 Y86.903 E4.0096
G1 X52.295 Y85.111 E4.1025
G1 X51.959 Y84.301 E4.1347
G1 X51.959 Y65.699 E4.8168
G1 X52.295 Y64.889 E4.8490
G1 X54.087 Y63.097 E4.9419
G1 X54.364 Y63.512 F3500
G92 E0
G1 X54.995 Y63.251 E0.0250 F720
G1 X95.005 Y63.251 E1.4922
G1 X95.636 Y63.512 E1.5172
G1 X97.290 Y65.166 E1.6030
G1 X97.551 Y65.797 E1.6280
G1 X97.551 Y84.203 E2.3030
G1 X97.290 Y84.834 E2.3280
G1 X95.636 Y86.488 E2.4138
G1 X95.005 Y86.749 E2.4388
G1 X54.995 Y86.749 E3.9059
G1 X54.364 Y86.488 E3.9310
G1 X52.710 Y84.834 E4.0167
G1 X52.449 Y84.203 E4.0417
G1 X52.449 Y65.797 E4.7167
G1 X52.710 Y65.166 E4.7417
G1 X54.364 Y63.512 E4.8275
G1 X54.642 Y63.928 F3500
G92 E0
G1 X55.092 Y63.741 E0.0179 F720
G1 X94.908 Y63.741 E1.4779
G1 X95.358 Y63.928 E1.4958
G1 X96.874 Y65.444 E1.5744
G1 X97.061 Y65.894 E1.5922
G1 X97.061 Y84.106 E2.2601
G1 X96.874 Y84.556 E2.2779
G1 X95.358 Y86.072 E2.3566
G1 X94.908 Y86.259 E2.3744
G1 X55.092 Y86.259 E3.8345
G1 X54.642 Y86.072 E3.8523
G1 X53.126 Y84.556 E3.9309
G1 X52.939 Y84.106 E3.9488
G1 X52.939 Y65.894 E4.6166
G1 X53.126 Y65.444 E4.6345
G1 X54.642 Y63.928 E4.7131
G1 X54.919 Y64.343 F3500
G92 E0
G1 X55.190 Y64.231 E0.0107 F720
G1 X94.810 Y64.231 E1.4636
G1 X95.081 Y64.343 E1.4743
G1 X96.459 Y65.721 E1.5458
G1 X96.571 Y65.991 E1.5565
G1 X96.571 Y84.009 E2.2172
G1 X96.459 Y84.279 E2.2279
G1 X95.081 Y85.657 E2.2994
G1 X94.810 Y85.769 E2.3101
G1 X55.190 Y85.769 E3.7630
G1 X54.919 Y85.657 E3.7737
G1 X53.541 Y84.279 E3.8452
G1 X53.429 Y84.009 E3.8559
G1 X53.429 Y65.991 E4.5166
G1 X53.541 Y65.721 E4.5273
G1 X54.919 Y64.343 E4.5988
G1 X55.197 Y64.758 F3500
G92 E0
G1 X55.287 Y64.721 E0.0036 F720
G1 X94.713 Y64.721 E1.4493
G1 X94.803 Y64.758 E1.4529
G1 X96.043 Y65.999 E1.5172
G1 X96.081 Y66.089 E1.5208
G1 X96.081 Y83.911 E2.1743
G1 X96.043 Y84.001 E2.1779
G1 X94.803 Y85.242 E2.2422
G1 X94.713 Y85.279 E2.2458
G1 X55.287 Y85.279 E3.6915
G1 X55.197 Y85.242 E3.6951
G1 X53.957 Y84.001 E3.7594
G1 X53.919 Y83.911 E3.7630
G1 X53.919 Y66.089 E4.4165
G1 X53.957 Y65.999 E4.4201
G1 X55.197 Y64.758 E4.4844
G92 E0
G1 E-6.5000 F5000
; inner perimeter
G1 X57.389 Y68.191 F3500
G1 E0.0000 F5000
G92 E0
G1 X92.611 Y68.191 E1.2915 F600
G1 X92.611 Y81.809 E1.7909
G1 X81.892 Y81.809 E2.1839
G1 X83.122 Y70.741 E2.5923
G1 X66.739 Y70.741 E3.1931
G1 X67.968 Y81.809 E3.6014
G1 X57.389 Y81.809 E3.9893
G1 X57.389 Y68.191 E4.4887
; inner perimeter
G1 X56.899 Y67.701 F3500
G92 E0
G1 X93.101 Y67.701 E1.3275 F480
G1 X93.101 Y82.299 E1.8628
G1 X56.899 Y82.299 E3.1903
G1 X56.899 Y67.701 E3.7256
; outer perimeter
G1 X56.409 Y67.211 F3500
G92 E0
G1 X93.591 Y67.211 E1.3634 F360
G1 X93.591 Y82.789 E1.9346
G1 X56.409 Y82.789 E3.2981
G1 X56.409 Y67.211 E3.8693
; inner perimeter
; inner perimeter
G1 X67.286 Y71.231 F3500
G92 E0
G1 X68.449 Y81.701 E0.3863 F480
G1 X81.411 Y81.701 E0.8616
G1 X82.575 Y71.231 E1.2479
G1 X67.286 Y71.231 E1.8085
; outer perimeter
G1 X67.834 Y71.721 F3500
G92 E0
G1 X68.888 Y81.211 E0.3501 F360
G1 X80.973 Y81.211 E0.7933
G1 X82.027 Y71.721 E1.1434
G1 X67.834 Y71.721 E1.6639
; solid layer
G1 X67.202 Y70.325 F3500
G92 E0
G1 X68.919 Y68.608 E0.0890 F576
G1 X69.612 Y68.608 E0.1145
G1 X67.895 Y70.325 E0.2035
G1 X68.588 Y70.325 E0.2289
G1 X70.305 Y68.608 E0.3179
G1 X70.998 Y68.608 E0.3434
G1 X69.281 Y70.325 E0.4324
G1 X69.974 Y70.325 E0.4578
G1 X71.691 Y68.608 E0.5468
G1 X72.384 Y68.608 E0.5723
G1 X70.667 Y70.325 E0.6613
G1 X71.360 Y70.325 E0.6867
G1 X73.077 Y68.608 E0.7757
G1 X73.770 Y68.608 E0.8012
G1 X72.053 Y70.325 E0.8902
G1 X72.746 Y70.325 E0.9156
G1 X74.463 Y68.608 E1.0046
G1 X75.156 Y68.608 E1.0301
G1 X73.439 Y70.325 E1.1191
G1 X74.132 Y70.325 E1.1445
G1 X75.849 Y68.608 E1.2336
G1 X76.542 Y68.608 E1.2590
G1 X74.825 Y70.325 E1.3480
G1 X75.518 Y70.325 E1.3734
G1 X77.235 Y68.608 E1.4625
G1 X77.928 Y68.608 E1.4879
G1 X76.211 Y70.325 E1.5769
G1 X76.904 Y70.325 E1.6023
G1 X78.621 Y68.608 E1.6914
G1 X79.314 Y68.608 E1.7168
G1 X77.597 Y70.325 E1.8058
G1 X78.290 Y70.325 E1.8312
G1 X80.007 Y68.608 E1.9203
G1 X80.700 Y68.608 E1.9457
G1 X78.983 Y70.325 E2.0347
G1 X79.675 Y70.325 E2.0601
G1 X81.392 Y68.608 E2.1492
G1 X82.085 Y68.608 E2.1746
G1 X80.368 Y70.325 E2.2636
G1 X81.061 Y70.325 E2.2890
G1 X82.778 Y68.608 E2.3781
G1 X83.471 Y68.608 E2.4035
G1 X81.754 Y70.325 E2.4925
G1 X82.447 Y70.325 E2.5179
G1 X84.164 Y68.608 E2.6070
G1 X84.857 Y68.608 E2.6324
G1 X83.140 Y70.325 E2.7214
G1 X83.588 Y70.325 E2.7378
G1 X83.557 Y70.601 E2.7480
G1 X85.550 Y68.608 E2.8514
G1 X86.243 Y68.608 E2.8768
G1 X83.470 Y71.381 E3.0206
G1 X83.384 Y72.160 E3.0494
G1 X86.936 Y68.608 E3.2336
G1 X87.629 Y68.608 E3.2590
G1 X83.297 Y72.940 E3.4837
G1 X83.210 Y73.719 E3.5124
G1 X88.322 Y68.608 E3.7775
G1 X89.015 Y68.608 E3.8029
G1 X83.124 Y74.499 E4.1084
G1 X83.037 Y75.279 E4.1372
G1 X89.708 Y68.608 E4.4832
G1 X90.401 Y68.608 E4.5086
G1 X82.950 Y76.058 E4.8949
G1 X82.864 Y76.838 E4.9237
G1 X91.094 Y68.608 E5.3505
G1 X91.787 Y68.608 E5.3759
G1 X82.777 Y77.617 E5.8431
G1 X82.691 Y78.397 E5.8719
G1 X92.194 Y68.893 E6.3647
G1 X92.194 Y69.586 E6.3902
G1 X82.604 Y79.176 E6.8875
G1 X82.517 Y79.956 E6.9162
G1 X92.194 Y70.279 E7.4181
G1 X92.194 Y70.972 E7.4435
G1 X82.431 Y80.736 E7.9498
G1 X82.358 Y81.392 E7.9740
G1 X82.467 Y81.392 E7.9780
G1 X92.194 Y71.665 E8.4825
G1 X92.194 Y72.358 E8.5079
G1 X83.160 Y81.392 E8.9764
G1 X83.853 Y81.392 E9.0018
G1 X92.194 Y73.051 E9.4344
G1 X92.194 Y73.744 E9.4598
G1 X84.546 Y81.392 E9.8564
G1 X85.239 Y81.392 E9.8818
G1 X92.194 Y74.437 E10.2425
G1 X92.194 Y75.130 E10.2679
G1 X85.932 Y81.392 E10.5927
G1 X86.625 Y81.392 E10.6181
G1 X92.194 Y75.823 E10.9069
G1 X92.194 Y76.516 E10.9324
G1 X87.318 Y81.392 E11.1852
G1 X88.011 Y81.392 E11.2107
G1 X92.194 Y77.209 E11.4276
G1 X92.194 Y77.902 E11.4530
G1 X88.704 Y81.392 E11.6340
G1 X89.397 Y81.392 E11.6594
G1 X92.194 Y78.595 E11.8045
G1 X92.194 Y79.288 E11.8299
G1 X90.090 Y81.392 E11.9391
G1 X90.782 Y81.392 E11.9645
G1 X92.194 Y79.981 E12.0377
G1 X92.194 Y80.674 E12.0631
G1 X91.475 Y81.392 E12.1004
G1 X92.168 Y81.392 E12.1258
G1 X92.194 Y81.367 E12.1271
G1 X67.475 Y81.139 F3500
G92 E0
G1 X67.222 Y81.392 E0.0131 F576
G1 X66.529 Y81.392 E0.0385
G1 X67.406 Y80.516 E0.0840
G1 X67.336 Y79.892 E0.1070
G1 X65.836 Y81.392 E0.1848
G1 X65.143 Y81.392 E0.2103
G1 X67.267 Y79.268 E0.3204
G1 X67.198 Y78.645 E0.3434
G1 X64.450 Y81.392 E0.4859
G1 X63.757 Y81.392 E0.5113
G1 X67.128 Y78.021 E0.6862
G1 X67.059 Y77.397 E0.7092
G1 X63.064 Y81.392 E0.9164
G1 X62.371 Y81.392 E0.9418
G1 X66.990 Y76.774 E1.1813
G1 X66.921 Y76.150 E1.2043
G1 X61.678 Y81.392 E1.4762
G1 X60.985 Y81.392 E1.5016
G1 X66.851 Y75.526 E1.8058
G1 X66.782 Y74.903 E1.8288
G1 X60.292 Y81.392 E2.1654
G1 X59.599 Y81.392 E2.1908
G1 X66.713 Y74.279 E2.5597
G1 X66.643 Y73.655 E2.5827
G1 X58.906 Y81.392 E2.9839
G1 X58.213 Y81.392 E3.0094
G1 X66.574 Y73.032 E3.4429
G1 X66.505 Y72.408 E3.4660
G1 X57.806 Y81.107 E3.9171
G1 X57.806 Y80.414 E3.9425
G1 X66.435 Y71.784 E4.3900
G1 X66.366 Y71.161 E4.4130
G1 X57.806 Y79.721 E4.8569
G1 X57.806 Y79.028 E4.8823
G1 X66.297 Y70.537 E5.3227
G1 X66.273 Y70.325 E5.3305
G1 X66.509 Y70.325 E5.3392
G1 X68.226 Y68.608 E5.4282
G1 X67.533 Y68.608 E5.4536
G1 X57.806 Y78.335 E5.9581
G1 X57.806 Y77.642 E5.9835
G1 X66.840 Y68.608 E6.4520
G1 X66.147 Y68.608 E6.4774
G1 X57.806 Y76.949 E6.9100
G1 X57.806 Y76.256 E6.9354
G1 X65.454 Y68.608 E7.3320
G1 X64.761 Y68.608 E7.3574
G1 X57.806 Y75.563 E7.7181
G1 X57.806 Y74.870 E7.7435
G1 X64.068 Y68.608 E8.0683
G1 X63.375 Y68.608 E8.0937
G1 X57.806 Y74.177 E8.3825
G1 X57.806 Y73.484 E8.4080
G1 X62.682 Y68.608 E8.6609
G1 X61.989 Y68.608 E8.6863
G1 X57.806 Y72.791 E8.9032
G1 X57.806 Y72.098 E8.9286
G1 X61.296 Y68.608 E9.1097
G1 X60.604 Y68.608 E9.1351
G1 X57.806 Y71.405 E9.2802
G1 X57.806 Y70.712 E9.3056
G1 X59.911 Y68.608 E9.4147
G1 X59.218 Y68.608 E9.4401
G1 X57.806 Y70.019 E9.5133
G1 X57.806 Y69.326 E9.5388
G1 X58.525 Y68.608 E9.5760
G1 X57.832 Y68.608 E9.6014
G1 X57.806 Y68.633 E9.6028
G92 E0
G1 E-6.5000 F5000
; layer 2, Z = 0.3
M104 S199 T0
; tool H0.100 W0.490
; inner perimeter
G1 X57.389 Y68.191 F3500
G1 Z0.300 F1000
G1 E0.0000 F5000
G92 E0
G1 X92.611 Y68.191 E0.6458 F2000
G1 X92.611 Y81.809 E0.8955
G1 X81.892 Y81.809 E1.0920
G1 X83.122 Y70.741 E1.2961
G1 X66.739 Y70.741 E1.5965
G1 X67.968 Y81.809 E1.8007
G1 X57.389 Y81.809 E1.9947
G1 X57.389 Y68.191 E2.2443
; inner perimeter
G1 X56.899 Y67.701 F3500
G92 E0
G1 X93.101 Y67.701 E0.6637 F1600
G1 X93.101 Y82.299 E0.9314
G1 X56.899 Y82.299 E1.5951
G1 X56.899 Y67.701 E1.8628
; outer perimeter
G1 X56.409 Y67.211 F3500
G92 E0
G1 X93.591 Y67.211 E0.6817 F1200
G1 X93.591 Y82.789 E0.9673
G1 X56.409 Y82.789 E1.6490
G1 X56.409 Y67.211 E1.9346
; inner perimeter
; inner perimeter
G1 X67.286 Y71.231 F3500
G92 E0
G1 X68.449 Y81.701 E0.1931 F1600
G1 X81.411 Y81.701 E0.4308
G1 X82.575 Y71.231 E0.6239
G1 X67.286 Y71.231 E0.9043
; outer perimeter
G1 X67.834 Y71.721 F3500
G92 E0
G1 X68.888 Y81.211 E0.1751 F1200
G1 X80.973 Y81.211 E0.3966
G1 X82.027 Y71.721 E0.5717
G1 X67.834 Y71.721 E0.8319
; solid layer
G1 X57.832 Y81.392 F3500
G92 E0
G1 X57.806 Y81.367 E0.0007 F1920
G1 X57.806 Y80.674 E0.0134
G1 X58.525 Y81.392 E0.0320
G1 X59.218 Y81.392 E0.0447
G1 X57.806 Y79.981 E0.0813
G1 X57.806 Y79.288 E0.0940
G1 X59.911 Y81.392 E0.1486
G1 X60.604 Y81.392 E0.1613
G1 X57.806 Y78.595 E0.2339
G1 X57.806 Y77.902 E0.2466
G1 X61.296 Y81.392 E0.3371
G1 X61.989 Y81.392 E0.3498
G1 X57.806 Y77.209 E0.4583
G1 X57.806 Y76.516 E0.4710
G1 X62.682 Y81.392 E0.5974
G1 X63.375 Y81.392 E0.6101
G1 X57.806 Y75.823 E0.7545
G1 X57.806 Y75.130 E0.7672
G1 X64.068 Y81.392 E0.9296
G1 X64.761 Y81.392 E0.9423
G1 X57.806 Y74.437 E1.1227
G1 X57.806 Y73.744 E1.1354
G1 X65.454 Y81.392 E1.3337
G1 X66.147 Y81.392 E1.3464
G1 X57.806 Y73.051 E1.5627
G1 X57.806 Y72.358 E1.5754
G1 X66.840 Y81.392 E1.8097
G1 X67.503 Y81.392 E1.8218
G1 X67.499 Y81.359 E1.8224
G1 X57.806 Y71.665 E2.0738
G1 X57.806 Y70.972 E2.0865
G1 X67.413 Y80.579 E2.3356
G1 X67.326 Y79.799 E2.3500
G1 X57.806 Y70.279 E2.5968
G1 X57.806 Y69.586 E2.6095
G1 X67.239 Y79.020 E2.8541
G1 X67.153 Y78.240 E2.8685
G1 X57.806 Y68.893 E3.1109
G1 X57.806 Y68.608 E3.1161
G1 X58.213 Y68.608 E3.1236
G1 X67.066 Y77.461 E3.3531
G1 X66.980 Y76.681 E3.3675
G1 X58.906 Y68.608 E3.5768
G1 X59.599 Y68.608 E3.5895
G1 X66.893 Y75.901 E3.7787
G1 X66.806 Y75.122 E3.7931
G1 X60.292 Y68.608 E3.9620
G1 X60.985 Y68.608 E3.9747
G1 X66.720 Y74.342 E4.1234
G1 X66.633 Y73.563 E4.1377
G1 X61.678 Y68.608 E4.2662
G1 X62.371 Y68.608 E4.2789
G1 X66.546 Y72.783 E4.3872
G1 X66.460 Y72.004 E4.4016
G1 X63.064 Y68.608 E4.4896
