; G-Code generated by Simplify3D(R) Version 3.0.0
; Feb 1, 2018 at 2:40:04 
; Settings Summary
;   processName,Process1
;   applyToModels,halterung_unterbau
;   profileName,Renkforce (modified)
;   profileVersion,2017-10-17 11:10:50
;   baseProfile,German RepRap NEO (modified)
;   printMaterial,
;   printQuality,
;   printExtruders,
;   extruderName,Primary Extruder
;   extruderToolheadNumber,0
;   extruderDiameter,0.5
;   extruderAutoWidth,0
;   extruderWidth,0.49
;   extrusionMultiplier,0.94
;   extruderUseRetract,1
;   extruderRetractionDistance,6.5
;   extruderExtraRestartDistance,0
;   extruderRetractionZLift,0
;   extruderRetractionSpeed,4998
;   extruderUseCoasting,0
;   extruderCoastingDistance,0.2
;   extruderUseWipe,0
;   extruderWipeDistance,5
;   primaryExtruder,0
;   layerHeight,0.2
;   topSolidLayers,4
;   bottomSolidLayers,3
;   perimeterOutlines,3
;   printPerimetersInsideOut,1
;   startPointOption,2
;   startPointOriginX,0
;   startPointOriginY,0
;   startPointOriginZ,300
;   sequentialIslands,0
;   spiralVaseMode,0
;   firstLayerHeightPercentage,100
;   firstLayerWidthPercentage,100
;   firstLayerUnderspeed,0.28
;   useRaft,0
;   raftExtruder,0
;   raftLayers,3
;   raftOffset,3
;   raftSeparationDistance,0.1
;   raftInfill,85
;   disableRaftBaseLayers,0
;   useSkirt,1
;   skirtExtruder,0
;   skirtLayers,1
;   skirtOutlines,4
;   skirtOffset,3
;   usePrimePillar,0
;   primePillarExtruder,999
;   primePillarWidth,12
;   primePillarLocation,7
;   primePillarSpeedMultiplier,1
;   useOozeShield,0
;   oozeShieldExtruder,999
;   oozeShieldOffset,2
;   oozeShieldOutlines,1
;   oozeShieldSidewallShape,1
;   oozeShieldSidewallAngle,30
;   oozeShieldSpeedMultiplier,1
;   infillExtruder,0
;   internalInfillPattern,Full Honeycomb
;   externalInfillPattern,Rectilinear
;   infillPercentage,15
;   outlineOverlapPercentage,15
;   infillExtrusionWidthPercentage,100
;   minInfillLength,3
;   infillLayerInterval,1
;   infillAngles,0,120,-120
;   overlapInfillAngles,0
;   generateSupport,1
;   supportExtruder,0
;   supportInfillPercentage,30
;   supportExtraInflation,0
;   denseSupportLayers,0
;   denseSupportInfillPercentage,75
;   supportLayerInterval,1
;   supportHorizontalPartOffset,1.5
;   supportUpperSeparationLayers,2
;   supportLowerSeparationLayers,2
;   supportType,0
;   supportGridSpacing,5
;   maxOverhangAngle,45
;   supportAngles,45
;   temperatureName,Primary Extruder
;   temperatureNumber,0
;   temperatureSetpointCount,3
;   temperatureSetpointLayers,1,2,3
;   temperatureSetpointTemperatures,197,193,189
;   temperatureStabilizeAtStartup,1
;   temperatureHeatedBed,0
;   temperatureRelayBetweenLayers,0
;   temperatureRelayBetweenLoops,0
;   fanLayers,1,3
;   fanSpeeds,0,80
;   blipFanToFullPower,0
;   adjustSpeedForCooling,1
;   minSpeedLayerTime,15
;   minCoolingSpeedSlowdown,20
;   increaseFanForCooling,0
;   minFanLayerTime,45
;   maxCoolingFanSpeed,100
;   increaseFanForBridging,0
;   bridgingFanSpeed,100
;   use5D,1
;   relativeEdistances,0
;   allowEaxisZeroing,1
;   independentExtruderAxes,0
;   includeM10123,0
;   stickySupport,1
;   applyToolheadOffsets,0
;   gcodeXoffset,0
;   gcodeYoffset,0
;   gcodeZoffset,0
;   overrideMachineDefinition,1
;   machineTypeOverride,0
;   strokeXoverride,150
;   strokeYoverride,150
;   strokeZoverride,150
;   originOffsetXoverride,0
;   originOffsetYoverride,0
;   originOffsetZoverride,0
;   homeXdirOverride,-1
;   homeYdirOverride,-1
;   homeZdirOverride,-1
;   flipXoverride,1
;   flipYoverride,-1
;   flipZoverride,1
;   toolheadOffsets,0,0|0,0|0,0|0,0|0,0|0,0
;   overrideFirmwareConfiguration,0
;   firmwareTypeOverride,RepRap (Marlin/Repetier/Sprinter)
;   GPXconfigOverride,r2
;   baudRateOverride,115200
;   overridePrinterModels,0
;   printerModelsOverride
;   startingGcode,G28 ; home all axes
;   layerChangeGcode,
;   retractionGcode,
;   toolChangeGcode,
;   endingGcode,M104 S0 ; turn off extruder,M140 S0 ; turn off bed,G28 X0  ; home X axis,G28 Y0  ; home Y axis,M84 ; disable motors,M107
;   createX3G,0
;   celebration,0
;   celebrationSong,Random Song
;   createMB5G,0
;   postProcessing,
;   defaultSpeed,2400
;   outlineUnderspeed,0.5
;   solidInfillUnderspeed,0.8
;   supportUnderspeed,0.8
;   rapidXYspeed,3498
;   rapidZspeed,1002
;   minBridgingArea,50
;   bridgingExtraInflation,0
;   bridgingExtrusionMultiplier,1
;   bridgingSpeedMultiplier,1
;   filamentDiameter,1.75
;   filamentPricePerKg,46
;   filamentDensity,1.25
;   useMinPrintHeight,0
;   minPrintHeight,0
;   useMaxPrintHeight,0
;   maxPrintHeight,0
;   useDiaphragm,0
;   diaphragmLayerInterval,20
;   robustSlicing,1
;   mergeAllIntoSolid,0
;   onlyRetractWhenCrossingOutline,1
;   retractBetweenLayers,1
;   useRetractionMinTravel,0
;   retractionMinTravel,3
;   retractWhileWiping,0
;   onlyWipeOutlines,1
;   avoidCrossingOutline,0
;   maxMovementDetourFactor,10
;   toolChangeRetractionDistance,0
;   toolChangeExtraRestartDistance,0
;   toolChangeRetractionSpeed,360
;   allowThinWallGapFill,1
;   thinWallAllowedOverlapPercentage,10
;   horizontalSizeCompensation,0
G90
M82
M106 S0
M104 S197 T0
M109 S197 T0
G28 ; home all axes
G92 E0
G1 E-6.5000 F4998
G1 Z0.200 F1002
; layer 1, Z = 0.2
T0
; tool H0.200 W0.490
; skirt
G1 X28.536 Y28.808 F3498
G1 E0.0000 F1499
G92 E0
G1 X29.123 Y28.527 E0.0249 F672
G1 X34.999 Y28.109 E0.2505
G1 X37.896 Y26.795 E0.3724
G1 X49.940 Y20.866 E0.8865
G1 X49.947 Y20.862 E0.8868
G1 X49.980 Y20.846 E0.8882
G1 X49.988 Y20.842 E0.8886
G1 X53.693 Y19.106 E1.0453
G1 X53.870 Y19.045 E1.0524
G1 X54.695 Y18.861 E1.0848
G1 X54.881 Y18.840 E1.0920
G1 X63.875 Y18.826 E1.4364
G1 X64.506 Y19.087 E1.4626
G1 X66.750 Y21.327 E1.5840
G1 X67.012 Y21.958 E1.6102
G1 X67.012 Y39.214 E2.2711
G1 X66.751 Y39.844 E2.2972
G1 X64.511 Y42.084 E2.4185
G1 X63.880 Y42.345 E2.4447
G1 X58.659 Y42.345 E2.6446
G1 X57.859 Y43.241 E2.6906
G1 X57.306 Y43.530 E2.7146
G1 X55.566 Y43.743 E2.7817
G1 X44.731 Y45.843 E3.2044
G1 X44.731 Y47.394 E3.2638
G1 X46.162 Y47.394 E3.3186
G1 X46.793 Y47.655 E3.3447
G1 X47.078 Y47.941 E3.3602
G1 X47.364 Y47.655 E3.3757
G1 X47.995 Y47.394 E3.4018
G1 X58.009 Y47.394 E3.7854
G1 X58.638 Y47.653 E3.8114
G1 X60.875 Y49.879 E3.9323
G1 X61.138 Y50.506 E3.9584
G1 X61.186 Y59.793 E4.3140
G1 X61.258 Y59.793 E4.3168
G1 X61.887 Y60.053 E4.3429
G1 X64.124 Y62.279 E4.4637
G1 X64.387 Y62.906 E4.4898
G1 X64.400 Y65.368 E4.5841
G1 X64.587 Y65.446 E4.5918
G1 X66.820 Y67.685 E4.7129
G1 X67.080 Y68.314 E4.7390
G1 X67.080 Y85.531 E5.3984
G1 X66.820 Y86.160 E5.4245
G1 X64.589 Y88.398 E5.5455
G1 X63.961 Y88.660 E5.5716
G1 X53.743 Y88.695 E5.9629
G1 X53.640 Y88.689 E5.9669
G1 X53.178 Y88.634 E5.9847
G1 X53.077 Y88.616 E5.9886
G1 X40.421 Y85.552 E6.4874
G1 X40.404 Y85.548 E6.4880
G1 X40.326 Y85.527 E6.4911
G1 X40.309 Y85.523 E6.4918
G1 X34.580 Y83.881 E6.7200
G1 X34.120 Y83.566 E6.7414
G1 X32.576 Y81.526 E6.8394
G1 X32.458 Y81.176 E6.8535
G1 X29.375 Y81.175 E6.9716
G1 X28.745 Y80.914 E6.9977
G1 X26.506 Y78.674 E7.1190
G1 X26.245 Y78.044 E7.1451
G1 X26.245 Y31.617 E8.9232
G1 X26.483 Y31.012 E8.9482
G1 X28.536 Y28.808 E9.0635
G1 X28.831 Y29.210 F3498
G92 E0
G1 X29.250 Y29.009 E0.0178 F672
G1 X35.121 Y28.591 E0.2432
G1 X38.105 Y27.238 E0.3687
G1 X50.155 Y21.306 E0.8831
G1 X50.160 Y21.303 E0.8833
G1 X50.191 Y21.288 E0.8847
G1 X50.197 Y21.285 E0.8849
G1 X53.877 Y19.561 E1.0405
G1 X54.003 Y19.518 E1.0456
G1 X54.776 Y19.345 E1.0760
G1 X54.909 Y19.330 E1.0811
G1 X63.778 Y19.316 E1.4208
G1 X64.229 Y19.502 E1.4395
G1 X66.335 Y21.605 E1.5534
G1 X66.522 Y22.056 E1.5721
G1 X66.522 Y39.117 E2.2255
G1 X66.335 Y39.567 E2.2442
G1 X64.233 Y41.669 E2.3580
G1 X63.783 Y41.855 E2.3767
G1 X58.439 Y41.855 E2.5814
G1 X57.553 Y42.848 E2.6323
G1 X57.158 Y43.055 E2.6494
G1 X55.490 Y43.258 E2.7138
G1 X44.241 Y45.439 E3.1526
G1 X44.241 Y47.884 E3.2463
G1 X46.065 Y47.884 E3.3161
G1 X46.515 Y48.070 E3.3348
G1 X47.078 Y48.634 E3.3653
G1 X47.642 Y48.070 E3.3958
G1 X48.092 Y47.884 E3.4145
G1 X57.912 Y47.884 E3.7906
G1 X58.361 Y48.069 E3.8092
G1 X60.461 Y50.158 E3.9226
G1 X60.649 Y50.606 E3.9412
G1 X60.699 Y60.283 E4.3119
G1 X61.161 Y60.283 E4.3296
G1 X61.610 Y60.469 E4.3482
G1 X63.710 Y62.558 E4.4616
G1 X63.898 Y63.006 E4.4802
G1 X63.911 Y65.695 E4.5833
G1 X64.309 Y65.861 E4.5997
G1 X66.404 Y67.962 E4.7134
G1 X66.590 Y68.411 E4.7320
G1 X66.590 Y85.434 E5.3840
G1 X66.405 Y85.883 E5.4026
G1 X64.311 Y87.984 E5.5162
G1 X63.862 Y88.171 E5.5348
G1 X53.757 Y88.205 E5.9218
G1 X53.683 Y88.200 E5.9246
G1 X53.250 Y88.150 E5.9413
G1 X53.178 Y88.136 E5.9442
G1 X40.538 Y85.076 E6.4422
G1 X40.526 Y85.073 E6.4427
G1 X40.454 Y85.054 E6.4456
G1 X40.441 Y85.051 E6.4461
G1 X34.791 Y83.432 E6.6712
G1 X34.463 Y83.207 E6.6864
G1 X33.015 Y81.293 E6.7783
G1 X32.888 Y80.916 E6.7936
G1 X32.887 Y80.686 E6.8024
G1 X29.473 Y80.685 E6.9331
G1 X29.022 Y80.498 E6.9518
G1 X26.921 Y78.397 E7.0656
G1 X26.735 Y77.946 E7.0843
G1 X26.735 Y31.710 E8.8551
G1 X26.905 Y31.278 E8.8729
G1 X28.831 Y29.210 E8.9811
G1 X29.126 Y29.612 F3498
G92 E0
G1 X29.378 Y29.491 E0.0107 F672
G1 X35.244 Y29.074 E0.2359
G1 X38.315 Y27.681 E0.3651
G1 X50.370 Y21.746 E0.8797
G1 X50.373 Y21.744 E0.8798
G1 X50.403 Y21.730 E0.8811
G1 X50.406 Y21.729 E0.8812
G1 X54.060 Y20.016 E1.0358
G1 X54.136 Y19.990 E1.0389
G1 X54.856 Y19.829 E1.0671
G1 X54.936 Y19.820 E1.0702
G1 X63.681 Y19.806 E1.4051
G1 X63.952 Y19.918 E1.4163
G1 X65.920 Y21.883 E1.5228
G1 X66.032 Y22.153 E1.5340
G1 X66.032 Y39.019 E2.1800
G1 X65.920 Y39.289 E2.1912
G1 X63.956 Y41.253 E2.2976
G1 X63.686 Y41.365 E2.3088
G1 X58.408 Y41.365 E2.5109
G1 X58.271 Y41.309 E2.5166
G1 X57.247 Y42.455 E2.5755
G1 X57.010 Y42.579 E2.5857
G1 X55.413 Y42.774 E2.6473
G1 X43.751 Y45.034 E3.1023
G1 X43.751 Y48.374 E3.2302
G1 X45.967 Y48.374 E3.3151
G1 X46.237 Y48.486 E3.3263
G1 X47.078 Y49.327 E3.3718
G1 X47.919 Y48.486 E3.4174
G1 X48.190 Y48.374 E3.4286
G1 X57.815 Y48.374 E3.7972
G1 X58.084 Y48.485 E3.8084
G1 X60.047 Y50.437 E3.9144
G1 X60.159 Y50.706 E3.9255
G1 X60.211 Y60.773 E4.3111
G1 X61.064 Y60.773 E4.3438
G1 X61.333 Y60.885 E4.3550
G1 X63.295 Y62.837 E4.4610
G1 X63.408 Y63.105 E4.4721
G1 X63.424 Y66.163 E4.5892
G1 X63.761 Y66.164 E4.6021
G1 X64.031 Y66.276 E4.6133
G1 X65.989 Y68.239 E4.7195
G1 X66.100 Y68.509 E4.7307
G1 X66.100 Y85.336 E5.3752
G1 X65.989 Y85.606 E5.3863
G1 X64.033 Y87.569 E5.4925
G1 X63.763 Y87.681 E5.5036
G1 X53.770 Y87.715 E5.8864
G1 X53.725 Y87.712 E5.8881
G1 X53.322 Y87.665 E5.9036
G1 X53.279 Y87.657 E5.9053
G1 X40.656 Y84.601 E6.4027
G1 X40.649 Y84.599 E6.4030
G1 X40.581 Y84.581 E6.4057
G1 X40.574 Y84.579 E6.4060
G1 X35.003 Y82.983 E6.6279
G1 X34.806 Y82.848 E6.6371
G1 X33.454 Y81.061 E6.7229
G1 X33.377 Y80.835 E6.7320
G1 X33.375 Y80.196 E6.7565
G1 X29.570 Y80.195 E6.9022
G1 X29.300 Y80.083 E6.9134
G1 X27.337 Y78.119 E7.0198
G1 X27.225 Y77.849 E7.0310
G1 X27.225 Y31.803 E8.7945
G1 X27.327 Y31.544 E8.8052
G1 X29.126 Y29.612 E8.9063
G1 X29.421 Y30.014 F3498
G92 E0
G1 X29.505 Y29.974 E0.0036 F672
G1 X35.366 Y29.556 E0.2286
G1 X38.524 Y28.124 E0.3614
G1 X50.586 Y22.186 E0.8763
G1 X50.587 Y22.185 E0.8763
G1 X50.614 Y22.172 E0.8775
G1 X50.615 Y22.172 E0.8775
G1 X54.244 Y20.471 E1.0310
G1 X54.269 Y20.462 E1.0321
G1 X54.937 Y20.313 E1.0583
G1 X54.964 Y20.310 E1.0593
G1 X63.584 Y20.296 E1.3895
G1 X63.674 Y20.334 E1.3932
G1 X65.504 Y22.161 E1.4922
G1 X65.542 Y22.251 E1.4960
G1 X65.542 Y38.922 E2.1344
G1 X65.504 Y39.012 E2.1382
G1 X63.678 Y40.838 E2.2371
G1 X63.588 Y40.875 E2.2408
G1 X58.505 Y40.875 E2.4355
G1 X58.415 Y40.838 E2.4392
G1 X58.214 Y40.637 E2.4501
G1 X56.941 Y42.062 E2.5233
G1 X56.862 Y42.104 E2.5268
G1 X55.337 Y42.290 E2.5856
G1 X43.261 Y44.630 E3.0567
G1 X43.261 Y48.864 E3.2188
G1 X45.870 Y48.864 E3.3188
G1 X45.960 Y48.901 E3.3225
G1 X47.078 Y50.020 E3.3831
G1 X48.197 Y48.901 E3.4437
G1 X48.287 Y48.864 E3.4474
G1 X57.718 Y48.864 E3.8086
G1 X57.808 Y48.901 E3.8123
G1 X59.632 Y50.716 E3.9109
G1 X59.670 Y50.805 E3.9146
G1 X59.724 Y61.263 E4.3151
G1 X60.967 Y61.263 E4.3627
G1 X61.057 Y61.301 E4.3665
G1 X62.881 Y63.115 E4.4650
G1 X62.919 Y63.205 E4.4687
G1 X62.936 Y66.652 E4.6007
G1 X63.663 Y66.653 E4.6286
G1 X63.752 Y66.691 E4.6323
G1 X65.573 Y68.516 E4.7310
G1 X65.610 Y68.606 E4.7348
G1 X65.610 Y85.239 E5.3718
G1 X65.573 Y85.329 E5.3755
G1 X63.754 Y87.154 E5.4742
G1 X63.664 Y87.191 E5.4779
G1 X53.783 Y87.224 E5.8564
G1 X53.768 Y87.224 E5.8569
G1 X53.394 Y87.180 E5.8714
G1 X53.380 Y87.177 E5.8719
G1 X40.774 Y84.125 E6.3687
G1 X40.771 Y84.125 E6.3688
G1 X40.709 Y84.108 E6.3712
G1 X40.706 Y84.107 E6.3713
G1 X35.214 Y82.534 E6.5901
G1 X35.148 Y82.489 E6.5932
G1 X33.893 Y80.829 E6.6729
G1 X33.867 Y80.754 E6.6760
G1 X33.863 Y79.706 E6.7161
G1 X29.668 Y79.705 E6.8768
G1 X29.578 Y79.668 E6.8805
G1 X27.752 Y77.842 E6.9794
G1 X27.715 Y77.751 E6.9831
G1 X27.715 Y31.896 E8.7393
G1 X27.749 Y31.810 E8.7429
G1 X29.421 Y30.014 E8.8369
G92 E0
G1 E-6.5000 F4998
; inner perimeter
G1 X32.185 Y34.264 F3498
G1 E0.0000 F4998
G92 E0
G1 X36.483 Y33.958 E0.1650 F560
G1 X40.435 Y32.165 E0.3312
G1 X52.536 Y26.208 E0.8478
G1 X55.585 Y24.779 E0.9768
G1 X61.072 Y24.770 E1.1869
G1 X61.072 Y27.284 E1.2832
G1 X56.319 Y27.284 E1.4652
G1 X56.319 Y36.227 E1.8077
G1 X54.093 Y37.182 E1.9005
G1 X54.086 Y37.979 E1.9310
G1 X38.791 Y40.943 E2.5277
G1 X38.791 Y53.334 E3.0022
G1 X43.353 Y53.334 E3.1770
G1 X43.353 Y58.271 E3.3661
G1 X39.355 Y58.271 E3.5192
G1 X39.355 Y63.661 E3.7256
G1 X54.778 Y63.661 E4.3163
G1 X54.778 Y58.271 E4.5227
G1 X50.803 Y58.271 E4.6750
G1 X50.803 Y53.334 E4.8640
G1 X55.213 Y53.334 E5.0329
G1 X55.277 Y65.733 E5.5078
G1 X55.281 Y65.733 E5.5080
G1 X55.281 Y71.962 E5.7465
G1 X56.388 Y71.962 E5.7889
G1 X56.388 Y80.103 E6.1007
G1 X61.140 Y80.103 E6.2827
G1 X61.140 Y82.726 E6.3832
G1 X56.484 Y82.726 E6.5615
G1 X55.382 Y82.765 E6.6037
G1 X54.111 Y82.755 E6.6524
G1 X41.882 Y79.794 E7.1343
G1 X38.330 Y78.777 E7.2758
G1 X38.317 Y75.237 E7.4114
G1 X32.185 Y75.236 E7.6462
G1 X32.185 Y72.450 E7.7529
G1 X32.481 Y72.375 E7.7647
G1 X32.721 Y72.824 E7.7842
G1 X33.036 Y73.208 E7.8032
G1 X33.420 Y73.522 E7.8222
G1 X33.857 Y73.756 E7.8412
G1 X34.332 Y73.900 E7.8602
G1 X34.826 Y73.949 E7.8792
G1 X35.320 Y73.900 E7.8982
G1 X35.794 Y73.756 E7.9172
G1 X36.232 Y73.522 E7.9362
G1 X36.615 Y73.208 E7.9552
G1 X36.930 Y72.824 E7.9742
G1 X37.164 Y72.387 E7.9932
G1 X37.308 Y71.912 E8.0122
G1 X37.357 Y71.418 E8.0312
G1 X37.308 Y70.924 E8.0502
G1 X37.164 Y70.449 E8.0692
G1 X36.930 Y70.012 E8.0882
G1 X36.615 Y69.628 E8.1072
G1 X36.232 Y69.314 E8.1262
G1 X35.794 Y69.080 E8.1452
G1 X35.320 Y68.936 E8.1642
G1 X34.826 Y68.887 E8.1832
G1 X34.332 Y68.936 E8.2022
G1 X33.857 Y69.080 E8.2212
G1 X33.420 Y69.314 E8.2402
G1 X33.036 Y69.628 E8.2592
G1 X32.721 Y70.012 E8.2782
G1 X32.481 Y70.461 E8.2977
G1 X32.185 Y70.386 E8.3094
G1 X32.185 Y38.913 E9.5148
G1 X32.481 Y38.839 E9.5265
G1 X32.721 Y39.287 E9.5460
G1 X33.036 Y39.671 E9.5650
G1 X33.420 Y39.986 E9.5840
G1 X33.851 Y40.216 E9.6028
G1 X34.330 Y40.363 E9.6220
G1 X34.826 Y40.412 E9.6410
G1 X35.320 Y40.364 E9.6600
G1 X35.794 Y40.220 E9.6790
G1 X36.232 Y39.986 E9.6980
G1 X36.615 Y39.671 E9.7170
G1 X36.930 Y39.287 E9.7360
G1 X37.164 Y38.850 E9.7550
G1 X37.308 Y38.375 E9.7741
G1 X37.357 Y37.881 E9.7931
G1 X37.308 Y37.388 E9.8121
G1 X37.164 Y36.913 E9.8311
G1 X36.930 Y36.475 E9.8501
G1 X36.615 Y36.092 E9.8691
G1 X36.232 Y35.777 E9.8881
G1 X35.794 Y35.543 E9.9071
G1 X35.320 Y35.399 E9.9261
G1 X34.826 Y35.350 E9.9451
G1 X34.332 Y35.399 E9.9641
G1 X33.857 Y35.543 E9.9831
G1 X33.420 Y35.777 E10.0021
G1 X33.036 Y36.092 E10.0211
G1 X32.721 Y36.475 E10.0401
G1 X32.481 Y36.924 E10.0596
G1 X32.185 Y36.850 E10.0713
G1 X32.185 Y34.264 E10.1703
; inner perimeter
G1 X31.695 Y33.808 F3498
G92 E0
G1 X36.361 Y33.476 E0.1791 F448
G1 X40.226 Y31.722 E0.3417
G1 X52.324 Y25.766 E0.8581
G1 X55.475 Y24.289 E0.9914
G1 X61.562 Y24.280 E1.2245
G1 X61.562 Y36.895 E1.7077
G1 X60.532 Y36.895 E1.7472
G1 X60.532 Y27.774 E2.0965
G1 X56.809 Y27.774 E2.2391
G1 X56.809 Y36.549 E2.5752
G1 X54.580 Y37.506 E2.6681
G1 X54.573 Y38.384 E2.7017
G1 X39.281 Y41.348 E3.2983
G1 X39.281 Y52.844 E3.7386
G1 X43.843 Y52.844 E3.9133
G1 X43.843 Y57.676 E4.0984
