; G-Code generated by Simplify3D(R) Version 3.0.0
; Feb 17, 2018 at 1:20:33 
; Settings Summary
;   processName,Process1
;   applyToModels,halterung_schlitten
;   profileName,Renkforce (modified)
;   profileVersion,2017-10-17 11:10:50
;   baseProfile,German RepRap NEO (modified)
;   printMaterial,
;   printQuality,
;   printExtruders,
;   extruderName,Primary Extruder
;   extruderToolheadNumber,0
;   extruderDiameter,0.5
;   extruderAutoWidth,0
;   extruderWidth,0.49
;   extrusionMultiplier,0.94
;   extruderUseRetract,1
;   extruderRetractionDistance,6.5
;   extruderExtraRestartDistance,0
;   extruderRetractionZLift,0
;   extruderRetractionSpeed,4998
;   extruderUseCoasting,0
;   extruderCoastingDistance,0.2
;   extruderUseWipe,0
;   extruderWipeDistance,5
;   primaryExtruder,0
;   layerHeight,0.2
;   topSolidLayers,4
;   bottomSolidLayers,3
;   perimeterOutlines,3
;   printPerimetersInsideOut,1
;   startPointOption,2
;   startPointOriginX,0
;   startPointOriginY,0
;   startPointOriginZ,300
;   sequentialIslands,0
;   spiralVaseMode,0
;   firstLayerHeightPercentage,100
;   firstLayerWidthPercentage,100
;   firstLayerUnderspeed,0.28
;   useRaft,0
;   raftExtruder,0
;   raftLayers,3
;   raftOffset,3
;   raftSeparationDistance,0.1
;   raftInfill,85
;   disableRaftBaseLayers,0
;   useSkirt,1
;   skirtExtruder,0
;   skirtLayers,1
;   skirtOutlines,4
;   skirtOffset,3
;   usePrimePillar,0
;   primePillarExtruder,999
;   primePillarWidth,12
;   primePillarLocation,7
;   primePillarSpeedMultiplier,1
;   useOozeShield,0
;   oozeShieldExtruder,999
;   oozeShieldOffset,2
;   oozeShieldOutlines,1
;   oozeShieldSidewallShape,1
;   oozeShieldSidewallAngle,30
;   oozeShieldSpeedMultiplier,1
;   infillExtruder,0
;   internalInfillPattern,Full Honeycomb
;   externalInfillPattern,Rectilinear
;   infillPercentage,15
;   outlineOverlapPercentage,15
;   infillExtrusionWidthPercentage,100
;   minInfillLength,3
;   infillLayerInterval,1
;   infillAngles,0,120,-120
;   overlapInfillAngles,0
;   generateSupport,1
;   supportExtruder,0
;   supportInfillPercentage,30
;   supportExtraInflation,0
;   denseSupportLayers,0
;   denseSupportInfillPercentage,75
;   supportLayerInterval,1
;   supportHorizontalPartOffset,1.5
;   supportUpperSeparationLayers,2
;   supportLowerSeparationLayers,2
;   supportType,0
;   supportGridSpacing,5
;   maxOverhangAngle,45
;   supportAngles,45
;   temperatureName,Primary Extruder
;   temperatureNumber,0
;   temperatureSetpointCount,3
;   temperatureSetpointLayers,1,2,3
;   temperatureSetpointTemperatures,197,193,189
;   temperatureStabilizeAtStartup,1
;   temperatureHeatedBed,0
;   temperatureRelayBetweenLayers,0
;   temperatureRelayBetweenLoops,0
;   fanLayers,1,3
;   fanSpeeds,0,80
;   blipFanToFullPower,0
;   adjustSpeedForCooling,1
;   minSpeedLayerTime,15
;   minCoolingSpeedSlowdown,20
;   increaseFanForCooling,0
;   minFanLayerTime,45
;   maxCoolingFanSpeed,100
;   increaseFanForBridging,0
;   bridgingFanSpeed,100
;   use5D,1
;   relativeEdistances,0
;   allowEaxisZeroing,1
;   independentExtruderAxes,0
;   includeM10123,0
;   stickySupport,1
;   applyToolheadOffsets,0
;   gcodeXoffset,0
;   gcodeYoffset,0
;   gcodeZoffset,0
;   overrideMachineDefinition,1
;   machineTypeOverride,0
;   strokeXoverride,150
;   strokeYoverride,150
;   strokeZoverride,150
;   originOffsetXoverride,0
;   originOffsetYoverride,0
;   originOffsetZoverride,0
;   homeXdirOverride,-1
;   homeYdirOverride,-1
;   homeZdirOverride,-1
;   flipXoverride,1
;   flipYoverride,-1
;   flipZoverride,1
;   toolheadOffsets,0,0|0,0|0,0|0,0|0,0|0,0
;   overrideFirmwareConfiguration,0
;   firmwareTypeOverride,RepRap (Marlin/Repetier/Sprinter)
;   GPXconfigOverride,r2
;   baudRateOverride,115200
;   overridePrinterModels,0
;   printerModelsOverride
;   startingGcode,G28 ; home all axes
;   layerChangeGcode,
;   retractionGcode,
;   toolChangeGcode,
;   endingGcode,M104 S0 ; turn off extruder,M140 S0 ; turn off bed,G28 X0  ; home X axis,G28 Y0  ; home Y axis,M84 ; disable motors,M107
;   createX3G,0
;   celebration,0
;   celebrationSong,Random Song
;   createMB5G,0
;   postProcessing,
;   defaultSpeed,2400
;   outlineUnderspeed,0.5
;   solidInfillUnderspeed,0.8
;   supportUnderspeed,0.8
;   rapidXYspeed,3498
;   rapidZspeed,1002
;   minBridgingArea,50
;   bridgingExtraInflation,0
;   bridgingExtrusionMultiplier,1
;   bridgingSpeedMultiplier,1
;   filamentDiameter,1.75
;   filamentPricePerKg,46
;   filamentDensity,1.25
;   useMinPrintHeight,0
;   minPrintHeight,0
;   useMaxPrintHeight,0
;   maxPrintHeight,0
;   useDiaphragm,0
;   diaphragmLayerInterval,20
;   robustSlicing,1
;   mergeAllIntoSolid,0
;   onlyRetractWhenCrossingOutline,1
;   retractBetweenLayers,1
;   useRetractionMinTravel,0
;   retractionMinTravel,3
;   retractWhileWiping,0
;   onlyWipeOutlines,1
;   avoidCrossingOutline,0
;   maxMovementDetourFactor,10
;   toolChangeRetractionDistance,0
;   toolChangeExtraRestartDistance,0
;   toolChangeRetractionSpeed,360
;   allowThinWallGapFill,1
;   thinWallAllowedOverlapPercentage,10
;   horizontalSizeCompensation,0
G90
M82
M106 S0
M104 S197 T0
M109 S197 T0
G28 ; home all axes
G92 E0
G1 E-6.5000 F4998
G1 Z0.200 F1002
; layer 1, Z = 0.2
T0
; tool H0.200 W0.490
; skirt
G1 X49.510 Y25.572 F3498
G1 E0.0000 F1499
G92 E0
G1 X51.563 Y23.368 E0.1154 F672
G1 X52.150 Y23.087 E0.1403
G1 X58.026 Y22.669 E0.3659
G1 X60.923 Y21.355 E0.4877
G1 X72.967 Y15.426 E1.0019
G1 X72.974 Y15.422 E1.0022
G1 X73.008 Y15.406 E1.0036
G1 X73.015 Y15.402 E1.0039
G1 X76.720 Y13.666 E1.1606
G1 X76.898 Y13.605 E1.1678
G1 X77.723 Y13.421 E1.2002
G1 X77.909 Y13.400 E1.2074
G1 X87.503 Y13.386 E1.5748
G1 X88.134 Y13.647 E1.6009
G1 X90.377 Y15.887 E1.7224
G1 X90.639 Y16.518 E1.7485
G1 X90.639 Y33.774 E2.4094
G1 X90.378 Y34.405 E2.4355
G1 X88.138 Y36.644 E2.5569
G1 X87.508 Y36.906 E2.5830
G1 X81.840 Y36.906 E2.8001
G1 X81.728 Y36.859 E2.8047
G1 X80.887 Y37.801 E2.8531
G1 X80.333 Y38.091 E2.8770
G1 X78.593 Y38.303 E2.9441
G1 X67.758 Y40.403 E3.3668
G1 X67.758 Y41.954 E3.4262
G1 X69.190 Y41.954 E3.4811
G1 X69.820 Y42.215 E3.5072
G1 X70.106 Y42.501 E3.5227
G1 X70.392 Y42.215 E3.5382
G1 X71.022 Y41.954 E3.5643
G1 X81.037 Y41.954 E3.9479
G1 X81.665 Y42.213 E3.9739
G1 X83.903 Y44.439 E4.0948
G1 X84.165 Y45.067 E4.1208
G1 X84.214 Y54.354 E4.4765
G1 X84.286 Y54.354 E4.4793
G1 X84.914 Y54.613 E4.5053
G1 X87.152 Y56.839 E4.6262
G1 X87.414 Y57.466 E4.6522
G1 X87.428 Y60.151 E4.7551
G1 X87.576 Y60.151 E4.7608
G1 X88.207 Y60.412 E4.7869
G1 X90.447 Y62.652 E4.9082
G1 X90.708 Y63.283 E4.9343
G1 X90.708 Y80.095 E5.5782
G1 X90.447 Y80.725 E5.6043
G1 X88.207 Y82.965 E5.7257
G1 X87.576 Y83.226 E5.7518
G1 X79.618 Y83.226 E6.0566
G1 X78.554 Y83.264 E6.0974
G1 X78.535 Y83.265 E6.0981
G1 X78.450 Y83.266 E6.1014
G1 X78.431 Y83.266 E6.1021
G1 X76.728 Y83.252 E6.1673
G1 X76.629 Y83.246 E6.1711
G1 X76.190 Y83.191 E6.1880
G1 X76.093 Y83.174 E6.1918
G1 X63.448 Y80.112 E6.6901
G1 X63.431 Y80.108 E6.6908
G1 X63.354 Y80.087 E6.6938
G1 X63.336 Y80.083 E6.6945
G1 X57.607 Y78.441 E6.9228
G1 X57.148 Y78.126 E6.9441
G1 X55.604 Y76.086 E7.0421
G1 X55.486 Y75.736 E7.0563
G1 X52.402 Y75.735 E7.1743
G1 X51.772 Y75.474 E7.2005
G1 X49.533 Y73.234 E7.3218
G1 X49.272 Y72.604 E7.3479
G1 X49.272 Y26.177 E9.1260
G1 X49.510 Y25.572 E9.1509
G1 X49.932 Y25.838 F3498
G92 E0
G1 X51.858 Y23.770 E0.1082 F672
G1 X52.278 Y23.569 E0.1260
G1 X58.149 Y23.151 E0.3515
G1 X61.133 Y21.798 E0.4769
G1 X73.182 Y15.866 E0.9913
G1 X73.188 Y15.863 E0.9916
G1 X73.219 Y15.848 E0.9929
G1 X73.224 Y15.846 E0.9931
G1 X76.904 Y14.121 E1.1488
G1 X77.031 Y14.078 E1.1539
G1 X77.803 Y13.905 E1.1842
G1 X77.936 Y13.890 E1.1893
G1 X87.406 Y13.876 E1.5520
G1 X87.857 Y14.063 E1.5707
G1 X89.962 Y16.165 E1.6846
G1 X90.149 Y16.616 E1.7033
G1 X90.149 Y33.677 E2.3567
G1 X89.963 Y34.127 E2.3754
G1 X87.861 Y36.229 E2.4893
G1 X87.410 Y36.416 E2.5079
G1 X81.938 Y36.416 E2.7175
G1 X81.594 Y36.273 E2.7318
G1 X80.580 Y37.408 E2.7901
G1 X80.185 Y37.615 E2.8071
G1 X78.517 Y37.818 E2.8715
G1 X67.268 Y39.999 E3.3103
G1 X67.268 Y42.444 E3.4040
G1 X69.092 Y42.444 E3.4739
G1 X69.542 Y42.631 E3.4925
G1 X70.106 Y43.194 E3.5230
G1 X70.669 Y42.631 E3.5536
G1 X71.120 Y42.444 E3.5722
G1 X80.940 Y42.444 E3.9483
G1 X81.389 Y42.629 E3.9669
G1 X83.488 Y44.718 E4.0804
G1 X83.676 Y45.166 E4.0990
G1 X83.726 Y54.844 E4.4696
G1 X84.189 Y54.844 E4.4873
G1 X84.638 Y55.029 E4.5059
G1 X86.737 Y57.118 E4.6194
G1 X86.925 Y57.566 E4.6380
G1 X86.941 Y60.641 E4.7557
G1 X87.479 Y60.641 E4.7764
G1 X87.929 Y60.828 E4.7950
G1 X90.031 Y62.930 E4.9089
G1 X90.218 Y63.380 E4.9275
G1 X90.218 Y79.997 E5.5640
G1 X90.031 Y80.447 E5.5826
G1 X87.929 Y82.549 E5.6965
G1 X87.479 Y82.736 E5.7151
G1 X79.609 Y82.736 E6.0165
G1 X78.539 Y82.775 E6.0576
G1 X78.525 Y82.775 E6.0581
G1 X78.446 Y82.776 E6.0611
G1 X78.432 Y82.776 E6.0616
G1 X76.746 Y82.762 E6.1262
G1 X76.676 Y82.758 E6.1289
G1 X76.264 Y82.707 E6.1448
G1 X76.195 Y82.694 E6.1475
G1 X63.566 Y79.637 E6.6452
G1 X63.554 Y79.633 E6.6456
G1 X63.481 Y79.614 E6.6485
G1 X63.469 Y79.611 E6.6490
G1 X57.819 Y77.992 E6.8741
G1 X57.490 Y77.767 E6.8893
G1 X56.042 Y75.854 E6.9813
G1 X55.915 Y75.477 E6.9965
G1 X55.914 Y75.246 E7.0053
G1 X52.500 Y75.245 E7.1361
G1 X52.050 Y75.059 E7.1547
G1 X49.949 Y72.957 E7.2686
G1 X49.762 Y72.507 E7.2872
G1 X49.762 Y26.270 E9.0580
G1 X49.932 Y25.838 E9.0758
G1 X50.354 Y26.104 F3498
G92 E0
G1 X52.154 Y24.172 E0.1011 F672
G1 X52.405 Y24.052 E0.1118
G1 X58.271 Y23.634 E0.3370
G1 X61.342 Y22.241 E0.4662
G1 X73.398 Y16.306 E0.9808
G1 X73.401 Y16.304 E0.9809
G1 X73.430 Y16.290 E0.9822
G1 X73.433 Y16.289 E0.9823
G1 X77.088 Y14.576 E1.1369
G1 X77.164 Y14.550 E1.1400
G1 X77.884 Y14.389 E1.1682
G1 X77.964 Y14.380 E1.1713
G1 X87.309 Y14.367 E1.5292
G1 X87.579 Y14.478 E1.5404
G1 X89.547 Y16.443 E1.6469
G1 X89.659 Y16.713 E1.6581
G1 X89.659 Y33.579 E2.3041
G1 X89.547 Y33.849 E2.3153
G1 X87.583 Y35.814 E2.4217
G1 X87.313 Y35.925 E2.4329
G1 X82.035 Y35.925 E2.6350
G1 X81.765 Y35.814 E2.6462
G1 X81.544 Y35.593 E2.6581
G1 X80.274 Y37.015 E2.7312
G1 X80.037 Y37.139 E2.7414
G1 X78.441 Y37.334 E2.8030
G1 X66.778 Y39.595 E3.2580
G1 X66.778 Y42.934 E3.3859
G1 X68.995 Y42.934 E3.4708
G1 X69.265 Y43.046 E3.4820
G1 X70.106 Y43.887 E3.5275
G1 X70.947 Y43.046 E3.5731
G1 X71.217 Y42.934 E3.5843
G1 X80.842 Y42.934 E3.9529
G1 X81.112 Y43.045 E3.9641
G1 X83.074 Y44.997 E4.0701
G1 X83.186 Y45.266 E4.0813
G1 X83.239 Y55.334 E4.4669
G1 X84.091 Y55.334 E4.4995
G1 X84.361 Y55.445 E4.5107
G1 X86.323 Y57.397 E4.6167
G1 X86.435 Y57.666 E4.6278
G1 X86.453 Y61.131 E4.7606
G1 X87.382 Y61.131 E4.7961
G1 X87.652 Y61.243 E4.8073
G1 X89.616 Y63.207 E4.9137
G1 X89.728 Y63.478 E4.9249
G1 X89.728 Y79.900 E5.5539
G1 X89.616 Y80.170 E5.5651
G1 X87.652 Y82.134 E5.6714
G1 X87.382 Y82.246 E5.6826
G1 X79.600 Y82.246 E5.9807
G1 X78.524 Y82.285 E6.0219
G1 X78.516 Y82.285 E6.0222
G1 X78.442 Y82.286 E6.0251
G1 X78.433 Y82.286 E6.0254
G1 X76.764 Y82.272 E6.0893
G1 X76.722 Y82.270 E6.0909
G1 X76.338 Y82.222 E6.1057
G1 X76.297 Y82.215 E6.1073
G1 X63.684 Y79.161 E6.6044
G1 X63.676 Y79.159 E6.6047
G1 X63.609 Y79.141 E6.6073
G1 X63.601 Y79.139 E6.6076
G1 X58.030 Y77.543 E6.8296
G1 X57.833 Y77.408 E6.8387
G1 X56.481 Y75.621 E6.9245
G1 X56.405 Y75.395 E6.9337
G1 X56.402 Y74.756 E6.9582
G1 X52.598 Y74.755 E7.1039
G1 X52.328 Y74.643 E7.1151
G1 X50.364 Y72.679 E7.2214
G1 X50.252 Y72.409 E7.2326
G1 X50.252 Y26.363 E8.9962
G1 X50.354 Y26.104 E9.0068
G1 X50.776 Y26.370 F3498
G92 E0
G1 X52.449 Y24.574 E0.0940 F672
G1 X52.533 Y24.534 E0.0976
G1 X58.394 Y24.116 E0.3226
G1 X61.551 Y22.684 E0.4554
G1 X73.613 Y16.746 E0.9703
G1 X73.614 Y16.746 E0.9703
G1 X73.641 Y16.733 E0.9715
G1 X73.642 Y16.732 E0.9715
G1 X77.271 Y15.031 E1.1250
G1 X77.297 Y15.023 E1.1261
G1 X77.965 Y14.873 E1.1523
G1 X77.991 Y14.870 E1.1533
G1 X87.212 Y14.857 E1.5064
G1 X87.302 Y14.894 E1.5102
G1 X89.132 Y16.721 E1.6092
G1 X89.169 Y16.811 E1.6129
G1 X89.169 Y33.482 E2.2514
G1 X89.132 Y33.572 E2.2551
G1 X87.305 Y35.398 E2.3541
G1 X87.215 Y35.435 E2.3578
G1 X82.133 Y35.435 E2.5525
G1 X82.043 Y35.398 E2.5562
G1 X81.540 Y34.895 E2.5834
G1 X81.498 Y34.909 E2.5851
G1 X79.968 Y36.622 E2.6731
G1 X79.889 Y36.664 E2.6765
G1 X78.364 Y36.850 E2.7353
G1 X66.288 Y39.190 E3.2065
G1 X66.288 Y43.424 E3.3686
G1 X68.897 Y43.424 E3.4685
G1 X68.987 Y43.461 E3.4723
G1 X70.106 Y44.580 E3.5328
G1 X71.224 Y43.461 E3.5934
G1 X71.314 Y43.424 E3.5972
G1 X80.745 Y43.424 E3.9584
G1 X80.835 Y43.461 E3.9621
G1 X82.659 Y45.276 E4.0606
G1 X82.697 Y45.366 E4.0643
G1 X82.751 Y55.824 E4.4649
G1 X83.994 Y55.824 E4.5125
G1 X84.084 Y55.861 E4.5162
G1 X85.908 Y57.676 E4.6148
G1 X85.946 Y57.765 E4.6185
G1 X85.966 Y61.621 E4.7662
G1 X87.284 Y61.621 E4.8167
G1 X87.374 Y61.659 E4.8204
G1 X89.200 Y63.485 E4.9193
G1 X89.238 Y63.575 E4.9231
G1 X89.238 Y79.802 E5.5445
G1 X89.200 Y79.892 E5.5483
G1 X87.374 Y81.719 E5.6472
G1 X87.284 Y81.756 E5.6509
G1 X79.591 Y81.756 E5.9455
G1 X78.509 Y81.795 E5.9870
G1 X78.506 Y81.795 E5.9871
G1 X78.437 Y81.796 E5.9898
G1 X78.435 Y81.796 E5.9899
G1 X76.782 Y81.782 E6.0532
G1 X76.768 Y81.782 E6.0537
G1 X76.412 Y81.738 E6.0674
G1 X76.398 Y81.735 E6.0680
G1 X63.801 Y78.685 E6.5644
G1 X63.799 Y78.685 E6.5645
G1 X63.736 Y78.668 E6.5669
G1 X63.734 Y78.667 E6.5670
G1 X58.242 Y77.094 E6.7859
G1 X58.176 Y77.049 E6.7889
G1 X56.920 Y75.389 E6.8686
G1 X56.895 Y75.314 E6.8717
G1 X56.891 Y74.266 E6.9118
G1 X52.695 Y74.265 E7.0725
G1 X52.605 Y74.228 E7.0762
G1 X50.779 Y72.402 E7.1751
G1 X50.742 Y72.312 E7.1788
G1 X50.742 Y26.456 E8.9351
G1 X50.776 Y26.370 E8.9386
G92 E0
G1 E-6.5000 F4998
; inner perimeter
G1 X55.212 Y28.824 F3498
G1 E0.0000 F4998
G92 E0
G1 X59.510 Y28.518 E0.1650 F560
G1 X63.463 Y26.726 E0.3312
G1 X75.564 Y20.768 E0.8478
G1 X78.612 Y19.339 E0.9768
G1 X84.699 Y19.330 E1.2099
G1 X84.699 Y21.844 E1.3062
G1 X79.947 Y21.844 E1.4882
G1 X79.947 Y30.715 E1.8279
G1 X77.121 Y31.671 E1.9422
G1 X77.114 Y32.539 E1.9754
G1 X61.818 Y35.504 E2.5721
G1 X61.818 Y47.894 E3.0467
G1 X66.381 Y47.894 E3.2214
G1 X66.381 Y52.831 E3.4105
G1 X62.383 Y52.831 E3.5636
G1 X62.383 Y58.221 E3.7700
G1 X77.806 Y58.221 E4.3607
G1 X77.806 Y52.831 E4.5672
G1 X73.831 Y52.831 E4.7194
G1 X73.831 Y47.894 E4.9085
G1 X78.240 Y47.894 E5.0773
G1 X78.304 Y60.294 E5.5522
G1 X78.308 Y60.294 E5.5524
G1 X78.308 Y66.522 E5.7909
G1 X80.015 Y66.522 E5.8563
G1 X80.015 Y74.663 E6.1681
G1 X84.768 Y74.663 E6.3501
G1 X84.768 Y77.286 E6.4506
G1 X79.511 Y77.286 E6.6519
G1 X78.410 Y77.326 E6.6941
G1 X77.139 Y77.315 E6.7428
G1 X64.909 Y74.354 E7.2247
G1 X61.357 Y73.337 E7.3662
G1 X61.344 Y69.797 E7.5018
G1 X55.212 Y69.796 E7.7366
G1 X55.212 Y67.010 E7.8433
G1 X55.509 Y66.935 E7.8550
G1 X55.749 Y67.384 E7.8745
G1 X56.064 Y67.768 E7.8935
G1 X56.447 Y68.083 E7.9125
G1 X56.885 Y68.316 E7.9315
G1 X57.359 Y68.460 E7.9505
G1 X57.853 Y68.509 E7.9695
G1 X58.347 Y68.460 E7.9886
G1 X58.822 Y68.316 E8.0076
G1 X59.259 Y68.083 E8.0266
G1 X59.643 Y67.768 E8.0456
G1 X59.958 Y67.384 E8.0646
G1 X60.191 Y66.947 E8.0836
G1 X60.335 Y66.472 E8.1026
G1 X60.384 Y65.978 E8.1216
G1 X60.335 Y65.484 E8.1406
G1 X60.191 Y65.010 E8.1596
G1 X59.958 Y64.572 E8.1786
G1 X59.643 Y64.189 E8.1976
G1 X59.259 Y63.874 E8.2166
G1 X58.822 Y63.640 E8.2356
G1 X58.347 Y63.496 E8.2546
G1 X57.853 Y63.447 E8.2736
G1 X57.359 Y63.496 E8.2926
G1 X56.885 Y63.640 E8.3116
G1 X56.447 Y63.874 E8.3306
G1 X56.064 Y64.189 E8.3496
G1 X55.749 Y64.572 E8.3686
G1 X55.509 Y65.021 E8.3881
G1 X55.212 Y64.947 E8.3998
G1 X55.212 Y33.473 E9.6052
G1 X55.509 Y33.399 E9.6169
G1 X55.749 Y33.848 E9.6364
G1 X56.064 Y34.231 E9.6554
G1 X56.447 Y34.546 E9.6744
G1 X56.878 Y34.776 E9.6932
G1 X57.357 Y34.924 E9.7123
G1 X57.853 Y34.972 E9.7314
G1 X58.347 Y34.924 E9.7504
G1 X58.822 Y34.780 E9.7694
G1 X59.259 Y34.546 E9.7884
G1 X59.643 Y34.231 E9.8074
G1 X59.958 Y33.848 E9.8264
G1 X60.191 Y33.410 E9.8454
G1 X60.335 Y32.935 E9.8644
G1 X60.384 Y32.442 E9.8834
G1 X60.335 Y31.948 E9.9024
G1 X60.191 Y31.473 E9.9214
G1 X59.958 Y31.035 E9.9404
G1 X59.643 Y30.652 E9.9594
G1 X59.259 Y30.337 E9.9784
G1 X58.822 Y30.103 E9.9975
G1 X58.347 Y29.959 E10.0165
G1 X57.853 Y29.911 E10.0355
