; G-Code generated by Simplify3D(R) Version 3.0.0
; Sep 18, 2017 at 10:27:59 
; Settings Summary
;   processName,Process1
;   applyToModels,bodyfull
;   profileName,1.5 fein (modified)
;   profileVersion,2017-06-09 12:06:14
;   baseProfile,German RepRap NEO (modified)
;   printMaterial,
;   printQuality,
;   printExtruders,
;   extruderName,Primary Extruder
;   extruderToolheadNumber,0
;   extruderDiameter,0.5
;   extruderAutoWidth,0
;   extruderWidth,0.49
;   extrusionMultiplier,0.9
;   extruderUseRetract,1
;   extruderRetractionDistance,6.5
;   extruderExtraRestartDistance,0
;   extruderRetractionZLift,0
;   extruderRetractionSpeed,5000
;   extruderUseCoasting,0
;   extruderCoastingDistance,0.2
;   extruderUseWipe,0
;   extruderWipeDistance,5
;   primaryExtruder,0
;   layerHeight,0.2
;   topSolidLayers,4
;   bottomSolidLayers,3
;   perimeterOutlines,3
;   printPerimetersInsideOut,1
;   startPointOption,2
;   startPointOriginX,0
;   startPointOriginY,0
;   startPointOriginZ,300
;   sequentialIslands,0
;   spiralVaseMode,0
;   firstLayerHeightPercentage,80
;   firstLayerWidthPercentage,100
;   firstLayerUnderspeed,0.3
;   useRaft,0
;   raftExtruder,0
;   raftLayers,3
;   raftOffset,3
;   raftSeparationDistance,0.1
;   raftInfill,85
;   disableRaftBaseLayers,0
;   useSkirt,1
;   skirtExtruder,0
;   skirtLayers,1
;   skirtOutlines,3
;   skirtOffset,2
;   usePrimePillar,0
;   primePillarExtruder,999
;   primePillarWidth,12
;   primePillarLocation,7
;   primePillarSpeedMultiplier,1
;   useOozeShield,0
;   oozeShieldExtruder,999
;   oozeShieldOffset,2
;   oozeShieldOutlines,1
;   oozeShieldSidewallShape,1
;   oozeShieldSidewallAngle,30
;   oozeShieldSpeedMultiplier,1
;   infillExtruder,0
;   internalInfillPattern,Full Honeycomb
;   externalInfillPattern,Rectilinear
;   infillPercentage,15
;   outlineOverlapPercentage,15
;   infillExtrusionWidthPercentage,100
;   minInfillLength,3
;   infillLayerInterval,1
;   infillAngles,0,120,-120
;   overlapInfillAngles,0
;   generateSupport,1
;   supportExtruder,0
;   supportInfillPercentage,30
;   supportExtraInflation,0
;   denseSupportLayers,0
;   denseSupportInfillPercentage,75
;   supportLayerInterval,1
;   supportHorizontalPartOffset,1.5
;   supportUpperSeparationLayers,2
;   supportLowerSeparationLayers,2
;   supportType,0
;   supportGridSpacing,4
;   maxOverhangAngle,45
;   supportAngles,45
;   temperatureName,Primary Extruder
;   temperatureNumber,0
;   temperatureSetpointCount,3
;   temperatureSetpointLayers,1,2,3
;   temperatureSetpointTemperatures,207,199,192
;   temperatureStabilizeAtStartup,1
;   temperatureHeatedBed,0
;   temperatureRelayBetweenLayers,0
;   temperatureRelayBetweenLoops,0
;   fanLayers,1,4
;   fanSpeeds,0,100
;   blipFanToFullPower,0
;   adjustSpeedForCooling,1
;   minSpeedLayerTime,15
;   minCoolingSpeedSlowdown,20
;   increaseFanForCooling,0
;   minFanLayerTime,45
;   maxCoolingFanSpeed,100
;   increaseFanForBridging,0
;   bridgingFanSpeed,100
;   use5D,1
;   relativeEdistances,0
;   allowEaxisZeroing,1
;   independentExtruderAxes,0
;   includeM10123,0
;   stickySupport,1
;   applyToolheadOffsets,0
;   gcodeXoffset,0
;   gcodeYoffset,0
;   gcodeZoffset,0
;   overrideMachineDefinition,1
;   machineTypeOverride,0
;   strokeXoverride,150
;   strokeYoverride,150
;   strokeZoverride,150
;   originOffsetXoverride,0
;   originOffsetYoverride,0
;   originOffsetZoverride,0
;   homeXdirOverride,-1
;   homeYdirOverride,-1
;   homeZdirOverride,-1
;   flipXoverride,1
;   flipYoverride,-1
;   flipZoverride,1
;   toolheadOffsets,0,0|0,0|0,0|0,0|0,0|0,0
;   overrideFirmwareConfiguration,0
;   firmwareTypeOverride,RepRap (Marlin/Repetier/Sprinter)
;   GPXconfigOverride,r2
;   baudRateOverride,115200
;   overridePrinterModels,0
;   printerModelsOverride
;   startingGcode,G28 ; home all axes
;   layerChangeGcode,
;   retractionGcode,
;   toolChangeGcode,
;   endingGcode,M104 S0 ; turn off extruder,M140 S0 ; turn off bed,G28 X0  ; home X axis,G28 Y0  ; home Y axis,M84 ; disable motors,M107
;   createX3G,0
;   celebration,0
;   celebrationSong,Random Song
;   createMB5G,0
;   postProcessing,
;   defaultSpeed,2400
;   outlineUnderspeed,0.5
;   solidInfillUnderspeed,0.8
;   supportUnderspeed,0.8
;   rapidXYspeed,3500
;   rapidZspeed,1000
;   minBridgingArea,50
;   bridgingExtraInflation,0
;   bridgingExtrusionMultiplier,1
;   bridgingSpeedMultiplier,1
;   filamentDiameter,1.75
;   filamentPricePerKg,46
;   filamentDensity,1.25
;   useMinPrintHeight,0
;   minPrintHeight,0
;   useMaxPrintHeight,0
;   maxPrintHeight,0
;   useDiaphragm,0
;   diaphragmLayerInterval,20
;   robustSlicing,1
;   mergeAllIntoSolid,0
;   onlyRetractWhenCrossingOutline,1
;   retractBetweenLayers,1
;   useRetractionMinTravel,0
;   retractionMinTravel,3
;   retractWhileWiping,0
;   onlyWipeOutlines,1
;   avoidCrossingOutline,0
;   maxMovementDetourFactor,10
;   toolChangeRetractionDistance,0
;   toolChangeExtraRestartDistance,0
;   toolChangeRetractionSpeed,360
;   allowThinWallGapFill,1
;   thinWallAllowedOverlapPercentage,10
;   horizontalSizeCompensation,0
G90
M82
M106 S0
M104 S207 T0
M109 S207 T0
G28 ; home all axes
G92 E0
G1 E-6.5000 F5000
G1 Z0.160 F1000
; layer 1, Z = 0.16
T0
; tool H0.200 W0.490
; skirt
G1 X9.514 Y9.893 F3500
G1 E0.0000 F1500
G92 E0
G1 X9.964 Y9.706 E0.0179 F720
G1 X15.727 Y9.706 E0.2292
G1 X16.178 Y9.893 E0.2471
G1 X17.694 Y11.409 E0.3257
G1 X17.880 Y11.859 E0.3436
G1 X17.880 Y22.251 E0.7246
G1 X23.950 Y22.251 E0.9472
G1 X23.950 Y11.858 E1.3283
G1 X24.137 Y11.408 E1.3462
G1 X25.653 Y9.892 E1.4248
G1 X26.103 Y9.706 E1.4427
G1 X49.800 Y9.706 E2.3116
G1 X50.250 Y9.892 E2.3295
G1 X51.766 Y11.408 E2.4081
G1 X51.953 Y11.858 E2.4260
G1 X51.953 Y15.668 E2.5657
G1 X52.498 Y15.668 E2.5856
G1 X52.948 Y15.854 E2.6035
G1 X54.464 Y17.371 E2.6821
G1 X54.651 Y17.821 E2.7000
G1 X54.651 Y24.356 E2.9396
G1 X56.427 Y34.951 E3.3336
G1 X56.433 Y35.002 E3.3355
G1 X56.451 Y35.218 E3.3434
G1 X56.453 Y35.269 E3.3453
G1 X56.453 Y45.147 E3.7075
G1 X56.266 Y45.598 E3.7254
G1 X54.750 Y47.114 E3.8040
G1 X54.300 Y47.300 E3.8219
G1 X51.989 Y47.300 E3.9066
G1 X51.990 Y61.571 E4.4299
G1 X51.978 Y61.690 E4.4343
G1 X51.877 Y62.195 E4.4532
G1 X51.842 Y62.310 E4.4576
G1 X51.218 Y63.817 E4.5174
G1 X51.972 Y64.571 E4.5565
G1 X52.158 Y65.022 E4.5744
G1 X52.156 Y67.166 E4.6530
G1 X51.969 Y67.616 E4.6709
G1 X47.891 Y71.689 E4.8822
G1 X47.441 Y71.875 E4.9001
G1 X45.296 Y71.873 E4.9787
G1 X44.846 Y71.686 E4.9966
G1 X44.093 Y70.931 E5.0357
G1 X42.584 Y71.554 E5.0955
G1 X42.468 Y71.589 E5.1000
G1 X41.959 Y71.689 E5.1190
G1 X41.838 Y71.701 E5.1235
G1 X41.401 Y71.699 E5.1395
G1 X40.943 Y72.254 E5.1659
G1 X40.943 Y75.522 E5.2857
G1 X40.757 Y75.972 E5.3036
G1 X39.241 Y77.488 E5.3822
G1 X38.791 Y77.675 E5.4001
G1 X35.564 Y77.675 E5.5184
G1 X35.553 Y77.692 E5.5192
G1 X35.537 Y77.720 E5.5203
G1 X35.281 Y78.112 E5.5375
G1 X35.254 Y78.152 E5.5393
G1 X35.129 Y78.315 E5.5468
G1 X35.098 Y78.352 E5.5486
G1 X34.540 Y78.971 E5.5791
G1 X34.495 Y79.016 E5.5815
G1 X34.292 Y79.199 E5.5915
G1 X34.242 Y79.240 E5.5939
G1 X33.540 Y79.750 E5.6257
G1 X33.486 Y79.785 E5.6280
G1 X33.249 Y79.921 E5.6381
G1 X33.192 Y79.951 E5.6404
G1 X32.399 Y80.303 E5.6722
G1 X32.339 Y80.326 E5.6746
G1 X32.079 Y80.411 E5.6846
G1 X32.017 Y80.428 E5.6870
G1 X31.175 Y80.607 E5.7186
G1 X31.114 Y80.616 E5.7208
G1 X30.854 Y80.645 E5.7304
G1 X30.793 Y80.649 E5.7326
G1 X28.987 Y80.666 E5.7989
G1 X28.968 Y80.666 E5.7996
G1 X28.887 Y80.664 E5.8025
G1 X28.868 Y80.663 E5.8032
G1 X28.428 Y80.640 E5.8194
G1 X28.380 Y80.636 E5.8211
G1 X28.177 Y80.609 E5.8287
G1 X28.129 Y80.601 E5.8304
G1 X27.314 Y80.428 E5.8610
G1 X27.252 Y80.411 E5.8633
G1 X26.992 Y80.326 E5.8734
G1 X26.932 Y80.303 E5.8757
G1 X26.171 Y79.964 E5.9063
G1 X26.128 Y79.943 E5.9081
G1 X25.947 Y79.845 E5.9156
G1 X25.906 Y79.821 E5.9173
G1 X25.513 Y79.566 E5.9345
G1 X25.487 Y79.547 E5.9357
G1 X25.376 Y79.467 E5.9407
G1 X25.351 Y79.447 E5.9419
G1 X24.987 Y79.153 E5.9591
G1 X24.951 Y79.121 E5.9608
G1 X24.802 Y78.980 E5.9683
G1 X24.768 Y78.945 E5.9701
G1 X24.233 Y78.352 E5.9994
G1 X24.203 Y78.315 E6.0012
G1 X24.078 Y78.152 E6.0087
G1 X24.050 Y78.112 E6.0105
G1 X23.776 Y77.691 E6.0289
G1 X23.767 Y77.675 E6.0296
G1 X20.514 Y77.675 E6.1489
G1 X20.063 Y77.488 E6.1667
G1 X18.547 Y75.972 E6.2454
G1 X18.361 Y75.522 E6.2632
G1 X18.361 Y72.182 E6.3857
G1 X17.968 Y71.665 E6.4095
G1 X17.893 Y71.664 E6.4123
G1 X17.775 Y71.652 E6.4166
G1 X17.276 Y71.551 E6.4353
G1 X17.162 Y71.517 E6.4397
G1 X13.433 Y69.967 E6.5878
G1 X13.327 Y69.910 E6.5922
G1 X12.900 Y69.624 E6.6110
G1 X12.807 Y69.548 E6.6154
G1 X9.878 Y66.615 E6.7674
G1 X9.802 Y66.522 E6.7718
G1 X9.517 Y66.095 E6.7906
G1 X9.460 Y65.989 E6.7950
G1 X7.915 Y62.255 E6.9432
G1 X7.880 Y62.140 E6.9476
G1 X7.780 Y61.636 E6.9665
G1 X7.768 Y61.516 E6.9709
G1 X7.768 Y33.268 E8.0067
G1 X5.288 Y25.432 E8.3081
G1 X5.266 Y25.340 E8.3116
G1 X5.205 Y24.944 E8.3263
G1 X5.198 Y24.850 E8.3297
G1 X5.198 Y17.821 E8.5875
G1 X5.384 Y17.371 E8.6054
G1 X6.901 Y15.854 E8.6840
G1 X7.351 Y15.668 E8.7019
G1 X7.811 Y15.668 E8.7187
G1 X7.811 Y11.859 E8.8584
G1 X7.998 Y11.409 E8.8763
G1 X9.514 Y9.893 E8.9549
G1 X9.792 Y10.308 F3500
G92 E0
G1 X10.062 Y10.196 E0.0107 F720
G1 X15.630 Y10.196 E0.2149
G1 X15.900 Y10.308 E0.2256
G1 X17.278 Y11.686 E0.2971
G1 X17.390 Y11.956 E0.3078
G1 X17.390 Y22.741 E0.7033
G1 X24.440 Y22.741 E0.9618
G1 X24.440 Y11.956 E1.3573
G1 X24.552 Y11.686 E1.3680
G1 X25.930 Y10.307 E1.4395
G1 X26.201 Y10.196 E1.4502
G1 X49.703 Y10.196 E2.3120
G1 X49.973 Y10.307 E2.3227
G1 X51.351 Y11.686 E2.3942
G1 X51.463 Y11.956 E2.4049
G1 X51.463 Y16.158 E2.5590
G1 X52.400 Y16.158 E2.5934
G1 X52.671 Y16.270 E2.6041
G1 X54.049 Y17.648 E2.6756
G1 X54.161 Y17.918 E2.6863
G1 X54.161 Y24.397 E2.9239
G1 X55.942 Y35.022 E3.3189
G1 X55.945 Y35.053 E3.3200
G1 X55.962 Y35.249 E3.3273
G1 X55.963 Y35.279 E3.3284
G1 X55.963 Y45.050 E3.6867
G1 X55.851 Y45.320 E3.6974
G1 X54.473 Y46.698 E3.7689
G1 X54.202 Y46.810 E3.7796
G1 X51.499 Y46.810 E3.8787
G1 X51.500 Y61.547 E4.4191
G1 X51.492 Y61.618 E4.4217
G1 X51.401 Y62.076 E4.4388
G1 X51.380 Y62.145 E4.4415
G1 X50.640 Y63.931 E4.5124
G1 X51.556 Y64.848 E4.5599
G1 X51.668 Y65.119 E4.5707
G1 X51.666 Y67.068 E4.6421
G1 X51.554 Y67.338 E4.6529
G1 X47.614 Y71.273 E4.8571
G1 X47.343 Y71.385 E4.8678
G1 X45.394 Y71.383 E4.9393
G1 X45.124 Y71.271 E4.9500
G1 X44.208 Y70.354 E4.9975
G1 X42.420 Y71.092 E5.0685
G1 X42.350 Y71.113 E5.0711
G1 X41.889 Y71.204 E5.0884
G1 X41.816 Y71.210 E5.0910
G1 X41.170 Y71.208 E5.1147
G1 X40.453 Y72.078 E5.1561
G1 X40.453 Y75.424 E5.2788
G1 X40.342 Y75.694 E5.2895
G1 X38.963 Y77.073 E5.3610
G1 X38.693 Y77.185 E5.3717
G1 X35.271 Y77.185 E5.4972
G1 X35.203 Y77.317 E5.5027
G1 X35.194 Y77.334 E5.5034
G1 X35.132 Y77.442 E5.5079
G1 X35.122 Y77.458 E5.5086
G1 X34.876 Y77.838 E5.5252
G1 X34.859 Y77.861 E5.5263
G1 X34.746 Y78.009 E5.5331
G1 X34.727 Y78.031 E5.5341
G1 X34.185 Y78.633 E5.5639
G1 X34.158 Y78.661 E5.5653
G1 X33.973 Y78.827 E5.5744
G1 X33.943 Y78.851 E5.5758
G1 X33.262 Y79.346 E5.6067
G1 X33.230 Y79.367 E5.6081
G1 X33.015 Y79.491 E5.6172
G1 X32.981 Y79.508 E5.6186
G1 X32.212 Y79.851 E5.6494
G1 X32.176 Y79.864 E5.6509
G1 X31.940 Y79.941 E5.6600
G1 X31.903 Y79.951 E5.6614
G1 X31.085 Y80.125 E5.6920
G1 X31.049 Y80.131 E5.6934
G1 X30.813 Y80.157 E5.7021
G1 X30.776 Y80.159 E5.7034
G1 X28.986 Y80.176 E5.7691
G1 X28.974 Y80.176 E5.7695
G1 X28.901 Y80.174 E5.7722
G1 X28.890 Y80.174 E5.7726
G1 X28.464 Y80.151 E5.7882
G1 X28.435 Y80.149 E5.7893
G1 X28.250 Y80.124 E5.7961
G1 X28.222 Y80.120 E5.7972
G1 X27.429 Y79.951 E5.8269
G1 X27.392 Y79.941 E5.8283
G1 X27.156 Y79.864 E5.8374
G1 X27.120 Y79.851 E5.8388
G1 X26.379 Y79.521 E5.8686
G1 X26.353 Y79.508 E5.8696
G1 X26.190 Y79.419 E5.8765
G1 X26.165 Y79.404 E5.8775
G1 X25.785 Y79.158 E5.8941
G1 X25.770 Y79.147 E5.8948
G1 X25.669 Y79.074 E5.8993
G1 X25.654 Y79.063 E5.9001
G1 X25.303 Y78.778 E5.9166
G1 X25.281 Y78.759 E5.9177
G1 X25.146 Y78.631 E5.9245
G1 X25.126 Y78.610 E5.9256
G1 X24.604 Y78.031 E5.9542
G1 X24.586 Y78.009 E5.9552
G1 X24.472 Y77.861 E5.9620
G1 X24.456 Y77.837 E5.9631
G1 X24.192 Y77.432 E5.9808
G1 X24.178 Y77.407 E5.9819
G1 X24.089 Y77.244 E5.9887
G1 X24.076 Y77.218 E5.9898
G1 X24.061 Y77.185 E5.9911
G1 X20.611 Y77.185 E6.1176
G1 X20.341 Y77.073 E6.1283
G1 X18.963 Y75.694 E6.1998
G1 X18.851 Y75.424 E6.2105
G1 X18.851 Y72.017 E6.3355
G1 X18.212 Y71.176 E6.3742
G1 X17.920 Y71.174 E6.3849
G1 X17.849 Y71.167 E6.3876
G1 X17.397 Y71.076 E6.4045
G1 X17.328 Y71.055 E6.4071
G1 X13.643 Y69.524 E6.5534
G1 X13.579 Y69.490 E6.5561
G1 X13.192 Y69.230 E6.5732
G1 X13.136 Y69.185 E6.5758
G1 X10.242 Y66.286 E6.7260
G1 X10.196 Y66.230 E6.7286
G1 X9.938 Y65.843 E6.7457
G1 X9.904 Y65.779 E6.7484
G1 X8.377 Y62.090 E6.8948
G1 X8.356 Y62.021 E6.8974
G1 X8.265 Y61.564 E6.9145
G1 X8.258 Y61.492 E6.9172
G1 X8.258 Y33.193 E7.9549
G1 X5.761 Y25.302 E8.2584
G1 X5.748 Y25.247 E8.2604
G1 X5.692 Y24.888 E8.2738
G1 X5.688 Y24.831 E8.2758
G1 X5.688 Y17.918 E8.5293
G1 X5.800 Y17.648 E8.5401
G1 X7.178 Y16.270 E8.6115
G1 X7.448 Y16.158 E8.6223
G1 X8.301 Y16.158 E8.6535
G1 X8.301 Y11.956 E8.8076
G1 X8.413 Y11.686 E8.8183
G1 X9.792 Y10.308 E8.8898
G1 X10.069 Y10.723 F3500
G92 E0
G1 X10.159 Y10.686 E0.0036 F720
G1 X15.533 Y10.686 E0.2006
G1 X15.623 Y10.723 E0.2042
G1 X16.863 Y11.964 E0.2685
G1 X16.900 Y12.054 E0.2721
G1 X16.900 Y23.231 E0.6819
G1 X24.930 Y23.231 E0.9764
G1 X24.930 Y12.053 E1.3863
G1 X24.967 Y11.963 E1.3898
G1 X26.208 Y10.723 E1.4542
G1 X26.298 Y10.686 E1.4577
G1 X49.605 Y10.686 E2.3124
G1 X49.695 Y10.723 E2.3160
G1 X50.936 Y11.963 E2.3803
G1 X50.973 Y12.053 E2.3839
G1 X50.973 Y16.648 E2.5523
G1 X52.303 Y16.648 E2.6011
G1 X52.393 Y16.685 E2.6047
G1 X53.634 Y17.926 E2.6690
G1 X53.671 Y18.016 E2.6726
G1 X53.671 Y24.437 E2.9081
G1 X55.457 Y35.093 E3.3043
G1 X55.458 Y35.103 E3.3046
G1 X55.473 Y35.279 E3.3111
G1 X55.473 Y35.289 E3.3115
G1 X55.473 Y44.952 E3.6658
G1 X55.436 Y45.042 E3.6694
G1 X54.195 Y46.283 E3.7337
G1 X54.105 Y46.320 E3.7373
G1 X51.009 Y46.320 E3.8508
G1 X51.010 Y61.522 E4.4083
G1 X51.007 Y61.546 E4.4092
G1 X50.926 Y61.957 E4.4245
G1 X50.919 Y61.980 E4.4254
G1 X50.062 Y64.046 E4.5074
G1 X51.141 Y65.126 E4.5634
G1 X51.178 Y65.216 E4.5669
G1 X51.176 Y66.970 E4.6313
G1 X51.139 Y67.060 E4.6348
G1 X47.336 Y70.857 E4.8319
G1 X47.246 Y70.895 E4.8355
G1 X45.492 Y70.893 E4.8998
G1 X45.402 Y70.856 E4.9034
G1 X44.324 Y69.776 E4.9593
G1 X42.255 Y70.630 E5.0414
G1 X42.232 Y70.637 E5.0423
G1 X41.818 Y70.718 E5.0577
G1 X41.794 Y70.720 E5.0586
G1 X40.940 Y70.717 E5.0900
G1 X39.963 Y71.903 E5.1463
G1 X39.963 Y75.327 E5.2718
G1 X39.926 Y75.417 E5.2754
G1 X38.686 Y76.657 E5.3398
G1 X38.596 Y76.695 E5.3433
G1 X34.970 Y76.695 E5.4763
G1 X34.968 Y76.701 E5.4765
G1 X34.770 Y77.089 E5.4925
G1 X34.767 Y77.095 E5.4927
G1 X34.711 Y77.191 E5.4968
G1 X34.708 Y77.197 E5.4970
G1 X34.470 Y77.563 E5.5130
G1 X34.464 Y77.570 E5.5134
G1 X34.363 Y77.703 E5.5195
G1 X34.357 Y77.710 E5.5199
G1 X33.829 Y78.296 E5.5488
G1 X33.820 Y78.305 E5.5492
G1 X33.655 Y78.454 E5.5574
G1 X33.645 Y78.462 E5.5579
G1 X32.985 Y78.942 E5.5878
G1 X32.974 Y78.949 E5.5883
G1 X32.781 Y79.060 E5.5964
G1 X32.770 Y79.066 E5.5969
G1 X32.024 Y79.398 E5.6268
G1 X32.012 Y79.402 E5.6273
G1 X31.801 Y79.471 E5.6355
G1 X31.788 Y79.474 E5.6359
G1 X30.995 Y79.643 E5.6657
G1 X30.983 Y79.645 E5.6661
G1 X30.772 Y79.668 E5.6739
G1 X30.759 Y79.669 E5.6744
G1 X28.985 Y79.686 E5.7394
G1 X28.981 Y79.686 E5.7396
G1 X28.916 Y79.684 E5.7420
G1 X28.912 Y79.684 E5.7421
G1 X28.499 Y79.663 E5.7573
G1 X28.489 Y79.662 E5.7576
G1 X28.324 Y79.640 E5.7637
G1 X28.314 Y79.638 E5.7641
G1 X27.543 Y79.474 E5.7930
G1 X27.531 Y79.471 E5.7935
G1 X27.319 Y79.402 E5.8016
G1 X27.307 Y79.398 E5.8021
G1 X26.587 Y79.077 E5.8310
G1 X26.578 Y79.073 E5.8314
G1 X26.432 Y78.993 E5.8375
G1 X26.424 Y78.988 E5.8378
G1 X26.058 Y78.751 E5.8538
G1 X26.052 Y78.747 E5.8541
G1 X25.963 Y78.682 E5.8581
G1 X25.957 Y78.678 E5.8584
G1 X25.618 Y78.403 E5.8744
G1 X25.611 Y78.397 E5.8747
G1 X25.490 Y78.282 E5.8808
G1 X25.483 Y78.275 E5.8812
G1 X24.975 Y77.710 E5.9091
G1 X24.968 Y77.703 E5.9094
G1 X24.867 Y77.570 E5.9155
