; G-Code generated by Simplify3D(R) Version 3.0.0
; Sep 3, 2017 at 7:05:51 
; Settings Summary
;   processName,Process1
;   applyToModels,body
;   profileName,juli (modified)
;   profileVersion,2017-06-09 12:06:14
;   baseProfile,German RepRap NEO (modified)
;   printMaterial,
;   printQuality,
;   printExtruders,
;   extruderName,Primary Extruder
;   extruderToolheadNumber,0
;   extruderDiameter,0.5
;   extruderAutoWidth,0
;   extruderWidth,0.49
;   extrusionMultiplier,0.9
;   extruderUseRetract,1
;   extruderRetractionDistance,6.5
;   extruderExtraRestartDistance,0
;   extruderRetractionZLift,0
;   extruderRetractionSpeed,5000
;   extruderUseCoasting,0
;   extruderCoastingDistance,0.2
;   extruderUseWipe,0
;   extruderWipeDistance,5
;   primaryExtruder,0
;   layerHeight,0.2
;   topSolidLayers,4
;   bottomSolidLayers,3
;   perimeterOutlines,3
;   printPerimetersInsideOut,1
;   startPointOption,2
;   startPointOriginX,0
;   startPointOriginY,0
;   startPointOriginZ,300
;   sequentialIslands,0
;   spiralVaseMode,0
;   firstLayerHeightPercentage,100
;   firstLayerWidthPercentage,100
;   firstLayerUnderspeed,0.3
;   useRaft,0
;   raftExtruder,0
;   raftLayers,3
;   raftOffset,3
;   raftSeparationDistance,0.1
;   raftInfill,85
;   disableRaftBaseLayers,0
;   useSkirt,1
;   skirtExtruder,0
;   skirtLayers,1
;   skirtOutlines,7
;   skirtOffset,4
;   usePrimePillar,0
;   primePillarExtruder,999
;   primePillarWidth,12
;   primePillarLocation,7
;   primePillarSpeedMultiplier,1
;   useOozeShield,0
;   oozeShieldExtruder,999
;   oozeShieldOffset,2
;   oozeShieldOutlines,1
;   oozeShieldSidewallShape,1
;   oozeShieldSidewallAngle,30
;   oozeShieldSpeedMultiplier,1
;   infillExtruder,0
;   internalInfillPattern,Full Honeycomb
;   externalInfillPattern,Rectilinear
;   infillPercentage,15
;   outlineOverlapPercentage,15
;   infillExtrusionWidthPercentage,100
;   minInfillLength,3
;   infillLayerInterval,1
;   infillAngles,0,120,-120
;   overlapInfillAngles,0
;   generateSupport,1
;   supportExtruder,0
;   supportInfillPercentage,30
;   supportExtraInflation,0
;   denseSupportLayers,0
;   denseSupportInfillPercentage,75
;   supportLayerInterval,1
;   supportHorizontalPartOffset,1.5
;   supportUpperSeparationLayers,2
;   supportLowerSeparationLayers,2
;   supportType,0
;   supportGridSpacing,4
;   maxOverhangAngle,45
;   supportAngles,45
;   temperatureName,Primary Extruder
;   temperatureNumber,0
;   temperatureSetpointCount,3
;   temperatureSetpointLayers,1,2,3
;   temperatureSetpointTemperatures,207,199,192
;   temperatureStabilizeAtStartup,1
;   temperatureHeatedBed,0
;   temperatureRelayBetweenLayers,0
;   temperatureRelayBetweenLoops,0
;   fanLayers,1,4
;   fanSpeeds,0,100
;   blipFanToFullPower,0
;   adjustSpeedForCooling,1
;   minSpeedLayerTime,15
;   minCoolingSpeedSlowdown,20
;   increaseFanForCooling,0
;   minFanLayerTime,45
;   maxCoolingFanSpeed,100
;   increaseFanForBridging,0
;   bridgingFanSpeed,100
;   use5D,1
;   relativeEdistances,0
;   allowEaxisZeroing,1
;   independentExtruderAxes,0
;   includeM10123,0
;   stickySupport,1
;   applyToolheadOffsets,0
;   gcodeXoffset,0
;   gcodeYoffset,0
;   gcodeZoffset,0
;   overrideMachineDefinition,1
;   machineTypeOverride,0
;   strokeXoverride,150
;   strokeYoverride,150
;   strokeZoverride,150
;   originOffsetXoverride,0
;   originOffsetYoverride,0
;   originOffsetZoverride,0
;   homeXdirOverride,-1
;   homeYdirOverride,-1
;   homeZdirOverride,-1
;   flipXoverride,1
;   flipYoverride,-1
;   flipZoverride,1
;   toolheadOffsets,0,0|0,0|0,0|0,0|0,0|0,0
;   overrideFirmwareConfiguration,0
;   firmwareTypeOverride,RepRap (Marlin/Repetier/Sprinter)
;   GPXconfigOverride,r2
;   baudRateOverride,115200
;   overridePrinterModels,0
;   printerModelsOverride
;   startingGcode,G28 ; home all axes
;   layerChangeGcode,
;   retractionGcode,
;   toolChangeGcode,
;   endingGcode,M104 S0 ; turn off extruder,M140 S0 ; turn off bed,G28 X0  ; home X axis,G28 Y0  ; home Y axis,M84 ; disable motors,M107
;   createX3G,0
;   celebration,0
;   celebrationSong,Random Song
;   createMB5G,0
;   postProcessing,
;   defaultSpeed,2400
;   outlineUnderspeed,0.5
;   solidInfillUnderspeed,0.8
;   supportUnderspeed,0.8
;   rapidXYspeed,3500
;   rapidZspeed,1000
;   minBridgingArea,50
;   bridgingExtraInflation,0
;   bridgingExtrusionMultiplier,1
;   bridgingSpeedMultiplier,1
;   filamentDiameter,1.75
;   filamentPricePerKg,46
;   filamentDensity,1.25
;   useMinPrintHeight,0
;   minPrintHeight,0
;   useMaxPrintHeight,0
;   maxPrintHeight,0
;   useDiaphragm,0
;   diaphragmLayerInterval,20
;   robustSlicing,1
;   mergeAllIntoSolid,0
;   onlyRetractWhenCrossingOutline,1
;   retractBetweenLayers,1
;   useRetractionMinTravel,0
;   retractionMinTravel,3
;   retractWhileWiping,0
;   onlyWipeOutlines,1
;   avoidCrossingOutline,0
;   maxMovementDetourFactor,10
;   toolChangeRetractionDistance,0
;   toolChangeExtraRestartDistance,0
;   toolChangeRetractionSpeed,360
;   allowThinWallGapFill,1
;   thinWallAllowedOverlapPercentage,10
;   horizontalSizeCompensation,0
G90
M82
M106 S0
M104 S207 T0
M109 S207 T0
G28 ; home all axes
G92 E0
G1 E-6.5000 F5000
G1 Z0.200 F1000
; layer 1, Z = 0.2
T0
; tool H0.200 W0.490
; skirt
G1 X57.668 Y25.691 F3500
G1 E0.0000 F1500
G92 E0
G1 X59.441 Y21.416 E0.1697 F720
G1 X59.588 Y21.140 E0.1812
G1 X60.201 Y20.224 E0.2216
G1 X60.400 Y19.982 E0.2331
G1 X63.741 Y16.646 E0.4062
G1 X63.983 Y16.447 E0.4177
G1 X64.900 Y15.836 E0.4581
G1 X65.176 Y15.689 E0.4696
G1 X69.458 Y13.920 E0.6395
G1 X69.760 Y13.829 E0.6510
G1 X70.849 Y13.616 E0.6917
G1 X71.164 Y13.586 E0.7033
G1 X73.993 Y13.598 E0.8071
G1 X74.313 Y13.632 E0.8189
G1 X75.419 Y13.863 E0.8603
G1 X75.726 Y13.960 E0.8721
G1 X80.144 Y15.868 E1.0486
G1 X80.445 Y16.038 E1.0613
G1 X81.433 Y16.751 E1.1059
G1 X81.690 Y16.982 E1.1186
G1 X83.488 Y18.995 E1.2176
G1 X85.292 Y16.977 E1.3168
G1 X85.560 Y16.739 E1.3300
G1 X86.588 Y16.010 E1.3762
G1 X86.901 Y15.837 E1.3893
G1 X91.474 Y13.947 E1.5708
G1 X91.777 Y13.856 E1.5824
G1 X92.870 Y13.642 E1.6232
G1 X93.185 Y13.612 E1.6348
G1 X95.698 Y13.625 E1.7270
G1 X96.006 Y13.657 E1.7383
G1 X97.074 Y13.872 E1.7782
G1 X97.370 Y13.963 E1.7896
G1 X101.638 Y15.736 E1.9591
G1 X101.913 Y15.884 E1.9705
G1 X102.827 Y16.496 E2.0109
G1 X103.069 Y16.694 E2.0223
G1 X106.411 Y20.042 E2.1958
G1 X106.609 Y20.283 E2.2073
G1 X107.220 Y21.198 E2.2476
G1 X107.367 Y21.474 E2.2590
G1 X109.137 Y25.750 E2.4287
G1 X109.227 Y26.049 E2.4402
G1 X109.442 Y27.128 E2.4805
G1 X109.472 Y27.439 E2.4920
G1 X109.472 Y55.368 E3.5161
G1 X111.837 Y62.839 E3.8035
G1 X111.893 Y63.077 E3.8124
G1 X112.024 Y63.925 E3.8439
G1 X112.043 Y64.169 E3.8529
G1 X112.043 Y72.645 E4.1637
G1 X111.558 Y73.816 E4.2102
G1 X109.469 Y75.905 E4.3185
G1 X109.468 Y78.609 E4.4177
G1 X108.983 Y79.779 E4.4641
G1 X105.744 Y83.017 E4.6320
G1 X104.573 Y83.502 E4.6785
G1 X96.335 Y83.502 E4.9806
G1 X95.164 Y83.017 E5.0271
G1 X92.366 Y80.218 E5.1722
G1 X89.566 Y83.017 E5.3174
G1 X88.396 Y83.502 E5.3638
G1 X62.262 Y83.502 E6.3221
G1 X61.092 Y83.017 E6.3686
G1 X57.853 Y79.778 E6.5365
G1 X57.368 Y78.608 E6.5830
G1 X57.368 Y75.411 E6.7002
G1 X55.773 Y73.816 E6.7829
G1 X55.288 Y72.645 E6.8294
G1 X55.288 Y65.485 E7.0920
G1 X52.992 Y56.044 E7.4483
G1 X52.958 Y55.857 E7.4552
G1 X52.879 Y55.194 E7.4797
G1 X52.868 Y55.004 E7.4867
G1 X52.868 Y42.882 E7.9312
G1 X53.352 Y41.712 E7.9776
G1 X56.592 Y38.472 E8.1456
G1 X57.331 Y38.166 E8.1750
G1 X57.331 Y27.384 E8.5704
G1 X57.362 Y27.072 E8.5819
G1 X57.577 Y25.991 E8.6223
G1 X57.668 Y25.691 E8.6338
G1 X58.130 Y25.857 F3500
G92 E0
G1 X59.884 Y21.626 E0.1680 F720
G1 X60.009 Y21.392 E0.1777
G1 X60.595 Y20.516 E0.2163
G1 X60.763 Y20.312 E0.2260
G1 X64.070 Y17.009 E0.3974
G1 X64.275 Y16.842 E0.4071
G1 X65.152 Y16.257 E0.4458
G1 X65.386 Y16.132 E0.4555
G1 X69.623 Y14.383 E0.6236
G1 X69.878 Y14.306 E0.6334
G1 X70.920 Y14.101 E0.6723
G1 X71.186 Y14.076 E0.6821
G1 X73.966 Y14.088 E0.7840
G1 X74.237 Y14.117 E0.7940
G1 X75.295 Y14.338 E0.8336
G1 X75.554 Y14.420 E0.8436
G1 X79.925 Y16.307 E1.0182
G1 X80.180 Y16.451 E1.0289
G1 X81.125 Y17.132 E1.0716
G1 X81.342 Y17.328 E1.0824
G1 X83.488 Y19.730 E1.2005
G1 X85.639 Y17.325 E1.3188
G1 X85.865 Y17.123 E1.3299
G1 X86.849 Y16.426 E1.3741
G1 X87.114 Y16.280 E1.3852
G1 X91.639 Y14.409 E1.5648
G1 X91.895 Y14.332 E1.5746
G1 X92.940 Y14.127 E1.6137
G1 X93.207 Y14.102 E1.6235
G1 X95.672 Y14.115 E1.7139
G1 X95.932 Y14.142 E1.7235
G1 X96.953 Y14.348 E1.7617
G1 X97.204 Y14.425 E1.7713
G1 X101.428 Y16.180 E1.9390
G1 X101.661 Y16.305 E1.9487
G1 X102.535 Y16.890 E1.9873
G1 X102.739 Y17.058 E1.9970
G1 X106.048 Y20.371 E2.1686
G1 X106.215 Y20.575 E2.1783
G1 X106.799 Y21.450 E2.2169
G1 X106.924 Y21.684 E2.2266
G1 X108.675 Y25.915 E2.3945
G1 X108.751 Y26.168 E2.4042
G1 X108.956 Y27.199 E2.4428
G1 X108.982 Y27.463 E2.4525
G1 X108.983 Y55.443 E3.4785
G1 X111.364 Y62.969 E3.7680
G1 X111.411 Y63.170 E3.7756
G1 X111.537 Y63.982 E3.8057
G1 X111.553 Y64.188 E3.8132
G1 X111.553 Y72.548 E4.1198
G1 X111.142 Y73.538 E4.1591
G1 X108.979 Y75.702 E4.2713
G1 X108.978 Y78.512 E4.3743
G1 X108.567 Y79.502 E4.4136
G1 X105.466 Y82.602 E4.5744
G1 X104.476 Y83.012 E4.6137
G1 X96.432 Y83.012 E4.9087
G1 X95.442 Y82.601 E4.9480
G1 X92.366 Y79.525 E5.1075
G1 X89.289 Y82.602 E5.2671
G1 X88.298 Y83.012 E5.3064
G1 X62.360 Y83.012 E6.2576
G1 X61.369 Y82.602 E6.2969
G1 X58.268 Y79.501 E6.4577
G1 X57.858 Y78.510 E6.4970
G1 X57.858 Y75.208 E6.6181
G1 X56.188 Y73.538 E6.7047
G1 X55.778 Y72.548 E6.7440
G1 X55.778 Y65.426 E7.0051
G1 X53.472 Y55.942 E7.3630
G1 X53.443 Y55.784 E7.3689
G1 X53.367 Y55.150 E7.3923
G1 X53.358 Y54.990 E7.3982
G1 X53.358 Y42.980 E7.8386
G1 X53.768 Y41.989 E7.8780
G1 X56.869 Y38.888 E8.0388
G1 X57.821 Y38.493 E8.0766
G1 X57.821 Y27.408 E8.4831
G1 X57.847 Y27.144 E8.4928
G1 X58.053 Y26.110 E8.5314
G1 X58.130 Y25.857 E8.5412
G1 X58.592 Y26.022 F3500
G92 E0
G1 X60.327 Y21.836 E0.1662 F720
G1 X60.430 Y21.645 E0.1741
G1 X60.989 Y20.809 E0.2110
G1 X61.127 Y20.641 E0.2190
G1 X64.399 Y17.373 E0.3886
G1 X64.567 Y17.236 E0.3965
G1 X65.404 Y16.678 E0.4334
G1 X65.595 Y16.576 E0.4413
G1 X69.787 Y14.845 E0.6077
G1 X69.996 Y14.782 E0.6157
G1 X70.990 Y14.587 E0.6528
G1 X71.208 Y14.566 E0.6608
G1 X73.939 Y14.578 E0.7610
G1 X74.161 Y14.601 E0.7691
G1 X75.171 Y14.812 E0.8070
G1 X75.383 Y14.880 E0.8151
G1 X79.707 Y16.746 E0.9878
G1 X79.915 Y16.865 E0.9966
G1 X80.816 Y17.514 E1.0374
G1 X80.994 Y17.675 E1.0461
G1 X83.488 Y20.466 E1.1834
G1 X85.986 Y17.672 E1.3208
G1 X86.171 Y17.507 E1.3299
G1 X87.109 Y16.842 E1.3721
G1 X87.326 Y16.722 E1.3812
G1 X91.803 Y14.871 E1.5588
G1 X92.013 Y14.808 E1.5669
G1 X93.011 Y14.613 E1.6041
G1 X93.229 Y14.592 E1.6122
G1 X95.645 Y14.605 E1.7008
G1 X95.859 Y14.627 E1.7086
G1 X96.833 Y14.824 E1.7451
G1 X97.038 Y14.886 E1.7529
G1 X101.217 Y16.623 E1.9189
G1 X101.408 Y16.725 E1.9268
G1 X102.242 Y17.283 E1.9636
G1 X102.409 Y17.421 E1.9716
G1 X105.684 Y20.700 E2.1415
G1 X105.821 Y20.867 E2.1494
G1 X106.378 Y21.702 E2.1862
G1 X106.480 Y21.893 E2.1942
G1 X108.213 Y26.080 E2.3603
G1 X108.275 Y26.287 E2.3683
G1 X108.471 Y27.271 E2.4051
G1 X108.492 Y27.487 E2.4130
G1 X108.493 Y55.519 E3.4409
G1 X110.892 Y63.099 E3.7325
G1 X110.930 Y63.264 E3.7387
G1 X111.050 Y64.038 E3.7674
G1 X111.063 Y64.206 E3.7736
G1 X111.063 Y72.450 E4.0759
G1 X110.727 Y73.261 E4.1081
G1 X108.489 Y75.499 E4.2241
G1 X108.488 Y78.414 E4.3310
G1 X108.152 Y79.224 E4.3632
G1 X105.189 Y82.186 E4.5168
G1 X104.379 Y82.522 E4.5490
G1 X96.530 Y82.522 E4.8368
G1 X95.719 Y82.186 E4.8690
G1 X92.756 Y79.223 E5.0226
G1 X92.420 Y78.412 E5.0548
G1 X92.420 Y69.977 E5.3641
G1 X92.310 Y69.977 E5.3681
G1 X92.310 Y78.413 E5.6775
G1 X91.975 Y79.223 E5.7096
G1 X89.011 Y82.187 E5.8633
G1 X88.201 Y82.522 E5.8955
G1 X62.457 Y82.522 E6.8395
G1 X61.647 Y82.187 E6.8716
G1 X58.683 Y79.223 E7.0253
G1 X58.348 Y78.413 E7.0575
G1 X58.348 Y75.005 E7.1825
G1 X56.604 Y73.261 E7.2729
G1 X56.268 Y72.450 E7.3051
G1 X56.268 Y65.367 E7.5648
G1 X53.951 Y55.841 E7.9243
G1 X53.928 Y55.711 E7.9291
G1 X53.855 Y55.106 E7.9515
G1 X53.848 Y54.975 E7.9563
G1 X53.848 Y43.077 E8.3926
G1 X54.183 Y42.267 E8.4248
G1 X57.147 Y39.303 E8.5784
G1 X57.957 Y38.968 E8.6106
G1 X58.311 Y38.968 E8.6236
G1 X58.311 Y27.432 E9.0466
G1 X58.332 Y27.216 E9.0546
G1 X58.529 Y26.230 E9.0914
G1 X58.592 Y26.022 E9.0994
G1 X59.054 Y26.188 F3500
G92 E0
G1 X60.771 Y22.046 E0.1644 F720
G1 X60.850 Y21.897 E0.1706
G1 X61.383 Y21.101 E0.2057
G1 X61.490 Y20.971 E0.2119
G1 X64.729 Y17.737 E0.3797
G1 X64.859 Y17.630 E0.3859
G1 X65.655 Y17.099 E0.4210
G1 X65.804 Y17.020 E0.4272
G1 X69.952 Y15.307 E0.5917
G1 X70.114 Y15.258 E0.5980
G1 X71.061 Y15.072 E0.6333
G1 X71.230 Y15.056 E0.6396
G1 X73.913 Y15.068 E0.7379
G1 X74.085 Y15.086 E0.7443
G1 X75.046 Y15.287 E0.7803
G1 X75.211 Y15.339 E0.7866
G1 X79.488 Y17.186 E0.9575
G1 X79.650 Y17.278 E0.9643
G1 X80.508 Y17.896 E1.0031
G1 X80.647 Y18.021 E1.0099
G1 X83.488 Y21.201 E1.1663
G1 X86.333 Y18.019 E1.3228
G1 X86.477 Y17.890 E1.3299
G1 X87.370 Y17.257 E1.3700
G1 X87.539 Y17.164 E1.3771
G1 X91.968 Y15.333 E1.5529
G1 X92.131 Y15.284 E1.5591
G1 X93.081 Y15.098 E1.5946
G1 X93.251 Y15.082 E1.6008
G1 X95.619 Y15.095 E1.6877
G1 X95.785 Y15.112 E1.6938
G1 X96.712 Y15.299 E1.7285
G1 X96.872 Y15.348 E1.7346
G1 X101.007 Y17.066 E1.8988
G1 X101.156 Y17.146 E1.9050
G1 X101.950 Y17.677 E1.9400
G1 X102.080 Y17.784 E1.9462
G1 X105.320 Y21.029 E2.1144
G1 X105.427 Y21.159 E2.1205
G1 X105.957 Y21.954 E2.1556
G1 X106.037 Y22.103 E2.1618
G1 X107.751 Y26.245 E2.3261
G1 X107.799 Y26.406 E2.3323
G1 X107.986 Y27.343 E2.3674
G1 X108.002 Y27.511 E2.3735
G1 X108.002 Y55.595 E3.4033
G1 X110.419 Y63.229 E3.6970
G1 X110.449 Y63.357 E3.7018
G1 X110.563 Y64.094 E3.7291
G1 X110.573 Y64.225 E3.7340
G1 X110.573 Y72.353 E4.0320
G1 X110.311 Y72.983 E4.0570
G1 X107.999 Y75.296 E4.1769
G1 X107.998 Y78.316 E4.2877
G1 X107.737 Y78.946 E4.3127
G1 X104.911 Y81.771 E4.4592
G1 X104.281 Y82.032 E4.4842
G1 X96.627 Y82.032 E4.7649
G1 X95.997 Y81.771 E4.7899
G1 X93.171 Y78.945 E4.9364
G1 X92.910 Y78.315 E4.9614
G1 X92.910 Y69.487 E5.2852
G1 X91.820 Y69.487 E5.3251
G1 X91.820 Y78.315 E5.6488
G1 X91.559 Y78.946 E5.6739
G1 X88.734 Y81.771 E5.8204
G1 X88.103 Y82.032 E5.8454
G1 X62.555 Y82.032 E6.7823
G1 X61.924 Y81.771 E6.8073
G1 X59.099 Y78.946 E6.9538
G1 X58.838 Y78.315 E6.9788
G1 X58.838 Y74.802 E7.1077
G1 X57.019 Y72.983 E7.2020
G1 X56.758 Y72.353 E7.2270
G1 X56.758 Y65.309 E7.4853
G1 X54.431 Y55.739 E7.8464
G1 X54.413 Y55.638 E7.8502
G1 X54.344 Y55.063 E7.8715
G1 X54.338 Y54.960 E7.8752
G1 X54.338 Y43.175 E8.3074
G1 X54.599 Y42.544 E8.3324
G1 X57.424 Y39.719 E8.4789
G1 X58.055 Y39.458 E8.5039
G1 X58.802 Y39.458 E8.5313
G1 X58.801 Y27.456 E8.9714
G1 X58.818 Y27.288 E8.9776
G1 X59.005 Y26.349 E9.0127
G1 X59.054 Y26.188 E9.0189
G1 X59.515 Y26.353 F3500
G92 E0
G1 X61.214 Y22.256 E0.1627 F720
G1 X61.271 Y22.149 E0.1671
G1 X61.777 Y21.394 E0.2004
G1 X61.853 Y21.301 E0.2048
G1 X65.058 Y18.101 E0.3709
G1 X65.151 Y18.024 E0.3753
G1 X65.907 Y17.520 E0.4086
G1 X66.014 Y17.463 E0.4131
G1 X70.116 Y15.769 E0.5758
G1 X70.233 Y15.734 E0.5803
G1 X71.131 Y15.558 E0.6139
G1 X71.252 Y15.546 E0.6183
G1 X73.886 Y15.558 E0.7149
G1 X74.009 Y15.571 E0.7194
G1 X74.922 Y15.761 E0.7536
G1 X75.040 Y15.799 E0.7582
G1 X79.269 Y17.625 E0.9271
G1 X79.385 Y17.691 E0.9320
G1 X80.200 Y18.278 E0.9688
G1 X80.299 Y18.367 E0.9737
G1 X83.160 Y21.570 E1.1312
G1 X83.223 Y21.654 E1.1350
G1 X83.487 Y22.077 E1.1533
G1 X83.712 Y21.701 E1.1694
G1 X83.781 Y21.608 E1.1736
G1 X86.680 Y18.366 E1.3331
G1 X86.783 Y18.274 E1.3382
G1 X87.631 Y17.673 E1.3763
G1 X87.752 Y17.607 E1.3813
G1 X92.133 Y15.795 E1.5552
G1 X92.249 Y15.760 E1.5596
G1 X93.151 Y15.584 E1.5933
G1 X93.272 Y15.572 E1.5978
G1 X95.593 Y15.584 E1.6829
G1 X95.711 Y15.597 E1.6872
G1 X96.592 Y15.775 E1.7202
G1 X96.706 Y15.810 E1.7246
G1 X100.797 Y17.509 E1.8870
G1 X100.903 Y17.566 E1.8914
G1 X101.657 Y18.071 E1.9247
G1 X101.750 Y18.147 E1.9291
G1 X104.956 Y21.358 E2.0955
G1 X105.033 Y21.451 E2.0999
G1 X105.536 Y22.206 E2.1332
G1 X105.593 Y22.312 E2.1376
G1 X107.289 Y26.410 E2.3002
G1 X107.324 Y26.525 E2.3046
G1 X107.500 Y27.415 E2.3379
