; G-Code generated by Simplify3D(R) Version 3.0.0
; Sep 6, 2017 at 11:40:59 
; Settings Summary
;   processName,Process1
;   applyToModels,body02
;   profileName,juli (modified)
;   profileVersion,2017-06-09 12:06:14
;   baseProfile,German RepRap NEO (modified)
;   printMaterial,
;   printQuality,
;   printExtruders,
;   extruderName,Primary Extruder
;   extruderToolheadNumber,0
;   extruderDiameter,0.5
;   extruderAutoWidth,0
;   extruderWidth,0.49
;   extrusionMultiplier,0.9
;   extruderUseRetract,1
;   extruderRetractionDistance,6.5
;   extruderExtraRestartDistance,0
;   extruderRetractionZLift,0
;   extruderRetractionSpeed,5000
;   extruderUseCoasting,0
;   extruderCoastingDistance,0.2
;   extruderUseWipe,0
;   extruderWipeDistance,5
;   primaryExtruder,0
;   layerHeight,0.2
;   topSolidLayers,4
;   bottomSolidLayers,3
;   perimeterOutlines,3
;   printPerimetersInsideOut,1
;   startPointOption,2
;   startPointOriginX,0
;   startPointOriginY,0
;   startPointOriginZ,300
;   sequentialIslands,0
;   spiralVaseMode,0
;   firstLayerHeightPercentage,140
;   firstLayerWidthPercentage,100
;   firstLayerUnderspeed,0.3
;   useRaft,0
;   raftExtruder,0
;   raftLayers,3
;   raftOffset,3
;   raftSeparationDistance,0.1
;   raftInfill,85
;   disableRaftBaseLayers,0
;   useSkirt,1
;   skirtExtruder,0
;   skirtLayers,1
;   skirtOutlines,3
;   skirtOffset,3
;   usePrimePillar,0
;   primePillarExtruder,999
;   primePillarWidth,12
;   primePillarLocation,7
;   primePillarSpeedMultiplier,1
;   useOozeShield,0
;   oozeShieldExtruder,999
;   oozeShieldOffset,2
;   oozeShieldOutlines,1
;   oozeShieldSidewallShape,1
;   oozeShieldSidewallAngle,30
;   oozeShieldSpeedMultiplier,1
;   infillExtruder,0
;   internalInfillPattern,Full Honeycomb
;   externalInfillPattern,Rectilinear
;   infillPercentage,15
;   outlineOverlapPercentage,15
;   infillExtrusionWidthPercentage,100
;   minInfillLength,3
;   infillLayerInterval,1
;   infillAngles,0,120,-120
;   overlapInfillAngles,0
;   generateSupport,1
;   supportExtruder,0
;   supportInfillPercentage,30
;   supportExtraInflation,0
;   denseSupportLayers,0
;   denseSupportInfillPercentage,75
;   supportLayerInterval,1
;   supportHorizontalPartOffset,1.5
;   supportUpperSeparationLayers,2
;   supportLowerSeparationLayers,2
;   supportType,0
;   supportGridSpacing,4
;   maxOverhangAngle,45
;   supportAngles,45
;   temperatureName,Primary Extruder
;   temperatureNumber,0
;   temperatureSetpointCount,3
;   temperatureSetpointLayers,1,2,3
;   temperatureSetpointTemperatures,207,199,192
;   temperatureStabilizeAtStartup,1
;   temperatureHeatedBed,0
;   temperatureRelayBetweenLayers,0
;   temperatureRelayBetweenLoops,0
;   fanLayers,1,4
;   fanSpeeds,0,100
;   blipFanToFullPower,0
;   adjustSpeedForCooling,1
;   minSpeedLayerTime,15
;   minCoolingSpeedSlowdown,20
;   increaseFanForCooling,0
;   minFanLayerTime,45
;   maxCoolingFanSpeed,100
;   increaseFanForBridging,0
;   bridgingFanSpeed,100
;   use5D,1
;   relativeEdistances,0
;   allowEaxisZeroing,1
;   independentExtruderAxes,0
;   includeM10123,0
;   stickySupport,1
;   applyToolheadOffsets,0
;   gcodeXoffset,0
;   gcodeYoffset,0
;   gcodeZoffset,0
;   overrideMachineDefinition,1
;   machineTypeOverride,0
;   strokeXoverride,150
;   strokeYoverride,150
;   strokeZoverride,150
;   originOffsetXoverride,0
;   originOffsetYoverride,0
;   originOffsetZoverride,0
;   homeXdirOverride,-1
;   homeYdirOverride,-1
;   homeZdirOverride,-1
;   flipXoverride,1
;   flipYoverride,-1
;   flipZoverride,1
;   toolheadOffsets,0,0|0,0|0,0|0,0|0,0|0,0
;   overrideFirmwareConfiguration,0
;   firmwareTypeOverride,RepRap (Marlin/Repetier/Sprinter)
;   GPXconfigOverride,r2
;   baudRateOverride,115200
;   overridePrinterModels,0
;   printerModelsOverride
;   startingGcode,G28 ; home all axes
;   layerChangeGcode,
;   retractionGcode,
;   toolChangeGcode,
;   endingGcode,M104 S0 ; turn off extruder,M140 S0 ; turn off bed,G28 X0  ; home X axis,G28 Y0  ; home Y axis,M84 ; disable motors,M107
;   createX3G,0
;   celebration,0
;   celebrationSong,Random Song
;   createMB5G,0
;   postProcessing,
;   defaultSpeed,2400
;   outlineUnderspeed,0.5
;   solidInfillUnderspeed,0.8
;   supportUnderspeed,0.8
;   rapidXYspeed,3500
;   rapidZspeed,1000
;   minBridgingArea,50
;   bridgingExtraInflation,0
;   bridgingExtrusionMultiplier,1
;   bridgingSpeedMultiplier,1
;   filamentDiameter,1.75
;   filamentPricePerKg,46
;   filamentDensity,1.25
;   useMinPrintHeight,0
;   minPrintHeight,0
;   useMaxPrintHeight,0
;   maxPrintHeight,0
;   useDiaphragm,0
;   diaphragmLayerInterval,20
;   robustSlicing,1
;   mergeAllIntoSolid,0
;   onlyRetractWhenCrossingOutline,1
;   retractBetweenLayers,1
;   useRetractionMinTravel,0
;   retractionMinTravel,3
;   retractWhileWiping,0
;   onlyWipeOutlines,1
;   avoidCrossingOutline,0
;   maxMovementDetourFactor,10
;   toolChangeRetractionDistance,0
;   toolChangeExtraRestartDistance,0
;   toolChangeRetractionSpeed,360
;   allowThinWallGapFill,1
;   thinWallAllowedOverlapPercentage,10
;   horizontalSizeCompensation,0
G90
M82
M106 S0
M104 S207 T0
M109 S207 T0
G28 ; home all axes
G92 E0
G1 E-6.5000 F5000
G1 Z0.280 F1000
; layer 1, Z = 0.28
T0
; tool H0.280 W0.490
; skirt
G1 X40.808 Y54.401 F3500
G1 E0.0000 F1500
G92 E0
G1 X41.259 Y54.214 E0.0250 F720
G1 X44.499 Y54.214 E0.1914
G1 X44.669 Y53.805 E0.2141
G1 X46.771 Y51.703 E0.3667
G1 X47.221 Y51.516 E0.3918
G1 X54.087 Y51.516 E0.7442
G1 X64.641 Y49.747 E1.2936
G1 X64.692 Y49.741 E1.2962
G1 X64.991 Y49.716 E1.3116
G1 X65.042 Y49.714 E1.3143
G1 X75.376 Y49.714 E1.8448
G1 X75.826 Y49.901 E1.8698
G1 X77.928 Y52.003 E2.0224
G1 X78.115 Y52.453 E2.0474
G1 X78.115 Y54.178 E2.1360
G1 X91.484 Y54.178 E2.8223
G1 X91.604 Y54.189 E2.8285
G1 X92.302 Y54.328 E2.8651
G1 X92.417 Y54.363 E2.8712
G1 X96.332 Y55.987 E3.0888
G1 X96.439 Y56.044 E3.0950
G1 X97.030 Y56.440 E3.1316
G1 X97.124 Y56.516 E3.1378
G1 X100.184 Y59.581 E3.3601
G1 X100.261 Y59.674 E3.3663
G1 X100.656 Y60.267 E3.4029
G1 X100.712 Y60.373 E3.4090
G1 X102.331 Y64.293 E3.6268
G1 X102.366 Y64.409 E3.6330
G1 X102.504 Y65.113 E3.6698
G1 X102.514 Y65.224 E3.6755
G1 X105.750 Y65.224 E3.8416
G1 X106.201 Y65.410 E3.8667
G1 X108.303 Y67.512 E4.0193
G1 X108.489 Y67.962 E4.0443
G1 X108.489 Y71.058 E4.2032
G1 X108.494 Y71.062 E4.2035
G1 X108.534 Y71.089 E4.2060
G1 X108.759 Y71.262 E4.2206
G1 X108.796 Y71.292 E4.2230
G1 X109.449 Y71.878 E4.2681
G1 X109.484 Y71.912 E4.2706
G1 X109.680 Y72.117 E4.2851
G1 X109.711 Y72.154 E4.2876
G1 X110.078 Y72.605 E4.3174
G1 X110.107 Y72.643 E4.3199
G1 X110.268 Y72.877 E4.3345
G1 X110.294 Y72.917 E4.3369
G1 X110.734 Y73.676 E4.3820
G1 X110.756 Y73.719 E4.3845
G1 X110.879 Y73.975 E4.3990
G1 X110.898 Y74.019 E4.4015
G1 X111.107 Y74.561 E4.4313
G1 X111.123 Y74.607 E4.4338
G1 X111.204 Y74.879 E4.4484
G1 X111.216 Y74.925 E4.4509
G1 X111.400 Y75.784 E4.4959
G1 X111.408 Y75.831 E4.4984
G1 X111.445 Y76.112 E4.5130
G1 X111.450 Y76.160 E4.5154
G1 X111.477 Y76.656 E4.5409
G1 X111.477 Y76.675 E4.5419
G1 X111.480 Y76.789 E4.5478
G1 X111.480 Y76.809 E4.5488
G1 X111.463 Y78.681 E4.6449
G1 X111.459 Y78.742 E4.6480
G1 X111.420 Y79.098 E4.6664
G1 X111.411 Y79.158 E4.6695
G1 X111.212 Y80.100 E4.7189
G1 X111.196 Y80.162 E4.7222
G1 X111.080 Y80.522 E4.7417
G1 X111.057 Y80.582 E4.7450
G1 X110.682 Y81.428 E4.7924
G1 X110.661 Y81.471 E4.7949
G1 X110.526 Y81.721 E4.8095
G1 X110.501 Y81.762 E4.8119
G1 X110.186 Y82.250 E4.8418
G1 X110.158 Y82.289 E4.8442
G1 X109.986 Y82.515 E4.8588
G1 X109.955 Y82.552 E4.8613
G1 X109.337 Y83.240 E4.9088
G1 X109.292 Y83.286 E4.9121
G1 X109.011 Y83.540 E4.9315
G1 X108.961 Y83.580 E4.9348
G1 X108.489 Y83.924 E4.9648
G1 X108.489 Y87.068 E5.1262
G1 X108.303 Y87.518 E5.1512
G1 X106.201 Y89.620 E5.3038
G1 X105.750 Y89.806 E5.3288
G1 X102.403 Y89.806 E5.5006
G1 X102.327 Y90.184 E5.5204
G1 X102.292 Y90.298 E5.5266
G1 X100.667 Y94.209 E5.7440
G1 X100.610 Y94.315 E5.7501
G1 X100.215 Y94.905 E5.7866
G1 X100.139 Y94.998 E5.7928
G1 X97.067 Y98.066 E6.0156
G1 X96.974 Y98.142 E6.0218
G1 X96.383 Y98.536 E6.0583
G1 X96.277 Y98.593 E6.0645
G1 X92.361 Y100.213 E6.2820
G1 X92.246 Y100.248 E6.2882
G1 X91.549 Y100.387 E6.3247
G1 X91.429 Y100.399 E6.3309
G1 X63.237 Y100.399 E7.7781
G1 X55.475 Y102.855 E8.1961
G1 X55.383 Y102.877 E8.2009
G1 X54.835 Y102.962 E8.2294
G1 X54.742 Y102.969 E8.2342
G1 X47.221 Y102.969 E8.6203
G1 X46.771 Y102.783 E8.6453
G1 X44.669 Y100.681 E8.7979
G1 X44.534 Y100.356 E8.8160
G1 X41.259 Y100.356 E8.9841
G1 X40.809 Y100.169 E9.0091
G1 X38.707 Y98.067 E9.1617
G1 X38.521 Y97.617 E9.1868
G1 X38.521 Y91.025 E9.5252
G1 X38.707 Y90.575 E9.5502
G1 X40.809 Y88.473 E9.7028
G1 X41.259 Y88.287 E9.7278
G1 X51.065 Y88.287 E10.2312
G1 X51.065 Y84.217 E10.4401
G1 X41.259 Y84.217 E10.9436
G1 X40.808 Y84.031 E10.9686
G1 X38.706 Y81.929 E11.1212
G1 X38.520 Y81.478 E11.1462
G1 X38.520 Y56.953 E12.4053
G1 X38.706 Y56.503 E12.4303
G1 X40.808 Y54.401 E12.5829
G1 X41.086 Y54.816 F3500
G92 E0
G1 X41.356 Y54.704 E0.0150 F720
G1 X44.972 Y54.704 E0.2007
G1 X44.972 Y54.352 E0.2187
G1 X45.084 Y54.082 E0.2337
G1 X47.048 Y52.118 E0.3763
G1 X47.318 Y52.006 E0.3913
G1 X54.128 Y52.006 E0.7409
G1 X64.712 Y50.232 E1.2919
G1 X64.743 Y50.229 E1.2934
G1 X65.021 Y50.205 E1.3078
G1 X65.052 Y50.204 E1.3094
G1 X75.278 Y50.204 E1.8344
G1 X75.549 Y50.316 E1.8494
G1 X77.513 Y52.280 E1.9920
G1 X77.625 Y52.550 E2.0070
G1 X77.625 Y54.668 E2.1157
G1 X91.460 Y54.668 E2.8260
G1 X91.532 Y54.675 E2.8297
G1 X92.183 Y54.804 E2.8637
G1 X92.252 Y54.825 E2.8675
G1 X96.123 Y56.430 E3.0826
G1 X96.186 Y56.464 E3.0863
G1 X96.738 Y56.833 E3.1204
G1 X96.794 Y56.879 E3.1241
G1 X99.820 Y59.910 E3.3440
G1 X99.866 Y59.966 E3.3477
G1 X100.234 Y60.518 E3.3817
G1 X100.269 Y60.582 E3.3855
G1 X101.869 Y64.457 E3.6007
G1 X101.890 Y64.527 E3.6044
G1 X102.018 Y65.183 E3.6388
G1 X102.025 Y65.256 E3.6425
G1 X102.024 Y65.527 E3.6564
G1 X102.252 Y65.714 E3.6715
G1 X105.653 Y65.714 E3.8461
G1 X105.923 Y65.826 E3.8611
G1 X107.887 Y67.790 E4.0037
G1 X107.999 Y68.060 E4.0187
G1 X107.999 Y71.325 E4.1864
G1 X108.220 Y71.468 E4.1999
G1 X108.244 Y71.484 E4.2014
G1 X108.454 Y71.645 E4.2149
G1 X108.476 Y71.663 E4.2164
G1 X109.115 Y72.237 E4.2605
G1 X109.136 Y72.257 E4.2620
G1 X109.318 Y72.448 E4.2755
G1 X109.337 Y72.470 E4.2770
G1 X109.692 Y72.906 E4.3059
G1 X109.709 Y72.929 E4.3074
G1 X109.859 Y73.147 E4.3209
G1 X109.874 Y73.171 E4.3224
G1 X110.305 Y73.914 E4.3665
G1 X110.318 Y73.939 E4.3680
G1 X110.433 Y74.178 E4.3815
G1 X110.444 Y74.204 E4.3830
G1 X110.646 Y74.729 E4.4119
G1 X110.656 Y74.756 E4.4133
G1 X110.731 Y75.010 E4.4269
G1 X110.739 Y75.038 E4.4284
G1 X110.918 Y75.877 E4.4725
G1 X110.923 Y75.905 E4.4740
G1 X110.958 Y76.168 E4.4876
G1 X110.961 Y76.196 E4.4890
G1 X110.987 Y76.679 E4.5138
G1 X110.988 Y76.690 E4.5144
G1 X110.990 Y76.797 E4.5199
G1 X110.990 Y76.808 E4.5205
G1 X110.973 Y78.664 E4.6158
G1 X110.971 Y78.701 E4.6176
G1 X110.935 Y79.033 E4.6348
G1 X110.929 Y79.069 E4.6367
G1 X110.736 Y79.987 E4.6848
G1 X110.726 Y80.024 E4.6868
G1 X110.617 Y80.360 E4.7049
G1 X110.603 Y80.396 E4.7069
G1 X110.238 Y81.221 E4.7532
G1 X110.225 Y81.246 E4.7547
G1 X110.099 Y81.479 E4.7683
G1 X110.085 Y81.504 E4.7698
G1 X109.779 Y81.976 E4.7986
G1 X109.763 Y81.999 E4.8001
G1 X109.602 Y82.210 E4.8137
G1 X109.584 Y82.232 E4.8151
G1 X108.981 Y82.904 E4.8615
G1 X108.954 Y82.931 E4.8635
G1 X108.692 Y83.167 E4.8816
G1 X108.662 Y83.192 E4.8835
G1 X107.999 Y83.675 E4.9257
G1 X107.999 Y86.970 E5.0948
G1 X107.887 Y87.240 E5.1098
G1 X105.923 Y89.205 E5.2524
G1 X105.653 Y89.316 E5.2675
G1 X102.168 Y89.316 E5.4463
G1 X101.972 Y89.465 E5.4590
G1 X101.851 Y90.064 E5.4903
G1 X101.830 Y90.132 E5.4940
G1 X100.224 Y93.999 E5.7089
G1 X100.190 Y94.062 E5.7127
G1 X99.821 Y94.613 E5.7467
G1 X99.775 Y94.669 E5.7504
G1 X96.738 Y97.702 E5.9708
G1 X96.682 Y97.748 E5.9745
G1 X96.131 Y98.115 E6.0085
G1 X96.067 Y98.149 E6.0122
G1 X92.196 Y99.751 E6.2273
G1 X92.126 Y99.772 E6.2310
G1 X91.477 Y99.902 E6.2650
G1 X91.405 Y99.909 E6.2687
G1 X63.162 Y99.909 E7.7186
G1 X55.345 Y102.383 E8.1395
G1 X55.290 Y102.395 E8.1424
G1 X54.779 Y102.474 E8.1690
G1 X54.723 Y102.479 E8.1718
G1 X47.319 Y102.479 E8.5520
G1 X47.049 Y102.367 E8.5670
G1 X45.084 Y100.403 E8.7096
G1 X44.972 Y100.133 E8.7246
G1 X44.972 Y99.866 E8.7383
G1 X41.357 Y99.866 E8.9239
G1 X41.087 Y99.754 E8.9389
G1 X39.122 Y97.790 E9.0815
G1 X39.011 Y97.520 E9.0965
G1 X39.011 Y91.123 E9.4249
G1 X39.122 Y90.853 E9.4399
G1 X41.087 Y88.889 E9.5825
G1 X41.357 Y88.777 E9.5975
G1 X51.555 Y88.777 E10.1211
G1 X51.555 Y83.727 E10.3804
G1 X41.356 Y83.727 E10.9039
G1 X41.086 Y83.615 E10.9190
G1 X39.122 Y81.651 E11.0616
G1 X39.010 Y81.381 E11.0766
G1 X39.010 Y57.050 E12.3256
G1 X39.122 Y56.780 E12.3406
G1 X41.086 Y54.816 E12.4832
G1 X41.364 Y55.232 F3500
G92 E0
G1 X41.454 Y55.194 E0.0050 F720
G1 X45.462 Y55.194 E0.2108
G1 X45.462 Y54.450 E0.2490
G1 X45.500 Y54.360 E0.2540
G1 X47.326 Y52.534 E0.3866
G1 X47.416 Y52.496 E0.3916
G1 X54.169 Y52.496 E0.7383
G1 X64.783 Y50.717 E1.2908
G1 X64.793 Y50.716 E1.2913
G1 X65.052 Y50.695 E1.3046
G1 X65.062 Y50.694 E1.3052
G1 X75.181 Y50.694 E1.8246
G1 X75.271 Y50.731 E1.8296
G1 X77.097 Y52.558 E1.9622
G1 X77.135 Y52.648 E1.9672
G1 X77.135 Y55.158 E2.0961
G1 X91.436 Y55.158 E2.8303
G1 X91.460 Y55.160 E2.8315
G1 X92.063 Y55.280 E2.8631
G1 X92.086 Y55.287 E2.8644
G1 X95.913 Y56.874 E3.0770
G1 X95.934 Y56.885 E3.0782
G1 X96.445 Y57.227 E3.1098
G1 X96.464 Y57.243 E3.1111
G1 X99.457 Y60.239 E3.3285
G1 X99.472 Y60.258 E3.3297
G1 X99.813 Y60.770 E3.3613
G1 X99.825 Y60.792 E3.3626
G1 X101.407 Y64.622 E3.5753
G1 X101.414 Y64.645 E3.5766
G1 X101.533 Y65.254 E3.6084
G1 X101.535 Y65.278 E3.6097
G1 X101.533 Y65.757 E3.6342
G1 X102.076 Y66.204 E3.6703
G1 X105.555 Y66.204 E3.8490
G1 X105.645 Y66.241 E3.8540
G1 X107.472 Y68.067 E3.9865
G1 X107.509 Y68.157 E3.9916
G1 X107.509 Y71.591 E4.1678
G1 X107.946 Y71.874 E4.1946
G1 X107.954 Y71.879 E4.1950
G1 X108.149 Y72.028 E4.2076
G1 X108.156 Y72.035 E4.2081
G1 X108.780 Y72.595 E4.2512
G1 X108.787 Y72.602 E4.2517
G1 X108.957 Y72.779 E4.2643
G1 X108.963 Y72.787 E4.2648
G1 X109.305 Y73.208 E4.2927
G1 X109.311 Y73.215 E4.2931
G1 X109.450 Y73.417 E4.3057
G1 X109.455 Y73.425 E4.3062
G1 X109.876 Y74.151 E4.3493
G1 X109.881 Y74.160 E4.3498
G1 X109.987 Y74.381 E4.3624
G1 X109.990 Y74.390 E4.3629
G1 X110.186 Y74.896 E4.3907
G1 X110.189 Y74.905 E4.3912
G1 X110.259 Y75.140 E4.4038
G1 X110.261 Y75.150 E4.4043
G1 X110.437 Y75.970 E4.4474
G1 X110.439 Y75.980 E4.4479
G1 X110.471 Y76.223 E4.4605
G1 X110.472 Y76.232 E4.4610
G1 X110.498 Y76.701 E4.4851
G1 X110.498 Y76.705 E4.4853
G1 X110.500 Y76.804 E4.4904
G1 X110.500 Y76.808 E4.4906
G1 X110.483 Y78.648 E4.5850
G1 X110.482 Y78.660 E4.5856
G1 X110.449 Y78.968 E4.6016
G1 X110.447 Y78.980 E4.6022
G1 X110.259 Y79.873 E4.6490
G1 X110.255 Y79.885 E4.6497
G1 X110.155 Y80.197 E4.6665
G1 X110.150 Y80.209 E4.6672
G1 X109.794 Y81.013 E4.7123
G1 X109.790 Y81.022 E4.7128
G1 X109.673 Y81.238 E4.7254
G1 X109.668 Y81.246 E4.7259
G1 X109.373 Y81.702 E4.7538
G1 X109.368 Y81.709 E4.7543
G1 X109.219 Y81.904 E4.7669
G1 X109.213 Y81.912 E4.7673
G1 X108.625 Y82.567 E4.8125
G1 X108.616 Y82.576 E4.8132
G1 X108.373 Y82.795 E4.8300
G1 X108.363 Y82.803 E4.8306
G1 X107.652 Y83.322 E4.8758
G1 X107.644 Y83.327 E4.8763
G1 X107.509 Y83.410 E4.8844
G1 X107.509 Y86.873 E5.0622
G1 X107.472 Y86.963 E5.0672
G1 X105.645 Y88.789 E5.1998
G1 X105.555 Y88.826 E5.2048
G1 X102.003 Y88.826 E5.3872
G1 X101.499 Y89.209 E5.4196
G1 X101.499 Y89.323 E5.4255
G1 X101.496 Y89.347 E5.4267
G1 X101.376 Y89.944 E5.4580
G1 X101.369 Y89.966 E5.4592
G1 X99.781 Y93.788 E5.6717
G1 X99.769 Y93.810 E5.6729
G1 X99.427 Y94.320 E5.7045
G1 X99.412 Y94.339 E5.7057
G1 X96.408 Y97.338 E5.9236
G1 X96.390 Y97.353 E5.9248
G1 X95.879 Y97.695 E5.9564
G1 X95.858 Y97.706 E5.9576
G1 X92.030 Y99.290 E6.1703
G1 X92.007 Y99.296 E6.1715
G1 X91.405 Y99.416 E6.2030
G1 X91.381 Y99.419 E6.2043
G1 X63.086 Y99.419 E7.6568
G1 X55.215 Y101.910 E8.0807
G1 X55.197 Y101.914 E8.0816
G1 X54.723 Y101.987 E8.1062
G1 X54.704 Y101.989 E8.1072
G1 X47.416 Y101.989 E8.4813
G1 X47.326 Y101.952 E8.4864
