; G-Code generated by Simplify3D(R) Version 3.0.0
; Sep 4, 2017 at 1:12:22 
; Settings Summary
;   processName,Process1
;   applyToModels,greifera,greiferb,greiferC
;   profileName,juli (modified)
;   profileVersion,2017-06-09 12:06:14
;   baseProfile,German RepRap NEO (modified)
;   printMaterial,
;   printQuality,
;   printExtruders,
;   extruderName,Primary Extruder
;   extruderToolheadNumber,0
;   extruderDiameter,0.5
;   extruderAutoWidth,0
;   extruderWidth,0.49
;   extrusionMultiplier,0.9
;   extruderUseRetract,1
;   extruderRetractionDistance,6.5
;   extruderExtraRestartDistance,0
;   extruderRetractionZLift,0
;   extruderRetractionSpeed,5000
;   extruderUseCoasting,0
;   extruderCoastingDistance,0.2
;   extruderUseWipe,0
;   extruderWipeDistance,5
;   primaryExtruder,0
;   layerHeight,0.2
;   topSolidLayers,4
;   bottomSolidLayers,3
;   perimeterOutlines,3
;   printPerimetersInsideOut,1
;   startPointOption,2
;   startPointOriginX,0
;   startPointOriginY,0
;   startPointOriginZ,300
;   sequentialIslands,0
;   spiralVaseMode,0
;   firstLayerHeightPercentage,100
;   firstLayerWidthPercentage,100
;   firstLayerUnderspeed,0.3
;   useRaft,0
;   raftExtruder,0
;   raftLayers,3
;   raftOffset,3
;   raftSeparationDistance,0.1
;   raftInfill,85
;   disableRaftBaseLayers,0
;   useSkirt,1
;   skirtExtruder,0
;   skirtLayers,1
;   skirtOutlines,3
;   skirtOffset,2
;   usePrimePillar,0
;   primePillarExtruder,999
;   primePillarWidth,12
;   primePillarLocation,7
;   primePillarSpeedMultiplier,1
;   useOozeShield,0
;   oozeShieldExtruder,999
;   oozeShieldOffset,2
;   oozeShieldOutlines,1
;   oozeShieldSidewallShape,1
;   oozeShieldSidewallAngle,30
;   oozeShieldSpeedMultiplier,1
;   infillExtruder,0
;   internalInfillPattern,Full Honeycomb
;   externalInfillPattern,Rectilinear
;   infillPercentage,15
;   outlineOverlapPercentage,15
;   infillExtrusionWidthPercentage,100
;   minInfillLength,3
;   infillLayerInterval,1
;   infillAngles,0,120,-120
;   overlapInfillAngles,0
;   generateSupport,1
;   supportExtruder,0
;   supportInfillPercentage,30
;   supportExtraInflation,0
;   denseSupportLayers,0
;   denseSupportInfillPercentage,75
;   supportLayerInterval,1
;   supportHorizontalPartOffset,1.5
;   supportUpperSeparationLayers,2
;   supportLowerSeparationLayers,2
;   supportType,0
;   supportGridSpacing,4
;   maxOverhangAngle,45
;   supportAngles,45
;   temperatureName,Primary Extruder
;   temperatureNumber,0
;   temperatureSetpointCount,3
;   temperatureSetpointLayers,1,2,3
;   temperatureSetpointTemperatures,207,199,192
;   temperatureStabilizeAtStartup,1
;   temperatureHeatedBed,0
;   temperatureRelayBetweenLayers,0
;   temperatureRelayBetweenLoops,0
;   fanLayers,1,4
;   fanSpeeds,0,100
;   blipFanToFullPower,0
;   adjustSpeedForCooling,1
;   minSpeedLayerTime,15
;   minCoolingSpeedSlowdown,20
;   increaseFanForCooling,0
;   minFanLayerTime,45
;   maxCoolingFanSpeed,100
;   increaseFanForBridging,0
;   bridgingFanSpeed,100
;   use5D,1
;   relativeEdistances,0
;   allowEaxisZeroing,1
;   independentExtruderAxes,0
;   includeM10123,0
;   stickySupport,1
;   applyToolheadOffsets,0
;   gcodeXoffset,0
;   gcodeYoffset,0
;   gcodeZoffset,0
;   overrideMachineDefinition,1
;   machineTypeOverride,0
;   strokeXoverride,150
;   strokeYoverride,150
;   strokeZoverride,150
;   originOffsetXoverride,0
;   originOffsetYoverride,0
;   originOffsetZoverride,0
;   homeXdirOverride,-1
;   homeYdirOverride,-1
;   homeZdirOverride,-1
;   flipXoverride,1
;   flipYoverride,-1
;   flipZoverride,1
;   toolheadOffsets,0,0|0,0|0,0|0,0|0,0|0,0
;   overrideFirmwareConfiguration,0
;   firmwareTypeOverride,RepRap (Marlin/Repetier/Sprinter)
;   GPXconfigOverride,r2
;   baudRateOverride,115200
;   overridePrinterModels,0
;   printerModelsOverride
;   startingGcode,G28 ; home all axes
;   layerChangeGcode,
;   retractionGcode,
;   toolChangeGcode,
;   endingGcode,M104 S0 ; turn off extruder,M140 S0 ; turn off bed,G28 X0  ; home X axis,G28 Y0  ; home Y axis,M84 ; disable motors,M107
;   createX3G,0
;   celebration,0
;   celebrationSong,Random Song
;   createMB5G,0
;   postProcessing,
;   defaultSpeed,2400
;   outlineUnderspeed,0.5
;   solidInfillUnderspeed,0.8
;   supportUnderspeed,0.8
;   rapidXYspeed,3500
;   rapidZspeed,1000
;   minBridgingArea,50
;   bridgingExtraInflation,0
;   bridgingExtrusionMultiplier,1
;   bridgingSpeedMultiplier,1
;   filamentDiameter,1.75
;   filamentPricePerKg,46
;   filamentDensity,1.25
;   useMinPrintHeight,0
;   minPrintHeight,0
;   useMaxPrintHeight,0
;   maxPrintHeight,0
;   useDiaphragm,0
;   diaphragmLayerInterval,20
;   robustSlicing,1
;   mergeAllIntoSolid,0
;   onlyRetractWhenCrossingOutline,1
;   retractBetweenLayers,1
;   useRetractionMinTravel,0
;   retractionMinTravel,3
;   retractWhileWiping,0
;   onlyWipeOutlines,1
;   avoidCrossingOutline,0
;   maxMovementDetourFactor,10
;   toolChangeRetractionDistance,0
;   toolChangeExtraRestartDistance,0
;   toolChangeRetractionSpeed,360
;   allowThinWallGapFill,1
;   thinWallAllowedOverlapPercentage,10
;   horizontalSizeCompensation,0
G90
M82
M106 S0
M104 S207 T0
M109 S207 T0
G28 ; home all axes
G92 E0
G1 E-6.5000 F5000
G1 Z0.200 F1000
; layer 1, Z = 0.2
T0
; tool H0.200 W0.490
; skirt
G1 X9.334 Y12.873 F3500
G1 E0.0000 F1500
G92 E0
G1 X9.713 Y12.659 E0.0160 F720
G1 X13.634 Y12.017 E0.1617
G1 X15.283 Y11.283 E0.2279
G1 X17.599 Y9.766 E0.3294
G1 X17.630 Y9.748 E0.3307
G1 X17.761 Y9.672 E0.3363
G1 X17.793 Y9.655 E0.3376
G1 X20.580 Y8.261 E0.4519
G1 X20.614 Y8.246 E0.4532
G1 X20.757 Y8.184 E0.4589
G1 X20.792 Y8.171 E0.4603
G1 X23.744 Y7.114 E0.5753
G1 X23.780 Y7.102 E0.5767
G1 X23.937 Y7.057 E0.5826
G1 X23.974 Y7.047 E0.5840
G1 X27.058 Y6.360 E0.6999
G1 X27.098 Y6.352 E0.7014
G1 X27.268 Y6.326 E0.7077
G1 X27.308 Y6.321 E0.7092
G1 X30.656 Y6.028 E0.8324
G1 X30.682 Y6.026 E0.8334
G1 X30.797 Y6.021 E0.8376
G1 X30.824 Y6.021 E0.8386
G1 X33.897 Y6.022 E0.9513
G1 X33.902 Y6.022 E0.9515
G1 X33.923 Y6.022 E0.9523
G1 X33.928 Y6.022 E0.9524
G1 X45.091 Y6.208 E1.3618
G1 X45.108 Y6.209 E1.3625
G1 X45.182 Y6.212 E1.3652
G1 X45.199 Y6.213 E1.3658
G1 X48.095 Y6.425 E1.4723
G1 X48.103 Y6.426 E1.4726
G1 X48.138 Y6.429 E1.4739
G1 X48.146 Y6.430 E1.4742
G1 X51.023 Y6.719 E1.5802
G1 X51.031 Y6.720 E1.5805
G1 X51.066 Y6.724 E1.5817
G1 X51.074 Y6.725 E1.5820
G1 X53.976 Y7.095 E1.6893
G1 X53.997 Y7.098 E1.6901
G1 X54.084 Y7.112 E1.6933
G1 X54.104 Y7.116 E1.6941
G1 X57.017 Y7.689 E1.8029
G1 X57.338 Y7.861 E1.8163
G1 X58.457 Y8.980 E1.8743
G1 X58.629 Y9.302 E1.8877
G1 X59.377 Y13.101 E2.0297
G1 X59.346 Y13.449 E2.0425
G1 X58.797 Y14.857 E2.0979
G1 X58.585 Y15.134 E2.1107
G1 X55.097 Y17.695 E2.2694
G1 X54.924 Y17.784 E2.2765
G1 X54.133 Y18.044 E2.3071
G1 X53.941 Y18.074 E2.3142
G1 X31.029 Y18.076 E3.1544
G1 X29.334 Y18.232 E3.2168
G1 X28.906 Y18.425 E3.2340
G1 X28.881 Y27.381 E3.5624
G1 X28.879 Y27.428 E3.5641
G1 X28.863 Y27.628 E3.5715
G1 X28.858 Y27.675 E3.5732
G1 X27.225 Y38.029 E3.9576
G1 X27.216 Y38.078 E3.9594
G1 X27.166 Y38.283 E3.9672
G1 X27.152 Y38.331 E3.9690
G1 X24.412 Y46.643 E4.2899
G1 X25.507 Y46.975 E4.3319
G1 X25.572 Y46.999 E4.3344
G1 X25.843 Y47.117 E4.3453
G1 X25.905 Y47.148 E4.3478
G1 X27.681 Y48.167 E4.4229
G1 X27.910 Y48.395 E4.4347
G1 X28.611 Y49.604 E4.4860
G1 X28.695 Y49.916 E4.4979
G1 X28.696 Y54.089 E4.6509
G1 X32.024 Y54.089 E4.7729
G1 X32.398 Y54.213 E4.7874
G1 X33.776 Y55.235 E4.8503
G1 X34.003 Y55.557 E4.8647
G1 X34.729 Y57.951 E4.9565
G1 X34.744 Y58.009 E4.9587
G1 X34.794 Y58.261 E4.9681
G1 X34.803 Y58.320 E4.9703
G1 X35.059 Y60.917 E5.0660
G1 X35.062 Y60.977 E5.0682
G1 X35.062 Y61.233 E5.0776
G1 X35.059 Y61.294 E5.0798
G1 X34.803 Y63.890 E5.1754
G1 X34.794 Y63.949 E5.1777
G1 X34.744 Y64.201 E5.1871
G1 X34.729 Y64.260 E5.1893
G1 X33.972 Y66.756 E5.2849
G1 X33.952 Y66.813 E5.2871
G1 X33.854 Y67.050 E5.2966
G1 X33.828 Y67.104 E5.2988
G1 X32.598 Y69.405 E5.3944
G1 X32.567 Y69.457 E5.3966
G1 X32.424 Y69.670 E5.4061
G1 X32.389 Y69.719 E5.4083
G1 X30.733 Y71.736 E5.5039
G1 X30.693 Y71.780 E5.5061
G1 X30.512 Y71.962 E5.5155
G1 X30.467 Y72.002 E5.5178
G1 X28.450 Y73.657 E5.6134
G1 X28.402 Y73.693 E5.6156
G1 X28.188 Y73.836 E5.6250
G1 X28.137 Y73.867 E5.6272
G1 X25.836 Y75.096 E5.7229
G1 X25.782 Y75.122 E5.7251
G1 X25.544 Y75.220 E5.7345
G1 X25.488 Y75.241 E5.7367
G1 X22.991 Y75.998 E5.8324
G1 X22.933 Y76.013 E5.8346
G1 X22.681 Y76.063 E5.8440
G1 X22.622 Y76.071 E5.8462
G1 X20.025 Y76.327 E5.9419
G1 X19.965 Y76.330 E5.9441
G1 X19.708 Y76.330 E5.9535
G1 X19.648 Y76.327 E5.9557
G1 X17.052 Y76.071 E6.0514
G1 X16.992 Y76.063 E6.0536
G1 X16.741 Y76.013 E6.0630
G1 X16.682 Y75.998 E6.0652
G1 X14.186 Y75.241 E6.1609
G1 X14.129 Y75.220 E6.1631
G1 X13.892 Y75.122 E6.1725
G1 X13.837 Y75.096 E6.1747
G1 X11.536 Y73.867 E6.2704
G1 X11.485 Y73.836 E6.2726
G1 X11.271 Y73.693 E6.2820
G1 X11.223 Y73.657 E6.2842
G1 X9.206 Y72.002 E6.3799
G1 X9.162 Y71.962 E6.3821
G1 X8.980 Y71.780 E6.3915
G1 X8.940 Y71.736 E6.3937
G1 X7.285 Y69.719 E6.4894
G1 X7.249 Y69.670 E6.4916
G1 X7.106 Y69.457 E6.5010
G1 X7.075 Y69.405 E6.5032
G1 X5.845 Y67.104 E6.5989
G1 X5.820 Y67.050 E6.6011
G1 X5.722 Y66.813 E6.6105
G1 X5.701 Y66.756 E6.6127
G1 X4.944 Y64.260 E6.7084
G1 X4.929 Y64.201 E6.7106
G1 X4.879 Y63.950 E6.7200
G1 X4.870 Y63.890 E6.7222
G1 X4.615 Y61.294 E6.8179
G1 X4.612 Y61.233 E6.8201
G1 X4.612 Y60.977 E6.8295
G1 X4.615 Y60.917 E6.8317
G1 X4.870 Y58.320 E6.9274
G1 X4.879 Y58.261 E6.9296
G1 X4.929 Y58.009 E6.9390
G1 X4.944 Y57.951 E6.9412
G1 X5.701 Y55.454 E7.0369
G1 X5.721 Y55.397 E7.0391
G1 X5.820 Y55.160 E7.0485
G1 X5.845 Y55.106 E7.0507
G1 X7.075 Y52.805 E7.1464
G1 X7.106 Y52.753 E7.1486
G1 X7.249 Y52.540 E7.1580
G1 X7.285 Y52.492 E7.1602
G1 X8.481 Y51.033 E7.2293
G1 X8.964 Y49.590 E7.2851
G1 X8.685 Y46.887 E7.3848
G1 X8.683 Y46.867 E7.3855
G1 X8.677 Y46.782 E7.3887
G1 X8.676 Y46.761 E7.3894
G1 X7.951 Y27.299 E8.1036
G1 X7.950 Y27.288 E8.1040
G1 X7.949 Y27.239 E8.1058
G1 X7.949 Y27.228 E8.1062
G1 X7.949 Y14.734 E8.5643
G1 X8.100 Y14.325 E8.5803
G1 X9.334 Y12.873 E8.6502
G92 E0
G1 E-6.5000 F5000
G1 X33.307 Y28.500 F3500
G1 E0.0000 F5000
G92 E0
G1 X33.341 Y28.450 E0.0022 F720
G1 X34.887 Y26.348 E0.0979
G1 X34.925 Y26.302 E0.1001
G1 X35.097 Y26.111 E0.1095
G1 X35.139 Y26.068 E0.1117
G1 X37.066 Y24.309 E0.2074
G1 X37.112 Y24.271 E0.2096
G1 X37.317 Y24.117 E0.2190
G1 X37.367 Y24.083 E0.2212
G1 X39.600 Y22.733 E0.3169
G1 X39.653 Y22.705 E0.3191
G1 X39.885 Y22.594 E0.3285
G1 X39.940 Y22.571 E0.3307
G1 X42.393 Y21.683 E0.4264
G1 X42.451 Y21.665 E0.4286
G1 X42.699 Y21.602 E0.4380
G1 X42.758 Y21.590 E0.4402
G1 X45.338 Y21.197 E0.5359
G1 X45.398 Y21.191 E0.5381
G1 X45.654 Y21.178 E0.5475
G1 X45.714 Y21.177 E0.5497
G1 X48.320 Y21.296 E0.6453
G1 X48.380 Y21.301 E0.6476
G1 X48.634 Y21.338 E0.6570
G1 X48.693 Y21.349 E0.6592
G1 X51.227 Y21.974 E0.7548
G1 X51.284 Y21.991 E0.7570
G1 X51.526 Y22.077 E0.7665
G1 X51.582 Y22.099 E0.7687
G1 X53.945 Y23.206 E0.8643
G1 X53.998 Y23.234 E0.8665
G1 X54.218 Y23.365 E0.8760
G1 X54.269 Y23.398 E0.8782
G1 X56.370 Y24.945 E0.9738
G1 X56.417 Y24.983 E0.9760
G1 X56.607 Y25.154 E0.9854
G1 X56.650 Y25.197 E0.9877
G1 X58.410 Y27.123 E1.0833
G1 X58.448 Y27.170 E1.0855
G1 X58.602 Y27.375 E1.0949
G1 X58.635 Y27.425 E1.0971
G1 X59.985 Y29.658 E1.1928
G1 X60.014 Y29.711 E1.1950
G1 X60.124 Y29.942 E1.2044
G1 X60.147 Y29.998 E1.2066
G1 X61.036 Y32.451 E1.3023
G1 X61.053 Y32.508 E1.3045
G1 X61.117 Y32.757 E1.3139
G1 X61.129 Y32.816 E1.3161
G1 X61.521 Y35.395 E1.4118
G1 X61.527 Y35.455 E1.4140
G1 X61.541 Y35.712 E1.4234
G1 X61.541 Y35.772 E1.4256
G1 X61.423 Y38.378 E1.5213
G1 X61.417 Y38.438 E1.5235
G1 X61.381 Y38.692 E1.5329
G1 X61.369 Y38.751 E1.5351
G1 X60.745 Y41.284 E1.6308
G1 X60.727 Y41.342 E1.6330
G1 X60.642 Y41.584 E1.6424
G1 X60.619 Y41.640 E1.6446
G1 X59.513 Y44.002 E1.7403
G1 X59.484 Y44.055 E1.7425
G1 X59.353 Y44.276 E1.7519
G1 X59.320 Y44.326 E1.7541
G1 X57.774 Y46.428 E1.8498
G1 X57.736 Y46.474 E1.8520
G1 X57.564 Y46.665 E1.8614
G1 X57.522 Y46.708 E1.8636
G1 X55.595 Y48.467 E1.9593
G1 X55.549 Y48.506 E1.9615
G1 X55.343 Y48.659 E1.9709
G1 X55.293 Y48.693 E1.9731
G1 X54.954 Y48.898 E1.9876
G1 X58.235 Y56.274 E2.2837
G1 X58.252 Y56.316 E2.2853
G1 X58.318 Y56.499 E2.2924
G1 X58.331 Y56.542 E2.2941
G1 X60.065 Y62.806 E2.5324
G1 X60.084 Y62.907 E2.5362
G1 X60.129 Y63.344 E2.5523
G1 X60.131 Y63.446 E2.5561
G1 X59.977 Y65.789 E2.6422
G1 X60.402 Y68.461 E2.7414
G1 X60.408 Y68.508 E2.7431
G1 X60.424 Y68.708 E2.7505
G1 X60.426 Y68.755 E2.7522
G1 X60.439 Y71.737 E2.8615
G1 X60.438 Y71.756 E2.8622
G1 X60.436 Y71.836 E2.8652
G1 X60.436 Y71.855 E2.8659
G1 X60.275 Y74.649 E2.9685
G1 X60.273 Y74.669 E2.9692
G1 X60.266 Y74.755 E2.9724
G1 X60.264 Y74.775 E2.9731
G1 X59.902 Y77.706 E3.0814
G1 X59.861 Y77.862 E3.0873
G1 X59.600 Y78.502 E3.1127
G1 X59.520 Y78.643 E3.1186
G1 X57.486 Y81.321 E3.2419
G1 X57.467 Y81.345 E3.2431
G1 X57.381 Y81.447 E3.2479
G1 X57.361 Y81.470 E3.2491
G1 X55.127 Y83.862 E3.3691
G1 X54.811 Y84.044 E3.3825
G1 X53.271 Y84.403 E3.4405
G1 X52.907 Y84.379 E3.4538
G1 X46.526 Y81.962 E3.7040
G1 X39.837 Y81.032 E3.9517
G1 X39.447 Y80.820 E3.9679
G1 X38.173 Y79.357 E4.0391
G1 X38.017 Y78.941 E4.0554
G1 X38.017 Y73.822 E4.2431
G1 X38.184 Y73.394 E4.2599
G1 X39.544 Y71.908 E4.3338
G1 X39.956 Y71.705 E4.3506
G1 X46.863 Y71.095 E4.6049
G1 X47.592 Y70.749 E4.6345
G1 X48.081 Y69.728 E4.6760
G1 X48.099 Y69.692 E4.6775
G1 X48.183 Y69.544 E4.6837
G1 X48.203 Y69.510 E4.6852
G1 X48.595 Y68.908 E4.7115
G1 X48.545 Y68.096 E4.7413
G1 X47.990 Y65.955 E4.8224
G1 X47.974 Y65.863 E4.8259
G1 X47.934 Y65.466 E4.8405
G1 X47.931 Y65.373 E4.8439
G1 X48.004 Y63.955 E4.8960
G1 X46.113 Y58.887 E5.0943
G1 X41.533 Y51.108 E5.4254
G1 X40.543 Y50.389 E5.4702
G1 X39.112 Y49.520 E5.5316
G1 X38.892 Y49.293 E5.5432
G1 X38.224 Y48.105 E5.5932
G1 X38.144 Y47.799 E5.6048
G1 X38.144 Y43.238 E5.7721
G1 X34.121 Y43.238 E5.9196
G1 X33.761 Y43.124 E5.9334
G1 X32.418 Y42.182 E5.9936
G1 X32.189 Y41.882 E6.0074
G1 X31.625 Y40.325 E6.0681
G1 X31.607 Y40.268 E6.0703
G1 X31.544 Y40.019 E6.0797
G1 X31.532 Y39.960 E6.0819
G1 X31.140 Y37.381 E6.1776
G1 X31.133 Y37.321 E6.1798
G1 X31.120 Y37.065 E6.1892
G1 X31.120 Y37.004 E6.1914
G1 X31.238 Y34.398 E6.2871
G1 X31.243 Y34.338 E6.2893
G1 X31.280 Y34.084 E6.2987
G1 X31.292 Y34.025 E6.3009
G1 X31.916 Y31.492 E6.3966
G1 X31.933 Y31.434 E6.3988
G1 X32.019 Y31.192 E6.4082
G1 X32.042 Y31.137 E6.4104
G1 X33.148 Y28.774 E6.5061
G1 X33.176 Y28.721 E6.5083
G1 X33.307 Y28.500 E6.5177
G92 E0
G1 E-6.5000 F5000
G1 X69.944 Y26.957 F3500
G1 E0.0000 F5000
G92 E0
G1 X69.944 Y26.940 E0.0006 F720
G1 X69.942 Y26.867 E0.0033
G1 X69.942 Y26.850 E0.0039
G1 X69.964 Y12.030 E0.5474
G1 X70.151 Y11.580 E0.5652
G1 X71.667 Y10.067 E0.6438
G1 X72.117 Y9.880 E0.6616
G1 X84.507 Y9.883 E1.1159
G1 X84.566 Y9.885 E1.1181
G1 X84.816 Y9.910 E1.1273
G1 X84.874 Y9.918 E1.1295
G1 X89.239 Y10.769 E1.2926
G1 X89.606 Y10.987 E1.3082
G1 X90.790 Y12.426 E1.3765
G1 X90.934 Y12.828 E1.3922
G1 X90.918 Y27.012 E1.9123
G1 X90.915 Y27.073 E1.9145
G1 X90.890 Y27.329 E1.9240
G1 X90.881 Y27.389 E1.9262
G1 X89.245 Y35.529 E2.2307
G1 X89.239 Y35.554 E2.2316
G1 X89.214 Y35.657 E2.2355
G1 X89.207 Y35.681 E2.2364
G1 X86.443 Y45.301 E2.6034
G1 X95.814 Y65.149 E3.4083
G1 X95.871 Y65.471 E3.4203
G1 X95.817 Y66.072 E3.4424
G1 X95.935 Y66.514 E3.4592
G1 X95.953 Y66.730 E3.4672
G1 X95.918 Y67.113 E3.4812
G1 X96.224 Y67.652 E3.5040
G1 X96.301 Y68.037 E3.5184
G1 X96.098 Y69.732 E3.5810
G1 X95.932 Y70.088 E3.5954
G1 X95.295 Y70.766 E3.6295
G1 X95.091 Y71.151 E3.6455
G1 X94.937 Y71.339 E3.6544
G1 X92.153 Y73.624 E3.7865
G1 X92.104 Y73.660 E3.7887
G1 X91.891 Y73.803 E3.7981
G1 X91.839 Y73.834 E3.8003
G1 X89.010 Y75.346 E3.9179
G1 X88.956 Y75.371 E3.9201
G1 X88.719 Y75.470 E3.9295
G1 X88.662 Y75.490 E3.9317
G1 X85.593 Y76.421 E4.0494
G1 X85.534 Y76.436 E4.0516
G1 X85.283 Y76.486 E4.0610
G1 X85.223 Y76.495 E4.0632
G1 X82.031 Y76.809 E4.1808
G1 X81.971 Y76.812 E4.1830
G1 X81.714 Y76.812 E4.1924
G1 X81.654 Y76.809 E4.1946
G1 X78.462 Y76.495 E4.3123
G1 X78.402 Y76.486 E4.3145
G1 X78.150 Y76.436 E4.3239
G1 X78.092 Y76.421 E4.3261
