; G-Code generated by Simplify3D(R) Version 3.0.0
; Sep 18, 2017 at 5:29:48 
; Settings Summary
;   processName,Process1
;   applyToModels,grei02
;   profileName,1.5 fein (modified)
;   profileVersion,2017-06-09 12:06:14
;   baseProfile,German RepRap NEO (modified)
;   printMaterial,
;   printQuality,
;   printExtruders,
;   extruderName,Primary Extruder
;   extruderToolheadNumber,0
;   extruderDiameter,0.5
;   extruderAutoWidth,0
;   extruderWidth,0.49
;   extrusionMultiplier,0.9
;   extruderUseRetract,1
;   extruderRetractionDistance,6.5
;   extruderExtraRestartDistance,0
;   extruderRetractionZLift,0
;   extruderRetractionSpeed,5000
;   extruderUseCoasting,0
;   extruderCoastingDistance,0.2
;   extruderUseWipe,0
;   extruderWipeDistance,5
;   primaryExtruder,0
;   layerHeight,0.15
;   topSolidLayers,4
;   bottomSolidLayers,3
;   perimeterOutlines,3
;   printPerimetersInsideOut,1
;   startPointOption,2
;   startPointOriginX,0
;   startPointOriginY,0
;   startPointOriginZ,300
;   sequentialIslands,0
;   spiralVaseMode,0
;   firstLayerHeightPercentage,100
;   firstLayerWidthPercentage,100
;   firstLayerUnderspeed,0.3
;   useRaft,0
;   raftExtruder,0
;   raftLayers,3
;   raftOffset,3
;   raftSeparationDistance,0.1
;   raftInfill,85
;   disableRaftBaseLayers,0
;   useSkirt,1
;   skirtExtruder,0
;   skirtLayers,1
;   skirtOutlines,3
;   skirtOffset,2
;   usePrimePillar,0
;   primePillarExtruder,999
;   primePillarWidth,12
;   primePillarLocation,7
;   primePillarSpeedMultiplier,1
;   useOozeShield,0
;   oozeShieldExtruder,999
;   oozeShieldOffset,2
;   oozeShieldOutlines,1
;   oozeShieldSidewallShape,1
;   oozeShieldSidewallAngle,30
;   oozeShieldSpeedMultiplier,1
;   infillExtruder,0
;   internalInfillPattern,Full Honeycomb
;   externalInfillPattern,Rectilinear
;   infillPercentage,15
;   outlineOverlapPercentage,15
;   infillExtrusionWidthPercentage,100
;   minInfillLength,3
;   infillLayerInterval,1
;   infillAngles,0,120,-120
;   overlapInfillAngles,0
;   generateSupport,1
;   supportExtruder,0
;   supportInfillPercentage,30
;   supportExtraInflation,0
;   denseSupportLayers,0
;   denseSupportInfillPercentage,75
;   supportLayerInterval,1
;   supportHorizontalPartOffset,1.5
;   supportUpperSeparationLayers,2
;   supportLowerSeparationLayers,2
;   supportType,0
;   supportGridSpacing,4
;   maxOverhangAngle,45
;   supportAngles,45
;   temperatureName,Primary Extruder
;   temperatureNumber,0
;   temperatureSetpointCount,3
;   temperatureSetpointLayers,1,2,3
;   temperatureSetpointTemperatures,207,199,192
;   temperatureStabilizeAtStartup,1
;   temperatureHeatedBed,0
;   temperatureRelayBetweenLayers,0
;   temperatureRelayBetweenLoops,0
;   fanLayers,1,4
;   fanSpeeds,0,100
;   blipFanToFullPower,0
;   adjustSpeedForCooling,1
;   minSpeedLayerTime,15
;   minCoolingSpeedSlowdown,20
;   increaseFanForCooling,0
;   minFanLayerTime,45
;   maxCoolingFanSpeed,100
;   increaseFanForBridging,0
;   bridgingFanSpeed,100
;   use5D,1
;   relativeEdistances,0
;   allowEaxisZeroing,1
;   independentExtruderAxes,0
;   includeM10123,0
;   stickySupport,1
;   applyToolheadOffsets,0
;   gcodeXoffset,0
;   gcodeYoffset,0
;   gcodeZoffset,0
;   overrideMachineDefinition,1
;   machineTypeOverride,0
;   strokeXoverride,150
;   strokeYoverride,150
;   strokeZoverride,150
;   originOffsetXoverride,0
;   originOffsetYoverride,0
;   originOffsetZoverride,0
;   homeXdirOverride,-1
;   homeYdirOverride,-1
;   homeZdirOverride,-1
;   flipXoverride,1
;   flipYoverride,-1
;   flipZoverride,1
;   toolheadOffsets,0,0|0,0|0,0|0,0|0,0|0,0
;   overrideFirmwareConfiguration,0
;   firmwareTypeOverride,RepRap (Marlin/Repetier/Sprinter)
;   GPXconfigOverride,r2
;   baudRateOverride,115200
;   overridePrinterModels,0
;   printerModelsOverride
;   startingGcode,G28 ; home all axes
;   layerChangeGcode,
;   retractionGcode,
;   toolChangeGcode,
;   endingGcode,M104 S0 ; turn off extruder,M140 S0 ; turn off bed,G28 X0  ; home X axis,G28 Y0  ; home Y axis,M84 ; disable motors,M107
;   createX3G,0
;   celebration,0
;   celebrationSong,Random Song
;   createMB5G,0
;   postProcessing,
;   defaultSpeed,2400
;   outlineUnderspeed,0.5
;   solidInfillUnderspeed,0.8
;   supportUnderspeed,0.8
;   rapidXYspeed,3500
;   rapidZspeed,1000
;   minBridgingArea,50
;   bridgingExtraInflation,0
;   bridgingExtrusionMultiplier,1
;   bridgingSpeedMultiplier,1
;   filamentDiameter,1.75
;   filamentPricePerKg,46
;   filamentDensity,1.25
;   useMinPrintHeight,0
;   minPrintHeight,0
;   useMaxPrintHeight,0
;   maxPrintHeight,0
;   useDiaphragm,0
;   diaphragmLayerInterval,20
;   robustSlicing,1
;   mergeAllIntoSolid,0
;   onlyRetractWhenCrossingOutline,1
;   retractBetweenLayers,1
;   useRetractionMinTravel,0
;   retractionMinTravel,3
;   retractWhileWiping,0
;   onlyWipeOutlines,1
;   avoidCrossingOutline,0
;   maxMovementDetourFactor,10
;   toolChangeRetractionDistance,0
;   toolChangeExtraRestartDistance,0
;   toolChangeRetractionSpeed,360
;   allowThinWallGapFill,1
;   thinWallAllowedOverlapPercentage,10
;   horizontalSizeCompensation,0
G90
M82
M106 S0
M104 S207 T0
M109 S207 T0
G28 ; home all axes
G92 E0
G1 E-6.5000 F5000
G1 Z0.150 F1000
; layer 1, Z = 0.15
T0
; tool H0.150 W0.490
; skirt
G1 X41.286 Y12.299 F3500
G1 E0.0000 F1500
G92 E0
G1 X41.304 Y12.241 E0.0017 F720
G1 X41.389 Y11.999 E0.0087
G1 X41.412 Y11.944 E0.0104
G1 X42.519 Y9.578 E0.0822
G1 X42.547 Y9.524 E0.0839
G1 X42.679 Y9.303 E0.0909
G1 X42.712 Y9.253 E0.0926
G1 X44.258 Y7.151 E0.1644
G1 X44.296 Y7.105 E0.1660
G1 X44.468 Y6.914 E0.1731
G1 X44.510 Y6.871 E0.1747
G1 X46.437 Y5.112 E0.2465
G1 X46.483 Y5.073 E0.2481
G1 X46.689 Y4.920 E0.2552
G1 X46.739 Y4.886 E0.2568
G1 X48.971 Y3.536 E0.3286
G1 X49.024 Y3.508 E0.3302
G1 X49.256 Y3.397 E0.3373
G1 X49.311 Y3.374 E0.3390
G1 X51.764 Y2.486 E0.4107
G1 X51.822 Y2.468 E0.4124
G1 X52.071 Y2.405 E0.4194
G1 X52.130 Y2.393 E0.4211
G1 X54.709 Y2.000 E0.4928
G1 X54.769 Y1.994 E0.4945
G1 X55.025 Y1.981 E0.5015
G1 X55.085 Y1.980 E0.5032
G1 X57.692 Y2.098 E0.5750
G1 X57.752 Y2.104 E0.5766
G1 X58.006 Y2.141 E0.5837
G1 X58.065 Y2.152 E0.5853
G1 X60.598 Y2.777 E0.6571
G1 X60.655 Y2.794 E0.6587
G1 X60.897 Y2.880 E0.6658
G1 X60.953 Y2.902 E0.6674
G1 X63.316 Y4.009 E0.7392
G1 X63.369 Y4.037 E0.7408
G1 X63.590 Y4.168 E0.7479
G1 X63.640 Y4.201 E0.7496
G1 X65.741 Y5.748 E0.8213
G1 X65.788 Y5.786 E0.8230
G1 X65.979 Y5.957 E0.8300
G1 X66.021 Y6.000 E0.8317
G1 X67.781 Y7.926 E0.9034
G1 X67.819 Y7.973 E0.9051
G1 X67.973 Y8.178 E0.9121
G1 X68.006 Y8.228 E0.9138
G1 X69.356 Y10.461 E0.9856
G1 X69.385 Y10.514 E0.9872
G1 X69.495 Y10.745 E0.9943
G1 X69.519 Y10.801 E0.9959
G1 X70.407 Y13.254 E1.0677
G1 X70.425 Y13.311 E1.0693
G1 X70.488 Y13.560 E1.0764
G1 X70.500 Y13.619 E1.0780
G1 X70.892 Y16.198 E1.1498
G1 X70.899 Y16.258 E1.1515
G1 X70.912 Y16.515 E1.1585
G1 X70.912 Y16.575 E1.1602
G1 X70.794 Y19.181 E1.2319
G1 X70.789 Y19.241 E1.2336
G1 X70.752 Y19.495 E1.2406
G1 X70.740 Y19.554 E1.2423
G1 X70.116 Y22.087 E1.3140
G1 X70.099 Y22.145 E1.3157
G1 X70.013 Y22.387 E1.3228
G1 X69.990 Y22.443 E1.3244
G1 X68.885 Y24.803 E1.3961
G1 X68.857 Y24.856 E1.3977
G1 X68.726 Y25.076 E1.4048
G1 X68.693 Y25.127 E1.4064
G1 X67.145 Y27.230 E1.4783
G1 X67.107 Y27.277 E1.4799
G1 X66.936 Y27.468 E1.4870
G1 X66.893 Y27.511 E1.4886
G1 X64.967 Y29.270 E1.5604
G1 X64.920 Y29.309 E1.5621
G1 X64.715 Y29.462 E1.5691
G1 X64.665 Y29.496 E1.5708
G1 X64.325 Y29.701 E1.5817
G1 X67.606 Y37.076 E1.8037
G1 X67.623 Y37.119 E1.8049
G1 X67.689 Y37.301 E1.8103
G1 X67.702 Y37.345 E1.8115
G1 X69.436 Y43.609 E1.9903
G1 X69.455 Y43.710 E1.9931
G1 X69.500 Y44.147 E2.0052
G1 X69.502 Y44.249 E2.0080
G1 X69.348 Y46.592 E2.0726
G1 X69.773 Y49.264 E2.1470
G1 X69.779 Y49.311 E2.1483
G1 X69.795 Y49.511 E2.1538
G1 X69.797 Y49.558 E2.1551
G1 X69.810 Y52.526 E2.2367
G1 X69.810 Y52.545 E2.2372
G1 X69.808 Y52.625 E2.2394
G1 X69.807 Y52.644 E2.2400
G1 X69.647 Y55.438 E2.3169
G1 X69.645 Y55.458 E2.3175
G1 X69.638 Y55.544 E2.3198
G1 X69.636 Y55.564 E2.3204
G1 X69.273 Y58.508 E2.4020
G1 X69.232 Y58.664 E2.4064
G1 X68.972 Y59.305 E2.4254
G1 X68.892 Y59.445 E2.4299
G1 X66.858 Y62.124 E2.5224
G1 X66.838 Y62.148 E2.5232
G1 X66.752 Y62.250 E2.5269
G1 X66.732 Y62.273 E2.5278
G1 X64.667 Y64.484 E2.6110
G1 X64.460 Y64.630 E2.6179
G1 X63.462 Y65.062 E2.6478
G1 X63.215 Y65.112 E2.6548
G1 X47.537 Y65.067 E3.0859
G1 X47.088 Y64.880 E3.0993
G1 X45.577 Y63.364 E3.1582
G1 X45.391 Y62.915 E3.1716
G1 X45.391 Y54.560 E3.4013
G1 X45.577 Y54.109 E3.4147
G1 X47.094 Y52.593 E3.4737
G1 X47.544 Y52.407 E3.4871
G1 X50.472 Y52.407 E3.5676
G1 X56.234 Y51.898 E3.7267
G1 X56.963 Y51.552 E3.7489
G1 X57.452 Y50.530 E3.7801
G1 X57.471 Y50.495 E3.7812
G1 X57.554 Y50.347 E3.7858
G1 X57.575 Y50.313 E3.7869
G1 X57.966 Y49.710 E3.8067
G1 X57.916 Y48.899 E3.8291
G1 X57.362 Y46.758 E3.8899
G1 X57.345 Y46.666 E3.8925
G1 X57.305 Y46.269 E3.9034
G1 X57.303 Y46.176 E3.9060
G1 X57.376 Y44.758 E3.9450
G1 X55.485 Y39.690 E4.0938
G1 X50.904 Y31.911 E4.3421
G1 X50.006 Y31.259 E4.3726
G1 X48.614 Y30.542 E4.4157
G1 X48.367 Y30.312 E4.4249
G1 X47.606 Y29.065 E4.4651
G1 X47.515 Y28.740 E4.4744
G1 X47.516 Y24.129 E4.6012
G1 X43.493 Y24.129 E4.7118
G1 X43.133 Y24.016 E4.7222
G1 X41.789 Y23.074 E4.7673
G1 X41.560 Y22.774 E4.7777
G1 X40.995 Y21.214 E4.8234
G1 X40.977 Y21.155 E4.8251
G1 X40.913 Y20.899 E4.8323
G1 X40.901 Y20.838 E4.8340
G1 X40.509 Y18.170 E4.9082
G1 X40.504 Y18.111 E4.9098
G1 X40.491 Y17.862 E4.9166
G1 X40.491 Y17.804 E4.9183
G1 X40.609 Y15.201 E4.9899
G1 X40.615 Y15.141 E4.9916
G1 X40.651 Y14.887 E4.9986
G1 X40.663 Y14.828 E5.0003
G1 X41.286 Y12.299 E5.0719
G1 X41.759 Y12.428 F3500
G92 E0
G1 X41.770 Y12.393 E0.0010 F720
G1 X41.847 Y12.174 E0.0074
G1 X41.861 Y12.141 E0.0084
G1 X42.958 Y9.796 E0.0796
G1 X42.975 Y9.764 E0.0806
G1 X43.094 Y9.564 E0.0870
G1 X43.114 Y9.534 E0.0880
G1 X44.646 Y7.451 E0.1591
G1 X44.669 Y7.423 E0.1600
G1 X44.824 Y7.251 E0.1664
G1 X44.850 Y7.225 E0.1674
G1 X46.758 Y5.482 E0.2385
G1 X46.786 Y5.459 E0.2395
G1 X46.972 Y5.319 E0.2459
G1 X47.002 Y5.299 E0.2469
G1 X49.215 Y3.962 E0.3180
G1 X49.246 Y3.945 E0.3190
G1 X49.456 Y3.845 E0.3254
G1 X49.489 Y3.831 E0.3264
G1 X51.920 Y2.951 E0.3975
G1 X51.954 Y2.940 E0.3985
G1 X52.180 Y2.883 E0.4049
G1 X52.215 Y2.875 E0.4059
G1 X54.771 Y2.486 E0.4770
G1 X54.807 Y2.483 E0.4779
G1 X55.039 Y2.470 E0.4843
G1 X55.075 Y2.470 E0.4853
G1 X57.657 Y2.587 E0.5564
G1 X57.693 Y2.591 E0.5574
G1 X57.924 Y2.624 E0.5638
G1 X57.959 Y2.631 E0.5648
G1 X60.469 Y3.250 E0.6359
G1 X60.503 Y3.260 E0.6369
G1 X60.723 Y3.337 E0.6433
G1 X60.756 Y3.351 E0.6443
G1 X63.097 Y4.448 E0.7154
G1 X63.129 Y4.464 E0.7164
G1 X63.329 Y4.583 E0.7228
G1 X63.359 Y4.603 E0.7238
G1 X65.441 Y6.135 E0.7949
G1 X65.469 Y6.158 E0.7958
G1 X65.642 Y6.314 E0.8022
G1 X65.668 Y6.339 E0.8032
G1 X67.411 Y8.248 E0.8743
G1 X67.434 Y8.276 E0.8753
G1 X67.573 Y8.462 E0.8817
G1 X67.593 Y8.492 E0.8827
G1 X68.931 Y10.704 E0.9538
G1 X68.948 Y10.736 E0.9548
G1 X69.048 Y10.946 E0.9612
G1 X69.062 Y10.979 E0.9622
G1 X69.942 Y13.409 E1.0333
G1 X69.953 Y13.444 E1.0343
G1 X70.010 Y13.669 E1.0407
G1 X70.017 Y13.705 E1.0417
G1 X70.406 Y16.260 E1.1127
G1 X70.410 Y16.296 E1.1137
G1 X70.422 Y16.528 E1.1201
G1 X70.422 Y16.565 E1.1211
G1 X70.305 Y19.147 E1.1922
G1 X70.302 Y19.183 E1.1932
G1 X70.269 Y19.413 E1.1996
G1 X70.262 Y19.448 E1.2006
G1 X69.643 Y21.958 E1.2717
G1 X69.633 Y21.993 E1.2727
G1 X69.555 Y22.212 E1.2791
G1 X69.542 Y22.246 E1.2801
G1 X68.446 Y24.584 E1.3511
G1 X68.429 Y24.616 E1.3521
G1 X68.311 Y24.816 E1.3585
G1 X68.291 Y24.846 E1.3595
G1 X66.758 Y26.930 E1.4306
G1 X66.735 Y26.958 E1.4316
G1 X66.579 Y27.131 E1.4380
G1 X66.554 Y27.157 E1.4390
G1 X64.645 Y28.900 E1.5101
G1 X64.617 Y28.923 E1.5111
G1 X64.431 Y29.063 E1.5175
G1 X64.401 Y29.083 E1.5185
G1 X63.702 Y29.505 E1.5410
G1 X67.155 Y37.267 E1.7746
G1 X67.165 Y37.293 E1.7754
G1 X67.224 Y37.458 E1.7802
G1 X67.233 Y37.484 E1.7809
G1 X68.958 Y43.720 E1.9589
G1 X68.970 Y43.780 E1.9606
G1 X69.010 Y44.176 E1.9715
G1 X69.012 Y44.238 E1.9732
G1 X68.856 Y46.615 E2.0387
G1 X69.288 Y49.332 E2.1144
G1 X69.291 Y49.360 E2.1152
G1 X69.306 Y49.541 E2.1202
G1 X69.307 Y49.569 E2.1209
G1 X69.320 Y52.524 E2.2022
G1 X69.320 Y52.536 E2.2025
G1 X69.318 Y52.608 E2.2045
G1 X69.317 Y52.620 E2.2048
G1 X69.158 Y55.407 E2.2816
G1 X69.157 Y55.418 E2.2819
G1 X69.150 Y55.496 E2.2841
G1 X69.149 Y55.508 E2.2844
G1 X68.791 Y58.416 E2.3650
G1 X68.766 Y58.510 E2.3676
G1 X68.530 Y59.090 E2.3849
G1 X68.482 Y59.175 E2.3876
G1 X66.471 Y61.822 E2.4790
G1 X66.459 Y61.837 E2.4795
G1 X66.382 Y61.929 E2.4828
G1 X66.369 Y61.943 E2.4833
G1 X64.343 Y64.113 E2.5650
G1 X64.219 Y64.200 E2.5692
G1 X63.314 Y64.592 E2.5963
G1 X63.166 Y64.622 E2.6004
G1 X47.635 Y64.577 E3.0276
G1 X47.366 Y64.465 E3.0356
G1 X45.992 Y63.087 E3.0891
G1 X45.881 Y62.818 E3.0971
G1 X45.881 Y54.657 E3.3215
G1 X45.993 Y54.387 E3.3296
G1 X47.371 Y53.009 E3.3832
G1 X47.641 Y52.897 E3.3912
G1 X50.493 Y52.897 E3.4697
G1 X56.364 Y52.378 E3.6318
G1 X57.330 Y51.920 E3.6612
G1 X57.891 Y50.749 E3.6969
G1 X57.902 Y50.728 E3.6975
G1 X57.977 Y50.594 E3.7018
G1 X57.990 Y50.573 E3.7024
G1 X58.465 Y49.842 E3.7264
G1 X58.402 Y48.822 E3.7545
G1 X57.841 Y46.653 E3.8161
G1 X57.831 Y46.598 E3.8177
G1 X57.794 Y46.238 E3.8276
G1 X57.793 Y46.182 E3.8291
G1 X57.870 Y44.682 E3.8705
G1 X55.929 Y39.478 E4.0232
G1 X51.274 Y31.574 E4.2755
G1 X50.264 Y30.841 E4.3098
G1 X48.898 Y30.137 E4.3521
G1 X48.750 Y29.999 E4.3576
G1 X48.060 Y28.867 E4.3941
G1 X48.005 Y28.672 E4.3997
G1 X48.006 Y23.639 E4.5381
G1 X43.568 Y23.639 E4.6601
G1 X43.352 Y23.571 E4.6664
G1 X42.133 Y22.716 E4.7073
G1 X41.995 Y22.536 E4.7136
G1 X41.460 Y21.058 E4.7568
G1 X41.449 Y21.023 E4.7578
G1 X41.391 Y20.791 E4.7644
G1 X41.384 Y20.755 E4.7654
G1 X40.996 Y18.110 E4.8389
G1 X40.993 Y18.075 E4.8399
G1 X40.981 Y17.849 E4.8461
G1 X40.981 Y17.814 E4.8470
G1 X41.098 Y15.235 E4.9180
G1 X41.101 Y15.199 E4.9190
G1 X41.135 Y14.969 E4.9254
G1 X41.142 Y14.934 E4.9264
G1 X41.759 Y12.428 E4.9974
G1 X42.232 Y12.556 F3500
G92 E0
G1 X42.236 Y12.545 E0.0003 F720
G1 X42.305 Y12.349 E0.0061
G1 X42.309 Y12.338 E0.0064
G1 X43.396 Y10.015 E0.0769
G1 X43.402 Y10.004 E0.0772
G1 X43.509 Y9.824 E0.0830
G1 X43.515 Y9.814 E0.0833
G1 X45.033 Y7.752 E0.1538
G1 X45.041 Y7.742 E0.1541
G1 X45.180 Y7.587 E0.1598
G1 X45.189 Y7.579 E0.1602
G1 X47.080 Y5.852 E0.2306
G1 X47.089 Y5.844 E0.2309
G1 X47.256 Y5.719 E0.2367
G1 X47.266 Y5.712 E0.2370
G1 X49.458 Y4.388 E0.3074
G1 X49.468 Y4.382 E0.3077
G1 X49.656 Y4.292 E0.3135
G1 X49.668 Y4.287 E0.3138
G1 X52.075 Y3.415 E0.3842
G1 X52.087 Y3.412 E0.3846
G1 X52.289 Y3.360 E0.3903
G1 X52.301 Y3.358 E0.3906
G1 X54.833 Y2.973 E0.4611
G1 X54.845 Y2.971 E0.4614
G1 X55.053 Y2.960 E0.4671
G1 X55.065 Y2.960 E0.4675
G1 X57.623 Y3.076 E0.5379
G1 X57.635 Y3.078 E0.5382
G1 X57.842 Y3.107 E0.5440
G1 X57.853 Y3.110 E0.5443
G1 X60.340 Y3.723 E0.6147
G1 X60.352 Y3.726 E0.6151
G1 X60.548 Y3.795 E0.6208
G1 X60.559 Y3.800 E0.6211
G1 X62.878 Y4.886 E0.6916
G1 X62.889 Y4.892 E0.6919
G1 X63.068 Y4.998 E0.6976
G1 X63.078 Y5.005 E0.6980
G1 X65.141 Y6.523 E0.7684
G1 X65.150 Y6.530 E0.7687
G1 X65.305 Y6.670 E0.7745
G1 X65.314 Y6.678 E0.7748
G1 X67.041 Y8.569 E0.8452
G1 X67.049 Y8.579 E0.8455
G1 X67.174 Y8.746 E0.8513
G1 X67.180 Y8.756 E0.8516
G1 X68.505 Y10.947 E0.9220
G1 X68.511 Y10.958 E0.9224
G1 X68.601 Y11.146 E0.9281
G1 X68.605 Y11.157 E0.9284
G1 X69.477 Y13.565 E0.9989
G1 X69.481 Y13.576 E0.9992
G1 X69.532 Y13.779 E1.0049
G1 X69.535 Y13.790 E1.0053
G1 X69.920 Y16.322 E1.0757
G1 X69.921 Y16.334 E1.0760
G1 X69.932 Y16.542 E1.0818
G1 X69.932 Y16.554 E1.0821
G1 X69.816 Y19.113 E1.1525
G1 X69.815 Y19.125 E1.1529
G1 X69.785 Y19.331 E1.1586
G1 X69.783 Y19.343 E1.1589
G1 X69.170 Y21.829 E1.2294
G1 X69.167 Y21.841 E1.2297
G1 X69.097 Y22.038 E1.2354
G1 X69.093 Y22.049 E1.2357
G1 X68.008 Y24.366 E1.3061
G1 X68.002 Y24.376 E1.3064
G1 X67.896 Y24.555 E1.3122
G1 X67.889 Y24.565 E1.3125
G1 X66.370 Y26.630 E1.3830
G1 X66.363 Y26.640 E1.3833
G1 X66.223 Y26.795 E1.3891
G1 X66.214 Y26.803 E1.3894
G1 X64.323 Y28.530 E1.4598
G1 X64.314 Y28.538 E1.4602
G1 X64.147 Y28.663 E1.4659
G1 X64.137 Y28.670 E1.4662
