; G-Code generated by Simplify3D(R) Version 3.0.0
; Sep 18, 2017 at 2:42:34 
; Settings Summary
;   processName,Process1
;   applyToModels,greifer
;   profileName,juli (modified)
;   profileVersion,2017-06-09 12:06:14
;   baseProfile,German RepRap NEO (modified)
;   printMaterial,
;   printQuality,
;   printExtruders,
;   extruderName,Primary Extruder
;   extruderToolheadNumber,0
;   extruderDiameter,0.5
;   extruderAutoWidth,0
;   extruderWidth,0.49
;   extrusionMultiplier,0.9
;   extruderUseRetract,1
;   extruderRetractionDistance,6.5
;   extruderExtraRestartDistance,0
;   extruderRetractionZLift,0
;   extruderRetractionSpeed,5000
;   extruderUseCoasting,0
;   extruderCoastingDistance,0.2
;   extruderUseWipe,0
;   extruderWipeDistance,5
;   primaryExtruder,0
;   layerHeight,0.15
;   topSolidLayers,4
;   bottomSolidLayers,3
;   perimeterOutlines,3
;   printPerimetersInsideOut,1
;   startPointOption,2
;   startPointOriginX,0
;   startPointOriginY,0
;   startPointOriginZ,300
;   sequentialIslands,0
;   spiralVaseMode,0
;   firstLayerHeightPercentage,100
;   firstLayerWidthPercentage,100
;   firstLayerUnderspeed,0.3
;   useRaft,0
;   raftExtruder,0
;   raftLayers,3
;   raftOffset,3
;   raftSeparationDistance,0.1
;   raftInfill,85
;   disableRaftBaseLayers,0
;   useSkirt,1
;   skirtExtruder,0
;   skirtLayers,1
;   skirtOutlines,3
;   skirtOffset,2
;   usePrimePillar,0
;   primePillarExtruder,999
;   primePillarWidth,12
;   primePillarLocation,7
;   primePillarSpeedMultiplier,1
;   useOozeShield,0
;   oozeShieldExtruder,999
;   oozeShieldOffset,2
;   oozeShieldOutlines,1
;   oozeShieldSidewallShape,1
;   oozeShieldSidewallAngle,30
;   oozeShieldSpeedMultiplier,1
;   infillExtruder,0
;   internalInfillPattern,Full Honeycomb
;   externalInfillPattern,Rectilinear
;   infillPercentage,15
;   outlineOverlapPercentage,15
;   infillExtrusionWidthPercentage,100
;   minInfillLength,3
;   infillLayerInterval,1
;   infillAngles,0,120,-120
;   overlapInfillAngles,0
;   generateSupport,0
;   supportExtruder,0
;   supportInfillPercentage,30
;   supportExtraInflation,0
;   denseSupportLayers,0
;   denseSupportInfillPercentage,75
;   supportLayerInterval,1
;   supportHorizontalPartOffset,1.5
;   supportUpperSeparationLayers,2
;   supportLowerSeparationLayers,2
;   supportType,0
;   supportGridSpacing,4
;   maxOverhangAngle,45
;   supportAngles,45
;   temperatureName,Primary Extruder
;   temperatureNumber,0
;   temperatureSetpointCount,3
;   temperatureSetpointLayers,1,2,3
;   temperatureSetpointTemperatures,207,199,192
;   temperatureStabilizeAtStartup,1
;   temperatureHeatedBed,0
;   temperatureRelayBetweenLayers,0
;   temperatureRelayBetweenLoops,0
;   fanLayers,1,4
;   fanSpeeds,0,100
;   blipFanToFullPower,0
;   adjustSpeedForCooling,1
;   minSpeedLayerTime,15
;   minCoolingSpeedSlowdown,20
;   increaseFanForCooling,0
;   minFanLayerTime,45
;   maxCoolingFanSpeed,100
;   increaseFanForBridging,0
;   bridgingFanSpeed,100
;   use5D,1
;   relativeEdistances,0
;   allowEaxisZeroing,1
;   independentExtruderAxes,0
;   includeM10123,0
;   stickySupport,1
;   applyToolheadOffsets,0
;   gcodeXoffset,0
;   gcodeYoffset,0
;   gcodeZoffset,0
;   overrideMachineDefinition,1
;   machineTypeOverride,0
;   strokeXoverride,150
;   strokeYoverride,150
;   strokeZoverride,150
;   originOffsetXoverride,0
;   originOffsetYoverride,0
;   originOffsetZoverride,0
;   homeXdirOverride,-1
;   homeYdirOverride,-1
;   homeZdirOverride,-1
;   flipXoverride,1
;   flipYoverride,-1
;   flipZoverride,1
;   toolheadOffsets,0,0|0,0|0,0|0,0|0,0|0,0
;   overrideFirmwareConfiguration,0
;   firmwareTypeOverride,RepRap (Marlin/Repetier/Sprinter)
;   GPXconfigOverride,r2
;   baudRateOverride,115200
;   overridePrinterModels,0
;   printerModelsOverride
;   startingGcode,G28 ; home all axes
;   layerChangeGcode,
;   retractionGcode,
;   toolChangeGcode,
;   endingGcode,M104 S0 ; turn off extruder,M140 S0 ; turn off bed,G28 X0  ; home X axis,G28 Y0  ; home Y axis,M84 ; disable motors,M107
;   createX3G,0
;   celebration,0
;   celebrationSong,Random Song
;   createMB5G,0
;   postProcessing,
;   defaultSpeed,2400
;   outlineUnderspeed,0.5
;   solidInfillUnderspeed,0.8
;   supportUnderspeed,0.8
;   rapidXYspeed,3500
;   rapidZspeed,1000
;   minBridgingArea,50
;   bridgingExtraInflation,0
;   bridgingExtrusionMultiplier,1
;   bridgingSpeedMultiplier,1
;   filamentDiameter,1.75
;   filamentPricePerKg,46
;   filamentDensity,1.25
;   useMinPrintHeight,0
;   minPrintHeight,0
;   useMaxPrintHeight,0
;   maxPrintHeight,0
;   useDiaphragm,0
;   diaphragmLayerInterval,20
;   robustSlicing,1
;   mergeAllIntoSolid,0
;   onlyRetractWhenCrossingOutline,1
;   retractBetweenLayers,1
;   useRetractionMinTravel,0
;   retractionMinTravel,3
;   retractWhileWiping,0
;   onlyWipeOutlines,1
;   avoidCrossingOutline,0
;   maxMovementDetourFactor,10
;   toolChangeRetractionDistance,0
;   toolChangeExtraRestartDistance,0
;   toolChangeRetractionSpeed,360
;   allowThinWallGapFill,1
;   thinWallAllowedOverlapPercentage,10
;   horizontalSizeCompensation,0
G90
M82
M106 S0
M104 S207 T0
M109 S207 T0
G28 ; home all axes
G92 E0
G1 E-6.5000 F5000
G1 Z0.150 F1000
; layer 1, Z = 0.15
T0
; tool H0.150 W0.490
; skirt
G1 X19.422 Y42.200 F3500
G1 E0.0000 F1500
G92 E0
G1 X19.659 Y42.102 E0.0071 F720
G1 X19.716 Y42.082 E0.0087
G1 X22.786 Y41.151 E0.0969
G1 X22.844 Y41.136 E0.0986
G1 X23.096 Y41.086 E0.1056
G1 X23.155 Y41.077 E0.1073
G1 X26.348 Y40.763 E0.1955
G1 X26.408 Y40.760 E0.1972
G1 X26.664 Y40.760 E0.2042
G1 X26.724 Y40.763 E0.2059
G1 X29.917 Y41.077 E0.2941
G1 X29.976 Y41.086 E0.2958
G1 X30.228 Y41.136 E0.3028
G1 X30.286 Y41.151 E0.3045
G1 X33.356 Y42.082 E0.3927
G1 X33.412 Y42.102 E0.3943
G1 X33.650 Y42.200 E0.4014
G1 X33.704 Y42.226 E0.4031
G1 X36.533 Y43.738 E0.4913
G1 X36.584 Y43.769 E0.4929
G1 X36.798 Y43.912 E0.5000
G1 X36.846 Y43.947 E0.5016
G1 X39.326 Y45.982 E0.5899
G1 X39.370 Y46.023 E0.5915
G1 X39.552 Y46.204 E0.5986
G1 X39.592 Y46.249 E0.6002
G1 X41.627 Y48.729 E0.6884
G1 X41.663 Y48.777 E0.6901
G1 X41.806 Y48.990 E0.6972
G1 X41.836 Y49.042 E0.6988
G1 X43.349 Y51.871 E0.7870
G1 X43.374 Y51.925 E0.7887
G1 X43.473 Y52.162 E0.7957
G1 X43.493 Y52.219 E0.7974
G1 X44.424 Y55.289 E0.8856
G1 X44.439 Y55.347 E0.8873
G1 X44.489 Y55.599 E0.8943
G1 X44.497 Y55.658 E0.8960
G1 X44.812 Y58.850 E0.9842
G1 X44.815 Y58.910 E0.9859
G1 X44.815 Y59.167 E0.9929
G1 X44.812 Y59.227 E0.9946
G1 X44.497 Y62.419 E1.0828
G1 X44.489 Y62.479 E1.0844
G1 X44.439 Y62.731 E1.0915
G1 X44.424 Y62.789 E1.0932
G1 X43.493 Y65.859 E1.1814
G1 X43.472 Y65.915 E1.1830
G1 X43.374 Y66.152 E1.1901
G1 X43.349 Y66.207 E1.1917
G1 X41.836 Y69.036 E1.2800
G1 X41.806 Y69.087 E1.2816
G1 X41.663 Y69.301 E1.2887
G1 X41.627 Y69.349 E1.2903
G1 X39.592 Y71.829 E1.3785
G1 X39.552 Y71.873 E1.3802
G1 X39.370 Y72.055 E1.3873
G1 X39.326 Y72.095 E1.3889
G1 X37.515 Y73.581 E1.4533
G1 X37.962 Y81.598 E1.6741
G1 X38.432 Y88.581 E1.8666
G1 X38.433 Y88.602 E1.8672
G1 X38.436 Y88.692 E1.8697
G1 X38.437 Y88.713 E1.8703
G1 X38.414 Y105.542 E2.3331
G1 X38.227 Y105.991 E2.3465
G1 X36.711 Y107.505 E2.4054
G1 X36.261 Y107.691 E2.4188
G1 X23.871 Y107.689 E2.7595
G1 X23.813 Y107.686 E2.7612
G1 X23.562 Y107.662 E2.7681
G1 X23.504 Y107.654 E2.7697
G1 X19.139 Y106.803 E2.8920
G1 X18.773 Y106.584 E2.9037
G1 X17.589 Y105.146 E2.9550
G1 X17.445 Y104.744 E2.9667
G1 X17.460 Y88.518 E3.4130
G1 X17.465 Y88.438 E3.4152
G1 X17.510 Y88.099 E3.4246
G1 X17.526 Y88.021 E3.4268
G1 X19.173 Y81.883 E3.6015
G1 X19.175 Y81.877 E3.6017
G1 X19.181 Y81.855 E3.6023
G1 X19.182 Y81.850 E3.6025
G1 X21.936 Y72.271 E3.8766
G1 X12.564 Y52.423 E4.4802
G1 X12.507 Y52.100 E4.4893
G1 X12.562 Y51.499 E4.5058
G1 X12.444 Y51.058 E4.5184
G1 X12.425 Y50.841 E4.5244
G1 X12.461 Y50.459 E4.5350
G1 X12.155 Y49.920 E4.5520
G1 X12.077 Y49.535 E4.5628
G1 X12.280 Y47.840 E4.6098
G1 X12.446 Y47.484 E4.6205
G1 X13.083 Y46.806 E4.6461
G1 X13.288 Y46.421 E4.6581
G1 X13.441 Y46.232 E4.6648
G1 X16.226 Y43.948 E4.7639
G1 X16.274 Y43.912 E4.7655
G1 X16.487 Y43.769 E4.7726
G1 X16.539 Y43.738 E4.7742
G1 X19.368 Y42.226 E4.8625
G1 X19.422 Y42.200 E4.8641
G1 X19.621 Y42.648 F3500
G92 E0
G1 X19.836 Y42.559 E0.0064 F720
G1 X19.870 Y42.547 E0.0074
G1 X22.916 Y41.623 E0.0949
G1 X22.951 Y41.614 E0.0959
G1 X23.180 Y41.569 E0.1023
G1 X23.215 Y41.564 E0.1033
G1 X26.384 Y41.252 E0.1909
G1 X26.420 Y41.250 E0.1919
G1 X26.652 Y41.250 E0.1983
G1 X26.688 Y41.252 E0.1993
G1 X29.857 Y41.564 E0.2868
G1 X29.892 Y41.569 E0.2878
G1 X30.120 Y41.614 E0.2942
G1 X30.155 Y41.623 E0.2952
G1 X33.202 Y42.547 E0.3828
G1 X33.236 Y42.559 E0.3838
G1 X33.451 Y42.648 E0.3902
G1 X33.483 Y42.664 E0.3911
G1 X36.291 Y44.165 E0.4787
G1 X36.322 Y44.183 E0.4797
G1 X36.516 Y44.312 E0.4861
G1 X36.545 Y44.334 E0.4871
G1 X39.006 Y46.354 E0.5746
G1 X39.032 Y46.378 E0.5756
G1 X39.197 Y46.542 E0.5820
G1 X39.221 Y46.569 E0.5830
G1 X41.241 Y49.030 E0.6706
G1 X41.262 Y49.059 E0.6716
G1 X41.391 Y49.252 E0.6780
G1 X41.410 Y49.283 E0.6790
G1 X42.911 Y52.091 E0.7665
G1 X42.926 Y52.124 E0.7675
G1 X43.015 Y52.339 E0.7739
G1 X43.027 Y52.373 E0.7749
G1 X43.952 Y55.419 E0.8625
G1 X43.960 Y55.454 E0.8635
G1 X44.006 Y55.682 E0.8698
G1 X44.011 Y55.718 E0.8708
G1 X44.323 Y58.886 E0.9584
G1 X44.325 Y58.922 E0.9594
G1 X44.325 Y59.155 E0.9658
G1 X44.323 Y59.191 E0.9668
G1 X44.011 Y62.359 E1.0543
G1 X44.006 Y62.395 E1.0553
G1 X43.960 Y62.623 E1.0617
G1 X43.952 Y62.658 E1.0627
G1 X43.027 Y65.705 E1.1503
G1 X43.015 Y65.739 E1.1513
G1 X42.926 Y65.954 E1.1577
G1 X42.911 Y65.986 E1.1587
G1 X41.410 Y68.794 E1.2462
G1 X41.391 Y68.825 E1.2472
G1 X41.262 Y69.018 E1.2536
G1 X41.241 Y69.047 E1.2546
G1 X39.221 Y71.508 E1.3422
G1 X39.197 Y71.535 E1.3431
G1 X39.032 Y71.700 E1.3495
G1 X39.006 Y71.724 E1.3505
G1 X37.012 Y73.360 E1.4215
G1 X37.473 Y81.627 E1.6492
G1 X37.943 Y88.610 E1.8417
G1 X37.944 Y88.623 E1.8420
G1 X37.947 Y88.704 E1.8442
G1 X37.947 Y88.716 E1.8446
G1 X37.924 Y105.444 E2.3046
G1 X37.812 Y105.713 E2.3127
G1 X36.434 Y107.090 E2.3662
G1 X36.164 Y107.201 E2.3743
G1 X23.883 Y107.199 E2.7120
G1 X23.848 Y107.198 E2.7130
G1 X23.621 Y107.176 E2.7192
G1 X23.586 Y107.171 E2.7202
G1 X19.317 Y106.338 E2.8398
G1 X19.097 Y106.207 E2.8469
G1 X18.021 Y104.900 E2.8934
G1 X17.935 Y104.659 E2.9005
G1 X17.950 Y88.534 E3.3439
G1 X17.953 Y88.486 E3.3453
G1 X17.994 Y88.179 E3.3538
G1 X18.003 Y88.132 E3.3551
G1 X19.646 Y82.011 E3.5294
G1 X19.647 Y82.008 E3.5295
G1 X19.653 Y81.988 E3.5301
G1 X19.653 Y81.985 E3.5302
G1 X22.457 Y72.228 E3.8093
G1 X13.035 Y52.273 E4.4162
G1 X13.001 Y52.079 E4.4217
G1 X13.057 Y51.457 E4.4388
G1 X12.928 Y50.973 E4.4526
G1 X12.917 Y50.843 E4.4562
G1 X12.963 Y50.351 E4.4698
G1 X12.619 Y49.746 E4.4889
G1 X12.573 Y49.515 E4.4954
G1 X12.757 Y47.976 E4.5380
G1 X12.857 Y47.763 E4.5445
G1 X13.485 Y47.094 E4.5698
G1 X13.698 Y46.693 E4.5822
G1 X13.790 Y46.580 E4.5862
G1 X16.527 Y44.334 E4.6836
G1 X16.556 Y44.312 E4.6846
G1 X16.750 Y44.183 E4.6910
G1 X16.781 Y44.165 E4.6920
G1 X19.588 Y42.664 E4.7796
G1 X19.621 Y42.648 E4.7806
G1 X19.820 Y43.097 F3500
G92 E0
G1 X20.012 Y43.017 E0.0057 F720
G1 X20.024 Y43.013 E0.0061
G1 X23.047 Y42.095 E0.0930
G1 X23.059 Y42.093 E0.0933
G1 X23.263 Y42.052 E0.0990
G1 X23.275 Y42.050 E0.0994
G1 X26.420 Y41.740 E0.1863
G1 X26.432 Y41.740 E0.1866
G1 X26.640 Y41.740 E0.1923
G1 X26.652 Y41.740 E0.1927
G1 X29.797 Y42.050 E0.2795
G1 X29.808 Y42.052 E0.2799
G1 X30.013 Y42.093 E0.2856
G1 X30.025 Y42.096 E0.2859
G1 X33.048 Y43.013 E0.3728
G1 X33.060 Y43.017 E0.3732
G1 X33.252 Y43.097 E0.3789
G1 X33.263 Y43.102 E0.3792
G1 X36.050 Y44.591 E0.4661
G1 X36.060 Y44.597 E0.4665
G1 X36.233 Y44.713 E0.4722
G1 X36.243 Y44.720 E0.4725
G1 X38.685 Y46.725 E0.5594
G1 X38.694 Y46.733 E0.5598
G1 X38.842 Y46.880 E0.5655
G1 X38.850 Y46.889 E0.5658
G1 X40.854 Y49.332 E0.6527
G1 X40.861 Y49.341 E0.6530
G1 X40.977 Y49.515 E0.6588
G1 X40.984 Y49.525 E0.6591
G1 X42.473 Y52.312 E0.7460
G1 X42.478 Y52.322 E0.7463
G1 X42.558 Y52.515 E0.7521
G1 X42.562 Y52.526 E0.7524
G1 X43.479 Y55.550 E0.8393
G1 X43.482 Y55.562 E0.8396
G1 X43.523 Y55.766 E0.8454
G1 X43.525 Y55.778 E0.8457
G1 X43.834 Y58.922 E0.9326
G1 X43.835 Y58.934 E0.9329
G1 X43.835 Y59.143 E0.9387
G1 X43.834 Y59.155 E0.9390
G1 X43.525 Y62.299 E1.0259
G1 X43.523 Y62.311 E1.0262
G1 X43.482 Y62.516 E1.0320
G1 X43.479 Y62.528 E1.0323
G1 X42.562 Y65.551 E1.1192
G1 X42.558 Y65.562 E1.1195
G1 X42.478 Y65.755 E1.1252
G1 X42.473 Y65.766 E1.1256
G1 X40.983 Y68.552 E1.2125
G1 X40.977 Y68.563 E1.2128
G1 X40.861 Y68.736 E1.2185
G1 X40.854 Y68.746 E1.2189
G1 X38.850 Y71.188 E1.3058
G1 X38.842 Y71.197 E1.3061
G1 X38.694 Y71.345 E1.3118
G1 X38.685 Y71.353 E1.3122
G1 X36.509 Y73.139 E1.3896
G1 X36.984 Y81.657 E1.6242
G1 X37.454 Y88.639 E1.8167
G1 X37.454 Y88.643 E1.8168
G1 X37.457 Y88.716 E1.8188
G1 X37.457 Y88.720 E1.8189
G1 X37.434 Y105.346 E2.2761
G1 X37.397 Y105.436 E2.2788
G1 X36.157 Y106.674 E2.3270
G1 X36.067 Y106.711 E2.3297
G1 X23.895 Y106.709 E2.6644
G1 X23.883 Y106.709 E2.6648
G1 X23.680 Y106.689 E2.6704
G1 X23.668 Y106.687 E2.6707
G1 X19.494 Y105.874 E2.7877
G1 X19.421 Y105.830 E2.7900
G1 X18.454 Y104.655 E2.8319
G1 X18.425 Y104.575 E2.8342
G1 X18.440 Y88.551 E3.2749
G1 X18.441 Y88.535 E3.2753
G1 X18.477 Y88.259 E3.2830
G1 X18.480 Y88.244 E3.2834
G1 X20.119 Y82.139 E3.4573
G1 X20.119 Y82.138 E3.4573
G1 X20.124 Y82.120 E3.4578
G1 X20.125 Y82.119 E3.4578
G1 X22.979 Y72.186 E3.7421
G1 X13.506 Y52.123 E4.3523
G1 X13.495 Y52.059 E4.3541
G1 X13.553 Y51.415 E4.3718
G1 X13.413 Y50.889 E4.3868
G1 X13.409 Y50.845 E4.3880
G1 X13.465 Y50.243 E4.4046
G1 X13.084 Y49.573 E4.4258
G1 X13.069 Y49.496 E4.4280
G1 X13.234 Y48.112 E4.4663
G1 X13.267 Y48.041 E4.4685
G1 X13.887 Y47.381 E4.4934
G1 X14.108 Y46.966 E4.5063
G1 X14.138 Y46.928 E4.5076
G1 X16.829 Y44.720 E4.6034
G1 X16.838 Y44.713 E4.6037
G1 X17.012 Y44.597 E4.6094
G1 X17.022 Y44.591 E4.6098
G1 X19.809 Y43.102 E4.6967
G1 X19.820 Y43.097 E4.6970
G92 E0
G1 E-6.5000 F5000
; inner perimeter
G1 X21.246 Y46.268 F3500
G1 E0.0000 F5000
G92 E0
G1 X23.839 Y45.481 E0.0745 F600
G1 X26.536 Y45.216 E0.1490
G1 X29.233 Y45.481 E0.2236
G1 X31.826 Y46.268 E0.2981
G1 X34.216 Y47.545 E0.3726
G1 X36.310 Y49.264 E0.4471
G1 X38.029 Y51.359 E0.5217
G1 X39.307 Y53.749 E0.5962
G1 X40.093 Y56.342 E0.6707
G1 X40.359 Y59.039 E0.7452
G1 X40.093 Y61.735 E0.8198
G1 X39.307 Y64.329 E0.8943
G1 X38.029 Y66.718 E0.9688
G1 X36.310 Y68.813 E1.0433
G1 X34.216 Y70.532 E1.1179
G1 X32.926 Y71.221 E1.1581
G1 X33.520 Y81.871 E1.4514
G1 X33.987 Y88.794 E1.6422
G1 X33.967 Y103.241 E2.0396
G1 X24.116 Y103.239 E2.3105
G1 X21.897 Y102.807 E2.3727
G1 X21.909 Y88.854 E2.7564
G1 X23.465 Y83.058 E2.9214
G1 X26.676 Y71.888 E3.2411
G1 X17.198 Y51.816 E3.8515
G1 X17.595 Y51.264 E3.8702
G1 X16.941 Y50.338 E3.9014
G1 X17.021 Y49.478 E3.9252
G1 X16.892 Y49.251 E3.9323
G1 X17.058 Y49.074 E3.9390
G1 X17.064 Y49.016 E3.9406
G1 X18.856 Y47.545 E4.0044
G1 X21.246 Y46.268 E4.0789
; inner perimeter
G1 X21.058 Y45.813 F3500
G92 E0
G1 X23.743 Y44.998 E0.0772 F480
G1 X26.536 Y44.723 E0.1544
G1 X29.329 Y44.998 E0.2315
G1 X32.014 Y45.813 E0.3087
G1 X34.489 Y47.136 E0.3859
G1 X36.658 Y48.916 E0.4631
G1 X38.439 Y51.086 E0.5403
G1 X39.762 Y53.561 E0.6174
G1 X40.576 Y56.246 E0.6946
G1 X40.851 Y59.039 E0.7718
G1 X40.576 Y61.832 E0.8490
G1 X39.762 Y64.517 E0.9261
G1 X38.439 Y66.992 E1.0033
G1 X36.658 Y69.161 E1.0805
G1 X34.489 Y70.942 E1.1577
G1 X33.433 Y71.506 E1.1906
G1 X34.009 Y81.841 E1.4753
G1 X34.477 Y88.778 E1.6665
G1 X34.457 Y103.731 E2.0777
G1 X24.069 Y103.729 E2.3634
G1 X21.406 Y103.210 E2.4380
G1 X21.419 Y88.789 E2.8346
G1 X22.993 Y82.927 E3.0016
G1 X26.154 Y71.930 E3.3163
G1 X16.632 Y51.764 E3.9296
G1 X16.993 Y51.262 E3.9466
G1 X16.436 Y50.473 E3.9731
G1 X16.519 Y49.586 E3.9976
G1 X16.287 Y49.179 E4.0105
G1 X16.586 Y48.861 E4.0225
G1 X16.595 Y48.767 E4.0251
G1 X18.583 Y47.136 E4.0958
G1 X21.058 Y45.813 E4.1730
; outer perimeter
G1 X20.869 Y45.358 F3500
G92 E0
G1 X23.647 Y44.516 E0.0798 F360
G1 X26.536 Y44.231 E0.1597
G1 X29.425 Y44.516 E0.2395
G1 X32.203 Y45.358 E0.3193
G1 X34.763 Y46.727 E0.3992
G1 X37.007 Y48.568 E0.4790
G1 X38.848 Y50.812 E0.5588
