; G-Code generated by Simplify3D(R) Version 3.0.0
; Sep 8, 2017 at 12:25:04 
; Settings Summary
;   processName,Process1
;   applyToModels,greifersep
;   profileName,juli (modified)
;   profileVersion,2017-06-09 12:06:14
;   baseProfile,German RepRap NEO (modified)
;   printMaterial,
;   printQuality,
;   printExtruders,
;   extruderName,Primary Extruder
;   extruderToolheadNumber,0
;   extruderDiameter,0.5
;   extruderAutoWidth,0
;   extruderWidth,0.49
;   extrusionMultiplier,0.9
;   extruderUseRetract,1
;   extruderRetractionDistance,6.5
;   extruderExtraRestartDistance,0
;   extruderRetractionZLift,0
;   extruderRetractionSpeed,5000
;   extruderUseCoasting,0
;   extruderCoastingDistance,0.2
;   extruderUseWipe,0
;   extruderWipeDistance,5
;   primaryExtruder,0
;   layerHeight,0.2
;   topSolidLayers,4
;   bottomSolidLayers,3
;   perimeterOutlines,3
;   printPerimetersInsideOut,1
;   startPointOption,2
;   startPointOriginX,0
;   startPointOriginY,0
;   startPointOriginZ,300
;   sequentialIslands,0
;   spiralVaseMode,0
;   firstLayerHeightPercentage,100
;   firstLayerWidthPercentage,100
;   firstLayerUnderspeed,0.3
;   useRaft,0
;   raftExtruder,0
;   raftLayers,3
;   raftOffset,3
;   raftSeparationDistance,0.1
;   raftInfill,85
;   disableRaftBaseLayers,0
;   useSkirt,1
;   skirtExtruder,0
;   skirtLayers,1
;   skirtOutlines,2
;   skirtOffset,3
;   usePrimePillar,0
;   primePillarExtruder,999
;   primePillarWidth,12
;   primePillarLocation,7
;   primePillarSpeedMultiplier,1
;   useOozeShield,0
;   oozeShieldExtruder,999
;   oozeShieldOffset,2
;   oozeShieldOutlines,1
;   oozeShieldSidewallShape,1
;   oozeShieldSidewallAngle,30
;   oozeShieldSpeedMultiplier,1
;   infillExtruder,0
;   internalInfillPattern,Full Honeycomb
;   externalInfillPattern,Rectilinear
;   infillPercentage,14
;   outlineOverlapPercentage,15
;   infillExtrusionWidthPercentage,100
;   minInfillLength,3
;   infillLayerInterval,1
;   infillAngles,0,120,-120
;   overlapInfillAngles,0
;   generateSupport,1
;   supportExtruder,0
;   supportInfillPercentage,30
;   supportExtraInflation,0
;   denseSupportLayers,0
;   denseSupportInfillPercentage,75
;   supportLayerInterval,1
;   supportHorizontalPartOffset,1.5
;   supportUpperSeparationLayers,2
;   supportLowerSeparationLayers,2
;   supportType,0
;   supportGridSpacing,4
;   maxOverhangAngle,45
;   supportAngles,45
;   temperatureName,Primary Extruder
;   temperatureNumber,0
;   temperatureSetpointCount,3
;   temperatureSetpointLayers,1,2,3
;   temperatureSetpointTemperatures,207,199,193
;   temperatureStabilizeAtStartup,1
;   temperatureHeatedBed,0
;   temperatureRelayBetweenLayers,0
;   temperatureRelayBetweenLoops,0
;   fanLayers,1,4
;   fanSpeeds,0,100
;   blipFanToFullPower,0
;   adjustSpeedForCooling,1
;   minSpeedLayerTime,15
;   minCoolingSpeedSlowdown,20
;   increaseFanForCooling,0
;   minFanLayerTime,45
;   maxCoolingFanSpeed,100
;   increaseFanForBridging,0
;   bridgingFanSpeed,100
;   use5D,1
;   relativeEdistances,0
;   allowEaxisZeroing,1
;   independentExtruderAxes,0
;   includeM10123,0
;   stickySupport,1
;   applyToolheadOffsets,0
;   gcodeXoffset,0
;   gcodeYoffset,0
;   gcodeZoffset,0
;   overrideMachineDefinition,1
;   machineTypeOverride,0
;   strokeXoverride,150
;   strokeYoverride,150
;   strokeZoverride,150
;   originOffsetXoverride,0
;   originOffsetYoverride,0
;   originOffsetZoverride,0
;   homeXdirOverride,-1
;   homeYdirOverride,-1
;   homeZdirOverride,-1
;   flipXoverride,1
;   flipYoverride,-1
;   flipZoverride,1
;   toolheadOffsets,0,0|0,0|0,0|0,0|0,0|0,0
;   overrideFirmwareConfiguration,0
;   firmwareTypeOverride,RepRap (Marlin/Repetier/Sprinter)
;   GPXconfigOverride,r2
;   baudRateOverride,115200
;   overridePrinterModels,0
;   printerModelsOverride
;   startingGcode,G28 ; home all axes
;   layerChangeGcode,
;   retractionGcode,
;   toolChangeGcode,
;   endingGcode,M104 S0 ; turn off extruder,M140 S0 ; turn off bed,G28 X0  ; home X axis,G28 Y0  ; home Y axis,M84 ; disable motors,M107
;   createX3G,0
;   celebration,0
;   celebrationSong,Random Song
;   createMB5G,0
;   postProcessing,
;   defaultSpeed,2400
;   outlineUnderspeed,0.5
;   solidInfillUnderspeed,0.8
;   supportUnderspeed,0.8
;   rapidXYspeed,3500
;   rapidZspeed,1000
;   minBridgingArea,50
;   bridgingExtraInflation,0
;   bridgingExtrusionMultiplier,1
;   bridgingSpeedMultiplier,1
;   filamentDiameter,1.75
;   filamentPricePerKg,46
;   filamentDensity,1.25
;   useMinPrintHeight,0
;   minPrintHeight,0
;   useMaxPrintHeight,0
;   maxPrintHeight,0
;   useDiaphragm,0
;   diaphragmLayerInterval,20
;   robustSlicing,1
;   mergeAllIntoSolid,0
;   onlyRetractWhenCrossingOutline,1
;   retractBetweenLayers,1
;   useRetractionMinTravel,0
;   retractionMinTravel,3
;   retractWhileWiping,0
;   onlyWipeOutlines,1
;   avoidCrossingOutline,0
;   maxMovementDetourFactor,10
;   toolChangeRetractionDistance,0
;   toolChangeExtraRestartDistance,0
;   toolChangeRetractionSpeed,360
;   allowThinWallGapFill,1
;   thinWallAllowedOverlapPercentage,10
;   horizontalSizeCompensation,0
G90
M82
M106 S0
M104 S207 T0
M109 S207 T0
G28 ; home all axes
G92 E0
G1 E-6.5000 F5000
G1 Z0.200 F1000
; layer 1, Z = 0.2
T0
; tool H0.200 W0.490
; skirt
G1 X27.474 Y29.970 F3500
G1 E0.0000 F1500
G92 E0
G1 X27.744 Y29.858 E0.0107 F720
G1 X36.732 Y29.858 E0.3403
G1 X37.002 Y29.970 E0.3510
G1 X38.966 Y31.934 E0.4529
G1 X39.078 Y32.204 E0.4636
G1 X39.078 Y35.426 E0.5817
G1 X39.577 Y41.075 E0.7897
G1 X39.806 Y41.559 E0.8093
G1 X40.686 Y41.980 E0.8451
G1 X40.708 Y41.991 E0.8460
G1 X40.899 Y42.098 E0.8540
G1 X40.919 Y42.111 E0.8549
G1 X41.401 Y42.424 E0.8759
G1 X41.995 Y42.387 E0.8978
G1 X44.145 Y41.831 E0.9792
G1 X44.200 Y41.821 E0.9813
G1 X44.711 Y41.769 E1.0001
G1 X44.767 Y41.767 E1.0022
G1 X46.137 Y41.838 E1.0525
G1 X51.064 Y40.000 E1.2453
G1 X58.713 Y35.496 E1.5708
G1 X59.360 Y34.603 E1.6112
G1 X60.319 Y33.025 E1.6789
G1 X60.455 Y32.894 E1.6859
G1 X61.990 Y32.030 E1.7505
G1 X62.173 Y31.982 E1.7574
G1 X66.424 Y31.983 E1.9133
G1 X66.424 Y28.230 E2.0509
G1 X66.492 Y28.014 E2.0592
G1 X67.710 Y26.277 E2.1370
G1 X67.890 Y26.139 E2.1453
G1 X69.707 Y25.481 E2.2162
G1 X69.742 Y25.471 E2.2175
G1 X70.063 Y25.389 E2.2296
G1 X70.098 Y25.382 E2.2309
G1 X72.751 Y24.978 E2.3293
G1 X72.787 Y24.975 E2.3307
G1 X73.117 Y24.957 E2.3428
G1 X73.153 Y24.957 E2.3441
G1 X75.834 Y25.078 E2.4425
G1 X75.870 Y25.082 E2.4438
G1 X76.197 Y25.129 E2.4560
G1 X76.232 Y25.136 E2.4573
G1 X78.838 Y25.778 E2.5557
G1 X78.872 Y25.788 E2.5570
G1 X79.184 Y25.899 E2.5691
G1 X79.217 Y25.912 E2.5704
G1 X81.648 Y27.050 E2.6688
G1 X81.679 Y27.067 E2.6702
G1 X81.964 Y27.236 E2.6823
G1 X81.994 Y27.256 E2.6836
G1 X84.155 Y28.847 E2.7820
G1 X84.183 Y28.869 E2.7833
G1 X84.429 Y29.091 E2.7955
G1 X84.455 Y29.116 E2.7968
G1 X86.264 Y31.097 E2.8952
G1 X86.287 Y31.125 E2.8965
G1 X86.485 Y31.390 E2.9086
G1 X86.505 Y31.420 E2.9100
G1 X87.894 Y33.716 E3.0084
G1 X87.911 Y33.748 E3.0097
G1 X88.053 Y34.047 E3.0218
G1 X88.067 Y34.080 E3.0231
G1 X88.981 Y36.603 E3.1215
G1 X88.991 Y36.637 E3.1229
G1 X89.073 Y36.958 E3.1350
G1 X89.080 Y36.993 E3.1363
G1 X89.484 Y39.646 E3.2347
G1 X89.488 Y39.682 E3.2360
G1 X89.505 Y40.012 E3.2482
G1 X89.505 Y40.048 E3.2495
G1 X89.384 Y42.729 E3.3479
G1 X89.380 Y42.765 E3.3492
G1 X89.333 Y43.092 E3.3613
G1 X89.326 Y43.128 E3.3627
G1 X88.684 Y45.733 E3.4610
G1 X88.674 Y45.768 E3.4624
G1 X88.563 Y46.080 E3.4745
G1 X88.550 Y46.113 E3.4758
G1 X87.412 Y48.543 E3.5742
G1 X87.395 Y48.575 E3.5755
G1 X87.226 Y48.859 E3.5877
G1 X87.206 Y48.889 E3.5890
G1 X85.616 Y51.051 E3.6874
G1 X85.593 Y51.079 E3.6887
G1 X85.371 Y51.325 E3.7008
G1 X85.346 Y51.350 E3.7022
G1 X83.365 Y53.160 E3.8006
G1 X83.337 Y53.183 E3.8019
G1 X83.072 Y53.381 E3.8140
G1 X83.042 Y53.401 E3.8153
G1 X80.746 Y54.789 E3.9137
G1 X80.714 Y54.806 E3.9151
G1 X80.415 Y54.949 E3.9272
G1 X80.381 Y54.963 E3.9285
G1 X77.854 Y55.877 E4.0271
G1 X77.820 Y55.888 E4.0284
G1 X77.500 Y55.969 E4.0405
G1 X77.465 Y55.976 E4.0418
G1 X74.816 Y56.379 E4.1401
G1 X74.780 Y56.383 E4.1414
G1 X74.450 Y56.401 E4.1535
G1 X74.414 Y56.401 E4.1549
G1 X71.733 Y56.279 E4.2532
G1 X71.697 Y56.276 E4.2546
G1 X71.370 Y56.228 E4.2667
G1 X71.334 Y56.222 E4.2680
G1 X68.729 Y55.579 E4.3664
G1 X68.694 Y55.569 E4.3677
G1 X68.383 Y55.459 E4.3799
G1 X68.349 Y55.445 E4.3812
G1 X65.919 Y54.307 E4.4796
G1 X65.887 Y54.290 E4.4809
G1 X65.603 Y54.121 E4.4930
G1 X65.573 Y54.101 E4.4944
G1 X63.412 Y52.511 E4.5928
G1 X63.384 Y52.488 E4.5941
G1 X63.138 Y52.267 E4.6062
G1 X63.112 Y52.242 E4.6075
G1 X61.302 Y50.260 E4.7059
G1 X61.279 Y50.232 E4.7073
G1 X61.081 Y49.967 E4.7194
G1 X61.070 Y49.951 E4.7201
G1 X54.080 Y53.061 E5.0007
G1 X54.054 Y53.071 E5.0017
G1 X53.819 Y53.156 E5.0109
G1 X53.793 Y53.164 E5.0119
G1 X47.440 Y54.922 E5.2536
G1 X47.380 Y54.933 E5.2558
G1 X46.817 Y54.991 E5.2766
G1 X46.755 Y54.992 E5.2788
G1 X44.406 Y54.838 E5.3651
G1 X41.762 Y55.259 E5.4633
G1 X41.734 Y55.262 E5.4644
G1 X41.476 Y55.283 E5.4738
G1 X41.448 Y55.284 E5.4749
G1 X38.425 Y55.297 E5.5857
G1 X38.414 Y55.297 E5.5861
G1 X38.310 Y55.294 E5.5899
G1 X38.299 Y55.294 E5.5904
G1 X35.480 Y55.132 E5.6939
G1 X35.468 Y55.131 E5.6943
G1 X35.359 Y55.121 E5.6984
G1 X35.347 Y55.120 E5.6988
G1 X32.304 Y54.744 E5.8112
G1 X32.210 Y54.719 E5.8148
G1 X31.384 Y54.384 E5.8475
G1 X31.300 Y54.336 E5.8510
G1 X28.527 Y52.229 E5.9787
G1 X28.512 Y52.218 E5.9794
G1 X28.381 Y52.107 E5.9857
G1 X28.367 Y52.095 E5.9864
G1 X26.027 Y49.909 E6.1038
G1 X25.939 Y49.785 E6.1094
G1 X25.382 Y48.497 E6.1608
G1 X25.352 Y48.349 E6.1664
G1 X25.399 Y32.196 E6.7587
G1 X25.511 Y31.927 E6.7694
G1 X27.474 Y29.970 E6.8710
G1 X27.751 Y30.385 F3500
G92 E0
G1 X27.841 Y30.348 E0.0036 F720
G1 X36.634 Y30.348 E0.3260
G1 X36.724 Y30.385 E0.3296
G1 X38.550 Y32.212 E0.4243
G1 X38.588 Y32.302 E0.4279
G1 X38.588 Y35.448 E0.5432
G1 X39.096 Y41.206 E0.7552
G1 X39.438 Y41.926 E0.7844
G1 X40.468 Y42.419 E0.8263
G1 X40.475 Y42.422 E0.8266
G1 X40.652 Y42.522 E0.8340
G1 X40.659 Y42.526 E0.8343
G1 X41.269 Y42.923 E0.8610
G1 X42.072 Y42.873 E0.8905
G1 X44.249 Y42.310 E0.9730
G1 X44.268 Y42.306 E0.9737
G1 X44.742 Y42.258 E0.9912
G1 X44.761 Y42.258 E0.9918
G1 X46.213 Y42.333 E1.0452
G1 X51.276 Y40.444 E1.2433
G1 X59.050 Y35.866 E1.5741
G1 X59.769 Y34.875 E1.6190
G1 X60.705 Y33.334 E1.6851
G1 X60.750 Y33.290 E1.6875
G1 X62.175 Y32.488 E1.7474
G1 X62.236 Y32.472 E1.7497
G1 X66.914 Y32.473 E1.9213
G1 X66.914 Y28.305 E2.0741
G1 X66.937 Y28.233 E2.0768
G1 X68.068 Y26.620 E2.1491
G1 X68.128 Y26.574 E2.1519
G1 X69.863 Y25.946 E2.2195
G1 X69.874 Y25.943 E2.2200
G1 X70.172 Y25.867 E2.2312
G1 X70.184 Y25.865 E2.2317
G1 X72.813 Y25.464 E2.3292
G1 X72.825 Y25.463 E2.3296
G1 X73.131 Y25.447 E2.3409
G1 X73.143 Y25.447 E2.3413
G1 X75.799 Y25.567 E2.4388
G1 X75.811 Y25.569 E2.4393
G1 X76.115 Y25.612 E2.4505
G1 X76.127 Y25.615 E2.4509
G1 X78.709 Y26.251 E2.5485
G1 X78.720 Y26.254 E2.5489
G1 X79.009 Y26.357 E2.5601
G1 X79.021 Y26.361 E2.5606
G1 X81.429 Y27.489 E2.6581
G1 X81.439 Y27.495 E2.6585
G1 X81.703 Y27.651 E2.6698
G1 X81.713 Y27.658 E2.6702
G1 X83.855 Y29.234 E2.7677
G1 X83.864 Y29.242 E2.7682
G1 X84.093 Y29.447 E2.7794
G1 X84.101 Y29.455 E2.7799
G1 X85.894 Y31.419 E2.8774
G1 X85.902 Y31.428 E2.8778
G1 X86.086 Y31.674 E2.8891
G1 X86.092 Y31.684 E2.8895
G1 X87.468 Y33.960 E2.9870
G1 X87.474 Y33.970 E2.9875
G1 X87.606 Y34.247 E2.9987
G1 X87.611 Y34.258 E2.9992
G1 X88.516 Y36.758 E3.0967
G1 X88.520 Y36.770 E3.0971
G1 X88.595 Y37.067 E3.1084
G1 X88.598 Y37.079 E3.1088
G1 X88.998 Y39.708 E3.2063
G1 X88.999 Y39.720 E3.2068
G1 X89.015 Y40.026 E3.2180
G1 X89.015 Y40.038 E3.2184
G1 X88.895 Y42.695 E3.3160
G1 X88.894 Y42.707 E3.3164
G1 X88.850 Y43.010 E3.3276
G1 X88.847 Y43.022 E3.3281
G1 X88.211 Y45.604 E3.4256
G1 X88.208 Y45.616 E3.4260
G1 X88.105 Y45.905 E3.4373
G1 X88.101 Y45.916 E3.4377
G1 X86.973 Y48.324 E3.5352
G1 X86.967 Y48.335 E3.5357
G1 X86.811 Y48.599 E3.5469
G1 X86.804 Y48.609 E3.5474
G1 X85.228 Y50.751 E3.6449
G1 X85.220 Y50.760 E3.6453
G1 X85.015 Y50.988 E3.6566
G1 X85.007 Y50.996 E3.6570
G1 X83.043 Y52.790 E3.7545
G1 X83.034 Y52.797 E3.7550
G1 X82.788 Y52.981 E3.7662
G1 X82.778 Y52.988 E3.7667
G1 X80.502 Y54.364 E3.8642
G1 X80.492 Y54.369 E3.8646
G1 X80.214 Y54.502 E3.8759
G1 X80.203 Y54.506 E3.8763
G1 X77.699 Y55.412 E3.9740
G1 X77.688 Y55.416 E3.9744
G1 X77.391 Y55.491 E3.9857
G1 X77.379 Y55.494 E3.9861
G1 X74.754 Y55.893 E4.0835
G1 X74.742 Y55.894 E4.0839
G1 X74.436 Y55.911 E4.0951
G1 X74.424 Y55.911 E4.0956
G1 X71.767 Y55.790 E4.1931
G1 X71.755 Y55.789 E4.1935
G1 X71.452 Y55.745 E4.2048
G1 X71.440 Y55.743 E4.2052
G1 X68.858 Y55.107 E4.3027
G1 X68.846 Y55.103 E4.3032
G1 X68.557 Y55.001 E4.3144
G1 X68.546 Y54.996 E4.3149
G1 X66.138 Y53.868 E4.4124
G1 X66.127 Y53.863 E4.4128
G1 X65.864 Y53.706 E4.4241
G1 X65.854 Y53.699 E4.4245
G1 X63.712 Y52.123 E4.5220
G1 X63.702 Y52.116 E4.5225
G1 X63.474 Y51.911 E4.5337
G1 X63.466 Y51.902 E4.5342
G1 X61.672 Y49.939 E4.6317
G1 X61.665 Y49.929 E4.6321
G1 X61.481 Y49.684 E4.6434
G1 X61.474 Y49.674 E4.6438
G1 X61.265 Y49.328 E4.6586
G1 X53.889 Y52.610 E4.9547
G1 X53.880 Y52.613 E4.9550
G1 X53.662 Y52.691 E4.9635
G1 X53.653 Y52.694 E4.9638
G1 X47.329 Y54.444 E5.2045
G1 X47.309 Y54.448 E5.2052
G1 X46.787 Y54.501 E5.2244
G1 X46.767 Y54.502 E5.2252
G1 X44.383 Y54.346 E5.3128
G1 X41.694 Y54.773 E5.4126
G1 X41.685 Y54.775 E5.4130
G1 X41.446 Y54.794 E5.4218
G1 X41.436 Y54.794 E5.4221
G1 X38.427 Y54.807 E5.5325
G1 X38.423 Y54.807 E5.5326
G1 X38.327 Y54.805 E5.5361
G1 X38.323 Y54.804 E5.5363
G1 X35.513 Y54.643 E5.6395
G1 X35.509 Y54.642 E5.6397
G1 X35.407 Y54.633 E5.6434
G1 X35.403 Y54.633 E5.6436
G1 X32.396 Y54.261 E5.7546
G1 X32.365 Y54.253 E5.7558
G1 X31.599 Y53.942 E5.7861
G1 X31.571 Y53.926 E5.7873
G1 X28.828 Y51.843 E5.9136
G1 X28.823 Y51.839 E5.9138
G1 X28.702 Y51.737 E5.9197
G1 X28.697 Y51.732 E5.9199
G1 X26.398 Y49.585 E6.0353
G1 X26.369 Y49.544 E6.0371
G1 X25.852 Y48.349 E6.0849
G1 X25.842 Y48.299 E6.0867
G1 X25.888 Y32.295 E6.6736
G1 X25.926 Y32.205 E6.6772
G1 X27.751 Y30.385 E6.7717
G92 E0
G1 E-6.5000 F5000
; inner perimeter
G1 X30.355 Y34.818 F3500
G1 E0.0000 F5000
G92 E0
G1 X34.118 Y34.818 E0.1380 F600
G1 X34.118 Y35.645 E0.1683
G1 X34.714 Y42.397 E0.4169
G1 X36.078 Y45.273 E0.5336
G1 X38.374 Y46.372 E0.6269
G1 X40.071 Y47.476 E0.7012
G1 X42.777 Y47.308 E0.8006
G1 X44.957 Y46.744 E0.8832
G1 X46.908 Y46.844 E0.9548
G1 X53.206 Y44.495 E1.2013
G1 X62.121 Y39.245 E1.5807
G1 X63.494 Y37.352 E1.6664
G1 X63.743 Y36.942 E1.6840
G1 X69.111 Y36.943 E1.8808
G1 X69.553 Y36.896 E1.8971
G1 X70.036 Y36.738 E1.9158
G1 X70.479 Y36.477 E1.9346
G1 X70.856 Y36.125 E1.9535
G1 X71.147 Y35.690 E1.9727
G1 X71.330 Y35.198 E1.9920
G1 X71.384 Y34.751 E2.0085
G1 X71.384 Y30.203 E2.1752
G1 X73.214 Y29.925 E2.2431
G1 X75.323 Y30.020 E2.3205
G1 X77.373 Y30.526 E2.3979
G1 X79.285 Y31.421 E2.4754
G1 X80.985 Y32.672 E2.5528
G1 X82.409 Y34.231 E2.6302
G1 X83.501 Y36.038 E2.7076
G1 X84.220 Y38.023 E2.7850
G1 X84.537 Y40.110 E2.8624
G1 X84.442 Y42.219 E2.9398
G1 X83.937 Y44.268 E3.0173
G1 X83.041 Y46.180 E3.0947
G1 X81.790 Y47.881 E3.1721
G1 X80.231 Y49.304 E3.2495
G1 X78.425 Y50.396 E3.3269
G1 X76.436 Y51.116 E3.4045
G1 X74.352 Y51.433 E3.4817
G1 X72.244 Y51.337 E3.5591
G1 X70.194 Y50.832 E3.6366
G1 X68.282 Y49.937 E3.7140
G1 X66.581 Y48.685 E3.7914
G1 X65.158 Y47.127 E3.8688
G1 X63.683 Y44.686 E3.9734
G1 X61.467 Y44.486 E4.0549
G1 X60.907 Y44.595 E4.0758
G1 X52.261 Y48.441 E4.4228
G1 X46.590 Y50.011 E4.6386
G1 X44.176 Y49.853 E4.7273
G1 X41.203 Y50.325 E4.8377
G1 X38.494 Y50.337 E4.9371
G1 X35.860 Y50.185 E5.0338
G1 X33.682 Y49.916 E5.1143
G1 X31.645 Y48.369 E5.2081
G1 X30.315 Y47.127 E5.2748
G1 X30.355 Y35.592 E5.6978
G1 X30.355 Y34.818 E5.7262
; inner perimeter
G1 X29.865 Y34.328 F3500
G92 E0
G1 X34.608 Y34.328 E0.1739 F480
G1 X34.608 Y35.623 E0.2214
G1 X35.195 Y42.266 E0.4660
G1 X36.446 Y44.906 E0.5731
G1 X38.614 Y45.944 E0.6612
G1 X40.202 Y46.977 E0.7307
G1 X42.700 Y46.822 E0.8225
G1 X44.907 Y46.251 E0.9061
G1 X46.832 Y46.350 E0.9768
G1 X52.994 Y44.051 E1.2179
G1 X61.784 Y38.875 E1.5920
G1 X63.086 Y37.080 E1.6733
G1 X63.467 Y36.452 E1.7002
