; G-Code generated by Simplify3D(R) Version 3.0.0
; Sep 18, 2017 at 5:28:53 
; Settings Summary
;   processName,Process1
;   applyToModels,grei01a,grei01b
;   profileName,1.5 fein (modified)
;   profileVersion,2017-06-09 12:06:14
;   baseProfile,German RepRap NEO (modified)
;   printMaterial,
;   printQuality,
;   printExtruders,
;   extruderName,Primary Extruder
;   extruderToolheadNumber,0
;   extruderDiameter,0.5
;   extruderAutoWidth,0
;   extruderWidth,0.49
;   extrusionMultiplier,0.9
;   extruderUseRetract,1
;   extruderRetractionDistance,6.5
;   extruderExtraRestartDistance,0
;   extruderRetractionZLift,0
;   extruderRetractionSpeed,5000
;   extruderUseCoasting,0
;   extruderCoastingDistance,0.2
;   extruderUseWipe,0
;   extruderWipeDistance,5
;   primaryExtruder,0
;   layerHeight,0.15
;   topSolidLayers,4
;   bottomSolidLayers,3
;   perimeterOutlines,3
;   printPerimetersInsideOut,1
;   startPointOption,2
;   startPointOriginX,0
;   startPointOriginY,0
;   startPointOriginZ,300
;   sequentialIslands,0
;   spiralVaseMode,0
;   firstLayerHeightPercentage,100
;   firstLayerWidthPercentage,100
;   firstLayerUnderspeed,0.3
;   useRaft,0
;   raftExtruder,0
;   raftLayers,3
;   raftOffset,3
;   raftSeparationDistance,0.1
;   raftInfill,85
;   disableRaftBaseLayers,0
;   useSkirt,1
;   skirtExtruder,0
;   skirtLayers,1
;   skirtOutlines,3
;   skirtOffset,2
;   usePrimePillar,0
;   primePillarExtruder,999
;   primePillarWidth,12
;   primePillarLocation,7
;   primePillarSpeedMultiplier,1
;   useOozeShield,0
;   oozeShieldExtruder,999
;   oozeShieldOffset,2
;   oozeShieldOutlines,1
;   oozeShieldSidewallShape,1
;   oozeShieldSidewallAngle,30
;   oozeShieldSpeedMultiplier,1
;   infillExtruder,0
;   internalInfillPattern,Full Honeycomb
;   externalInfillPattern,Rectilinear
;   infillPercentage,15
;   outlineOverlapPercentage,15
;   infillExtrusionWidthPercentage,100
;   minInfillLength,3
;   infillLayerInterval,1
;   infillAngles,0,120,-120
;   overlapInfillAngles,0
;   generateSupport,0
;   supportExtruder,0
;   supportInfillPercentage,30
;   supportExtraInflation,0
;   denseSupportLayers,0
;   denseSupportInfillPercentage,75
;   supportLayerInterval,1
;   supportHorizontalPartOffset,1.5
;   supportUpperSeparationLayers,2
;   supportLowerSeparationLayers,2
;   supportType,0
;   supportGridSpacing,4
;   maxOverhangAngle,45
;   supportAngles,45
;   temperatureName,Primary Extruder
;   temperatureNumber,0
;   temperatureSetpointCount,3
;   temperatureSetpointLayers,1,2,3
;   temperatureSetpointTemperatures,207,199,192
;   temperatureStabilizeAtStartup,1
;   temperatureHeatedBed,0
;   temperatureRelayBetweenLayers,0
;   temperatureRelayBetweenLoops,0
;   fanLayers,1,4
;   fanSpeeds,0,100
;   blipFanToFullPower,0
;   adjustSpeedForCooling,1
;   minSpeedLayerTime,15
;   minCoolingSpeedSlowdown,20
;   increaseFanForCooling,0
;   minFanLayerTime,45
;   maxCoolingFanSpeed,100
;   increaseFanForBridging,0
;   bridgingFanSpeed,100
;   use5D,1
;   relativeEdistances,0
;   allowEaxisZeroing,1
;   independentExtruderAxes,0
;   includeM10123,0
;   stickySupport,1
;   applyToolheadOffsets,0
;   gcodeXoffset,0
;   gcodeYoffset,0
;   gcodeZoffset,0
;   overrideMachineDefinition,1
;   machineTypeOverride,0
;   strokeXoverride,150
;   strokeYoverride,150
;   strokeZoverride,150
;   originOffsetXoverride,0
;   originOffsetYoverride,0
;   originOffsetZoverride,0
;   homeXdirOverride,-1
;   homeYdirOverride,-1
;   homeZdirOverride,-1
;   flipXoverride,1
;   flipYoverride,-1
;   flipZoverride,1
;   toolheadOffsets,0,0|0,0|0,0|0,0|0,0|0,0
;   overrideFirmwareConfiguration,0
;   firmwareTypeOverride,RepRap (Marlin/Repetier/Sprinter)
;   GPXconfigOverride,r2
;   baudRateOverride,115200
;   overridePrinterModels,0
;   printerModelsOverride
;   startingGcode,G28 ; home all axes
;   layerChangeGcode,
;   retractionGcode,
;   toolChangeGcode,
;   endingGcode,M104 S0 ; turn off extruder,M140 S0 ; turn off bed,G28 X0  ; home X axis,G28 Y0  ; home Y axis,M84 ; disable motors,M107
;   createX3G,0
;   celebration,0
;   celebrationSong,Random Song
;   createMB5G,0
;   postProcessing,
;   defaultSpeed,2400
;   outlineUnderspeed,0.5
;   solidInfillUnderspeed,0.8
;   supportUnderspeed,0.8
;   rapidXYspeed,3500
;   rapidZspeed,1000
;   minBridgingArea,50
;   bridgingExtraInflation,0
;   bridgingExtrusionMultiplier,1
;   bridgingSpeedMultiplier,1
;   filamentDiameter,1.75
;   filamentPricePerKg,46
;   filamentDensity,1.25
;   useMinPrintHeight,0
;   minPrintHeight,0
;   useMaxPrintHeight,0
;   maxPrintHeight,0
;   useDiaphragm,0
;   diaphragmLayerInterval,20
;   robustSlicing,1
;   mergeAllIntoSolid,0
;   onlyRetractWhenCrossingOutline,1
;   retractBetweenLayers,1
;   useRetractionMinTravel,0
;   retractionMinTravel,3
;   retractWhileWiping,0
;   onlyWipeOutlines,1
;   avoidCrossingOutline,0
;   maxMovementDetourFactor,10
;   toolChangeRetractionDistance,0
;   toolChangeExtraRestartDistance,0
;   toolChangeRetractionSpeed,360
;   allowThinWallGapFill,1
;   thinWallAllowedOverlapPercentage,10
;   horizontalSizeCompensation,0
G90
M82
M106 S0
M104 S207 T0
M109 S207 T0
G28 ; home all axes
G92 E0
G1 E-6.5000 F5000
G1 Z0.150 F1000
; layer 1, Z = 0.15
T0
; tool H0.150 W0.490
; skirt
G1 X12.528 Y6.454 F3500
G1 E0.0000 F1500
G92 E0
G1 X13.989 Y5.195 E0.0530 F720
G1 X14.402 Y5.041 E0.0652
G1 X30.764 Y5.056 E0.5151
G1 X30.891 Y5.070 E0.5186
G1 X31.424 Y5.183 E0.5337
G1 X31.546 Y5.222 E0.5372
G1 X37.554 Y7.887 E0.7179
G1 X46.909 Y10.576 E0.9856
G1 X66.756 Y1.204 E1.5893
G1 X67.079 Y1.147 E1.5983
G1 X67.680 Y1.202 E1.6149
G1 X68.122 Y1.084 E1.6274
G1 X68.338 Y1.066 E1.6334
G1 X68.720 Y1.101 E1.6440
G1 X69.260 Y0.795 E1.6610
G1 X69.644 Y0.718 E1.6718
G1 X71.340 Y0.920 E1.7188
G1 X71.695 Y1.086 E1.7296
G1 X72.373 Y1.723 E1.7552
G1 X72.759 Y1.928 E1.7672
G1 X72.947 Y2.082 E1.7738
G1 X75.232 Y4.866 E1.8729
G1 X75.268 Y4.914 E1.8745
G1 X75.410 Y5.128 E1.8816
G1 X75.441 Y5.179 E1.8833
G1 X76.953 Y8.008 E1.9715
G1 X76.979 Y8.063 E1.9731
G1 X77.077 Y8.300 E1.9802
G1 X77.098 Y8.356 E1.9818
G1 X78.029 Y11.426 E2.0701
G1 X78.043 Y11.484 E2.0717
G1 X78.093 Y11.736 E2.0788
G1 X78.102 Y11.796 E2.0804
G1 X78.417 Y14.988 E2.1687
G1 X78.420 Y15.048 E2.1703
G1 X78.420 Y15.305 E2.1774
G1 X78.417 Y15.365 E2.1790
G1 X78.102 Y18.557 E2.2672
G1 X78.093 Y18.617 E2.2689
G1 X78.043 Y18.868 E2.2760
G1 X78.029 Y18.927 E2.2776
G1 X77.098 Y21.996 E2.3658
G1 X77.077 Y22.053 E2.3675
G1 X76.979 Y22.290 E2.3745
G1 X76.953 Y22.344 E2.3762
G1 X75.441 Y25.173 E2.4644
G1 X75.410 Y25.225 E2.4661
G1 X75.268 Y25.438 E2.4731
G1 X75.232 Y25.487 E2.4748
G1 X73.197 Y27.966 E2.5630
G1 X73.157 Y28.011 E2.5646
G1 X72.975 Y28.192 E2.5717
G1 X72.931 Y28.233 E2.5734
G1 X70.451 Y30.268 E2.6616
G1 X70.403 Y30.303 E2.6632
G1 X70.189 Y30.446 E2.6703
G1 X70.138 Y30.477 E2.6719
G1 X67.309 Y31.989 E2.7602
G1 X67.254 Y32.015 E2.7618
G1 X67.017 Y32.113 E2.7689
G1 X66.961 Y32.133 E2.7705
G1 X63.891 Y33.064 E2.8588
G1 X63.833 Y33.079 E2.8604
G1 X63.581 Y33.129 E2.8675
G1 X63.521 Y33.138 E2.8691
G1 X60.329 Y33.452 E2.9573
G1 X60.269 Y33.455 E2.9590
G1 X60.012 Y33.455 E2.9661
G1 X59.952 Y33.452 E2.9677
G1 X58.935 Y33.352 E2.9958
G1 X59.548 Y36.468 E3.0832
G1 X59.517 Y36.815 E3.0927
G1 X58.968 Y38.224 E3.1343
G1 X58.756 Y38.501 E3.1439
G1 X55.268 Y41.062 E3.2629
G1 X55.096 Y41.151 E3.2683
G1 X54.304 Y41.410 E3.2912
G1 X54.112 Y41.441 E3.2965
G1 X31.238 Y41.442 E3.9256
G1 X30.255 Y41.556 E3.9528
G1 X30.282 Y51.011 E4.2129
G1 X30.257 Y51.188 E4.2178
G1 X30.040 Y51.921 E4.2388
G1 X29.965 Y52.083 E4.2437
G1 X23.685 Y61.688 E4.5593
G1 X24.018 Y69.746 E4.7811
G1 X24.135 Y69.874 E4.7859
G1 X25.678 Y70.342 E4.8302
G1 X25.743 Y70.366 E4.8321
G1 X26.015 Y70.483 E4.8403
G1 X26.077 Y70.514 E4.8422
G1 X27.853 Y71.533 E4.8985
G1 X28.082 Y71.761 E4.9074
G1 X28.782 Y72.971 E4.9458
G1 X28.866 Y73.283 E4.9547
G1 X28.867 Y77.456 E5.0695
G1 X32.196 Y77.456 E5.1610
G1 X32.570 Y77.580 E5.1718
G1 X33.948 Y78.602 E5.2190
G1 X34.175 Y78.924 E5.2299
G1 X34.901 Y81.317 E5.2986
G1 X34.915 Y81.376 E5.3003
G1 X34.966 Y81.627 E5.3074
G1 X34.974 Y81.687 E5.3090
G1 X35.230 Y84.283 E5.3808
G1 X35.233 Y84.343 E5.3824
G1 X35.233 Y84.600 E5.3895
G1 X35.230 Y84.660 E5.3911
G1 X34.974 Y87.257 E5.4629
G1 X34.966 Y87.316 E5.4645
G1 X34.915 Y87.568 E5.4716
G1 X34.901 Y87.626 E5.4733
G1 X34.143 Y90.123 E5.5450
G1 X34.123 Y90.180 E5.5467
G1 X34.025 Y90.417 E5.5537
G1 X33.999 Y90.471 E5.5554
G1 X32.769 Y92.772 E5.6271
G1 X32.738 Y92.824 E5.6288
G1 X32.596 Y93.037 E5.6358
G1 X32.560 Y93.085 E5.6375
G1 X30.905 Y95.102 E5.7093
G1 X30.864 Y95.147 E5.7109
G1 X30.683 Y95.328 E5.7180
G1 X30.638 Y95.369 E5.7196
G1 X28.622 Y97.024 E5.7914
G1 X28.573 Y97.060 E5.7930
G1 X28.360 Y97.202 E5.8001
G1 X28.308 Y97.233 E5.8017
G1 X26.007 Y98.463 E5.8735
G1 X25.953 Y98.489 E5.8752
G1 X25.716 Y98.587 E5.8822
G1 X25.659 Y98.607 E5.8839
G1 X23.163 Y99.364 E5.9556
G1 X23.104 Y99.379 E5.9573
G1 X22.852 Y99.429 E5.9643
G1 X22.793 Y99.438 E5.9660
G1 X20.196 Y99.694 E6.0377
G1 X20.136 Y99.697 E6.0394
G1 X19.880 Y99.697 E6.0464
G1 X19.820 Y99.694 E6.0481
G1 X17.223 Y99.438 E6.1199
G1 X17.164 Y99.429 E6.1215
G1 X16.912 Y99.379 E6.1286
G1 X16.854 Y99.364 E6.1302
G1 X14.357 Y98.607 E6.2020
G1 X14.300 Y98.587 E6.2036
G1 X14.063 Y98.489 E6.2107
G1 X14.009 Y98.463 E6.2123
G1 X11.708 Y97.233 E6.2841
G1 X11.656 Y97.202 E6.2858
G1 X11.443 Y97.060 E6.2928
G1 X11.395 Y97.024 E6.2945
G1 X9.378 Y95.368 E6.3662
G1 X9.333 Y95.328 E6.3679
G1 X9.152 Y95.147 E6.3749
G1 X9.111 Y95.102 E6.3766
G1 X7.456 Y93.085 E6.4483
G1 X7.420 Y93.037 E6.4500
G1 X7.278 Y92.824 E6.4571
G1 X7.247 Y92.772 E6.4587
G1 X6.017 Y90.471 E6.5305
G1 X5.991 Y90.417 E6.5321
G1 X5.893 Y90.179 E6.5392
G1 X5.873 Y90.123 E6.5408
G1 X5.115 Y87.626 E6.6126
G1 X5.101 Y87.568 E6.6142
G1 X5.051 Y87.316 E6.6213
G1 X5.042 Y87.257 E6.6229
G1 X4.786 Y84.660 E6.6947
G1 X4.783 Y84.600 E6.6964
G1 X4.783 Y84.343 E6.7034
G1 X4.786 Y84.283 E6.7051
G1 X5.042 Y81.687 E6.7768
G1 X5.051 Y81.627 E6.7785
G1 X5.101 Y81.376 E6.7855
G1 X5.115 Y81.317 E6.7872
G1 X5.873 Y78.821 E6.8589
G1 X5.893 Y78.764 E6.8606
G1 X5.991 Y78.527 E6.8677
G1 X6.017 Y78.472 E6.8693
G1 X7.247 Y76.171 E6.9411
G1 X7.278 Y76.120 E6.9427
G1 X7.420 Y75.906 E6.9498
G1 X7.456 Y75.858 E6.9514
G1 X8.653 Y74.400 E7.0033
G1 X9.136 Y72.957 E7.0452
G1 X8.855 Y70.242 E7.1202
G1 X8.853 Y70.222 E7.1208
G1 X8.847 Y70.136 E7.1231
G1 X8.846 Y70.116 E7.1237
G1 X8.122 Y50.666 E7.6590
G1 X8.122 Y50.654 E7.6593
G1 X8.121 Y50.606 E7.6606
G1 X8.121 Y50.594 E7.6610
G1 X8.121 Y38.101 E8.0045
G1 X8.271 Y37.692 E8.0165
G1 X9.505 Y36.240 E8.0689
G1 X9.884 Y36.025 E8.0809
G1 X13.805 Y35.383 E8.1902
G1 X15.455 Y34.650 E8.2398
G1 X17.771 Y33.133 E8.3160
G1 X17.801 Y33.114 E8.3170
G1 X17.933 Y33.038 E8.3211
G1 X17.964 Y33.022 E8.3221
G1 X20.752 Y31.628 E8.4078
G1 X20.785 Y31.612 E8.4088
G1 X20.929 Y31.551 E8.4131
G1 X20.963 Y31.537 E8.4142
G1 X23.915 Y30.480 E8.5004
G1 X23.952 Y30.468 E8.5014
G1 X24.108 Y30.423 E8.5059
G1 X24.145 Y30.414 E8.5070
G1 X27.230 Y29.726 E8.5939
G1 X27.270 Y29.719 E8.5950
G1 X27.440 Y29.693 E8.5997
G1 X27.480 Y29.688 E8.6009
G1 X30.827 Y29.394 E8.6933
G1 X30.854 Y29.393 E8.6940
G1 X30.969 Y29.388 E8.6972
G1 X30.996 Y29.387 E8.6979
G1 X34.069 Y29.389 E8.7824
G1 X34.074 Y29.389 E8.7826
G1 X34.095 Y29.389 E8.7831
G1 X34.100 Y29.389 E8.7833
G1 X45.262 Y29.575 E9.0903
G1 X45.280 Y29.575 E9.0908
G1 X45.353 Y29.579 E9.0928
G1 X45.371 Y29.580 E9.0933
G1 X48.266 Y29.792 E9.1731
G1 X48.275 Y29.793 E9.1734
G1 X48.310 Y29.796 E9.1743
G1 X48.318 Y29.796 E9.1746
G1 X49.387 Y29.904 E9.2041
G1 X47.351 Y28.233 E9.2766
G1 X47.306 Y28.192 E9.2782
G1 X47.125 Y28.011 E9.2853
G1 X47.084 Y27.966 E9.2869
G1 X45.598 Y26.155 E9.3514
G1 X37.582 Y26.602 E9.5722
G1 X30.598 Y27.073 E9.7647
G1 X30.577 Y27.074 E9.7653
G1 X30.488 Y27.077 E9.7677
G1 X30.467 Y27.077 E9.7683
G1 X13.638 Y27.055 E10.2311
G1 X13.188 Y26.868 E10.2445
G1 X11.674 Y25.352 E10.3034
G1 X11.488 Y24.902 E10.3168
G1 X11.490 Y12.541 E10.6568
G1 X11.492 Y12.496 E10.6580
G1 X11.506 Y12.305 E10.6633
G1 X11.511 Y12.260 E10.6645
G1 X12.315 Y6.840 E10.8152
G1 X12.528 Y6.454 E10.8273
G1 X12.915 Y6.767 F3500
G92 E0
G1 X14.242 Y5.623 E0.0482 F720
G1 X14.490 Y5.531 E0.0555
G1 X30.738 Y5.546 E0.5023
G1 X30.814 Y5.554 E0.5044
G1 X31.298 Y5.657 E0.5180
G1 X31.371 Y5.681 E0.5201
G1 X37.386 Y8.349 E0.7011
G1 X46.951 Y11.098 E0.9748
G1 X66.906 Y1.675 E1.5817
G1 X67.100 Y1.641 E1.5871
G1 X67.722 Y1.698 E1.6043
G1 X68.206 Y1.569 E1.6181
G1 X68.336 Y1.558 E1.6217
G1 X68.828 Y1.603 E1.6353
G1 X69.433 Y1.260 E1.6544
G1 X69.664 Y1.213 E1.6609
G1 X71.204 Y1.398 E1.7035
G1 X71.417 Y1.497 E1.7100
G1 X72.086 Y2.125 E1.7352
G1 X72.486 Y2.338 E1.7477
G1 X72.599 Y2.430 E1.7517
G1 X74.846 Y5.168 E1.8491
G1 X74.867 Y5.197 E1.8501
G1 X74.996 Y5.390 E1.8565
G1 X75.015 Y5.421 E1.8575
G1 X76.516 Y8.229 E1.9450
G1 X76.531 Y8.261 E1.9460
G1 X76.620 Y8.476 E1.9524
G1 X76.632 Y8.510 E1.9534
G1 X77.556 Y11.557 E2.0410
G1 X77.565 Y11.592 E2.0420
G1 X77.610 Y11.820 E2.0484
G1 X77.616 Y11.856 E2.0494
G1 X77.928 Y15.024 E2.1369
G1 X77.930 Y15.060 E2.1379
G1 X77.930 Y15.293 E2.1443
G1 X77.928 Y15.329 E2.1453
G1 X77.616 Y18.497 E2.2329
G1 X77.610 Y18.533 E2.2339
G1 X77.565 Y18.761 E2.2402
G1 X77.556 Y18.796 E2.2412
G1 X76.632 Y21.842 E2.3288
G1 X76.620 Y21.876 E2.3298
G1 X76.531 Y22.091 E2.3362
G1 X76.516 Y22.124 E2.3372
G1 X75.015 Y24.932 E2.4247
G1 X74.996 Y24.963 E2.4257
G1 X74.867 Y25.156 E2.4321
G1 X74.846 Y25.185 E2.4331
G1 X72.826 Y27.646 E2.5207
G1 X72.802 Y27.673 E2.5217
G1 X72.637 Y27.837 E2.5281
G1 X72.610 Y27.861 E2.5291
G1 X70.149 Y29.881 E2.6166
G1 X70.120 Y29.903 E2.6176
G1 X69.927 Y30.032 E2.6240
G1 X69.896 Y30.050 E2.6250
G1 X67.088 Y31.551 E2.7126
G1 X67.056 Y31.567 E2.7135
G1 X66.841 Y31.656 E2.7199
G1 X66.807 Y31.668 E2.7209
G1 X63.760 Y32.592 E2.8085
G1 X63.725 Y32.601 E2.8095
G1 X63.497 Y32.646 E2.8159
G1 X63.461 Y32.651 E2.8169
G1 X60.293 Y32.963 E2.9044
G1 X60.257 Y32.965 E2.9054
G1 X60.024 Y32.965 E2.9118
G1 X59.988 Y32.963 E2.9128
G1 X58.314 Y32.799 E2.9591
G1 X58.334 Y32.834 E2.9602
G1 X59.054 Y36.494 E3.0628
G1 X59.035 Y36.702 E3.0685
G1 X58.537 Y37.981 E3.1063
G1 X58.410 Y38.147 E3.1120
G1 X55.010 Y40.644 E3.2280
G1 X54.906 Y40.697 E3.2312
G1 X54.188 Y40.932 E3.2520
G1 X54.073 Y40.951 E3.2552
G1 X31.209 Y40.952 E3.8840
G1 X30.049 Y41.087 E3.9161
G1 X29.764 Y41.256 E3.9253
G1 X29.792 Y50.977 E4.1926
G1 X29.777 Y51.083 E4.1955
G1 X29.580 Y51.747 E4.2146
G1 X29.535 Y51.845 E4.2175
G1 X23.189 Y61.551 E4.5365
G1 X23.536 Y69.944 E4.7675
G1 X23.864 Y70.304 E4.7809
G1 X25.522 Y70.807 E4.8286
G1 X25.562 Y70.821 E4.8297
G1 X25.808 Y70.927 E4.8371
G1 X25.845 Y70.946 E4.8382
G1 X27.553 Y71.926 E4.8924
G1 X27.690 Y72.063 E4.8977
G1 X28.326 Y73.160 E4.9326
G1 X28.376 Y73.348 E4.9379
G1 X28.377 Y77.946 E5.0644
G1 X32.117 Y77.946 E5.1672
G1 X32.341 Y78.020 E5.1737
G1 X33.593 Y78.948 E5.2166
G1 X33.729 Y79.142 E5.2231
G1 X34.428 Y81.448 E5.2894
G1 X34.437 Y81.483 E5.2904
G1 X34.483 Y81.711 E5.2968
G1 X34.488 Y81.747 E5.2977
G1 X34.741 Y84.319 E5.3688
G1 X34.743 Y84.355 E5.3698
G1 X34.743 Y84.588 E5.3762
G1 X34.741 Y84.624 E5.3772
G1 X34.488 Y87.197 E5.4483
G1 X34.483 Y87.232 E5.4493
G1 X34.437 Y87.460 E5.4557
G1 X34.428 Y87.495 E5.4567
G1 X33.678 Y89.969 E5.5278
G1 X33.666 Y90.003 E5.5288
G1 X33.577 Y90.218 E5.5352
G1 X33.561 Y90.251 E5.5362
G1 X32.343 Y92.530 E5.6073
G1 X32.324 Y92.561 E5.6083
G1 X32.195 Y92.755 E5.6147
G1 X32.174 Y92.784 E5.6156
G1 X30.534 Y94.782 E5.6867
G1 X30.509 Y94.809 E5.6877
G1 X30.345 Y94.973 E5.6941
G1 X30.318 Y94.997 E5.6951
G1 X28.320 Y96.637 E5.7662
G1 X28.291 Y96.659 E5.7672
G1 X28.098 Y96.788 E5.7736
G1 X28.067 Y96.807 E5.7746
G1 X25.787 Y98.025 E5.8457
G1 X25.754 Y98.041 E5.8467
G1 X25.539 Y98.130 E5.8531
G1 X25.505 Y98.142 E5.8541
G1 X23.032 Y98.892 E5.9252
G1 X22.997 Y98.901 E5.9262
G1 X22.769 Y98.946 E5.9325
G1 X22.733 Y98.952 E5.9335
G1 X20.160 Y99.205 E6.0046
G1 X20.124 Y99.207 E6.0056
G1 X19.892 Y99.207 E6.0120
G1 X19.856 Y99.205 E6.0130
G1 X17.283 Y98.952 E6.0841
G1 X17.248 Y98.946 E6.0851
G1 X17.019 Y98.901 E6.0915
G1 X16.984 Y98.892 E6.0925
