; G-Code generated by Simplify3D(R) Version 3.0.0
; Sep 3, 2017 at 12:24:45 
; Settings Summary
;   processName,Process1
;   applyToModels,greifera,greiferb,Riegel
;   profileName,juli (modified)
;   profileVersion,2017-06-09 12:06:14
;   baseProfile,German RepRap NEO (modified)
;   printMaterial,
;   printQuality,
;   printExtruders,
;   extruderName,Primary Extruder
;   extruderToolheadNumber,0
;   extruderDiameter,0.5
;   extruderAutoWidth,0
;   extruderWidth,0.49
;   extrusionMultiplier,0.9
;   extruderUseRetract,1
;   extruderRetractionDistance,6.5
;   extruderExtraRestartDistance,0
;   extruderRetractionZLift,0
;   extruderRetractionSpeed,5000
;   extruderUseCoasting,0
;   extruderCoastingDistance,0.2
;   extruderUseWipe,0
;   extruderWipeDistance,5
;   primaryExtruder,0
;   layerHeight,0.2
;   topSolidLayers,4
;   bottomSolidLayers,3
;   perimeterOutlines,3
;   printPerimetersInsideOut,1
;   startPointOption,2
;   startPointOriginX,0
;   startPointOriginY,0
;   startPointOriginZ,300
;   sequentialIslands,0
;   spiralVaseMode,0
;   firstLayerHeightPercentage,100
;   firstLayerWidthPercentage,100
;   firstLayerUnderspeed,0.3
;   useRaft,0
;   raftExtruder,0
;   raftLayers,3
;   raftOffset,3
;   raftSeparationDistance,0.1
;   raftInfill,85
;   disableRaftBaseLayers,0
;   useSkirt,1
;   skirtExtruder,0
;   skirtLayers,1
;   skirtOutlines,3
;   skirtOffset,2
;   usePrimePillar,0
;   primePillarExtruder,999
;   primePillarWidth,12
;   primePillarLocation,7
;   primePillarSpeedMultiplier,1
;   useOozeShield,0
;   oozeShieldExtruder,999
;   oozeShieldOffset,2
;   oozeShieldOutlines,1
;   oozeShieldSidewallShape,1
;   oozeShieldSidewallAngle,30
;   oozeShieldSpeedMultiplier,1
;   infillExtruder,0
;   internalInfillPattern,Full Honeycomb
;   externalInfillPattern,Rectilinear
;   infillPercentage,15
;   outlineOverlapPercentage,15
;   infillExtrusionWidthPercentage,100
;   minInfillLength,3
;   infillLayerInterval,1
;   infillAngles,0,120,-120
;   overlapInfillAngles,0
;   generateSupport,1
;   supportExtruder,0
;   supportInfillPercentage,30
;   supportExtraInflation,0
;   denseSupportLayers,0
;   denseSupportInfillPercentage,75
;   supportLayerInterval,1
;   supportHorizontalPartOffset,2
;   supportUpperSeparationLayers,2
;   supportLowerSeparationLayers,2
;   supportType,0
;   supportGridSpacing,4
;   maxOverhangAngle,45
;   supportAngles,45
;   temperatureName,Primary Extruder
;   temperatureNumber,0
;   temperatureSetpointCount,3
;   temperatureSetpointLayers,1,2,3
;   temperatureSetpointTemperatures,207,199,192
;   temperatureStabilizeAtStartup,1
;   temperatureHeatedBed,0
;   temperatureRelayBetweenLayers,0
;   temperatureRelayBetweenLoops,0
;   fanLayers,1,4
;   fanSpeeds,0,100
;   blipFanToFullPower,0
;   adjustSpeedForCooling,1
;   minSpeedLayerTime,15
;   minCoolingSpeedSlowdown,20
;   increaseFanForCooling,0
;   minFanLayerTime,45
;   maxCoolingFanSpeed,100
;   increaseFanForBridging,0
;   bridgingFanSpeed,100
;   use5D,1
;   relativeEdistances,0
;   allowEaxisZeroing,1
;   independentExtruderAxes,0
;   includeM10123,0
;   stickySupport,1
;   applyToolheadOffsets,0
;   gcodeXoffset,0
;   gcodeYoffset,0
;   gcodeZoffset,0
;   overrideMachineDefinition,1
;   machineTypeOverride,0
;   strokeXoverride,150
;   strokeYoverride,150
;   strokeZoverride,150
;   originOffsetXoverride,0
;   originOffsetYoverride,0
;   originOffsetZoverride,0
;   homeXdirOverride,-1
;   homeYdirOverride,-1
;   homeZdirOverride,-1
;   flipXoverride,1
;   flipYoverride,-1
;   flipZoverride,1
;   toolheadOffsets,0,0|0,0|0,0|0,0|0,0|0,0
;   overrideFirmwareConfiguration,0
;   firmwareTypeOverride,RepRap (Marlin/Repetier/Sprinter)
;   GPXconfigOverride,r2
;   baudRateOverride,115200
;   overridePrinterModels,0
;   printerModelsOverride
;   startingGcode,G28 ; home all axes
;   layerChangeGcode,
;   retractionGcode,
;   toolChangeGcode,
;   endingGcode,M104 S0 ; turn off extruder,M140 S0 ; turn off bed,G28 X0  ; home X axis,G28 Y0  ; home Y axis,M84 ; disable motors,M107
;   createX3G,0
;   celebration,0
;   celebrationSong,Random Song
;   createMB5G,0
;   postProcessing,
;   defaultSpeed,2400
;   outlineUnderspeed,0.5
;   solidInfillUnderspeed,0.8
;   supportUnderspeed,0.8
;   rapidXYspeed,3500
;   rapidZspeed,1000
;   minBridgingArea,50
;   bridgingExtraInflation,0
;   bridgingExtrusionMultiplier,1
;   bridgingSpeedMultiplier,1
;   filamentDiameter,1.75
;   filamentPricePerKg,46
;   filamentDensity,1.25
;   useMinPrintHeight,0
;   minPrintHeight,0
;   useMaxPrintHeight,0
;   maxPrintHeight,0
;   useDiaphragm,0
;   diaphragmLayerInterval,20
;   robustSlicing,1
;   mergeAllIntoSolid,0
;   onlyRetractWhenCrossingOutline,1
;   retractBetweenLayers,1
;   useRetractionMinTravel,0
;   retractionMinTravel,3
;   retractWhileWiping,0
;   onlyWipeOutlines,1
;   avoidCrossingOutline,0
;   maxMovementDetourFactor,10
;   toolChangeRetractionDistance,0
;   toolChangeExtraRestartDistance,0
;   toolChangeRetractionSpeed,360
;   allowThinWallGapFill,1
;   thinWallAllowedOverlapPercentage,10
;   horizontalSizeCompensation,0
G90
M82
M106 S0
M104 S207 T0
M109 S207 T0
G28 ; home all axes
G92 E0
G1 E-6.5000 F5000
G1 Z0.200 F1000
; layer 1, Z = 0.2
T0
; tool H0.200 W0.490
; skirt
G1 X4.528 Y7.254 F3500
G1 E0.0000 F1500
G92 E0
G1 X4.850 Y7.082 E0.0134 F720
G1 X8.649 Y6.334 E0.1554
G1 X8.997 Y6.365 E0.1682
G1 X10.406 Y6.914 E0.2236
G1 X10.682 Y7.126 E0.2364
G1 X13.243 Y10.614 E0.3951
G1 X13.332 Y10.787 E0.4022
G1 X13.592 Y11.578 E0.4327
G1 X13.622 Y11.770 E0.4399
G1 X13.624 Y34.682 E1.2800
G1 X13.780 Y36.377 E1.3425
G1 X13.973 Y36.805 E1.3597
G1 X22.929 Y36.830 E1.6881
G1 X22.976 Y36.832 E1.6898
G1 X23.176 Y36.848 E1.6972
G1 X23.223 Y36.853 E1.6989
G1 X33.577 Y38.486 E2.0833
G1 X33.626 Y38.495 E2.0851
G1 X33.832 Y38.545 E2.0928
G1 X33.879 Y38.559 E2.0947
G1 X42.191 Y41.299 E2.4156
G1 X42.523 Y40.204 E2.4575
G1 X42.547 Y40.139 E2.4601
G1 X42.665 Y39.868 E2.4709
G1 X42.696 Y39.806 E2.4735
G1 X43.715 Y38.030 E2.5486
G1 X43.943 Y37.801 E2.5604
G1 X45.152 Y37.100 E2.6117
G1 X45.465 Y37.016 E2.6235
G1 X49.637 Y37.015 E2.7765
G1 X49.638 Y33.687 E2.8986
G1 X49.761 Y33.312 E2.9131
G1 X50.783 Y31.935 E2.9760
G1 X51.105 Y31.708 E2.9904
G1 X53.499 Y30.982 E3.0821
G1 X53.557 Y30.967 E3.0843
G1 X53.809 Y30.917 E3.0937
G1 X53.868 Y30.908 E3.0959
G1 X56.465 Y30.652 E3.1916
G1 X56.525 Y30.649 E3.1938
G1 X56.782 Y30.649 E3.2032
G1 X56.842 Y30.652 E3.2054
G1 X59.438 Y30.908 E3.3011
G1 X59.498 Y30.917 E3.3033
G1 X59.749 Y30.967 E3.3127
G1 X59.808 Y30.982 E3.3149
G1 X62.304 Y31.739 E3.4106
G1 X62.361 Y31.759 E3.4128
G1 X62.598 Y31.857 E3.4222
G1 X62.652 Y31.883 E3.4244
G1 X64.953 Y33.113 E3.5201
G1 X65.005 Y33.144 E3.5223
G1 X65.218 Y33.287 E3.5317
G1 X65.267 Y33.322 E3.5339
G1 X67.284 Y34.978 E3.6296
G1 X67.328 Y35.018 E3.6318
G1 X67.510 Y35.199 E3.6412
G1 X67.550 Y35.244 E3.6434
G1 X69.205 Y37.261 E3.7391
G1 X69.241 Y37.309 E3.7413
G1 X69.384 Y37.522 E3.7507
G1 X69.415 Y37.574 E3.7529
G1 X70.644 Y39.875 E3.8486
G1 X70.670 Y39.929 E3.8508
G1 X70.768 Y40.167 E3.8602
G1 X70.789 Y40.223 E3.8624
G1 X71.546 Y42.720 E3.9581
G1 X71.561 Y42.778 E3.9603
G1 X71.611 Y43.030 E3.9697
G1 X71.620 Y43.089 E3.9719
G1 X71.875 Y45.686 E4.0676
G1 X71.878 Y45.746 E4.0698
G1 X71.878 Y46.003 E4.0792
G1 X71.875 Y46.063 E4.0814
G1 X71.620 Y48.659 E4.1771
G1 X71.611 Y48.719 E4.1793
G1 X71.561 Y48.970 E4.1887
G1 X71.546 Y49.029 E4.1909
G1 X70.789 Y51.525 E4.2866
G1 X70.768 Y51.582 E4.2888
G1 X70.670 Y51.819 E4.2982
G1 X70.644 Y51.874 E4.3004
G1 X69.415 Y54.175 E4.3961
G1 X69.384 Y54.226 E4.3983
G1 X69.241 Y54.440 E4.4077
G1 X69.205 Y54.488 E4.4099
G1 X67.550 Y56.505 E4.5056
G1 X67.510 Y56.549 E4.5078
G1 X67.328 Y56.731 E4.5172
G1 X67.284 Y56.771 E4.5194
G1 X65.267 Y58.426 E4.6150
G1 X65.218 Y58.462 E4.6173
G1 X65.005 Y58.605 E4.6267
G1 X64.953 Y58.636 E4.6289
G1 X62.652 Y59.866 E4.7245
G1 X62.598 Y59.891 E4.7267
G1 X62.361 Y59.989 E4.7362
G1 X62.304 Y60.010 E4.7384
G1 X59.808 Y60.767 E4.8340
G1 X59.749 Y60.782 E4.8362
G1 X59.498 Y60.832 E4.8457
G1 X59.438 Y60.841 E4.8479
G1 X56.842 Y61.096 E4.9435
G1 X56.782 Y61.099 E4.9457
G1 X56.525 Y61.099 E4.9551
G1 X56.465 Y61.096 E4.9574
G1 X53.868 Y60.841 E5.0530
G1 X53.809 Y60.832 E5.0552
G1 X53.557 Y60.782 E5.0646
G1 X53.499 Y60.767 E5.0668
G1 X51.002 Y60.010 E5.1625
G1 X50.945 Y59.990 E5.1647
G1 X50.708 Y59.891 E5.1741
G1 X50.654 Y59.866 E5.1763
G1 X48.353 Y58.636 E5.2720
G1 X48.301 Y58.605 E5.2742
G1 X48.088 Y58.462 E5.2836
G1 X48.040 Y58.426 E5.2858
G1 X46.581 Y57.230 E5.3550
G1 X45.138 Y56.747 E5.4108
G1 X42.435 Y57.026 E5.5105
G1 X42.415 Y57.028 E5.5112
G1 X42.330 Y57.034 E5.5143
G1 X42.309 Y57.035 E5.5151
G1 X22.847 Y57.760 E6.2292
G1 X22.836 Y57.761 E6.2297
G1 X22.787 Y57.762 E6.2314
G1 X22.776 Y57.762 E6.2319
G1 X10.283 Y57.762 E6.6900
G1 X9.873 Y57.611 E6.7060
G1 X8.421 Y56.377 E6.7758
G1 X8.207 Y55.998 E6.7918
G1 X7.565 Y52.077 E6.9375
G1 X6.831 Y50.428 E7.0037
G1 X5.314 Y48.112 E7.1052
G1 X5.296 Y48.081 E7.1065
G1 X5.220 Y47.950 E7.1121
G1 X5.203 Y47.918 E7.1134
G1 X3.809 Y45.131 E7.2277
G1 X3.794 Y45.097 E7.2290
G1 X3.732 Y44.954 E7.2348
G1 X3.719 Y44.919 E7.2361
G1 X2.662 Y41.967 E7.3511
G1 X2.650 Y41.931 E7.3525
G1 X2.605 Y41.774 E7.3585
G1 X2.595 Y41.737 E7.3599
G1 X1.908 Y38.653 E7.4758
G1 X1.900 Y38.613 E7.4773
G1 X1.874 Y38.443 E7.4836
G1 X1.869 Y38.403 E7.4851
G1 X1.576 Y35.055 E7.6083
G1 X1.574 Y35.028 E7.6093
G1 X1.569 Y34.914 E7.6135
G1 X1.569 Y34.887 E7.6145
G1 X1.570 Y31.854 E7.7257
G1 X1.570 Y31.849 E7.7258
G1 X1.570 Y31.828 E7.7266
G1 X1.570 Y31.823 E7.7268
G1 X1.756 Y20.620 E8.1377
G1 X1.757 Y20.603 E8.1383
G1 X1.760 Y20.529 E8.1410
G1 X1.761 Y20.512 E8.1416
G1 X1.973 Y17.616 E8.2481
G1 X1.974 Y17.608 E8.2484
G1 X1.977 Y17.573 E8.2497
G1 X1.978 Y17.565 E8.2500
G1 X2.267 Y14.688 E8.3560
G1 X2.268 Y14.680 E8.3563
G1 X2.272 Y14.645 E8.3576
G1 X2.273 Y14.637 E8.3579
G1 X2.643 Y11.735 E8.4652
G1 X2.646 Y11.715 E8.4659
G1 X2.660 Y11.628 E8.4692
G1 X2.664 Y11.607 E8.4699
G1 X3.237 Y8.694 E8.5788
G1 X3.409 Y8.373 E8.5922
G1 X4.528 Y7.254 E8.6502
G1 X17.481 Y14.526 F3500
G92 E0
G1 X18.587 Y12.163 E0.0957 F720
G1 X18.616 Y12.110 E0.0979
G1 X18.747 Y11.889 E0.1073
G1 X18.780 Y11.839 E0.1095
G1 X20.326 Y9.738 E0.2052
G1 X20.364 Y9.691 E0.2074
G1 X20.536 Y9.500 E0.2168
G1 X20.578 Y9.457 E0.2190
G1 X22.505 Y7.698 E0.3147
G1 X22.551 Y7.660 E0.3169
G1 X22.757 Y7.506 E0.3263
G1 X22.807 Y7.472 E0.3285
G1 X25.039 Y6.123 E0.4242
G1 X25.092 Y6.094 E0.4264
G1 X25.324 Y5.983 E0.4358
G1 X25.379 Y5.960 E0.4380
G1 X27.832 Y5.072 E0.5337
G1 X27.890 Y5.054 E0.5359
G1 X28.139 Y4.991 E0.5453
G1 X28.198 Y4.979 E0.5475
G1 X30.777 Y4.586 E0.6431
G1 X30.837 Y4.580 E0.6454
G1 X31.093 Y4.567 E0.6548
G1 X31.153 Y4.566 E0.6570
G1 X33.760 Y4.685 E0.7526
G1 X33.820 Y4.690 E0.7548
G1 X34.074 Y4.727 E0.7643
G1 X34.133 Y4.739 E0.7665
G1 X36.666 Y5.363 E0.8621
G1 X36.723 Y5.380 E0.8643
G1 X36.965 Y5.466 E0.8738
G1 X37.021 Y5.488 E0.8760
G1 X39.384 Y6.595 E0.9716
G1 X39.437 Y6.623 E0.9738
G1 X39.658 Y6.754 E0.9832
G1 X39.708 Y6.788 E0.9855
G1 X41.809 Y8.334 E1.0811
G1 X41.856 Y8.372 E1.0833
G1 X42.047 Y8.543 E1.0927
G1 X42.089 Y8.586 E1.0949
G1 X43.849 Y10.512 E1.1906
G1 X43.887 Y10.559 E1.1928
G1 X44.041 Y10.764 E1.2022
G1 X44.074 Y10.814 E1.2044
G1 X44.280 Y11.153 E1.2190
G1 X51.655 Y7.872 E1.5150
G1 X51.697 Y7.856 E1.5167
G1 X51.880 Y7.790 E1.5238
G1 X51.923 Y7.776 E1.5254
G1 X58.188 Y6.043 E1.7638
G1 X58.289 Y6.024 E1.7676
G1 X58.725 Y5.979 E1.7836
G1 X58.828 Y5.977 E1.7874
G1 X61.171 Y6.130 E1.8735
G1 X63.843 Y5.705 E1.9727
G1 X63.889 Y5.700 E1.9744
G1 X64.089 Y5.684 E1.9818
G1 X64.136 Y5.682 E1.9835
G1 X67.118 Y5.669 E2.0929
G1 X67.137 Y5.669 E2.0936
G1 X67.218 Y5.671 E2.0965
G1 X67.237 Y5.672 E2.0972
G1 X70.031 Y5.833 E2.1998
G1 X70.051 Y5.834 E2.2006
G1 X70.136 Y5.842 E2.2037
G1 X70.156 Y5.844 E2.2045
G1 X73.087 Y6.206 E2.3127
G1 X73.243 Y6.247 E2.3187
G1 X73.884 Y6.507 E2.3440
G1 X74.024 Y6.587 E2.3499
G1 X76.702 Y8.621 E2.4733
G1 X76.727 Y8.641 E2.4744
G1 X76.828 Y8.726 E2.4793
G1 X76.851 Y8.747 E2.4804
G1 X79.244 Y10.981 E2.6004
G1 X79.426 Y11.297 E2.6138
G1 X79.785 Y12.837 E2.6718
G1 X79.760 Y13.201 E2.6852
G1 X77.344 Y19.581 E2.9354
G1 X76.413 Y26.271 E3.1830
G1 X76.202 Y26.661 E3.1993
G1 X74.738 Y27.935 E3.2704
G1 X74.323 Y28.090 E3.2867
G1 X69.203 Y28.090 E3.4744
G1 X68.775 Y27.924 E3.4913
G1 X67.290 Y26.564 E3.5651
G1 X67.086 Y26.152 E3.5820
G1 X66.476 Y19.245 E3.8362
G1 X66.130 Y18.516 E3.8658
G1 X65.109 Y18.027 E3.9074
G1 X65.074 Y18.008 E3.9088
G1 X64.925 Y17.925 E3.9151
G1 X64.891 Y17.904 E3.9165
G1 X64.289 Y17.513 E3.9429
G1 X63.478 Y17.563 E3.9727
G1 X61.336 Y18.117 E4.0538
G1 X61.244 Y18.134 E4.0572
G1 X60.848 Y18.174 E4.0718
G1 X60.754 Y18.176 E4.0753
G1 X59.336 Y18.103 E4.1273
G1 X54.268 Y19.994 E4.3257
G1 X46.489 Y24.575 E4.6567
G1 X45.771 Y25.564 E4.7015
G1 X44.902 Y26.996 E4.7630
G1 X44.675 Y27.215 E4.7745
G1 X43.486 Y27.884 E4.8245
G1 X43.181 Y27.964 E4.8361
G1 X38.619 Y27.963 E5.0034
G1 X38.619 Y31.986 E5.1509
G1 X38.505 Y32.346 E5.1647
G1 X37.563 Y33.689 E5.2249
G1 X37.263 Y33.919 E5.2388
G1 X35.707 Y34.483 E5.2995
G1 X35.649 Y34.500 E5.3017
G1 X35.401 Y34.564 E5.3111
G1 X35.342 Y34.576 E5.3133
G1 X32.762 Y34.968 E5.4090
G1 X32.702 Y34.974 E5.4112
G1 X32.446 Y34.988 E5.4206
G1 X32.386 Y34.988 E5.4228
G1 X29.780 Y34.870 E5.5185
G1 X29.720 Y34.864 E5.5207
G1 X29.466 Y34.827 E5.5301
G1 X29.407 Y34.816 E5.5323
G1 X26.873 Y34.192 E5.6279
G1 X26.816 Y34.174 E5.6302
G1 X26.574 Y34.089 E5.6396
G1 X26.518 Y34.066 E5.6418
G1 X24.155 Y32.959 E5.7374
G1 X24.102 Y32.931 E5.7396
G1 X23.882 Y32.800 E5.7491
G1 X23.831 Y32.767 E5.7513
G1 X21.730 Y31.221 E5.8469
G1 X21.683 Y31.183 E5.8491
G1 X21.492 Y31.011 E5.8586
G1 X21.450 Y30.969 E5.8608
G1 X19.690 Y29.042 E5.9564
G1 X19.652 Y28.996 E5.9586
G1 X19.498 Y28.790 E5.9681
G1 X19.465 Y28.740 E5.9703
G1 X18.115 Y26.508 E6.0659
G1 X18.086 Y26.455 E6.0681
G1 X17.976 Y26.223 E6.0775
G1 X17.953 Y26.168 E6.0797
G1 X17.064 Y23.714 E6.1754
G1 X17.047 Y23.657 E6.1776
G1 X16.983 Y23.408 E6.1870
G1 X16.971 Y23.349 E6.1892
G1 X16.579 Y20.770 E6.2849
G1 X16.573 Y20.710 E6.2871
G1 X16.559 Y20.454 E6.2965
G1 X16.559 Y20.394 E6.2987
G1 X16.677 Y17.787 E6.3944
G1 X16.683 Y17.727 E6.3966
G1 X16.719 Y17.473 E6.4060
G1 X16.731 Y17.414 E6.4082
G1 X17.355 Y14.881 E6.5039
G1 X17.373 Y14.823 E6.5061
G1 X17.458 Y14.581 E6.5155
G1 X17.481 Y14.526 E6.5177
G92 E0
G1 E-6.5000 F5000
G1 X12.106 Y64.863 F3500
G1 E0.0000 F5000
G92 E0
G1 X34.012 Y64.863 E0.8032 F720
G1 X34.462 Y65.049 E0.8211
G1 X35.978 Y66.565 E0.8997
G1 X36.164 Y67.016 E0.9176
G1 X36.164 Y69.933 E1.0246
G1 X36.164 Y69.933 E1.0246
G1 X36.164 Y74.728 E1.2004
G1 X35.978 Y75.179 E1.2183
G1 X34.462 Y76.695 E1.2969
G1 X34.011 Y76.881 E1.3148
G1 X12.106 Y76.881 E2.1180
G1 X11.656 Y76.695 E2.1359
G1 X10.140 Y75.179 E2.2145
G1 X9.954 Y74.728 E2.2324
G1 X9.954 Y67.016 E2.5152
G1 X10.140 Y66.565 E2.5331
G1 X11.656 Y65.049 E2.6117
G1 X12.106 Y64.863 E2.6296
G1 X12.204 Y65.353 F3500
G92 E0
G1 X33.914 Y65.353 E0.7961 F720
G1 X34.184 Y65.465 E0.8068
G1 X35.563 Y66.843 E0.8783
G1 X35.674 Y67.113 E0.8890
G1 X35.674 Y69.980 E0.9941
G1 X35.664 Y70.005 E0.9951
G1 X35.674 Y70.031 E0.9961
G1 X35.674 Y74.631 E1.1648
G1 X35.563 Y74.901 E1.1756
G1 X34.184 Y76.279 E1.2470
G1 X33.914 Y76.391 E1.2578
G1 X12.204 Y76.391 E2.0539
G1 X11.934 Y76.279 E2.0646
G1 X10.555 Y74.901 E2.1361
G1 X10.444 Y74.631 E2.1468
G1 X10.444 Y67.113 E2.4225
G1 X10.555 Y66.843 E2.4332
G1 X11.934 Y65.465 E2.5047
G1 X12.204 Y65.353 E2.5154
G1 X10.370 Y57.272 F3500
G92 E0
G1 X10.124 Y57.181 E0.0096 F720
G1 X8.805 Y56.060 E0.0731
G1 X8.676 Y55.833 E0.0827
G1 X8.038 Y51.936 E0.2275
G1 X7.263 Y50.193 E0.2974
G1 X5.728 Y47.849 E0.4002
G1 X5.717 Y47.831 E0.4009
G1 X5.648 Y47.712 E0.4060
G1 X5.638 Y47.693 E0.4068
G1 X4.251 Y44.918 E0.5205
G1 X4.242 Y44.898 E0.5213
G1 X4.186 Y44.768 E0.5265
G1 X4.178 Y44.747 E0.5273
G1 X3.126 Y41.809 E0.6418
G1 X3.119 Y41.787 E0.6426
G1 X3.078 Y41.646 E0.6480
G1 X3.072 Y41.623 E0.6489
G1 X2.388 Y38.554 E0.7642
G1 X2.383 Y38.530 E0.7651
G1 X2.360 Y38.376 E0.7708
G1 X2.357 Y38.352 E0.7717
