; G-Code generated by Simplify3D(R) Version 3.0.0
; Sep 3, 2017 at 3:05:00 
; Settings Summary
;   processName,Process1
;   applyToModels,greiferC
;   profileName,juli (modified)
;   profileVersion,2017-06-09 12:06:14
;   baseProfile,German RepRap NEO (modified)
;   printMaterial,
;   printQuality,
;   printExtruders,
;   extruderName,Primary Extruder
;   extruderToolheadNumber,0
;   extruderDiameter,0.5
;   extruderAutoWidth,0
;   extruderWidth,0.49
;   extrusionMultiplier,0.9
;   extruderUseRetract,1
;   extruderRetractionDistance,6.5
;   extruderExtraRestartDistance,0
;   extruderRetractionZLift,0
;   extruderRetractionSpeed,5000
;   extruderUseCoasting,0
;   extruderCoastingDistance,0.2
;   extruderUseWipe,0
;   extruderWipeDistance,5
;   primaryExtruder,0
;   layerHeight,0.2
;   topSolidLayers,4
;   bottomSolidLayers,3
;   perimeterOutlines,3
;   printPerimetersInsideOut,1
;   startPointOption,2
;   startPointOriginX,0
;   startPointOriginY,0
;   startPointOriginZ,300
;   sequentialIslands,0
;   spiralVaseMode,0
;   firstLayerHeightPercentage,100
;   firstLayerWidthPercentage,100
;   firstLayerUnderspeed,0.3
;   useRaft,0
;   raftExtruder,0
;   raftLayers,3
;   raftOffset,3
;   raftSeparationDistance,0.1
;   raftInfill,85
;   disableRaftBaseLayers,0
;   useSkirt,1
;   skirtExtruder,0
;   skirtLayers,1
;   skirtOutlines,3
;   skirtOffset,2
;   usePrimePillar,0
;   primePillarExtruder,999
;   primePillarWidth,12
;   primePillarLocation,7
;   primePillarSpeedMultiplier,1
;   useOozeShield,0
;   oozeShieldExtruder,999
;   oozeShieldOffset,2
;   oozeShieldOutlines,1
;   oozeShieldSidewallShape,1
;   oozeShieldSidewallAngle,30
;   oozeShieldSpeedMultiplier,1
;   infillExtruder,0
;   internalInfillPattern,Full Honeycomb
;   externalInfillPattern,Rectilinear
;   infillPercentage,15
;   outlineOverlapPercentage,15
;   infillExtrusionWidthPercentage,100
;   minInfillLength,3
;   infillLayerInterval,1
;   infillAngles,0,120,-120
;   overlapInfillAngles,0
;   generateSupport,1
;   supportExtruder,0
;   supportInfillPercentage,30
;   supportExtraInflation,0
;   denseSupportLayers,0
;   denseSupportInfillPercentage,75
;   supportLayerInterval,1
;   supportHorizontalPartOffset,2
;   supportUpperSeparationLayers,2
;   supportLowerSeparationLayers,2
;   supportType,0
;   supportGridSpacing,4
;   maxOverhangAngle,45
;   supportAngles,45
;   temperatureName,Primary Extruder
;   temperatureNumber,0
;   temperatureSetpointCount,3
;   temperatureSetpointLayers,1,2,3
;   temperatureSetpointTemperatures,207,199,192
;   temperatureStabilizeAtStartup,1
;   temperatureHeatedBed,0
;   temperatureRelayBetweenLayers,0
;   temperatureRelayBetweenLoops,0
;   fanLayers,1,4
;   fanSpeeds,0,100
;   blipFanToFullPower,0
;   adjustSpeedForCooling,1
;   minSpeedLayerTime,15
;   minCoolingSpeedSlowdown,20
;   increaseFanForCooling,0
;   minFanLayerTime,45
;   maxCoolingFanSpeed,100
;   increaseFanForBridging,0
;   bridgingFanSpeed,100
;   use5D,1
;   relativeEdistances,0
;   allowEaxisZeroing,1
;   independentExtruderAxes,0
;   includeM10123,0
;   stickySupport,1
;   applyToolheadOffsets,0
;   gcodeXoffset,0
;   gcodeYoffset,0
;   gcodeZoffset,0
;   overrideMachineDefinition,1
;   machineTypeOverride,0
;   strokeXoverride,150
;   strokeYoverride,150
;   strokeZoverride,150
;   originOffsetXoverride,0
;   originOffsetYoverride,0
;   originOffsetZoverride,0
;   homeXdirOverride,-1
;   homeYdirOverride,-1
;   homeZdirOverride,-1
;   flipXoverride,1
;   flipYoverride,-1
;   flipZoverride,1
;   toolheadOffsets,0,0|0,0|0,0|0,0|0,0|0,0
;   overrideFirmwareConfiguration,0
;   firmwareTypeOverride,RepRap (Marlin/Repetier/Sprinter)
;   GPXconfigOverride,r2
;   baudRateOverride,115200
;   overridePrinterModels,0
;   printerModelsOverride
;   startingGcode,G28 ; home all axes
;   layerChangeGcode,
;   retractionGcode,
;   toolChangeGcode,
;   endingGcode,M104 S0 ; turn off extruder,M140 S0 ; turn off bed,G28 X0  ; home X axis,G28 Y0  ; home Y axis,M84 ; disable motors,M107
;   createX3G,0
;   celebration,0
;   celebrationSong,Random Song
;   createMB5G,0
;   postProcessing,
;   defaultSpeed,2400
;   outlineUnderspeed,0.5
;   solidInfillUnderspeed,0.8
;   supportUnderspeed,0.8
;   rapidXYspeed,3500
;   rapidZspeed,1000
;   minBridgingArea,50
;   bridgingExtraInflation,0
;   bridgingExtrusionMultiplier,1
;   bridgingSpeedMultiplier,1
;   filamentDiameter,1.75
;   filamentPricePerKg,46
;   filamentDensity,1.25
;   useMinPrintHeight,0
;   minPrintHeight,0
;   useMaxPrintHeight,0
;   maxPrintHeight,0
;   useDiaphragm,0
;   diaphragmLayerInterval,20
;   robustSlicing,1
;   mergeAllIntoSolid,0
;   onlyRetractWhenCrossingOutline,1
;   retractBetweenLayers,1
;   useRetractionMinTravel,0
;   retractionMinTravel,3
;   retractWhileWiping,0
;   onlyWipeOutlines,1
;   avoidCrossingOutline,0
;   maxMovementDetourFactor,10
;   toolChangeRetractionDistance,0
;   toolChangeExtraRestartDistance,0
;   toolChangeRetractionSpeed,360
;   allowThinWallGapFill,1
;   thinWallAllowedOverlapPercentage,10
;   horizontalSizeCompensation,0
G90
M82
M106 S0
M104 S207 T0
M109 S207 T0
G28 ; home all axes
G92 E0
G1 E-6.5000 F5000
G1 Z0.200 F1000
; layer 1, Z = 0.2
T0
; tool H0.200 W0.490
; skirt
G1 X65.258 Y43.234 F3500
G1 E0.0000 F1500
G92 E0
G1 X66.774 Y41.720 E0.0786 F720
G1 X67.224 Y41.534 E0.0964
G1 X79.614 Y41.536 E0.5507
G1 X79.673 Y41.539 E0.5529
G1 X79.923 Y41.563 E0.5621
G1 X79.981 Y41.572 E0.5643
G1 X84.346 Y42.423 E0.7273
G1 X84.713 Y42.641 E0.7430
G1 X85.897 Y44.080 E0.8113
G1 X86.041 Y44.482 E0.8270
G1 X86.025 Y58.666 E1.3471
G1 X86.022 Y58.726 E1.3493
G1 X85.997 Y58.983 E1.3588
G1 X85.988 Y59.043 E1.3610
G1 X84.352 Y67.183 E1.6655
G1 X84.346 Y67.208 E1.6664
G1 X84.321 Y67.311 E1.6703
G1 X84.314 Y67.335 E1.6712
G1 X81.550 Y76.955 E2.0382
G1 X90.921 Y96.802 E2.8431
G1 X90.978 Y97.125 E2.8551
G1 X90.924 Y97.726 E2.8772
G1 X91.042 Y98.168 E2.8940
G1 X91.060 Y98.384 E2.9019
G1 X91.025 Y98.766 E2.9160
G1 X91.331 Y99.306 E2.9388
G1 X91.408 Y99.690 E2.9531
G1 X91.205 Y101.386 E3.0158
G1 X91.039 Y101.741 E3.0301
G1 X90.402 Y102.419 E3.0643
G1 X90.198 Y102.805 E3.0803
G1 X90.044 Y102.993 E3.0892
G1 X87.260 Y105.278 E3.2213
G1 X87.211 Y105.314 E3.2235
G1 X86.998 Y105.456 E3.2329
G1 X86.946 Y105.487 E3.2351
G1 X84.117 Y106.999 E3.3527
G1 X84.063 Y107.025 E3.3549
G1 X83.826 Y107.123 E3.3643
G1 X83.769 Y107.144 E3.3665
G1 X80.700 Y108.075 E3.4841
G1 X80.641 Y108.089 E3.4864
G1 X80.390 Y108.139 E3.4958
G1 X80.330 Y108.148 E3.4980
G1 X77.138 Y108.463 E3.6156
G1 X77.078 Y108.466 E3.6178
G1 X76.821 Y108.466 E3.6272
G1 X76.761 Y108.463 E3.6294
G1 X73.569 Y108.148 E3.7470
G1 X73.509 Y108.139 E3.7493
G1 X73.257 Y108.089 E3.7587
G1 X73.199 Y108.075 E3.7609
G1 X70.129 Y107.144 E3.8785
G1 X70.073 Y107.123 E3.8807
G1 X69.836 Y107.025 E3.8901
G1 X69.781 Y106.999 E3.8923
G1 X66.952 Y105.487 E4.0099
G1 X66.901 Y105.456 E4.0121
G1 X66.687 Y105.314 E4.0216
G1 X66.639 Y105.278 E4.0238
G1 X64.160 Y103.243 E4.1414
G1 X64.115 Y103.203 E4.1436
G1 X63.933 Y103.021 E4.1530
G1 X63.893 Y102.977 E4.1552
G1 X61.858 Y100.497 E4.2728
G1 X61.822 Y100.449 E4.2750
G1 X61.680 Y100.235 E4.2845
G1 X61.649 Y100.184 E4.2867
G1 X60.137 Y97.355 E4.4043
G1 X60.111 Y97.300 E4.4065
G1 X60.013 Y97.063 E4.4159
G1 X59.992 Y97.007 E4.4181
G1 X59.061 Y93.937 E4.5357
G1 X59.047 Y93.879 E4.5379
G1 X58.997 Y93.627 E4.5473
G1 X58.988 Y93.567 E4.5496
G1 X58.673 Y90.375 E4.6672
G1 X58.670 Y90.315 E4.6694
G1 X58.670 Y90.058 E4.6788
G1 X58.673 Y89.998 E4.6810
G1 X58.988 Y86.806 E4.7986
G1 X58.997 Y86.747 E4.8008
G1 X59.047 Y86.495 E4.8102
G1 X59.061 Y86.436 E4.8124
G1 X59.992 Y83.367 E4.9301
G1 X60.013 Y83.310 E4.9323
G1 X60.111 Y83.073 E4.9417
G1 X60.137 Y83.019 E4.9439
G1 X61.649 Y80.190 E5.0615
G1 X61.680 Y80.138 E5.0637
G1 X61.822 Y79.925 E5.0731
G1 X61.858 Y79.876 E5.0753
G1 X63.893 Y77.397 E5.1930
G1 X63.933 Y77.352 E5.1952
G1 X64.115 Y77.171 E5.2046
G1 X64.160 Y77.130 E5.2068
G1 X65.973 Y75.642 E5.2928
G1 X65.051 Y58.610 E5.9183
G1 X65.051 Y58.593 E5.9189
G1 X65.049 Y58.521 E5.9216
G1 X65.049 Y58.504 E5.9222
G1 X65.071 Y43.683 E6.4656
G1 X65.258 Y43.234 E6.4835
G1 X65.673 Y43.512 F3500
G92 E0
G1 X67.052 Y42.136 E0.0714 F720
G1 X67.321 Y42.024 E0.0821
G1 X79.602 Y42.026 E0.5324
G1 X79.637 Y42.028 E0.5337
G1 X79.864 Y42.050 E0.5421
G1 X79.899 Y42.055 E0.5434
G1 X84.169 Y42.887 E0.7029
G1 X84.389 Y43.018 E0.7123
G1 X85.464 Y44.325 E0.7744
G1 X85.550 Y44.566 E0.7837
G1 X85.535 Y58.654 E1.3003
G1 X85.534 Y58.690 E1.3016
G1 X85.510 Y58.922 E1.3102
G1 X85.505 Y58.958 E1.3115
G1 X83.872 Y67.082 E1.6154
G1 X83.869 Y67.096 E1.6159
G1 X83.846 Y67.190 E1.6195
G1 X83.842 Y67.205 E1.6200
G1 X81.028 Y76.997 E1.9936
G1 X90.450 Y96.952 E2.8029
G1 X90.484 Y97.146 E2.8101
G1 X90.428 Y97.768 E2.8330
G1 X90.557 Y98.252 E2.8514
G1 X90.568 Y98.382 E2.8561
G1 X90.522 Y98.874 E2.8743
G1 X90.866 Y99.479 E2.8998
G1 X90.912 Y99.710 E2.9084
G1 X90.728 Y101.250 E2.9653
G1 X90.629 Y101.463 E2.9739
G1 X90.000 Y102.132 E3.0075
G1 X89.788 Y102.532 E3.0242
G1 X89.695 Y102.645 E3.0295
G1 X86.958 Y104.892 E3.1594
G1 X86.929 Y104.913 E3.1607
G1 X86.736 Y105.042 E3.1692
G1 X86.705 Y105.061 E3.1705
G1 X83.897 Y106.562 E3.2873
G1 X83.864 Y106.577 E3.2886
G1 X83.649 Y106.666 E3.2971
G1 X83.615 Y106.678 E3.2985
G1 X80.569 Y107.602 E3.4152
G1 X80.534 Y107.611 E3.4165
G1 X80.306 Y107.657 E3.4250
G1 X80.270 Y107.662 E3.4264
G1 X77.102 Y107.974 E3.5431
G1 X77.066 Y107.976 E3.5444
G1 X76.833 Y107.976 E3.5530
G1 X76.797 Y107.974 E3.5543
G1 X73.629 Y107.662 E3.6710
G1 X73.593 Y107.657 E3.6724
G1 X73.365 Y107.611 E3.6809
G1 X73.330 Y107.602 E3.6822
G1 X70.283 Y106.678 E3.7990
G1 X70.249 Y106.666 E3.8003
G1 X70.034 Y106.577 E3.8088
G1 X70.002 Y106.562 E3.8101
G1 X67.194 Y105.061 E3.9269
G1 X67.163 Y105.042 E3.9282
G1 X66.970 Y104.913 E3.9367
G1 X66.941 Y104.892 E3.9380
G1 X64.480 Y102.872 E4.0548
G1 X64.453 Y102.848 E4.0561
G1 X64.288 Y102.683 E4.0646
G1 X64.264 Y102.656 E4.0660
G1 X62.245 Y100.195 E4.1827
G1 X62.223 Y100.166 E4.1840
G1 X62.094 Y99.973 E4.1926
G1 X62.075 Y99.942 E4.1939
G1 X60.574 Y97.134 E4.3106
G1 X60.559 Y97.102 E4.3120
G1 X60.470 Y96.887 E4.3205
G1 X60.458 Y96.853 E4.3218
G1 X59.534 Y93.806 E4.4385
G1 X59.525 Y93.771 E4.4399
G1 X59.480 Y93.543 E4.4484
G1 X59.474 Y93.507 E4.4497
G1 X59.162 Y90.339 E4.5665
G1 X59.160 Y90.303 E4.5678
G1 X59.160 Y90.070 E4.5763
G1 X59.162 Y90.034 E4.5776
G1 X59.474 Y86.866 E4.6944
G1 X59.480 Y86.830 E4.6957
G1 X59.525 Y86.602 E4.7042
G1 X59.534 Y86.567 E4.7056
G1 X60.458 Y83.521 E4.8223
G1 X60.470 Y83.487 E4.8236
G1 X60.559 Y83.272 E4.8322
G1 X60.575 Y83.239 E4.8335
G1 X62.075 Y80.431 E4.9502
G1 X62.094 Y80.400 E4.9515
G1 X62.223 Y80.207 E4.9601
G1 X62.245 Y80.178 E4.9614
G1 X64.264 Y77.717 E5.0781
G1 X64.288 Y77.690 E5.0795
G1 X64.453 Y77.526 E5.0880
G1 X64.480 Y77.502 E5.0893
G1 X66.476 Y75.863 E5.1840
G1 X65.541 Y58.587 E5.8184
G1 X65.540 Y58.577 E5.8188
G1 X65.539 Y58.511 E5.8212
G1 X65.539 Y58.501 E5.8216
G1 X65.561 Y43.781 E6.3614
G1 X65.673 Y43.512 E6.3721
G1 X66.088 Y43.790 F3500
G92 E0
G1 X67.329 Y42.551 E0.0643 F720
G1 X67.419 Y42.514 E0.0678
G1 X79.590 Y42.516 E0.5142
G1 X79.602 Y42.517 E0.5146
G1 X79.805 Y42.536 E0.5221
G1 X79.817 Y42.538 E0.5225
G1 X83.991 Y43.352 E0.6785
G1 X84.064 Y43.396 E0.6816
G1 X85.032 Y44.571 E0.7374
G1 X85.060 Y44.651 E0.7405
G1 X85.045 Y58.641 E1.2535
G1 X85.045 Y58.653 E1.2540
G1 X85.024 Y58.861 E1.2616
G1 X85.022 Y58.873 E1.2621
G1 X83.393 Y66.980 E1.5653
G1 X83.392 Y66.985 E1.5655
G1 X83.371 Y67.069 E1.5687
G1 X83.370 Y67.074 E1.5688
G1 X80.506 Y77.039 E1.9491
G1 X89.979 Y97.102 E2.7626
G1 X89.991 Y97.167 E2.7651
G1 X89.932 Y97.811 E2.7888
G1 X90.073 Y98.337 E2.8087
G1 X90.076 Y98.380 E2.8103
G1 X90.020 Y98.982 E2.8325
G1 X90.401 Y99.653 E2.8608
G1 X90.416 Y99.730 E2.8637
G1 X90.251 Y101.114 E2.9148
G1 X90.218 Y101.185 E2.9176
G1 X89.598 Y101.844 E2.9508
G1 X89.378 Y102.260 E2.9681
G1 X89.347 Y102.297 E2.9698
G1 X86.656 Y104.505 E3.0975
G1 X86.647 Y104.512 E3.0979
G1 X86.473 Y104.628 E3.1056
G1 X86.463 Y104.634 E3.1060
G1 X83.677 Y106.124 E3.2219
G1 X83.666 Y106.129 E3.2223
G1 X83.473 Y106.209 E3.2299
G1 X83.462 Y106.213 E3.2304
G1 X80.438 Y107.130 E3.3462
G1 X80.426 Y107.133 E3.3467
G1 X80.222 Y107.174 E3.3543
G1 X80.210 Y107.175 E3.3548
G1 X77.066 Y107.485 E3.4706
G1 X77.054 Y107.486 E3.4711
G1 X76.845 Y107.486 E3.4787
G1 X76.833 Y107.485 E3.4792
G1 X73.689 Y107.175 E3.5950
G1 X73.677 Y107.174 E3.5955
G1 X73.472 Y107.133 E3.6031
G1 X73.461 Y107.130 E3.6036
G1 X70.437 Y106.213 E3.7194
G1 X70.426 Y106.209 E3.7199
G1 X70.233 Y106.129 E3.7275
G1 X70.222 Y106.124 E3.7279
G1 X67.436 Y104.634 E3.8438
G1 X67.425 Y104.628 E3.8442
G1 X67.252 Y104.512 E3.8519
G1 X67.242 Y104.505 E3.8523
G1 X64.800 Y102.501 E3.9682
G1 X64.791 Y102.493 E3.9686
G1 X64.643 Y102.345 E3.9763
G1 X64.635 Y102.336 E3.9767
G1 X62.631 Y99.894 E4.0926
G1 X62.624 Y99.884 E4.0930
G1 X62.508 Y99.711 E4.1007
G1 X62.502 Y99.700 E4.1011
G1 X61.012 Y96.914 E4.2170
G1 X61.007 Y96.903 E4.2174
G1 X60.927 Y96.710 E4.2251
G1 X60.923 Y96.699 E4.2255
G1 X60.006 Y93.675 E4.3414
G1 X60.003 Y93.664 E4.3418
G1 X59.963 Y93.459 E4.3495
G1 X59.961 Y93.447 E4.3499
G1 X59.651 Y90.303 E4.4658
G1 X59.650 Y90.291 E4.4662
G1 X59.650 Y90.082 E4.4738
G1 X59.651 Y90.070 E4.4743
G1 X59.961 Y86.926 E4.5901
G1 X59.963 Y86.914 E4.5906
G1 X60.003 Y86.710 E4.5982
G1 X60.006 Y86.698 E4.5987
G1 X60.923 Y83.674 E4.7145
G1 X60.927 Y83.663 E4.7150
G1 X61.007 Y83.470 E4.7226
G1 X61.012 Y83.460 E4.7231
G1 X62.502 Y80.673 E4.8389
G1 X62.508 Y80.663 E4.8394
G1 X62.624 Y80.489 E4.8470
G1 X62.631 Y80.480 E4.8475
G1 X64.635 Y78.037 E4.9633
G1 X64.643 Y78.028 E4.9638
G1 X64.791 Y77.881 E4.9714
G1 X64.800 Y77.873 E4.9718
G1 X66.979 Y76.085 E5.0752
G1 X66.030 Y58.564 E5.7186
G1 X66.030 Y58.561 E5.7187
G1 X66.029 Y58.502 E5.7209
G1 X66.029 Y58.498 E5.7210
G1 X66.051 Y43.880 E6.2571
G1 X66.088 Y43.790 E6.2607
G92 E0
G1 E-6.5000 F5000
; inner perimeter
G1 X69.518 Y45.985 F3500
G1 E0.0000 F5000
G92 E0
G1 X79.369 Y45.986 E0.3612 F600
G1 X81.588 Y46.419 E0.4442
G1 X81.576 Y58.411 E0.8839
G1 X80.009 Y66.205 E1.1754
G1 X76.809 Y77.338 E1.6002
G1 X86.287 Y97.409 E2.4141
G1 X85.890 Y97.962 E2.4390
G1 X86.544 Y98.887 E2.4806
G1 X86.464 Y99.747 E2.5123
G1 X86.593 Y99.975 E2.5219
G1 X86.427 Y100.152 E2.5308
G1 X86.422 Y100.209 E2.5329
G1 X84.629 Y101.680 E2.6179
G1 X82.239 Y102.957 E2.7173
G1 X79.646 Y103.744 E2.8166
G1 X76.949 Y104.010 E2.9160
G1 X74.253 Y103.744 E3.0154
G1 X71.660 Y102.957 E3.1147
G1 X69.270 Y101.680 E3.2141
G1 X67.175 Y99.961 E3.3135
G1 X65.456 Y97.866 E3.4128
G1 X64.179 Y95.477 E3.5122
G1 X63.392 Y92.883 E3.6116
G1 X63.126 Y90.187 E3.7109
G1 X63.392 Y87.490 E3.8103
G1 X64.179 Y84.897 E3.9097
G1 X65.456 Y82.507 E4.0090
G1 X67.175 Y80.412 E4.1084
G1 X69.270 Y78.693 E4.2078
G1 X70.559 Y78.004 E4.2614
G1 X69.966 Y67.365 E4.6521
G1 X69.499 Y58.441 E4.9798
G1 X69.518 Y45.985 E5.4366
; inner perimeter
G1 X69.029 Y45.494 F3500
G92 E0
G1 X79.417 Y45.496 E0.3809 F480
G1 X82.079 Y46.015 E0.4804
G1 X82.066 Y58.460 E0.9367
G1 X80.486 Y66.321 E1.2308
G1 X77.331 Y77.296 E1.6495
G1 X86.853 Y97.461 E2.4672
G1 X86.492 Y97.964 E2.4899
G1 X87.049 Y98.753 E2.5253
G1 X86.967 Y99.639 E2.5580
G1 X87.198 Y100.047 E2.5752
G1 X86.899 Y100.365 E2.5912
G1 X86.891 Y100.458 E2.5946
G1 X84.903 Y102.090 E2.6889
G1 X82.428 Y103.412 E2.7918
G1 X79.742 Y104.227 E2.8947
G1 X76.949 Y104.502 E2.9976
G1 X74.157 Y104.227 E3.1005
G1 X71.471 Y103.412 E3.2034
G1 X68.996 Y102.090 E3.3063
G1 X66.827 Y100.309 E3.4092
G1 X65.047 Y98.140 E3.5121
G1 X63.724 Y95.665 E3.6150
G1 X62.909 Y92.980 E3.7179
G1 X62.634 Y90.187 E3.8208
G1 X62.909 Y87.394 E3.9238
G1 X63.724 Y84.708 E4.0267
G1 X65.047 Y82.234 E4.1296
G1 X66.827 Y80.064 E4.2325
G1 X68.996 Y78.284 E4.3354
G1 X70.052 Y77.719 E4.3793
G1 X69.476 Y67.389 E4.7587
G1 X69.009 Y58.454 E5.0868
G1 X69.029 Y45.494 E5.5620
; outer perimeter
G1 X68.539 Y45.004 F3500
G92 E0
G1 X79.464 Y45.006 E0.4006 F360
G1 X82.569 Y45.612 E0.5166
G1 X82.556 Y58.509 E0.9896
G1 X80.962 Y66.437 E1.2861
G1 X77.853 Y77.254 E1.6988
G1 X87.419 Y97.513 E2.5203
G1 X87.093 Y97.966 E2.5408
