; G-Code generated by Simplify3D(R) Version 3.0.0
; Sep 18, 2017 at 4:32:43 
; Settings Summary
;   processName,Process1
;   applyToModels,haltermittelstop
;   profileName,1.5 fein
;   profileVersion,2017-06-09 12:06:14
;   baseProfile,German RepRap NEO (modified)
;   printMaterial,
;   printQuality,
;   printExtruders,
;   extruderName,Primary Extruder
;   extruderToolheadNumber,0
;   extruderDiameter,0.5
;   extruderAutoWidth,0
;   extruderWidth,0.49
;   extrusionMultiplier,0.9
;   extruderUseRetract,1
;   extruderRetractionDistance,6.5
;   extruderExtraRestartDistance,0
;   extruderRetractionZLift,0
;   extruderRetractionSpeed,5000
;   extruderUseCoasting,0
;   extruderCoastingDistance,0.2
;   extruderUseWipe,0
;   extruderWipeDistance,5
;   primaryExtruder,0
;   layerHeight,0.15
;   topSolidLayers,4
;   bottomSolidLayers,3
;   perimeterOutlines,3
;   printPerimetersInsideOut,1
;   startPointOption,2
;   startPointOriginX,0
;   startPointOriginY,0
;   startPointOriginZ,300
;   sequentialIslands,0
;   spiralVaseMode,0
;   firstLayerHeightPercentage,100
;   firstLayerWidthPercentage,100
;   firstLayerUnderspeed,0.3
;   useRaft,0
;   raftExtruder,0
;   raftLayers,3
;   raftOffset,3
;   raftSeparationDistance,0.1
;   raftInfill,85
;   disableRaftBaseLayers,0
;   useSkirt,1
;   skirtExtruder,0
;   skirtLayers,1
;   skirtOutlines,3
;   skirtOffset,2
;   usePrimePillar,0
;   primePillarExtruder,999
;   primePillarWidth,12
;   primePillarLocation,7
;   primePillarSpeedMultiplier,1
;   useOozeShield,0
;   oozeShieldExtruder,999
;   oozeShieldOffset,2
;   oozeShieldOutlines,1
;   oozeShieldSidewallShape,1
;   oozeShieldSidewallAngle,30
;   oozeShieldSpeedMultiplier,1
;   infillExtruder,0
;   internalInfillPattern,Full Honeycomb
;   externalInfillPattern,Rectilinear
;   infillPercentage,15
;   outlineOverlapPercentage,15
;   infillExtrusionWidthPercentage,100
;   minInfillLength,3
;   infillLayerInterval,1
;   infillAngles,0,120,-120
;   overlapInfillAngles,0
;   generateSupport,0
;   supportExtruder,0
;   supportInfillPercentage,30
;   supportExtraInflation,0
;   denseSupportLayers,0
;   denseSupportInfillPercentage,75
;   supportLayerInterval,1
;   supportHorizontalPartOffset,1.5
;   supportUpperSeparationLayers,2
;   supportLowerSeparationLayers,2
;   supportType,0
;   supportGridSpacing,4
;   maxOverhangAngle,45
;   supportAngles,45
;   temperatureName,Primary Extruder
;   temperatureNumber,0
;   temperatureSetpointCount,3
;   temperatureSetpointLayers,1,2,3
;   temperatureSetpointTemperatures,207,199,192
;   temperatureStabilizeAtStartup,1
;   temperatureHeatedBed,0
;   temperatureRelayBetweenLayers,0
;   temperatureRelayBetweenLoops,0
;   fanLayers,1,4
;   fanSpeeds,0,100
;   blipFanToFullPower,0
;   adjustSpeedForCooling,1
;   minSpeedLayerTime,15
;   minCoolingSpeedSlowdown,20
;   increaseFanForCooling,0
;   minFanLayerTime,45
;   maxCoolingFanSpeed,100
;   increaseFanForBridging,0
;   bridgingFanSpeed,100
;   use5D,1
;   relativeEdistances,0
;   allowEaxisZeroing,1
;   independentExtruderAxes,0
;   includeM10123,0
;   stickySupport,1
;   applyToolheadOffsets,0
;   gcodeXoffset,0
;   gcodeYoffset,0
;   gcodeZoffset,0
;   overrideMachineDefinition,1
;   machineTypeOverride,0
;   strokeXoverride,150
;   strokeYoverride,150
;   strokeZoverride,150
;   originOffsetXoverride,0
;   originOffsetYoverride,0
;   originOffsetZoverride,0
;   homeXdirOverride,-1
;   homeYdirOverride,-1
;   homeZdirOverride,-1
;   flipXoverride,1
;   flipYoverride,-1
;   flipZoverride,1
;   toolheadOffsets,0,0|0,0|0,0|0,0|0,0|0,0
;   overrideFirmwareConfiguration,0
;   firmwareTypeOverride,RepRap (Marlin/Repetier/Sprinter)
;   GPXconfigOverride,r2
;   baudRateOverride,115200
;   overridePrinterModels,0
;   printerModelsOverride
;   startingGcode,G28 ; home all axes
;   layerChangeGcode,
;   retractionGcode,
;   toolChangeGcode,
;   endingGcode,M104 S0 ; turn off extruder,M140 S0 ; turn off bed,G28 X0  ; home X axis,G28 Y0  ; home Y axis,M84 ; disable motors,M107
;   createX3G,0
;   celebration,0
;   celebrationSong,Random Song
;   createMB5G,0
;   postProcessing,
;   defaultSpeed,2400
;   outlineUnderspeed,0.5
;   solidInfillUnderspeed,0.8
;   supportUnderspeed,0.8
;   rapidXYspeed,3500
;   rapidZspeed,1000
;   minBridgingArea,50
;   bridgingExtraInflation,0
;   bridgingExtrusionMultiplier,1
;   bridgingSpeedMultiplier,1
;   filamentDiameter,1.75
;   filamentPricePerKg,46
;   filamentDensity,1.25
;   useMinPrintHeight,0
;   minPrintHeight,0
;   useMaxPrintHeight,0
;   maxPrintHeight,0
;   useDiaphragm,0
;   diaphragmLayerInterval,20
;   robustSlicing,1
;   mergeAllIntoSolid,0
;   onlyRetractWhenCrossingOutline,1
;   retractBetweenLayers,1
;   useRetractionMinTravel,0
;   retractionMinTravel,3
;   retractWhileWiping,0
;   onlyWipeOutlines,1
;   avoidCrossingOutline,0
;   maxMovementDetourFactor,10
;   toolChangeRetractionDistance,0
;   toolChangeExtraRestartDistance,0
;   toolChangeRetractionSpeed,360
;   allowThinWallGapFill,1
;   thinWallAllowedOverlapPercentage,10
;   horizontalSizeCompensation,0
G90
M82
M106 S0
M104 S207 T0
M109 S207 T0
G28 ; home all axes
G92 E0
G1 E-6.5000 F5000
G1 Z0.150 F1000
; layer 1, Z = 0.15
T0
; tool H0.150 W0.490
; skirt
G1 X52.895 Y17.976 F3500
G1 E0.0000 F1500
G92 E0
G1 X53.112 Y17.418 E0.0165 F720
G1 X53.135 Y17.365 E0.0181
G1 X53.246 Y17.144 E0.0248
G1 X53.274 Y17.094 E0.0264
G1 X53.698 Y16.416 E0.0484
G1 X53.739 Y16.358 E0.0504
G1 X53.929 Y16.121 E0.0587
G1 X53.976 Y16.068 E0.0607
G1 X54.543 Y15.508 E0.0826
G1 X54.588 Y15.467 E0.0843
G1 X54.744 Y15.341 E0.0898
G1 X54.744 Y15.006 E0.0990
G1 X54.746 Y14.967 E0.1001
G1 X54.756 Y14.803 E0.1046
G1 X54.760 Y14.764 E0.1057
G1 X54.817 Y14.316 E0.1181
G1 X54.831 Y14.243 E0.1201
G1 X54.909 Y13.934 E0.1289
G1 X54.932 Y13.863 E0.1310
G1 X55.123 Y13.372 E0.1454
G1 X55.153 Y13.306 E0.1474
G1 X55.299 Y13.032 E0.1560
G1 X55.337 Y12.970 E0.1580
G1 X55.633 Y12.544 E0.1723
G1 X55.676 Y12.489 E0.1742
G1 X55.873 Y12.265 E0.1824
G1 X55.922 Y12.215 E0.1843
G1 X56.302 Y11.872 E0.1984
G1 X56.355 Y11.830 E0.2002
G1 X56.586 Y11.662 E0.2081
G1 X56.643 Y11.626 E0.2099
G1 X57.082 Y11.377 E0.2238
G1 X57.140 Y11.348 E0.2256
G1 X57.393 Y11.237 E0.2332
G1 X57.454 Y11.215 E0.2350
G1 X57.929 Y11.065 E0.2487
G1 X57.989 Y11.049 E0.2504
G1 X58.249 Y10.996 E0.2577
G1 X58.311 Y10.986 E0.2594
G1 X58.735 Y10.943 E0.2711
G1 X58.766 Y10.940 E0.2720
G1 X58.899 Y10.933 E0.2757
G1 X58.931 Y10.933 E0.2765
G1 X64.154 Y10.933 E0.4202
G1 X64.187 Y10.934 E0.4211
G1 X64.328 Y10.942 E0.4250
G1 X64.361 Y10.944 E0.4259
G1 X64.791 Y10.991 E0.4378
G1 X64.855 Y11.001 E0.4395
G1 X65.125 Y11.060 E0.4471
G1 X65.187 Y11.077 E0.4489
G1 X65.663 Y11.234 E0.4627
G1 X65.724 Y11.258 E0.4645
G1 X65.980 Y11.375 E0.4723
G1 X66.039 Y11.405 E0.4741
G1 X66.473 Y11.662 E0.4879
G1 X66.529 Y11.700 E0.4898
G1 X66.760 Y11.873 E0.4977
G1 X66.812 Y11.917 E0.4996
G1 X67.183 Y12.266 E0.5136
G1 X67.231 Y12.317 E0.5155
G1 X67.423 Y12.544 E0.5237
G1 X67.464 Y12.599 E0.5256
G1 X67.750 Y13.028 E0.5398
G1 X67.786 Y13.090 E0.5418
G1 X67.925 Y13.362 E0.5502
G1 X67.954 Y13.427 E0.5521
G1 X68.133 Y13.912 E0.5664
G1 X68.154 Y13.981 E0.5683
G1 X68.226 Y14.279 E0.5768
G1 X68.239 Y14.350 E0.5787
G1 X68.292 Y14.785 E0.5908
G1 X68.295 Y14.822 E0.5918
G1 X68.304 Y14.978 E0.5961
G1 X68.305 Y15.015 E0.5971
G1 X68.305 Y24.124 E0.8477
G1 X68.304 Y24.156 E0.8485
G1 X68.297 Y24.291 E0.8522
G1 X68.295 Y24.323 E0.8531
G1 X68.248 Y24.770 E0.8655
G1 X68.239 Y24.832 E0.8672
G1 X68.185 Y25.092 E0.8745
G1 X68.169 Y25.152 E0.8762
G1 X68.013 Y25.645 E0.8904
G1 X67.990 Y25.705 E0.8922
G1 X67.881 Y25.955 E0.8997
G1 X67.852 Y26.012 E0.9015
G1 X67.595 Y26.466 E0.9158
G1 X67.559 Y26.523 E0.9177
G1 X67.392 Y26.754 E0.9255
G1 X67.350 Y26.806 E0.9273
G1 X66.996 Y27.199 E0.9419
G1 X66.946 Y27.248 E0.9438
G1 X66.722 Y27.446 E0.9521
G1 X66.667 Y27.489 E0.9540
G1 X66.225 Y27.796 E0.9688
G1 X66.163 Y27.835 E0.9708
G1 X65.886 Y27.982 E0.9794
G1 X65.820 Y28.012 E0.9814
G1 X65.314 Y28.208 E0.9963
G1 X65.242 Y28.230 E0.9984
G1 X64.933 Y28.308 E1.0071
G1 X64.860 Y28.322 E1.0092
G1 X64.401 Y28.380 E1.0219
G1 X64.363 Y28.383 E1.0230
G1 X64.200 Y28.394 E1.0275
G1 X64.162 Y28.395 E1.0285
G1 X58.912 Y28.394 E1.1729
G1 X58.874 Y28.393 E1.1740
G1 X58.710 Y28.383 E1.1785
G1 X58.672 Y28.379 E1.1795
G1 X58.206 Y28.320 E1.1924
G1 X58.133 Y28.307 E1.1945
G1 X57.827 Y28.230 E1.2031
G1 X57.757 Y28.208 E1.2052
G1 X57.249 Y28.013 E1.2201
G1 X57.183 Y27.983 E1.2221
G1 X56.910 Y27.840 E1.2306
G1 X56.848 Y27.802 E1.2326
G1 X56.404 Y27.497 E1.2474
G1 X56.349 Y27.454 E1.2493
G1 X56.125 Y27.259 E1.2575
G1 X56.075 Y27.210 E1.2594
G1 X55.715 Y26.817 E1.2741
G1 X55.673 Y26.765 E1.2759
G1 X55.503 Y26.533 E1.2838
G1 X55.467 Y26.477 E1.2857
G1 X55.204 Y26.020 E1.3002
G1 X55.175 Y25.962 E1.3020
G1 X55.062 Y25.707 E1.3096
G1 X55.039 Y25.646 E1.3114
G1 X54.881 Y25.150 E1.3257
G1 X54.865 Y25.089 E1.3275
G1 X54.810 Y24.826 E1.3348
G1 X54.800 Y24.764 E1.3366
G1 X54.754 Y24.319 E1.3489
G1 X54.752 Y24.287 E1.3497
G1 X54.745 Y24.153 E1.3534
G1 X54.744 Y24.130 E1.3541
G1 X54.651 Y24.057 E1.3573
G1 X54.613 Y24.026 E1.3587
G1 X54.207 Y23.653 E1.3738
G1 X54.173 Y23.620 E1.3752
G1 X54.034 Y23.470 E1.3808
G1 X54.002 Y23.433 E1.3821
G1 X53.644 Y22.983 E1.3979
G1 X53.610 Y22.936 E1.3995
G1 X53.473 Y22.726 E1.4064
G1 X53.444 Y22.675 E1.4080
G1 X53.086 Y21.988 E1.4293
G1 X53.061 Y21.936 E1.4309
G1 X52.969 Y21.710 E1.4376
G1 X52.950 Y21.656 E1.4392
G1 X52.784 Y21.106 E1.4550
G1 X52.772 Y21.062 E1.4563
G1 X52.730 Y20.874 E1.4616
G1 X52.722 Y20.829 E1.4628
G1 X52.642 Y20.286 E1.4779
G1 X52.637 Y20.241 E1.4792
G1 X52.623 Y20.050 E1.4844
G1 X52.622 Y20.005 E1.4857
G1 X52.622 Y19.431 E1.5015
G1 X52.625 Y19.375 E1.5030
G1 X52.647 Y19.136 E1.5096
G1 X52.655 Y19.080 E1.5111
G1 X52.798 Y18.318 E1.5325
G1 X52.811 Y18.263 E1.5340
G1 X52.877 Y18.030 E1.5407
G1 X52.895 Y17.976 E1.5423
G1 X53.356 Y18.143 F3500
G92 E0
G1 X53.564 Y17.606 E0.0158 F720
G1 X53.578 Y17.574 E0.0168
G1 X53.679 Y17.374 E0.0229
G1 X53.696 Y17.344 E0.0239
G1 X54.106 Y16.688 E0.0452
G1 X54.131 Y16.653 E0.0464
G1 X54.302 Y16.438 E0.0539
G1 X54.331 Y16.407 E0.0551
G1 X54.879 Y15.865 E0.0763
G1 X54.906 Y15.841 E0.0773
G1 X55.090 Y15.691 E0.0838
G1 X55.120 Y15.670 E0.0848
G1 X55.234 Y15.595 E0.0886
G1 X55.234 Y15.014 E0.1045
G1 X55.235 Y14.991 E0.1052
G1 X55.245 Y14.842 E0.1093
G1 X55.247 Y14.819 E0.1099
G1 X55.301 Y14.393 E0.1217
G1 X55.309 Y14.349 E0.1230
G1 X55.381 Y14.069 E0.1309
G1 X55.394 Y14.026 E0.1321
G1 X55.574 Y13.563 E0.1458
G1 X55.592 Y13.523 E0.1470
G1 X55.724 Y13.275 E0.1547
G1 X55.747 Y13.238 E0.1559
G1 X56.028 Y12.835 E0.1694
G1 X56.054 Y12.802 E0.1706
G1 X56.232 Y12.599 E0.1780
G1 X56.261 Y12.569 E0.1792
G1 X56.621 Y12.244 E0.1925
G1 X56.652 Y12.219 E0.1936
G1 X56.862 Y12.067 E0.2007
G1 X56.896 Y12.046 E0.2018
G1 X57.313 Y11.809 E0.2150
G1 X57.348 Y11.792 E0.2161
G1 X57.577 Y11.692 E0.2230
G1 X57.613 Y11.678 E0.2240
G1 X58.065 Y11.536 E0.2370
G1 X58.101 Y11.527 E0.2381
G1 X58.336 Y11.478 E0.2447
G1 X58.373 Y11.472 E0.2457
G1 X58.779 Y11.431 E0.2569
G1 X58.797 Y11.429 E0.2574
G1 X58.918 Y11.423 E0.2608
G1 X58.937 Y11.423 E0.2613
G1 X64.147 Y11.423 E0.4046
G1 X64.167 Y11.424 E0.4051
G1 X64.295 Y11.430 E0.4086
G1 X64.315 Y11.432 E0.4092
G1 X64.725 Y11.477 E0.4205
G1 X64.763 Y11.483 E0.4216
G1 X65.008 Y11.536 E0.4285
G1 X65.046 Y11.546 E0.4296
G1 X65.497 Y11.695 E0.4426
G1 X65.533 Y11.710 E0.4437
G1 X65.765 Y11.815 E0.4507
G1 X65.800 Y11.833 E0.4518
G1 X66.212 Y12.077 E0.4650
G1 X66.246 Y12.100 E0.4661
G1 X66.455 Y12.257 E0.4733
G1 X66.486 Y12.283 E0.4744
G1 X66.837 Y12.613 E0.4876
G1 X66.865 Y12.644 E0.4888
G1 X67.039 Y12.849 E0.4962
G1 X67.065 Y12.883 E0.4974
G1 X67.335 Y13.288 E0.5107
G1 X67.356 Y13.325 E0.5119
G1 X67.482 Y13.571 E0.5195
G1 X67.499 Y13.611 E0.5207
G1 X67.669 Y14.069 E0.5341
G1 X67.681 Y14.110 E0.5353
G1 X67.747 Y14.381 E0.5430
G1 X67.754 Y14.423 E0.5442
G1 X67.804 Y14.837 E0.5556
G1 X67.806 Y14.859 E0.5562
G1 X67.815 Y15.000 E0.5601
G1 X67.815 Y15.022 E0.5607
G1 X67.815 Y24.118 E0.8109
G1 X67.815 Y24.137 E0.8114
G1 X67.808 Y24.259 E0.8148
G1 X67.807 Y24.278 E0.8153
G1 X67.762 Y24.707 E0.8272
G1 X67.756 Y24.744 E0.8282
G1 X67.707 Y24.980 E0.8348
G1 X67.698 Y25.016 E0.8358
G1 X67.550 Y25.484 E0.8494
G1 X67.536 Y25.520 E0.8504
G1 X67.437 Y25.748 E0.8572
G1 X67.420 Y25.782 E0.8583
G1 X67.175 Y26.213 E0.8719
G1 X67.154 Y26.247 E0.8730
G1 X67.003 Y26.456 E0.8801
G1 X66.978 Y26.488 E0.8812
G1 X66.641 Y26.860 E0.8950
G1 X66.612 Y26.890 E0.8962
G1 X66.408 Y27.069 E0.9036
G1 X66.375 Y27.095 E0.9048
G1 X65.957 Y27.386 E0.9188
G1 X65.920 Y27.409 E0.9200
G1 X65.669 Y27.542 E0.9278
G1 X65.629 Y27.560 E0.9290
G1 X65.151 Y27.745 E0.9431
G1 X65.108 Y27.759 E0.9444
G1 X64.828 Y27.829 E0.9523
G1 X64.784 Y27.838 E0.9535
G1 X64.348 Y27.893 E0.9656
G1 X64.325 Y27.895 E0.9663
G1 X64.177 Y27.904 E0.9703
G1 X64.154 Y27.905 E0.9710
G1 X58.920 Y27.904 E1.1149
G1 X58.897 Y27.904 E1.1156
G1 X58.749 Y27.894 E1.1196
G1 X58.726 Y27.892 E1.1203
G1 X58.282 Y27.836 E1.1326
G1 X58.238 Y27.828 E1.1338
G1 X57.961 Y27.758 E1.1417
G1 X57.918 Y27.745 E1.1429
G1 X57.438 Y27.560 E1.1570
G1 X57.398 Y27.543 E1.1582
G1 X57.151 Y27.413 E1.1659
G1 X57.114 Y27.390 E1.1671
G1 X56.693 Y27.101 E1.1811
G1 X56.660 Y27.075 E1.1823
G1 X56.457 Y26.898 E1.1897
G1 X56.427 Y26.869 E1.1909
G1 X56.086 Y26.496 E1.2048
G1 X56.060 Y26.465 E1.2059
G1 X55.907 Y26.255 E1.2130
G1 X55.885 Y26.221 E1.2141
G1 X55.635 Y25.787 E1.2279
G1 X55.618 Y25.752 E1.2290
G1 X55.516 Y25.522 E1.2359
G1 X55.502 Y25.485 E1.2370
G1 X55.352 Y25.013 E1.2506
G1 X55.342 Y24.976 E1.2517
G1 X55.292 Y24.738 E1.2583
G1 X55.287 Y24.701 E1.2594
G1 X55.242 Y24.275 E1.2712
G1 X55.241 Y24.256 E1.2717
G1 X55.235 Y24.134 E1.2750
G1 X55.234 Y24.115 E1.2756
G1 X55.234 Y23.877 E1.2821
G1 X55.133 Y23.811 E1.2854
G1 X55.109 Y23.793 E1.2862
G1 X54.960 Y23.677 E1.2915
G1 X54.937 Y23.658 E1.2923
G1 X54.545 Y23.299 E1.3069
G1 X54.525 Y23.278 E1.3077
G1 X54.398 Y23.143 E1.3128
G1 X54.380 Y23.121 E1.3136
G1 X54.035 Y22.687 E1.3288
G1 X54.014 Y22.659 E1.3298
G1 X53.891 Y22.469 E1.3360
G1 X53.873 Y22.438 E1.3370
G1 X53.525 Y21.772 E1.3576
G1 X53.511 Y21.741 E1.3586
G1 X53.427 Y21.535 E1.3647
G1 X53.416 Y21.503 E1.3656
G1 X53.255 Y20.973 E1.3809
G1 X53.249 Y20.947 E1.3816
G1 X53.210 Y20.776 E1.3864
G1 X53.206 Y20.749 E1.3872
G1 X53.128 Y20.224 E1.4018
G1 X53.125 Y20.197 E1.4025
G1 X53.113 Y20.023 E1.4073
G1 X53.112 Y19.996 E1.4080
G1 X53.112 Y19.443 E1.4233
G1 X53.114 Y19.409 E1.4242
G1 X53.134 Y19.193 E1.4302
G1 X53.139 Y19.159 E1.4311
G1 X53.277 Y18.419 E1.4518
G1 X53.285 Y18.386 E1.4527
G1 X53.345 Y18.175 E1.4588
G1 X53.356 Y18.143 E1.4597
G1 X53.817 Y18.309 F3500
G92 E0
G1 X54.017 Y17.794 E0.0152 F720
G1 X54.022 Y17.783 E0.0155
G1 X54.111 Y17.604 E0.0210
G1 X54.117 Y17.594 E0.0214
G1 X54.514 Y16.960 E0.0419
G1 X54.522 Y16.948 E0.0423
G1 X54.676 Y16.756 E0.0491
G1 X54.686 Y16.745 E0.0495
G1 X55.214 Y16.222 E0.0699
G1 X55.223 Y16.214 E0.0703
G1 X55.389 Y16.080 E0.0761
G1 X55.399 Y16.073 E0.0765
G1 X55.724 Y15.860 E0.0872
G1 X55.724 Y15.022 E0.1102
G1 X55.725 Y15.014 E0.1104
G1 X55.733 Y14.881 E0.1141
G1 X55.734 Y14.873 E0.1143
G1 X55.785 Y14.470 E0.1255
G1 X55.788 Y14.455 E0.1259
G1 X55.852 Y14.204 E0.1330
G1 X55.856 Y14.190 E0.1334
G1 X56.026 Y13.754 E0.1463
G1 X56.032 Y13.741 E0.1467
G1 X56.150 Y13.519 E0.1536
G1 X56.158 Y13.506 E0.1540
G1 X56.422 Y13.126 E0.1667
G1 X56.431 Y13.115 E0.1671
G1 X56.591 Y12.934 E0.1738
G1 X56.600 Y12.924 E0.1742
G1 X56.940 Y12.617 E0.1868
G1 X56.950 Y12.608 E0.1871
G1 X57.138 Y12.472 E0.1935
G1 X57.150 Y12.465 E0.1939
G1 X57.544 Y12.242 E0.2063
G1 X57.555 Y12.236 E0.2067
G1 X57.761 Y12.146 E0.2129
G1 X57.773 Y12.142 E0.2132
G1 X58.200 Y12.007 E0.2255
G1 X58.212 Y12.004 E0.2259
G1 X58.423 Y11.960 E0.2318
G1 X58.436 Y11.958 E0.2321
G1 X58.822 Y11.919 E0.2428
G1 X58.829 Y11.918 E0.2430
G1 X58.937 Y11.913 E0.2460
G1 X58.943 Y11.913 E0.2462
G1 X64.141 Y11.913 E0.3891
G1 X64.147 Y11.913 E0.3893
G1 X64.262 Y11.919 E0.3924
G1 X64.268 Y11.920 E0.3926
G1 X64.659 Y11.962 E0.4034
G1 X64.672 Y11.964 E0.4038
