; G-Code generated by Simplify3D(R) Version 3.0.0
; Sep 8, 2017 at 11:18:32 
; Settings Summary
;   processName,Process1
;   applyToModels,halterung5,stoepsel,stoepsel(2),halterung5(2)
;   profileName,juli (modified)
;   profileVersion,2017-06-09 12:06:14
;   baseProfile,German RepRap NEO (modified)
;   printMaterial,
;   printQuality,
;   printExtruders,
;   extruderName,Primary Extruder
;   extruderToolheadNumber,0
;   extruderDiameter,0.5
;   extruderAutoWidth,0
;   extruderWidth,0.49
;   extrusionMultiplier,0.9
;   extruderUseRetract,1
;   extruderRetractionDistance,6.5
;   extruderExtraRestartDistance,0
;   extruderRetractionZLift,0
;   extruderRetractionSpeed,5000
;   extruderUseCoasting,0
;   extruderCoastingDistance,0.2
;   extruderUseWipe,0
;   extruderWipeDistance,5
;   primaryExtruder,0
;   layerHeight,0.3
;   topSolidLayers,4
;   bottomSolidLayers,3
;   perimeterOutlines,3
;   printPerimetersInsideOut,1
;   startPointOption,2
;   startPointOriginX,0
;   startPointOriginY,0
;   startPointOriginZ,300
;   sequentialIslands,0
;   spiralVaseMode,0
;   firstLayerHeightPercentage,140
;   firstLayerWidthPercentage,100
;   firstLayerUnderspeed,0.3
;   useRaft,0
;   raftExtruder,0
;   raftLayers,3
;   raftOffset,3
;   raftSeparationDistance,0.1
;   raftInfill,85
;   disableRaftBaseLayers,0
;   useSkirt,1
;   skirtExtruder,0
;   skirtLayers,1
;   skirtOutlines,1
;   skirtOffset,3
;   usePrimePillar,0
;   primePillarExtruder,999
;   primePillarWidth,12
;   primePillarLocation,7
;   primePillarSpeedMultiplier,1
;   useOozeShield,0
;   oozeShieldExtruder,999
;   oozeShieldOffset,2
;   oozeShieldOutlines,1
;   oozeShieldSidewallShape,1
;   oozeShieldSidewallAngle,30
;   oozeShieldSpeedMultiplier,1
;   infillExtruder,0
;   internalInfillPattern,Full Honeycomb
;   externalInfillPattern,Rectilinear
;   infillPercentage,20
;   outlineOverlapPercentage,15
;   infillExtrusionWidthPercentage,100
;   minInfillLength,3
;   infillLayerInterval,1
;   infillAngles,0,120,-120
;   overlapInfillAngles,0
;   generateSupport,1
;   supportExtruder,0
;   supportInfillPercentage,30
;   supportExtraInflation,0
;   denseSupportLayers,0
;   denseSupportInfillPercentage,75
;   supportLayerInterval,1
;   supportHorizontalPartOffset,1.5
;   supportUpperSeparationLayers,2
;   supportLowerSeparationLayers,2
;   supportType,0
;   supportGridSpacing,4
;   maxOverhangAngle,45
;   supportAngles,45
;   temperatureName,Primary Extruder
;   temperatureNumber,0
;   temperatureSetpointCount,3
;   temperatureSetpointLayers,1,2,3
;   temperatureSetpointTemperatures,207,199,192
;   temperatureStabilizeAtStartup,1
;   temperatureHeatedBed,0
;   temperatureRelayBetweenLayers,0
;   temperatureRelayBetweenLoops,0
;   fanLayers,1,4
;   fanSpeeds,0,100
;   blipFanToFullPower,0
;   adjustSpeedForCooling,1
;   minSpeedLayerTime,15
;   minCoolingSpeedSlowdown,20
;   increaseFanForCooling,0
;   minFanLayerTime,45
;   maxCoolingFanSpeed,100
;   increaseFanForBridging,0
;   bridgingFanSpeed,100
;   use5D,1
;   relativeEdistances,0
;   allowEaxisZeroing,1
;   independentExtruderAxes,0
;   includeM10123,0
;   stickySupport,1
;   applyToolheadOffsets,0
;   gcodeXoffset,0
;   gcodeYoffset,0
;   gcodeZoffset,0
;   overrideMachineDefinition,1
;   machineTypeOverride,0
;   strokeXoverride,150
;   strokeYoverride,150
;   strokeZoverride,150
;   originOffsetXoverride,0
;   originOffsetYoverride,0
;   originOffsetZoverride,0
;   homeXdirOverride,-1
;   homeYdirOverride,-1
;   homeZdirOverride,-1
;   flipXoverride,1
;   flipYoverride,-1
;   flipZoverride,1
;   toolheadOffsets,0,0|0,0|0,0|0,0|0,0|0,0
;   overrideFirmwareConfiguration,0
;   firmwareTypeOverride,RepRap (Marlin/Repetier/Sprinter)
;   GPXconfigOverride,r2
;   baudRateOverride,115200
;   overridePrinterModels,0
;   printerModelsOverride
;   startingGcode,G28 ; home all axes
;   layerChangeGcode,
;   retractionGcode,
;   toolChangeGcode,
;   endingGcode,M104 S0 ; turn off extruder,M140 S0 ; turn off bed,G28 X0  ; home X axis,G28 Y0  ; home Y axis,M84 ; disable motors,M107
;   createX3G,0
;   celebration,0
;   celebrationSong,Random Song
;   createMB5G,0
;   postProcessing,
;   defaultSpeed,2400
;   outlineUnderspeed,0.5
;   solidInfillUnderspeed,0.8
;   supportUnderspeed,0.8
;   rapidXYspeed,3500
;   rapidZspeed,1000
;   minBridgingArea,50
;   bridgingExtraInflation,0
;   bridgingExtrusionMultiplier,1
;   bridgingSpeedMultiplier,1
;   filamentDiameter,1.75
;   filamentPricePerKg,46
;   filamentDensity,1.25
;   useMinPrintHeight,0
;   minPrintHeight,0
;   useMaxPrintHeight,0
;   maxPrintHeight,0
;   useDiaphragm,0
;   diaphragmLayerInterval,20
;   robustSlicing,1
;   mergeAllIntoSolid,0
;   onlyRetractWhenCrossingOutline,1
;   retractBetweenLayers,1
;   useRetractionMinTravel,0
;   retractionMinTravel,3
;   retractWhileWiping,0
;   onlyWipeOutlines,1
;   avoidCrossingOutline,0
;   maxMovementDetourFactor,10
;   toolChangeRetractionDistance,0
;   toolChangeExtraRestartDistance,0
;   toolChangeRetractionSpeed,360
;   allowThinWallGapFill,1
;   thinWallAllowedOverlapPercentage,10
;   horizontalSizeCompensation,0
G90
M82
M106 S0
M104 S207 T0
M109 S207 T0
G28 ; home all axes
G92 E0
G1 E-6.5000 F5000
G1 Z0.420 F1000
; layer 1, Z = 0.42
T0
; tool H0.420 W0.490
; skirt
G1 X69.237 Y6.564 F3500
G1 E0.0000 F1500
G92 E0
G1 X71.063 Y4.738 E0.1989 F720
G1 X71.153 Y4.700 E0.2064
G1 X78.774 Y4.700 E0.7933
G1 X78.864 Y4.738 E0.8008
G1 X80.691 Y6.564 E0.9997
G1 X80.728 Y6.654 E1.0072
G1 X80.728 Y20.035 E2.0375
G1 X81.090 Y19.986 E2.0657
G1 X81.106 Y19.985 E2.0669
G1 X82.237 Y19.985 E2.1540
G1 X82.253 Y19.986 E2.1552
G1 X82.649 Y20.037 E2.1859
G1 X82.664 Y20.040 E2.1871
G1 X83.789 Y20.333 E2.2767
G1 X83.817 Y20.344 E2.2790
G1 X84.487 Y20.709 E2.3378
G1 X84.512 Y20.726 E2.3401
G1 X85.378 Y21.520 E2.4306
G1 X85.389 Y21.531 E2.4318
G1 X85.516 Y21.681 E2.4469
G1 X85.516 Y6.163 E3.6419
G1 X85.553 Y6.073 E3.6494
G1 X87.379 Y4.247 E3.8483
G1 X87.469 Y4.209 E3.8558
G1 X95.091 Y4.209 E4.4427
G1 X95.181 Y4.247 E4.4502
G1 X97.007 Y6.073 E4.6490
G1 X97.044 Y6.163 E4.6566
G1 X97.044 Y19.543 E5.6869
G1 X97.406 Y19.495 E5.7151
G1 X97.423 Y19.494 E5.7163
G1 X98.554 Y19.494 E5.8034
G1 X98.569 Y19.495 E5.8046
G1 X98.965 Y19.546 E5.8353
G1 X98.980 Y19.548 E5.8365
G1 X100.105 Y19.842 E5.9261
G1 X100.133 Y19.853 E5.9284
G1 X100.803 Y20.218 E5.9872
G1 X100.828 Y20.235 E5.9895
G1 X101.694 Y21.029 E6.0800
G1 X101.705 Y21.040 E6.0812
G1 X101.963 Y21.345 E6.1119
G1 X101.972 Y21.358 E6.1131
G1 X102.680 Y22.452 E6.2135
G1 X102.695 Y22.484 E6.2162
G1 X102.950 Y23.349 E6.2856
G1 X102.955 Y23.384 E6.2884
G1 X102.955 Y41.420 E7.6773
G1 X102.955 Y41.425 E7.6776
G1 X102.951 Y41.530 E7.6857
G1 X102.951 Y41.534 E7.6860
G1 X102.845 Y43.106 E7.8073
G1 X102.844 Y43.113 E7.8079
G1 X102.818 Y43.313 E7.8234
G1 X102.816 Y43.321 E7.8240
G1 X102.540 Y44.709 E7.9330
G1 X102.533 Y44.732 E7.9349
G1 X102.298 Y45.300 E7.9822
G1 X102.287 Y45.322 E7.9841
G1 X101.385 Y46.670 E8.1090
G1 X101.370 Y46.689 E8.1109
G1 X100.935 Y47.124 E8.1582
G1 X100.917 Y47.139 E8.1601
G1 X99.708 Y47.946 E8.2720
G1 X99.967 Y48.159 E8.2977
G1 X99.976 Y48.167 E8.2986
G1 X100.193 Y48.384 E8.3223
G1 X100.201 Y48.392 E8.3232
G1 X100.785 Y49.104 E8.3941
G1 X100.792 Y49.114 E8.3950
G1 X100.962 Y49.369 E8.4186
G1 X100.968 Y49.379 E8.4195
G1 X101.402 Y50.191 E8.4904
G1 X101.407 Y50.202 E8.4913
G1 X101.525 Y50.485 E8.5150
G1 X101.529 Y50.496 E8.5159
G1 X101.796 Y51.377 E8.5868
G1 X101.799 Y51.389 E8.5877
G1 X101.859 Y51.690 E8.6113
G1 X101.861 Y51.702 E8.6122
G1 X101.951 Y52.618 E8.6831
G1 X101.951 Y52.630 E8.6840
G1 X101.951 Y52.936 E8.7077
G1 X101.951 Y52.948 E8.7086
G1 X101.861 Y53.864 E8.7795
G1 X101.859 Y53.876 E8.7804
G1 X101.799 Y54.177 E8.8040
G1 X101.796 Y54.189 E8.8049
G1 X101.529 Y55.070 E8.8758
G1 X101.525 Y55.081 E8.8767
G1 X101.407 Y55.364 E8.9004
G1 X101.402 Y55.375 E8.9013
G1 X100.968 Y56.187 E8.9722
G1 X100.962 Y56.197 E8.9731
G1 X100.792 Y56.452 E8.9967
G1 X100.785 Y56.462 E8.9977
G1 X100.201 Y57.173 E9.0685
G1 X100.193 Y57.182 E9.0695
G1 X99.976 Y57.399 E9.0931
G1 X99.967 Y57.407 E9.0940
G1 X99.255 Y57.991 E9.1649
G1 X99.246 Y57.998 E9.1658
G1 X98.991 Y58.169 E9.1894
G1 X98.980 Y58.175 E9.1904
G1 X98.169 Y58.609 E9.2612
G1 X98.158 Y58.614 E9.2622
G1 X97.874 Y58.731 E9.2858
G1 X97.863 Y58.736 E9.2867
G1 X96.982 Y59.003 E9.3576
G1 X96.970 Y59.006 E9.3585
G1 X96.670 Y59.065 E9.3821
G1 X96.658 Y59.067 E9.3831
G1 X95.742 Y59.157 E9.4539
G1 X95.730 Y59.158 E9.4549
G1 X95.423 Y59.158 E9.4785
G1 X95.411 Y59.157 E9.4794
G1 X94.495 Y59.067 E9.5503
G1 X94.483 Y59.065 E9.5512
G1 X94.182 Y59.006 E9.5748
G1 X94.170 Y59.003 E9.5758
G1 X93.290 Y58.736 E9.6466
G1 X93.278 Y58.731 E9.6476
G1 X92.995 Y58.614 E9.6712
G1 X92.984 Y58.609 E9.6721
G1 X92.172 Y58.175 E9.7430
G1 X92.162 Y58.169 E9.7439
G1 X91.907 Y57.998 E9.7676
G1 X91.897 Y57.991 E9.7685
G1 X91.186 Y57.407 E9.8394
G1 X91.177 Y57.399 E9.8403
G1 X90.960 Y57.182 E9.8639
G1 X90.952 Y57.173 E9.8648
G1 X90.368 Y56.462 E9.9357
G1 X90.361 Y56.452 E9.9366
G1 X90.190 Y56.197 E9.9603
G1 X90.184 Y56.187 E9.9612
G1 X89.750 Y55.375 E10.0321
G1 X89.745 Y55.364 E10.0330
G1 X89.628 Y55.081 E10.0566
G1 X89.624 Y55.070 E10.0575
G1 X89.357 Y54.189 E10.1284
G1 X89.354 Y54.177 E10.1293
G1 X89.294 Y53.876 E10.1530
G1 X89.292 Y53.864 E10.1539
G1 X89.202 Y52.948 E10.2248
G1 X89.201 Y52.936 E10.2257
G1 X89.201 Y52.630 E10.2493
G1 X89.202 Y52.618 E10.2502
G1 X89.292 Y51.702 E10.3211
G1 X89.294 Y51.690 E10.3220
G1 X89.354 Y51.389 E10.3457
G1 X89.357 Y51.377 E10.3466
G1 X89.624 Y50.496 E10.4175
G1 X89.628 Y50.485 E10.4184
G1 X89.745 Y50.202 E10.4420
G1 X89.750 Y50.191 E10.4429
G1 X90.184 Y49.379 E10.5138
G1 X90.190 Y49.369 E10.5148
G1 X90.361 Y49.114 E10.5384
G1 X90.368 Y49.104 E10.5393
G1 X90.800 Y48.578 E10.5917
G1 X89.369 Y48.295 E10.7040
G1 X89.346 Y48.288 E10.7059
G1 X88.776 Y48.052 E10.7533
G1 X88.755 Y48.041 E10.7552
G1 X87.406 Y47.139 E10.8802
G1 X87.387 Y47.124 E10.8820
G1 X86.952 Y46.689 E10.9294
G1 X86.937 Y46.670 E10.9312
G1 X86.123 Y45.452 E11.0441
G1 X85.982 Y45.791 E11.0724
G1 X85.970 Y45.813 E11.0743
G1 X85.069 Y47.161 E11.1992
G1 X85.054 Y47.180 E11.2011
G1 X84.619 Y47.615 E11.2484
G1 X84.600 Y47.630 E11.2503
G1 X83.252 Y48.531 E11.3752
G1 X83.230 Y48.543 E11.3770
G1 X83.137 Y48.581 E11.3848
G1 X83.520 Y49.299 E11.4474
G1 X83.525 Y49.309 E11.4484
G1 X83.643 Y49.593 E11.4720
G1 X83.647 Y49.604 E11.4729
G1 X83.914 Y50.485 E11.5438
G1 X83.917 Y50.497 E11.5447
G1 X83.977 Y50.797 E11.5683
G1 X83.978 Y50.809 E11.5693
G1 X84.069 Y51.725 E11.6402
G1 X84.069 Y51.737 E11.6411
G1 X84.069 Y52.044 E11.6647
G1 X84.069 Y52.056 E11.6656
G1 X83.978 Y52.972 E11.7365
G1 X83.977 Y52.984 E11.7374
G1 X83.917 Y53.285 E11.7611
G1 X83.914 Y53.297 E11.7620
G1 X83.647 Y54.177 E11.8329
G1 X83.643 Y54.189 E11.8338
G1 X83.525 Y54.472 E11.8574
G1 X83.520 Y54.483 E11.8583
G1 X83.086 Y55.295 E11.9292
G1 X83.080 Y55.305 E11.9301
G1 X82.910 Y55.560 E11.9538
G1 X82.902 Y55.570 E11.9547
G1 X82.319 Y56.281 E12.0256
G1 X82.310 Y56.290 E12.0265
G1 X82.094 Y56.507 E12.0501
G1 X82.085 Y56.515 E12.0510
G1 X81.373 Y57.099 E12.1219
G1 X81.364 Y57.106 E12.1228
G1 X81.108 Y57.277 E12.1465
G1 X81.098 Y57.283 E12.1474
G1 X80.286 Y57.717 E12.2183
G1 X80.275 Y57.722 E12.2192
G1 X79.992 Y57.839 E12.2428
G1 X79.981 Y57.843 E12.2437
G1 X79.100 Y58.111 E12.3146
G1 X79.088 Y58.114 E12.3156
G1 X78.787 Y58.173 E12.3392
G1 X78.775 Y58.175 E12.3401
G1 X77.860 Y58.265 E12.4110
G1 X77.848 Y58.266 E12.4119
G1 X77.541 Y58.266 E12.4355
G1 X77.529 Y58.265 E12.4365
G1 X76.613 Y58.175 E12.5073
G1 X76.601 Y58.173 E12.5083
G1 X76.300 Y58.113 E12.5319
G1 X76.288 Y58.111 E12.5328
G1 X75.408 Y57.843 E12.6037
G1 X75.396 Y57.839 E12.6046
G1 X75.113 Y57.722 E12.6282
G1 X75.102 Y57.717 E12.6292
G1 X74.290 Y57.283 E12.7000
G1 X74.280 Y57.277 E12.7010
G1 X74.025 Y57.106 E12.7246
G1 X74.015 Y57.099 E12.7255
G1 X73.304 Y56.515 E12.7964
G1 X73.295 Y56.507 E12.7973
G1 X73.078 Y56.290 E12.8209
G1 X73.070 Y56.281 E12.8219
G1 X72.486 Y55.570 E12.8927
G1 X72.479 Y55.560 E12.8937
G1 X72.308 Y55.305 E12.9173
G1 X72.302 Y55.295 E12.9182
G1 X71.868 Y54.483 E12.9891
G1 X71.863 Y54.472 E12.9900
G1 X71.746 Y54.189 E13.0137
G1 X71.742 Y54.177 E13.0146
G1 X71.474 Y53.297 E13.0855
G1 X71.471 Y53.285 E13.0864
G1 X71.412 Y52.984 E13.1100
G1 X71.410 Y52.972 E13.1109
G1 X71.320 Y52.056 E13.1818
G1 X71.319 Y52.044 E13.1827
G1 X71.319 Y51.737 E13.2064
G1 X71.320 Y51.725 E13.2073
G1 X71.410 Y50.809 E13.2782
G1 X71.412 Y50.798 E13.2791
G1 X71.471 Y50.497 E13.3027
G1 X71.474 Y50.485 E13.3036
G1 X71.741 Y49.604 E13.3745
G1 X71.746 Y49.593 E13.3754
G1 X71.863 Y49.309 E13.3991
G1 X71.868 Y49.299 E13.4000
G1 X72.302 Y48.487 E13.4709
G1 X72.308 Y48.476 E13.4718
G1 X72.323 Y48.454 E13.4738
G1 X71.089 Y47.630 E13.5881
G1 X71.071 Y47.615 E13.5899
G1 X70.636 Y47.180 E13.6373
G1 X70.621 Y47.161 E13.6391
G1 X69.697 Y45.779 E13.7672
G1 X69.684 Y45.754 E13.7693
G1 X69.434 Y45.104 E13.8230
G1 X69.427 Y45.078 E13.8251
G1 X69.217 Y43.633 E13.9374
G1 X69.216 Y43.625 E13.9381
G1 X69.200 Y43.399 E13.9555
G1 X69.200 Y43.391 E13.9562
G1 X69.200 Y6.654 E16.7851
G1 X69.237 Y6.564 E16.7926
G92 E0
G1 E-6.5000 F5000
; inner perimeter
G1 X73.670 Y24.510 F3500
G1 E0.0000 F5000
G92 E0
G1 X75.277 Y24.510 E0.1238 F600
G1 X73.670 Y26.992 E0.3515
G1 X73.670 Y24.510 E0.5426
G92 E0
G1 E-6.5000 F5000
G1 X81.518 Y24.455 F3500
G1 E0.0000 F5000
G92 E0
G1 X81.881 Y24.455 E0.0279 F600
G1 X81.998 Y24.485 E0.0372
G1 X82.096 Y24.575 E0.0475
G1 X82.169 Y24.688 E0.0578
G1 X82.169 Y41.818 E1.3769
G1 X82.081 Y43.116 E1.4771
G1 X81.948 Y43.787 E1.5298
G1 X81.659 Y44.220 E1.5698
G1 X81.227 Y44.508 E1.6099
G1 X80.596 Y44.634 E1.6594
G1 X75.098 Y44.634 E2.0827
G1 X74.463 Y44.508 E2.1326
G1 X74.031 Y44.220 E2.1726
G1 X73.761 Y43.815 E2.2101
G1 X73.670 Y43.189 E2.2588
G1 X73.670 Y40.505 E2.4655
G1 X74.027 Y40.473 E2.4931
G1 X74.076 Y40.744 E2.5143
G1 X74.185 Y41.098 E2.5428
G1 X74.336 Y41.436 E2.5713
G1 X74.527 Y41.754 E2.5999
G1 X74.755 Y42.046 E2.6284
G1 X75.016 Y42.309 E2.6569
G1 X75.307 Y42.538 E2.6855
G1 X75.624 Y42.731 E2.7140
G1 X75.962 Y42.884 E2.7426
G1 X76.315 Y42.995 E2.7711
G1 X76.679 Y43.063 E2.7996
G1 X77.014 Y43.084 E2.8254
G1 X78.580 Y43.084 E2.9461
G1 X79.005 Y43.050 E2.9789
G1 X79.472 Y42.938 E3.0159
G1 X79.918 Y42.752 E3.0531
G1 X80.328 Y42.494 E3.0904
G1 X80.690 Y42.172 E3.1277
G1 X80.994 Y41.795 E3.1650
G1 X81.231 Y41.373 E3.2023
G1 X81.396 Y40.918 E3.2395
G1 X81.477 Y40.490 E3.2731
G1 X81.518 Y40.089 E3.3041
G1 X81.518 Y24.455 E4.5080
G92 E0
G1 E-6.5000 F5000
; inner perimeter
G1 X73.180 Y8.680 F3500
G1 E0.0000 F5000
G92 E0
G1 X73.945 Y8.680 E0.0589 F480
G1 X73.945 Y24.020 E1.2402
G1 X76.178 Y24.020 E1.4121
G1 X74.480 Y26.642 E1.6527
G1 X74.480 Y40.039 E2.6844
G1 X74.497 Y40.322 E2.7062
G1 X74.552 Y40.628 E2.7301
G1 X74.644 Y40.925 E2.7541
G1 X74.771 Y41.209 E2.7780
G1 X74.932 Y41.476 E2.8020
G1 X75.123 Y41.722 E2.8260
G1 X75.343 Y41.942 E2.8500
G1 X75.587 Y42.135 E2.8739
G1 X75.853 Y42.297 E2.8979
G1 X76.137 Y42.425 E2.9219
G1 X76.434 Y42.519 E2.9458
G1 X76.740 Y42.575 E2.9698
G1 X77.029 Y42.594 E2.9921
G1 X78.561 Y42.594 E3.1101
G1 X78.928 Y42.565 E3.1385
G1 X79.320 Y42.471 E3.1695
G1 X79.692 Y42.315 E3.2005
G1 X80.033 Y42.101 E3.2316
G1 X80.334 Y41.833 E3.2626
G1 X80.587 Y41.519 E3.2936
G1 X80.784 Y41.168 E3.3247
G1 X80.922 Y40.788 E3.3557
G1 X80.991 Y40.419 E3.3847
G1 X81.028 Y40.064 E3.4122
G1 X81.028 Y24.405 E4.6180
G1 X81.089 Y24.127 E4.6399
G1 X81.178 Y24.029 E4.6501
G1 X81.414 Y23.965 E4.6689
G1 X81.944 Y23.965 E4.7097
G1 X82.239 Y24.042 E4.7332
G1 X82.473 Y24.256 E4.7577
G1 X82.659 Y24.543 E4.7840
G1 X82.659 Y41.834 E6.1155
G1 X82.568 Y43.181 E6.2194
G1 X82.409 Y43.979 E6.2821
G1 X82.012 Y44.573 E6.3371
G1 X81.418 Y44.970 E6.3921
G1 X80.644 Y45.124 E6.4529
G1 X75.050 Y45.124 E6.8836
G1 X74.272 Y44.970 E6.9448
G1 X73.678 Y44.573 E6.9998
G1 X73.292 Y43.995 E7.0533
G1 X73.180 Y43.224 E7.1132
G1 X73.180 Y8.680 E9.7733
G92 E0
G1 E-6.5000 F5000
G1 X76.352 Y8.680 F3500
G1 E0.0000 F5000
G92 E0
G1 X76.748 Y8.680 E0.0305 F480
G1 X76.748 Y23.140 E1.1440
G1 X76.352 Y23.752 E1.2001
