; G-Code generated by Simplify3D(R) Version 3.0.0
; Sep 7, 2017 at 12:26:42 
; Settings Summary
;   processName,Process1
;   applyToModels,riegelspitze
;   profileName,juli (modified)
;   profileVersion,2017-06-09 12:06:14
;   baseProfile,German RepRap NEO (modified)
;   printMaterial,
;   printQuality,
;   printExtruders,
;   extruderName,Primary Extruder
;   extruderToolheadNumber,0
;   extruderDiameter,0.5
;   extruderAutoWidth,0
;   extruderWidth,0.49
;   extrusionMultiplier,0.9
;   extruderUseRetract,1
;   extruderRetractionDistance,6.5
;   extruderExtraRestartDistance,0
;   extruderRetractionZLift,0
;   extruderRetractionSpeed,5000
;   extruderUseCoasting,0
;   extruderCoastingDistance,0.2
;   extruderUseWipe,0
;   extruderWipeDistance,5
;   primaryExtruder,0
;   layerHeight,0.1
;   topSolidLayers,4
;   bottomSolidLayers,3
;   perimeterOutlines,3
;   printPerimetersInsideOut,1
;   startPointOption,2
;   startPointOriginX,0
;   startPointOriginY,0
;   startPointOriginZ,300
;   sequentialIslands,0
;   spiralVaseMode,0
;   firstLayerHeightPercentage,140
;   firstLayerWidthPercentage,100
;   firstLayerUnderspeed,0.3
;   useRaft,0
;   raftExtruder,0
;   raftLayers,3
;   raftOffset,3
;   raftSeparationDistance,0.1
;   raftInfill,85
;   disableRaftBaseLayers,0
;   useSkirt,1
;   skirtExtruder,0
;   skirtLayers,1
;   skirtOutlines,3
;   skirtOffset,3
;   usePrimePillar,0
;   primePillarExtruder,999
;   primePillarWidth,12
;   primePillarLocation,7
;   primePillarSpeedMultiplier,1
;   useOozeShield,0
;   oozeShieldExtruder,999
;   oozeShieldOffset,2
;   oozeShieldOutlines,1
;   oozeShieldSidewallShape,1
;   oozeShieldSidewallAngle,30
;   oozeShieldSpeedMultiplier,1
;   infillExtruder,0
;   internalInfillPattern,Full Honeycomb
;   externalInfillPattern,Rectilinear
;   infillPercentage,15
;   outlineOverlapPercentage,15
;   infillExtrusionWidthPercentage,100
;   minInfillLength,3
;   infillLayerInterval,1
;   infillAngles,0,120,-120
;   overlapInfillAngles,0
;   generateSupport,1
;   supportExtruder,0
;   supportInfillPercentage,30
;   supportExtraInflation,0
;   denseSupportLayers,0
;   denseSupportInfillPercentage,75
;   supportLayerInterval,1
;   supportHorizontalPartOffset,1.5
;   supportUpperSeparationLayers,2
;   supportLowerSeparationLayers,2
;   supportType,0
;   supportGridSpacing,4
;   maxOverhangAngle,45
;   supportAngles,45
;   temperatureName,Primary Extruder
;   temperatureNumber,0
;   temperatureSetpointCount,3
;   temperatureSetpointLayers,1,2,3
;   temperatureSetpointTemperatures,207,199,192
;   temperatureStabilizeAtStartup,1
;   temperatureHeatedBed,0
;   temperatureRelayBetweenLayers,0
;   temperatureRelayBetweenLoops,0
;   fanLayers,1,4
;   fanSpeeds,0,100
;   blipFanToFullPower,0
;   adjustSpeedForCooling,1
;   minSpeedLayerTime,15
;   minCoolingSpeedSlowdown,20
;   increaseFanForCooling,0
;   minFanLayerTime,45
;   maxCoolingFanSpeed,100
;   increaseFanForBridging,0
;   bridgingFanSpeed,100
;   use5D,1
;   relativeEdistances,0
;   allowEaxisZeroing,1
;   independentExtruderAxes,0
;   includeM10123,0
;   stickySupport,1
;   applyToolheadOffsets,0
;   gcodeXoffset,0
;   gcodeYoffset,0
;   gcodeZoffset,0
;   overrideMachineDefinition,1
;   machineTypeOverride,0
;   strokeXoverride,150
;   strokeYoverride,150
;   strokeZoverride,150
;   originOffsetXoverride,0
;   originOffsetYoverride,0
;   originOffsetZoverride,0
;   homeXdirOverride,-1
;   homeYdirOverride,-1
;   homeZdirOverride,-1
;   flipXoverride,1
;   flipYoverride,-1
;   flipZoverride,1
;   toolheadOffsets,0,0|0,0|0,0|0,0|0,0|0,0
;   overrideFirmwareConfiguration,0
;   firmwareTypeOverride,RepRap (Marlin/Repetier/Sprinter)
;   GPXconfigOverride,r2
;   baudRateOverride,115200
;   overridePrinterModels,0
;   printerModelsOverride
;   startingGcode,G28 ; home all axes
;   layerChangeGcode,
;   retractionGcode,
;   toolChangeGcode,
;   endingGcode,M104 S0 ; turn off extruder,M140 S0 ; turn off bed,G28 X0  ; home X axis,G28 Y0  ; home Y axis,M84 ; disable motors,M107
;   createX3G,0
;   celebration,0
;   celebrationSong,Random Song
;   createMB5G,0
;   postProcessing,
;   defaultSpeed,2400
;   outlineUnderspeed,0.5
;   solidInfillUnderspeed,0.8
;   supportUnderspeed,0.8
;   rapidXYspeed,3500
;   rapidZspeed,1000
;   minBridgingArea,50
;   bridgingExtraInflation,0
;   bridgingExtrusionMultiplier,1
;   bridgingSpeedMultiplier,1
;   filamentDiameter,1.75
;   filamentPricePerKg,46
;   filamentDensity,1.25
;   useMinPrintHeight,0
;   minPrintHeight,0
;   useMaxPrintHeight,0
;   maxPrintHeight,0
;   useDiaphragm,0
;   diaphragmLayerInterval,20
;   robustSlicing,1
;   mergeAllIntoSolid,0
;   onlyRetractWhenCrossingOutline,1
;   retractBetweenLayers,1
;   useRetractionMinTravel,0
;   retractionMinTravel,3
;   retractWhileWiping,0
;   onlyWipeOutlines,1
;   avoidCrossingOutline,0
;   maxMovementDetourFactor,10
;   toolChangeRetractionDistance,0
;   toolChangeExtraRestartDistance,0
;   toolChangeRetractionSpeed,360
;   allowThinWallGapFill,1
;   thinWallAllowedOverlapPercentage,10
;   horizontalSizeCompensation,0
G90
M82
M106 S0
M104 S207 T0
M109 S207 T0
G28 ; home all axes
G92 E0
G1 E-6.5000 F5000
G1 Z0.140 F1000
; layer 1, Z = 0.14
T0
; tool H0.140 W0.490
; skirt
G1 X38.568 Y47.075 F3500
G1 E0.0000 F1500
G92 E0
G1 X38.874 Y46.846 E0.0098 F720
G1 X40.322 Y46.342 E0.0491
G1 X40.381 Y46.325 E0.0507
G1 X40.736 Y46.240 E0.0601
G1 X40.797 Y46.229 E0.0617
G1 X41.363 Y46.154 E0.0764
G1 X41.404 Y46.150 E0.0774
G1 X41.643 Y46.134 E0.0836
G1 X41.684 Y46.132 E0.0846
G1 X50.549 Y46.132 E0.3122
G1 X50.597 Y46.134 E0.3134
G1 X50.876 Y46.156 E0.3206
G1 X50.924 Y46.161 E0.3218
G1 X51.488 Y46.250 E0.3365
G1 X51.555 Y46.264 E0.3382
G1 X51.943 Y46.370 E0.3485
G1 X52.007 Y46.391 E0.3503
G1 X53.390 Y46.940 E0.3885
G1 X53.677 Y47.170 E0.3979
G1 X54.920 Y49.001 E0.4547
G1 X55.029 Y49.353 E0.4642
G1 X55.029 Y75.281 E1.1297
G1 X54.842 Y75.731 E1.1422
G1 X52.740 Y77.833 E1.2185
G1 X52.290 Y78.020 E1.2310
G1 X39.860 Y78.020 E1.5501
G1 X39.409 Y77.833 E1.5626
G1 X37.307 Y75.731 E1.6389
G1 X37.121 Y75.281 E1.6514
G1 X37.121 Y49.310 E2.3180
G1 X37.237 Y48.947 E2.3278
G1 X38.568 Y47.075 E2.3868
G1 X38.924 Y47.421 F3500
G92 E0
G1 X39.107 Y47.283 E0.0059 F720
G1 X40.471 Y46.809 E0.0430
G1 X40.507 Y46.799 E0.0439
G1 X40.837 Y46.720 E0.0526
G1 X40.874 Y46.713 E0.0536
G1 X41.420 Y46.640 E0.0677
G1 X41.444 Y46.638 E0.0684
G1 X41.667 Y46.623 E0.0741
G1 X41.692 Y46.622 E0.0747
G1 X50.540 Y46.622 E0.3018
G1 X50.568 Y46.623 E0.3026
G1 X50.829 Y46.644 E0.3093
G1 X50.857 Y46.647 E0.3100
G1 X51.399 Y46.732 E0.3241
G1 X51.439 Y46.740 E0.3251
G1 X51.800 Y46.839 E0.3347
G1 X51.839 Y46.852 E0.3358
G1 X53.141 Y47.368 E0.3717
G1 X53.313 Y47.506 E0.3774
G1 X54.474 Y49.215 E0.4304
G1 X54.539 Y49.426 E0.4361
G1 X54.539 Y75.183 E1.0973
G1 X54.427 Y75.454 E1.1048
G1 X52.463 Y77.418 E1.1761
G1 X52.193 Y77.530 E1.1836
G1 X39.957 Y77.530 E1.4976
G1 X39.687 Y77.418 E1.5051
G1 X37.723 Y75.454 E1.5764
G1 X37.611 Y75.183 E1.5839
G1 X37.611 Y49.387 E2.2461
G1 X37.681 Y49.169 E2.2520
G1 X38.924 Y47.421 E2.3070
G1 X39.279 Y47.767 F3500
G92 E0
G1 X39.340 Y47.721 E0.0020 F720
G1 X40.620 Y47.276 E0.0368
G1 X40.632 Y47.273 E0.0371
G1 X40.939 Y47.200 E0.0452
G1 X40.951 Y47.197 E0.0455
G1 X41.477 Y47.127 E0.0591
G1 X41.485 Y47.126 E0.0593
G1 X41.692 Y47.113 E0.0646
G1 X41.700 Y47.112 E0.0648
G1 X50.530 Y47.112 E0.2915
G1 X50.540 Y47.113 E0.2917
G1 X50.781 Y47.131 E0.2980
G1 X50.791 Y47.133 E0.2982
G1 X51.310 Y47.214 E0.3117
G1 X51.323 Y47.217 E0.3121
G1 X51.658 Y47.308 E0.3210
G1 X51.671 Y47.312 E0.3213
G1 X52.892 Y47.796 E0.3550
G1 X52.949 Y47.842 E0.3569
G1 X54.027 Y49.429 E0.4062
G1 X54.049 Y49.500 E0.4080
G1 X54.049 Y75.086 E1.0648
G1 X54.011 Y75.176 E1.0673
G1 X52.185 Y77.002 E1.1336
G1 X52.095 Y77.040 E1.1361
G1 X40.055 Y77.040 E1.4452
G1 X39.964 Y77.002 E1.4477
G1 X38.138 Y75.176 E1.5140
G1 X38.101 Y75.086 E1.5165
G1 X38.101 Y49.463 E2.1742
G1 X38.124 Y49.390 E2.1761
G1 X39.279 Y47.767 E2.2273
G92 E0
G1 E-6.5000 F5000
; inner perimeter
G1 X42.571 Y51.582 F3500
G1 E0.0000 F5000
G92 E0
G1 X49.579 Y51.582 E0.1799 F600
G1 X49.579 Y69.142 E0.6306
G1 X48.950 Y68.953 E0.6475
G1 X42.878 Y68.953 E0.8033
G1 X42.571 Y69.047 E0.8116
G1 X42.571 Y51.582 E1.2599
; inner perimeter
G1 X42.081 Y51.092 F3500
G92 E0
G1 X50.069 Y51.092 E0.2050 F480
G1 X50.069 Y69.994 E0.6902
G1 X49.615 Y69.665 E0.7046
G1 X48.878 Y69.443 E0.7243
G1 X42.952 Y69.443 E0.8765
G1 X42.081 Y69.710 E0.8998
G1 X42.081 Y51.092 E1.3777
; outer perimeter
G1 X41.591 Y50.633 F3500
G92 E0
G1 X41.594 Y50.632 E0.0001 F360
G1 X41.820 Y50.602 E0.0059
G1 X50.390 Y50.602 E0.2259
G1 X50.559 Y50.629 E0.2303
G1 X50.559 Y73.550 E0.8186
G1 X41.591 Y73.550 E1.0488
G1 X41.591 Y50.633 E1.6371
; inner perimeter
; inner perimeter
; outer perimeter
G1 X43.025 Y69.933 F3500
G92 E0
G1 X42.444 Y70.111 E0.0156 F360
G1 X42.178 Y70.307 E0.0241
G1 X42.011 Y70.499 E0.0306
G1 X41.898 Y70.690 E0.0363
G1 X41.824 Y70.881 E0.0416
G1 X41.782 Y71.072 E0.0466
G1 X41.768 Y71.263 E0.0515
G1 X41.782 Y71.453 E0.0564
G1 X41.824 Y71.644 E0.0614
G1 X41.898 Y71.835 E0.0667
G1 X42.011 Y72.026 E0.0724
G1 X42.178 Y72.218 E0.0789
G1 X42.444 Y72.414 E0.0874
G1 X43.025 Y72.592 E0.1030
G1 X48.806 Y72.592 E0.2514
G1 X49.394 Y72.415 E0.2671
G1 X49.664 Y72.220 E0.2757
G1 X49.833 Y72.027 E0.2822
G1 X49.948 Y71.836 E0.2880
G1 X50.023 Y71.645 E0.2933
G1 X50.066 Y71.454 E0.2983
G1 X50.080 Y71.263 E0.3032
G1 X50.066 Y71.071 E0.3081
G1 X50.023 Y70.880 E0.3131
G1 X49.948 Y70.689 E0.3184
G1 X49.833 Y70.498 E0.3242
G1 X49.664 Y70.305 E0.3307
G1 X49.394 Y70.110 E0.3393
G1 X48.806 Y69.933 E0.3550
G1 X43.025 Y69.933 E0.5034
G92 E0
G1 E-6.5000 F5000
; gap fill
G1 X42.012 Y73.027 F3500
G1 E0.0000 F5000
G92 E0
G1 X42.247 Y72.792 E0.0085 F720
G1 X42.252 Y72.796 E0.0087
G1 X42.776 Y72.956 E0.0227
G1 X42.604 Y73.128 E0.0290
G1 X43.297 Y73.128 E0.0468
G1 X43.412 Y73.013 E0.0509
G1 X44.105 Y73.013 E0.0687
G1 X43.990 Y73.128 E0.0729
G1 X44.683 Y73.128 E0.0907
G1 X44.798 Y73.013 E0.0948
G1 X45.491 Y73.013 E0.1126
G1 X45.376 Y73.128 E0.1168
G1 X46.069 Y73.128 E0.1346
G1 X46.184 Y73.013 E0.1387
G1 X46.876 Y73.013 E0.1565
G1 X46.762 Y73.128 E0.1607
G1 X47.455 Y73.128 E0.1785
G1 X47.569 Y73.013 E0.1826
G1 X48.262 Y73.013 E0.2004
G1 X48.148 Y73.128 E0.2046
G1 X48.841 Y73.128 E0.2224
G1 X48.993 Y72.976 E0.2279
G1 X49.584 Y72.798 E0.2437
G1 X49.949 Y72.533 E0.2553
G1 X50.137 Y72.319 E0.2626
G1 X50.137 Y72.525 E0.2679
G1 X49.534 Y73.128 E0.2898
G92 E0
G1 E-6.5000 F5000
; solid layer
G1 X48.582 Y68.536 F3500
G1 E0.0000 F5000
G92 E0
G1 X49.162 Y67.956 E0.0211 F576
G1 X49.162 Y67.263 E0.0389
G1 X47.889 Y68.536 E0.0851
G1 X47.196 Y68.536 E0.1029
G1 X49.162 Y66.570 E0.1743
G1 X49.162 Y65.877 E0.1921
G1 X46.503 Y68.536 E0.2886
G1 X45.810 Y68.536 E0.3064
G1 X49.162 Y65.184 E0.4281
G1 X49.162 Y64.491 E0.4459
G1 X45.117 Y68.536 E0.5927
G1 X44.424 Y68.536 E0.6105
G1 X49.162 Y63.798 E0.7825
G1 X49.162 Y63.105 E0.8003
G1 X43.731 Y68.536 E0.9975
G1 X43.038 Y68.536 E1.0152
G1 X49.162 Y62.412 E1.2376
G1 X49.162 Y61.719 E1.2553
G1 X42.987 Y67.894 E1.4795
G1 X42.987 Y67.201 E1.4973
G1 X49.162 Y61.026 E1.7214
G1 X49.162 Y60.333 E1.7392
G1 X42.987 Y66.508 E1.9634
G1 X42.987 Y65.815 E1.9812
G1 X49.162 Y59.640 E2.2053
G1 X49.162 Y58.947 E2.2231
G1 X42.987 Y65.122 E2.4472
G1 X42.987 Y64.429 E2.4650
G1 X49.162 Y58.254 E2.6892
G1 X49.162 Y57.561 E2.7070
G1 X42.987 Y63.736 E2.9311
G1 X42.987 Y63.043 E2.9489
G1 X49.162 Y56.868 E3.1731
G1 X49.162 Y56.175 E3.1908
G1 X42.987 Y62.350 E3.4150
G1 X42.987 Y61.657 E3.4328
G1 X49.162 Y55.483 E3.6569
G1 X49.162 Y54.790 E3.6747
G1 X42.987 Y60.964 E3.8989
G1 X42.987 Y60.271 E3.9167
G1 X49.162 Y54.097 E4.1408
G1 X49.162 Y53.404 E4.1586
G1 X42.987 Y59.578 E4.3828
G1 X42.987 Y58.885 E4.4005
G1 X49.162 Y52.711 E4.6247
G1 X49.162 Y52.018 E4.6425
G1 X42.987 Y58.193 E4.8666
G1 X42.987 Y57.500 E4.8844
G1 X48.488 Y51.999 E5.0841
G1 X47.795 Y51.999 E5.1019
G1 X42.987 Y56.807 E5.2764
G1 X42.987 Y56.114 E5.2942
G1 X47.102 Y51.999 E5.4436
G1 X46.409 Y51.999 E5.4614
G1 X42.987 Y55.421 E5.5856
G1 X42.987 Y54.728 E5.6034
G1 X45.716 Y51.999 E5.7024
G1 X45.023 Y51.999 E5.7202
G1 X42.987 Y54.035 E5.7941
G1 X42.987 Y53.342 E5.8119
G1 X44.330 Y51.999 E5.8607
G1 X43.637 Y51.999 E5.8785
G1 X42.987 Y52.649 E5.9020
G92 E0
G1 E-6.5000 F5000
; layer 2, Z = 0.24
M104 S199 T0
; tool H0.100 W0.490
; inner perimeter
G1 X42.320 Y51.407 F3500
G1 Z0.240 F1000
G1 E0.0000 F5000
G92 E0
G1 X49.789 Y51.407 E0.1369 F2000
G1 X49.789 Y69.206 E0.4633
G1 X48.950 Y68.953 E0.4793
G1 X42.878 Y68.953 E0.5907
G1 X42.320 Y69.124 E0.6014
G1 X42.320 Y51.407 E0.9262
; inner perimeter
G1 X41.830 Y50.917 F3500
G92 E0
G1 X50.279 Y50.917 E0.1549 F1600
G1 X50.279 Y70.146 E0.5075
G1 X49.615 Y69.665 E0.5225
G1 X48.878 Y69.443 E0.5366
G1 X42.952 Y69.443 E0.6453
G1 X42.221 Y69.667 E0.6593
G1 X41.830 Y69.954 E0.6682
G1 X41.830 Y50.917 E1.0172
G92 E0
G1 E-6.5000 F5000
G1 X50.279 Y72.379 F3500
G1 E0.0000 F5000
G92 E0
G1 X50.279 Y73.060 E0.0125 F1600
G1 X49.339 Y73.060 E0.0297
G1 X50.279 Y72.379 E0.0510
G92 E0
G1 E-6.5000 F5000
; outer perimeter
G1 X41.940 Y50.427 F3500
G1 E0.0000 F5000
G92 E0
G1 X50.270 Y50.427 E0.1527 F1200
G1 X50.452 Y50.456 E0.1561
G1 X50.674 Y50.544 E0.1605
G1 X50.769 Y50.600 E0.1625
G1 X50.769 Y73.550 E0.5833
G1 X41.340 Y73.550 E0.7562
G1 X41.340 Y50.607 E1.1768
G1 X41.452 Y50.549 E1.1791
G1 X41.714 Y50.458 E1.1842
G1 X41.940 Y50.427 E1.1884
; inner perimeter
; inner perimeter
; outer perimeter
G1 X43.025 Y69.933 F3500
G92 E0
G1 X42.444 Y70.111 E0.0111 F1200
G1 X42.178 Y70.307 E0.0172
G1 X42.011 Y70.499 E0.0219
G1 X41.898 Y70.690 E0.0259
G1 X41.824 Y70.881 E0.0297
G1 X41.782 Y71.072 E0.0333
G1 X41.768 Y71.263 E0.0368
G1 X41.782 Y71.453 E0.0403
G1 X41.824 Y71.644 E0.0439
G1 X41.898 Y71.835 E0.0476
G1 X42.011 Y72.026 E0.0517
G1 X42.178 Y72.218 E0.0564
G1 X42.444 Y72.414 E0.0624
G1 X43.025 Y72.592 E0.0736
G1 X48.806 Y72.592 E0.1795
G1 X49.394 Y72.415 E0.1908
G1 X49.664 Y72.220 E0.1969
G1 X49.833 Y72.027 E0.2016
G1 X49.948 Y71.836 E0.2057
G1 X50.023 Y71.645 E0.2095
G1 X50.066 Y71.454 E0.2131
G1 X50.080 Y71.263 E0.2166
G1 X50.066 Y71.071 E0.2201
G1 X50.023 Y70.880 E0.2237
G1 X49.948 Y70.689 E0.2274
G1 X49.833 Y70.498 E0.2315
G1 X49.664 Y70.305 E0.2362
G1 X49.394 Y70.110 E0.2423
G1 X48.806 Y69.933 E0.2536
G1 X43.025 Y69.933 E0.3596
G92 E0
G1 E-6.5000 F5000
; gap fill
G1 X41.809 Y73.128 F3500
G1 E0.0000 F5000
G92 E0
G1 X41.761 Y73.080 E0.0012 F2400
G1 X41.761 Y72.387 E0.0139
G1 X41.803 Y72.429 E0.0150
G1 X41.890 Y72.530 E0.0175
G1 X41.941 Y72.567 E0.0186
G1 X42.502 Y73.128 E0.0332
G1 X43.195 Y73.128 E0.0459
G1 X43.080 Y73.013 E0.0488
G1 X43.773 Y73.013 E0.0616
G1 X43.888 Y73.128 E0.0645
G1 X44.581 Y73.128 E0.0772
G1 X44.466 Y73.013 E0.0802
G1 X45.159 Y73.013 E0.0929
G1 X45.274 Y73.128 E0.0959
G1 X45.967 Y73.128 E0.1086
G1 X45.852 Y73.013 E0.1116
G1 X46.545 Y73.013 E0.1243
G1 X46.660 Y73.128 E0.1272
G1 X47.353 Y73.128 E0.1399
G1 X47.238 Y73.013 E0.1429
G1 X47.931 Y73.013 E0.1556
G1 X48.046 Y73.128 E0.1586
G1 X48.534 Y73.128 E0.1676
G1 X48.653 Y73.042 E0.1702
G1 X48.624 Y73.013 E0.1710
G92 E0
G1 E-6.5000 F5000
; solid layer
G1 X42.736 Y68.512 F3500
G1 E0.0000 F5000
G92 E0
G1 X42.774 Y68.549 E0.0010 F1920
G1 X42.816 Y68.536 E0.0018
G1 X43.454 Y68.536 E0.0135
G1 X42.736 Y67.819 E0.0321
G1 X42.736 Y67.126 E0.0448
G1 X44.147 Y68.536 E0.0814
G1 X44.840 Y68.536 E0.0941
G1 X42.736 Y66.433 E0.1486
G1 X42.736 Y65.740 E0.1613
G1 X45.533 Y68.536 E0.2338
G1 X46.226 Y68.536 E0.2465
G1 X42.736 Y65.047 E0.3370
G1 X42.736 Y64.354 E0.3497
G1 X46.919 Y68.536 E0.4582
G1 X47.612 Y68.536 E0.4709
G1 X42.736 Y63.661 E0.5973
G1 X42.736 Y62.968 E0.6100
G1 X48.305 Y68.536 E0.7544
G1 X48.998 Y68.536 E0.7671
G1 X42.736 Y62.275 E0.9294
G1 X42.736 Y61.582 E0.9421
G1 X49.372 Y68.218 E1.1142
G1 X49.372 Y67.525 E1.1269
G1 X42.736 Y60.889 E1.2990
G1 X42.736 Y60.196 E1.3117
G1 X49.372 Y66.832 E1.4838
G1 X49.372 Y66.139 E1.4965
G1 X42.736 Y59.503 E1.6685
G1 X42.736 Y58.810 E1.6812
G1 X49.372 Y65.446 E1.8533
G1 X49.372 Y64.753 E1.8660
G1 X42.736 Y58.117 E2.0381
G1 X42.736 Y57.424 E2.0508
