; G-Code generated by Simplify3D(R) Version 3.0.0
; Sep 6, 2017 at 6:01:21 
; Settings Summary
;   processName,Process1
;   applyToModels,riegelfein,ritzelriegel
;   profileName,juli (modified)
;   profileVersion,2017-06-09 12:06:14
;   baseProfile,German RepRap NEO (modified)
;   printMaterial,
;   printQuality,
;   printExtruders,
;   extruderName,Primary Extruder
;   extruderToolheadNumber,0
;   extruderDiameter,0.5
;   extruderAutoWidth,0
;   extruderWidth,0.49
;   extrusionMultiplier,0.9
;   extruderUseRetract,1
;   extruderRetractionDistance,6.5
;   extruderExtraRestartDistance,0
;   extruderRetractionZLift,0
;   extruderRetractionSpeed,5000
;   extruderUseCoasting,0
;   extruderCoastingDistance,0.2
;   extruderUseWipe,0
;   extruderWipeDistance,5
;   primaryExtruder,0
;   layerHeight,0.1
;   topSolidLayers,4
;   bottomSolidLayers,3
;   perimeterOutlines,3
;   printPerimetersInsideOut,1
;   startPointOption,2
;   startPointOriginX,0
;   startPointOriginY,0
;   startPointOriginZ,300
;   sequentialIslands,0
;   spiralVaseMode,0
;   firstLayerHeightPercentage,140
;   firstLayerWidthPercentage,100
;   firstLayerUnderspeed,0.3
;   useRaft,0
;   raftExtruder,0
;   raftLayers,3
;   raftOffset,3
;   raftSeparationDistance,0.1
;   raftInfill,85
;   disableRaftBaseLayers,0
;   useSkirt,1
;   skirtExtruder,0
;   skirtLayers,1
;   skirtOutlines,5
;   skirtOffset,3
;   usePrimePillar,0
;   primePillarExtruder,999
;   primePillarWidth,12
;   primePillarLocation,7
;   primePillarSpeedMultiplier,1
;   useOozeShield,0
;   oozeShieldExtruder,999
;   oozeShieldOffset,2
;   oozeShieldOutlines,1
;   oozeShieldSidewallShape,1
;   oozeShieldSidewallAngle,30
;   oozeShieldSpeedMultiplier,1
;   infillExtruder,0
;   internalInfillPattern,Full Honeycomb
;   externalInfillPattern,Rectilinear
;   infillPercentage,15
;   outlineOverlapPercentage,15
;   infillExtrusionWidthPercentage,100
;   minInfillLength,3
;   infillLayerInterval,1
;   infillAngles,0,120,-120
;   overlapInfillAngles,0
;   generateSupport,1
;   supportExtruder,0
;   supportInfillPercentage,30
;   supportExtraInflation,0
;   denseSupportLayers,0
;   denseSupportInfillPercentage,75
;   supportLayerInterval,1
;   supportHorizontalPartOffset,1.5
;   supportUpperSeparationLayers,2
;   supportLowerSeparationLayers,2
;   supportType,0
;   supportGridSpacing,4
;   maxOverhangAngle,45
;   supportAngles,45
;   temperatureName,Primary Extruder
;   temperatureNumber,0
;   temperatureSetpointCount,3
;   temperatureSetpointLayers,1,2,3
;   temperatureSetpointTemperatures,207,199,192
;   temperatureStabilizeAtStartup,1
;   temperatureHeatedBed,0
;   temperatureRelayBetweenLayers,0
;   temperatureRelayBetweenLoops,0
;   fanLayers,1,4
;   fanSpeeds,0,100
;   blipFanToFullPower,0
;   adjustSpeedForCooling,1
;   minSpeedLayerTime,15
;   minCoolingSpeedSlowdown,20
;   increaseFanForCooling,0
;   minFanLayerTime,45
;   maxCoolingFanSpeed,100
;   increaseFanForBridging,0
;   bridgingFanSpeed,100
;   use5D,1
;   relativeEdistances,0
;   allowEaxisZeroing,1
;   independentExtruderAxes,0
;   includeM10123,0
;   stickySupport,1
;   applyToolheadOffsets,0
;   gcodeXoffset,0
;   gcodeYoffset,0
;   gcodeZoffset,0
;   overrideMachineDefinition,1
;   machineTypeOverride,0
;   strokeXoverride,150
;   strokeYoverride,150
;   strokeZoverride,150
;   originOffsetXoverride,0
;   originOffsetYoverride,0
;   originOffsetZoverride,0
;   homeXdirOverride,-1
;   homeYdirOverride,-1
;   homeZdirOverride,-1
;   flipXoverride,1
;   flipYoverride,-1
;   flipZoverride,1
;   toolheadOffsets,0,0|0,0|0,0|0,0|0,0|0,0
;   overrideFirmwareConfiguration,0
;   firmwareTypeOverride,RepRap (Marlin/Repetier/Sprinter)
;   GPXconfigOverride,r2
;   baudRateOverride,115200
;   overridePrinterModels,0
;   printerModelsOverride
;   startingGcode,G28 ; home all axes
;   layerChangeGcode,
;   retractionGcode,
;   toolChangeGcode,
;   endingGcode,M104 S0 ; turn off extruder,M140 S0 ; turn off bed,G28 X0  ; home X axis,G28 Y0  ; home Y axis,M84 ; disable motors,M107
;   createX3G,0
;   celebration,0
;   celebrationSong,Random Song
;   createMB5G,0
;   postProcessing,
;   defaultSpeed,2400
;   outlineUnderspeed,0.5
;   solidInfillUnderspeed,0.8
;   supportUnderspeed,0.8
;   rapidXYspeed,3500
;   rapidZspeed,1000
;   minBridgingArea,50
;   bridgingExtraInflation,0
;   bridgingExtrusionMultiplier,1
;   bridgingSpeedMultiplier,1
;   filamentDiameter,1.75
;   filamentPricePerKg,46
;   filamentDensity,1.25
;   useMinPrintHeight,0
;   minPrintHeight,0
;   useMaxPrintHeight,0
;   maxPrintHeight,0
;   useDiaphragm,0
;   diaphragmLayerInterval,20
;   robustSlicing,1
;   mergeAllIntoSolid,0
;   onlyRetractWhenCrossingOutline,1
;   retractBetweenLayers,1
;   useRetractionMinTravel,0
;   retractionMinTravel,3
;   retractWhileWiping,0
;   onlyWipeOutlines,1
;   avoidCrossingOutline,0
;   maxMovementDetourFactor,10
;   toolChangeRetractionDistance,0
;   toolChangeExtraRestartDistance,0
;   toolChangeRetractionSpeed,360
;   allowThinWallGapFill,1
;   thinWallAllowedOverlapPercentage,10
;   horizontalSizeCompensation,0
G90
M82
M106 S0
M104 S207 T0
M109 S207 T0
G28 ; home all axes
G92 E0
G1 E-6.5000 F5000
G1 Z0.140 F1000
; layer 1, Z = 0.14
T0
; tool H0.140 W0.490
; skirt
G1 X117.540 Y55.290 F3500
G1 E0.0000 F1500
G92 E0
G1 X119.917 Y52.913 E0.0863 F720
G1 X120.728 Y52.577 E0.1088
G1 X133.876 Y52.577 E0.4463
G1 X134.686 Y52.913 E0.4688
G1 X137.064 Y55.290 E0.5552
G1 X137.400 Y56.101 E0.5777
G1 X137.400 Y85.154 E1.3234
G1 X137.064 Y85.965 E1.3459
G1 X134.686 Y88.342 E1.4323
G1 X133.876 Y88.678 E1.4548
G1 X128.934 Y88.678 E1.5816
G1 X129.566 Y89.053 E1.6005
G1 X129.612 Y89.082 E1.6019
G1 X129.780 Y89.193 E1.6071
G1 X129.824 Y89.224 E1.6085
G1 X130.717 Y89.880 E1.6369
G1 X130.760 Y89.913 E1.6383
G1 X130.916 Y90.040 E1.6434
G1 X130.957 Y90.075 E1.6448
G1 X131.781 Y90.815 E1.6733
G1 X131.820 Y90.852 E1.6746
G1 X131.963 Y90.994 E1.6798
G1 X132.001 Y91.033 E1.6812
G1 X132.748 Y91.850 E1.7096
G1 X132.784 Y91.891 E1.7110
G1 X132.912 Y92.046 E1.7162
G1 X132.946 Y92.089 E1.7176
G1 X133.622 Y92.993 E1.7466
G1 X133.660 Y93.046 E1.7483
G1 X133.795 Y93.251 E1.7545
G1 X133.830 Y93.307 E1.7562
G1 X133.859 Y93.357 E1.7577
G1 X141.626 Y93.321 E1.9571
G1 X142.017 Y93.390 E1.9673
G1 X143.410 Y93.905 E2.0054
G1 X143.751 Y94.107 E2.0156
G1 X145.661 Y95.759 E2.0804
G1 X145.765 Y95.862 E2.0842
G1 X146.126 Y96.269 E2.0981
G1 X146.215 Y96.384 E2.1019
G1 X147.147 Y97.767 E2.1447
G1 X147.252 Y97.962 E2.1504
G1 X147.568 Y98.726 E2.1716
G1 X147.632 Y98.938 E2.1772
G1 X147.943 Y100.546 E2.2193
G1 X147.964 Y100.751 E2.2246
G1 X147.967 Y101.520 E2.2443
G1 X147.949 Y101.725 E2.2496
G1 X147.652 Y103.336 E2.2917
G1 X147.590 Y103.549 E2.2973
G1 X147.281 Y104.315 E2.3185
G1 X147.178 Y104.511 E2.3242
G1 X146.199 Y105.992 E2.3698
G1 X146.072 Y106.150 E2.3750
G1 X145.546 Y106.695 E2.3945
G1 X145.392 Y106.828 E2.3997
G1 X143.432 Y108.222 E2.4614
G1 X143.129 Y108.374 E2.4701
G1 X141.923 Y108.762 E2.5026
G1 X141.588 Y108.816 E2.5113
G1 X133.954 Y108.851 E2.7073
G1 X133.824 Y109.063 E2.7137
G1 X133.799 Y109.102 E2.7149
G1 X133.702 Y109.246 E2.7193
G1 X133.675 Y109.284 E2.7205
G1 X133.028 Y110.166 E2.7486
G1 X132.995 Y110.209 E2.7500
G1 X132.868 Y110.365 E2.7552
G1 X132.832 Y110.406 E2.7566
G1 X132.092 Y111.230 E2.7850
G1 X132.055 Y111.269 E2.7864
G1 X131.913 Y111.412 E2.7915
G1 X131.874 Y111.450 E2.7929
G1 X131.057 Y112.197 E2.8214
G1 X131.016 Y112.233 E2.8227
G1 X130.861 Y112.361 E2.8279
G1 X130.819 Y112.395 E2.8293
G1 X129.932 Y113.059 E2.8577
G1 X129.888 Y113.090 E2.8591
G1 X129.721 Y113.203 E2.8643
G1 X129.676 Y113.232 E2.8657
G1 X128.728 Y113.805 E2.8941
G1 X128.681 Y113.832 E2.8955
G1 X128.504 Y113.928 E2.9007
G1 X128.456 Y113.953 E2.9021
G1 X127.457 Y114.431 E2.9305
G1 X127.407 Y114.453 E2.9319
G1 X127.222 Y114.531 E2.9370
G1 X127.171 Y114.550 E2.9384
G1 X126.130 Y114.928 E2.9669
G1 X126.079 Y114.946 E2.9682
G1 X125.886 Y115.005 E2.9734
G1 X125.834 Y115.020 E2.9748
G1 X124.761 Y115.293 E3.0032
G1 X124.709 Y115.306 E3.0046
G1 X124.511 Y115.346 E3.0098
G1 X124.458 Y115.355 E3.0112
G1 X123.363 Y115.523 E3.0396
G1 X123.310 Y115.530 E3.0410
G1 X123.109 Y115.550 E3.0462
G1 X123.055 Y115.554 E3.0476
G1 X121.949 Y115.614 E3.0760
G1 X121.895 Y115.615 E3.0774
G1 X121.694 Y115.616 E3.0825
G1 X121.640 Y115.615 E3.0839
G1 X120.533 Y115.566 E3.1124
G1 X120.479 Y115.562 E3.1137
G1 X120.279 Y115.543 E3.1189
G1 X120.225 Y115.537 E3.1203
G1 X119.129 Y115.379 E3.1487
G1 X119.076 Y115.370 E3.1501
G1 X118.878 Y115.332 E3.1553
G1 X118.825 Y115.320 E3.1567
G1 X117.749 Y115.056 E3.1851
G1 X117.697 Y115.042 E3.1865
G1 X117.504 Y114.984 E3.1917
G1 X117.453 Y114.968 E3.1931
G1 X116.408 Y114.599 E3.2215
G1 X116.358 Y114.580 E3.2229
G1 X116.171 Y114.504 E3.2280
G1 X116.122 Y114.482 E3.2294
G1 X115.118 Y114.013 E3.2579
G1 X115.070 Y113.989 E3.2593
G1 X114.892 Y113.895 E3.2644
G1 X114.845 Y113.868 E3.2658
G1 X113.892 Y113.303 E3.2942
G1 X113.846 Y113.275 E3.2956
G1 X113.678 Y113.163 E3.3008
G1 X113.634 Y113.133 E3.3022
G1 X112.742 Y112.477 E3.3306
G1 X112.699 Y112.444 E3.3320
G1 X112.542 Y112.317 E3.3372
G1 X112.501 Y112.281 E3.3386
G1 X111.677 Y111.541 E3.3670
G1 X111.638 Y111.504 E3.3684
G1 X111.495 Y111.363 E3.3735
G1 X111.457 Y111.324 E3.3749
G1 X110.710 Y110.506 E3.4034
G1 X110.674 Y110.466 E3.4048
G1 X110.546 Y110.310 E3.4099
G1 X110.513 Y110.268 E3.4113
G1 X109.849 Y109.381 E3.4397
G1 X109.817 Y109.337 E3.4411
G1 X109.705 Y109.170 E3.4463
G1 X109.676 Y109.125 E3.4477
G1 X109.102 Y108.177 E3.4761
G1 X109.075 Y108.130 E3.4775
G1 X108.979 Y107.953 E3.4827
G1 X108.955 Y107.905 E3.4841
G1 X108.477 Y106.906 E3.5125
G1 X108.455 Y106.857 E3.5139
G1 X108.377 Y106.671 E3.5191
G1 X108.357 Y106.620 E3.5204
G1 X107.979 Y105.579 E3.5489
G1 X107.962 Y105.528 E3.5503
G1 X107.903 Y105.336 E3.5554
G1 X107.888 Y105.284 E3.5568
G1 X107.614 Y104.211 E3.5852
G1 X107.602 Y104.158 E3.5866
G1 X107.562 Y103.960 E3.5918
G1 X107.552 Y103.907 E3.5932
G1 X107.385 Y102.812 E3.6216
G1 X107.378 Y102.759 E3.6230
G1 X107.357 Y102.558 E3.6282
G1 X107.353 Y102.504 E3.6296
G1 X107.294 Y101.399 E3.6580
G1 X107.292 Y101.344 E3.6594
G1 X107.291 Y101.143 E3.6646
G1 X107.292 Y101.089 E3.6659
G1 X107.342 Y99.983 E3.6944
G1 X107.345 Y99.929 E3.6958
G1 X107.364 Y99.728 E3.7009
G1 X107.370 Y99.674 E3.7023
G1 X107.527 Y98.585 E3.7306
G1 X107.536 Y98.532 E3.7319
G1 X107.574 Y98.335 E3.7371
G1 X107.586 Y98.283 E3.7385
G1 X107.851 Y97.201 E3.7670
G1 X107.865 Y97.149 E3.7684
G1 X107.923 Y96.954 E3.7736
G1 X107.940 Y96.903 E3.7750
G1 X108.308 Y95.857 E3.8035
G1 X108.327 Y95.807 E3.8049
G1 X108.404 Y95.621 E3.8101
G1 X108.425 Y95.571 E3.8114
G1 X108.894 Y94.568 E3.8399
G1 X108.918 Y94.519 E3.8413
G1 X109.013 Y94.341 E3.8464
G1 X109.039 Y94.294 E3.8478
G1 X109.604 Y93.341 E3.8762
G1 X109.633 Y93.296 E3.8776
G1 X109.744 Y93.128 E3.8828
G1 X109.775 Y93.083 E3.8842
G1 X110.431 Y92.191 E3.9126
G1 X110.464 Y92.148 E3.9140
G1 X110.591 Y91.992 E3.9192
G1 X110.626 Y91.950 E3.9206
G1 X111.366 Y91.127 E3.9490
G1 X111.403 Y91.087 E3.9504
G1 X111.545 Y90.944 E3.9556
G1 X111.584 Y90.907 E3.9569
G1 X112.401 Y90.159 E3.9854
G1 X112.442 Y90.124 E3.9868
G1 X112.597 Y89.995 E3.9919
G1 X112.639 Y89.962 E3.9933
G1 X113.526 Y89.298 E4.0217
G1 X113.570 Y89.266 E4.0231
G1 X113.737 Y89.154 E4.0283
G1 X113.783 Y89.125 E4.0297
G1 X114.730 Y88.551 E4.0581
G1 X114.777 Y88.524 E4.0595
G1 X114.954 Y88.428 E4.0647
G1 X115.002 Y88.404 E4.0661
G1 X116.001 Y87.926 E4.0945
G1 X116.051 Y87.904 E4.0959
G1 X116.236 Y87.826 E4.1011
G1 X116.287 Y87.806 E4.1024
G1 X117.328 Y87.428 E4.1309
G1 X117.379 Y87.411 E4.1323
G1 X117.572 Y87.352 E4.1374
G1 X117.624 Y87.337 E4.1388
G1 X118.650 Y87.075 E4.1660
G1 X117.540 Y85.965 E4.2063
G1 X117.204 Y85.154 E4.2288
G1 X117.204 Y56.101 E4.9746
G1 X117.540 Y55.290 E4.9971
G1 X117.955 Y55.568 F3500
G92 E0
G1 X120.195 Y53.328 E0.0813 F720
G1 X120.825 Y53.067 E0.0988
G1 X133.779 Y53.067 E0.4313
G1 X134.409 Y53.328 E0.4488
G1 X136.649 Y55.568 E0.5301
G1 X136.910 Y56.198 E0.5476
G1 X136.910 Y85.057 E1.2884
G1 X136.649 Y85.687 E1.3059
G1 X134.409 Y87.927 E1.3872
G1 X133.779 Y88.188 E1.4047
G1 X126.798 Y88.188 E1.5839
G1 X126.881 Y88.217 E1.5862
G1 X126.921 Y88.232 E1.5873
G1 X127.096 Y88.304 E1.5921
G1 X127.134 Y88.321 E1.5932
G1 X128.127 Y88.785 E1.6213
G1 X128.164 Y88.804 E1.6224
G1 X128.332 Y88.892 E1.6273
G1 X128.369 Y88.913 E1.6283
G1 X129.311 Y89.472 E1.6565
G1 X129.346 Y89.494 E1.6575
G1 X129.504 Y89.598 E1.6624
G1 X129.539 Y89.622 E1.6635
G1 X130.422 Y90.271 E1.6916
G1 X130.455 Y90.297 E1.6927
G1 X130.602 Y90.416 E1.6975
G1 X130.634 Y90.444 E1.6986
G1 X131.449 Y91.176 E1.7267
G1 X131.480 Y91.204 E1.7278
G1 X131.614 Y91.338 E1.7327
G1 X131.643 Y91.368 E1.7338
G1 X132.383 Y92.176 E1.7619
G1 X132.410 Y92.208 E1.7630
G1 X132.531 Y92.354 E1.7678
G1 X132.557 Y92.387 E1.7689
G1 X133.226 Y93.280 E1.7975
G1 X133.255 Y93.322 E1.7989
G1 X133.382 Y93.514 E1.8048
G1 X133.409 Y93.558 E1.8061
G1 X133.576 Y93.848 E1.8147
G1 X141.585 Y93.811 E2.0202
G1 X141.888 Y93.865 E2.0282
G1 X143.198 Y94.350 E2.0640
G1 X143.464 Y94.507 E2.0719
G1 X145.329 Y96.119 E2.1352
G1 X145.409 Y96.199 E2.1381
G1 X145.748 Y96.581 E2.1512
G1 X145.818 Y96.671 E2.1542
G1 X146.727 Y98.021 E2.1959
G1 X146.809 Y98.173 E2.2004
G1 X147.106 Y98.890 E2.2203
G1 X147.155 Y99.055 E2.2247
G1 X147.458 Y100.617 E2.2655
G1 X147.474 Y100.776 E2.2697
G1 X147.477 Y101.499 E2.2882
G1 X147.463 Y101.659 E2.2923
G1 X147.174 Y103.223 E2.3331
G1 X147.126 Y103.388 E2.3376
G1 X146.836 Y104.109 E2.3575
G1 X146.756 Y104.261 E2.3619
G1 X145.803 Y105.703 E2.4063
G1 X145.704 Y105.826 E2.4103
G1 X145.209 Y106.339 E2.4286
G1 X145.089 Y106.442 E2.4327
G1 X143.179 Y107.801 E2.4929
G1 X142.943 Y107.919 E2.4996
G1 X141.809 Y108.284 E2.5302
G1 X141.548 Y108.326 E2.5370
G1 X133.678 Y108.362 E2.7390
G1 X133.409 Y108.803 E2.7523
G1 X133.389 Y108.833 E2.7532
G1 X133.298 Y108.969 E2.7574
G1 X133.277 Y108.999 E2.7583
G1 X132.636 Y109.871 E2.7861
G1 X132.611 Y109.904 E2.7872
G1 X132.491 Y110.051 E2.7920
G1 X132.464 Y110.083 E2.7931
G1 X131.732 Y110.898 E2.8212
G1 X131.703 Y110.929 E2.8223
G1 X131.570 Y111.063 E2.8272
G1 X131.539 Y111.092 E2.8283
G1 X130.731 Y111.832 E2.8564
G1 X130.699 Y111.859 E2.8575
G1 X130.553 Y111.980 E2.8623
G1 X130.520 Y112.006 E2.8634
G1 X129.643 Y112.663 E2.8915
G1 X129.609 Y112.687 E2.8926
G1 X129.452 Y112.793 E2.8975
G1 X129.417 Y112.816 E2.8986
G1 X128.480 Y113.383 E2.9267
G1 X128.443 Y113.404 E2.9278
G1 X128.276 Y113.494 E2.9326
G1 X128.239 Y113.513 E2.9337
G1 X127.251 Y113.986 E2.9618
G1 X127.212 Y114.003 E2.9629
G1 X127.038 Y114.077 E2.9678
G1 X126.999 Y114.092 E2.9688
G1 X125.969 Y114.466 E2.9970
G1 X125.929 Y114.479 E2.9980
G1 X125.748 Y114.535 E3.0029
G1 X125.707 Y114.546 E3.0040
G1 X124.646 Y114.817 E3.0321
G1 X124.605 Y114.827 E3.0332
G1 X124.419 Y114.864 E3.0380
G1 X124.378 Y114.872 E3.0391
G1 X123.295 Y115.037 E3.0672
G1 X123.253 Y115.043 E3.0683
G1 X123.065 Y115.062 E3.0732
G1 X123.023 Y115.066 E3.0743
G1 X121.929 Y115.124 E3.1024
G1 X121.887 Y115.125 E3.1035
G1 X121.698 Y115.126 E3.1083
G1 X121.656 Y115.125 E3.1094
G1 X120.561 Y115.077 E3.1375
G1 X120.519 Y115.074 E3.1386
G1 X120.331 Y115.056 E3.1435
G1 X120.289 Y115.051 E3.1445
G1 X119.205 Y114.895 E3.1727
G1 X119.163 Y114.888 E3.1737
G1 X118.977 Y114.852 E3.1786
G1 X118.936 Y114.843 E3.1797
G1 X117.872 Y114.582 E3.2078
G1 X117.832 Y114.571 E3.2089
G1 X117.650 Y114.517 E3.2137
G1 X117.610 Y114.504 E3.2148
G1 X116.577 Y114.139 E3.2429
G1 X116.538 Y114.124 E3.2440
G1 X116.362 Y114.053 E3.2489
G1 X116.324 Y114.036 E3.2500
G1 X115.331 Y113.572 E3.2781
G1 X115.294 Y113.553 E3.2792
G1 X115.126 Y113.464 E3.2840
G1 X115.090 Y113.444 E3.2851
G1 X114.147 Y112.885 E3.3132
G1 X114.112 Y112.863 E3.3143
G1 X113.954 Y112.758 E3.3192
G1 X113.919 Y112.734 E3.3202
G1 X113.037 Y112.085 E3.3484
G1 X113.003 Y112.060 E3.3494
G1 X112.856 Y111.940 E3.3543
G1 X112.824 Y111.913 E3.3554
G1 X112.009 Y111.181 E3.3835
G1 X111.979 Y111.152 E3.3846
G1 X111.844 Y111.019 E3.3894
G1 X111.815 Y110.988 E3.3905
G1 X111.076 Y110.180 E3.4186
G1 X111.048 Y110.148 E3.4197
