; G-Code generated by Simplify3D(R) Version 3.0.0
; Sep 4, 2017 at 4:01:41 
; Settings Summary
;   processName,Process1
;   applyToModels,Riegel
;   profileName,juli (modified)
;   profileVersion,2017-06-09 12:06:14
;   baseProfile,German RepRap NEO (modified)
;   printMaterial,
;   printQuality,
;   printExtruders,
;   extruderName,Primary Extruder
;   extruderToolheadNumber,0
;   extruderDiameter,0.5
;   extruderAutoWidth,0
;   extruderWidth,0.49
;   extrusionMultiplier,0.9
;   extruderUseRetract,1
;   extruderRetractionDistance,6.5
;   extruderExtraRestartDistance,0
;   extruderRetractionZLift,0
;   extruderRetractionSpeed,5000
;   extruderUseCoasting,0
;   extruderCoastingDistance,0.2
;   extruderUseWipe,0
;   extruderWipeDistance,5
;   primaryExtruder,0
;   layerHeight,0.1
;   topSolidLayers,4
;   bottomSolidLayers,3
;   perimeterOutlines,3
;   printPerimetersInsideOut,1
;   startPointOption,2
;   startPointOriginX,0
;   startPointOriginY,0
;   startPointOriginZ,300
;   sequentialIslands,0
;   spiralVaseMode,0
;   firstLayerHeightPercentage,150
;   firstLayerWidthPercentage,100
;   firstLayerUnderspeed,0.3
;   useRaft,0
;   raftExtruder,0
;   raftLayers,3
;   raftOffset,3
;   raftSeparationDistance,0.1
;   raftInfill,85
;   disableRaftBaseLayers,0
;   useSkirt,1
;   skirtExtruder,0
;   skirtLayers,1
;   skirtOutlines,5
;   skirtOffset,3
;   usePrimePillar,0
;   primePillarExtruder,999
;   primePillarWidth,12
;   primePillarLocation,7
;   primePillarSpeedMultiplier,1
;   useOozeShield,0
;   oozeShieldExtruder,999
;   oozeShieldOffset,2
;   oozeShieldOutlines,1
;   oozeShieldSidewallShape,1
;   oozeShieldSidewallAngle,30
;   oozeShieldSpeedMultiplier,1
;   infillExtruder,0
;   internalInfillPattern,Full Honeycomb
;   externalInfillPattern,Rectilinear
;   infillPercentage,15
;   outlineOverlapPercentage,15
;   infillExtrusionWidthPercentage,100
;   minInfillLength,3
;   infillLayerInterval,1
;   infillAngles,0,120,-120
;   overlapInfillAngles,0
;   generateSupport,1
;   supportExtruder,0
;   supportInfillPercentage,30
;   supportExtraInflation,0
;   denseSupportLayers,0
;   denseSupportInfillPercentage,75
;   supportLayerInterval,1
;   supportHorizontalPartOffset,1.5
;   supportUpperSeparationLayers,2
;   supportLowerSeparationLayers,2
;   supportType,0
;   supportGridSpacing,4
;   maxOverhangAngle,45
;   supportAngles,45
;   temperatureName,Primary Extruder
;   temperatureNumber,0
;   temperatureSetpointCount,3
;   temperatureSetpointLayers,1,2,3
;   temperatureSetpointTemperatures,207,199,192
;   temperatureStabilizeAtStartup,1
;   temperatureHeatedBed,0
;   temperatureRelayBetweenLayers,0
;   temperatureRelayBetweenLoops,0
;   fanLayers,1,4
;   fanSpeeds,0,100
;   blipFanToFullPower,0
;   adjustSpeedForCooling,1
;   minSpeedLayerTime,15
;   minCoolingSpeedSlowdown,20
;   increaseFanForCooling,0
;   minFanLayerTime,45
;   maxCoolingFanSpeed,100
;   increaseFanForBridging,0
;   bridgingFanSpeed,100
;   use5D,1
;   relativeEdistances,0
;   allowEaxisZeroing,1
;   independentExtruderAxes,0
;   includeM10123,0
;   stickySupport,1
;   applyToolheadOffsets,0
;   gcodeXoffset,0
;   gcodeYoffset,0
;   gcodeZoffset,0
;   overrideMachineDefinition,1
;   machineTypeOverride,0
;   strokeXoverride,150
;   strokeYoverride,150
;   strokeZoverride,150
;   originOffsetXoverride,0
;   originOffsetYoverride,0
;   originOffsetZoverride,0
;   homeXdirOverride,-1
;   homeYdirOverride,-1
;   homeZdirOverride,-1
;   flipXoverride,1
;   flipYoverride,-1
;   flipZoverride,1
;   toolheadOffsets,0,0|0,0|0,0|0,0|0,0|0,0
;   overrideFirmwareConfiguration,0
;   firmwareTypeOverride,RepRap (Marlin/Repetier/Sprinter)
;   GPXconfigOverride,r2
;   baudRateOverride,115200
;   overridePrinterModels,0
;   printerModelsOverride
;   startingGcode,G28 ; home all axes
;   layerChangeGcode,
;   retractionGcode,
;   toolChangeGcode,
;   endingGcode,M104 S0 ; turn off extruder,M140 S0 ; turn off bed,G28 X0  ; home X axis,G28 Y0  ; home Y axis,M84 ; disable motors,M107
;   createX3G,0
;   celebration,0
;   celebrationSong,Random Song
;   createMB5G,0
;   postProcessing,
;   defaultSpeed,2400
;   outlineUnderspeed,0.5
;   solidInfillUnderspeed,0.8
;   supportUnderspeed,0.8
;   rapidXYspeed,3500
;   rapidZspeed,1000
;   minBridgingArea,50
;   bridgingExtraInflation,0
;   bridgingExtrusionMultiplier,1
;   bridgingSpeedMultiplier,1
;   filamentDiameter,1.75
;   filamentPricePerKg,46
;   filamentDensity,1.25
;   useMinPrintHeight,0
;   minPrintHeight,0
;   useMaxPrintHeight,0
;   maxPrintHeight,0
;   useDiaphragm,0
;   diaphragmLayerInterval,20
;   robustSlicing,1
;   mergeAllIntoSolid,0
;   onlyRetractWhenCrossingOutline,1
;   retractBetweenLayers,1
;   useRetractionMinTravel,0
;   retractionMinTravel,3
;   retractWhileWiping,0
;   onlyWipeOutlines,1
;   avoidCrossingOutline,0
;   maxMovementDetourFactor,10
;   toolChangeRetractionDistance,0
;   toolChangeExtraRestartDistance,0
;   toolChangeRetractionSpeed,360
;   allowThinWallGapFill,1
;   thinWallAllowedOverlapPercentage,10
;   horizontalSizeCompensation,0
G90
M82
M106 S0
M104 S207 T0
M109 S207 T0
G28 ; home all axes
G92 E0
G1 E-6.5000 F5000
G1 Z0.150 F1000
; layer 1, Z = 0.15
T0
; tool H0.150 W0.490
; skirt
G1 X31.124 Y10.517 F3500
G1 E0.0000 F1500
G92 E0
G1 X31.460 Y9.707 E0.0241 F720
G1 X33.837 Y7.329 E0.1166
G1 X34.648 Y6.993 E0.1407
G1 X57.771 Y6.993 E0.7767
G1 X58.582 Y7.329 E0.8008
G1 X60.959 Y9.707 E0.8933
G1 X61.295 Y10.517 E0.9174
G1 X61.295 Y23.063 E1.2624
G1 X60.959 Y23.874 E1.2865
G1 X58.582 Y26.251 E1.3790
G1 X57.771 Y26.587 E1.4031
G1 X34.648 Y26.587 E2.0391
G1 X33.837 Y26.251 E2.0632
G1 X31.460 Y23.874 E2.1557
G1 X31.124 Y23.063 E2.1798
G1 X31.124 Y10.517 E2.5248
G1 X31.614 Y10.615 F3500
G92 E0
G1 X31.875 Y9.984 E0.0188 F720
G1 X34.115 Y7.745 E0.1059
G1 X34.745 Y7.483 E0.1246
G1 X57.674 Y7.483 E0.7552
G1 X58.304 Y7.745 E0.7740
G1 X60.544 Y9.984 E0.8611
G1 X60.805 Y10.615 E0.8799
G1 X60.805 Y22.966 E1.2195
G1 X60.544 Y23.596 E1.2383
G1 X58.304 Y25.836 E1.3254
G1 X57.674 Y26.097 E1.3442
G1 X34.745 Y26.097 E1.9748
G1 X34.115 Y25.836 E1.9935
G1 X31.875 Y23.596 E2.0806
G1 X31.614 Y22.966 E2.0994
G1 X31.614 Y10.615 E2.4391
G1 X32.104 Y10.712 F3500
G92 E0
G1 X32.291 Y10.262 E0.0134 F720
G1 X34.392 Y8.160 E0.0952
G1 X34.843 Y7.973 E0.1086
G1 X57.576 Y7.973 E0.7338
G1 X58.026 Y8.160 E0.7472
G1 X60.128 Y10.262 E0.8289
G1 X60.315 Y10.712 E0.8423
G1 X60.315 Y22.868 E1.1766
G1 X60.128 Y23.318 E1.1901
G1 X58.026 Y25.420 E1.2718
G1 X57.576 Y25.607 E1.2852
G1 X34.843 Y25.607 E1.9104
G1 X34.392 Y25.420 E1.9238
G1 X32.291 Y23.318 E2.0056
G1 X32.104 Y22.868 E2.0190
G1 X32.104 Y10.712 E2.3533
G1 X32.594 Y10.810 F3500
G92 E0
G1 X32.706 Y10.540 E0.0080 F720
G1 X34.670 Y8.575 E0.0844
G1 X34.940 Y8.463 E0.0925
G1 X57.479 Y8.463 E0.7123
G1 X57.749 Y8.575 E0.7204
G1 X59.713 Y10.540 E0.7968
G1 X59.825 Y10.810 E0.8048
G1 X59.825 Y22.771 E1.1338
G1 X59.713 Y23.041 E1.1418
G1 X57.749 Y25.005 E1.2182
G1 X57.479 Y25.117 E1.2262
G1 X34.940 Y25.117 E1.8461
G1 X34.670 Y25.005 E1.8541
G1 X32.706 Y23.041 E1.9305
G1 X32.594 Y22.771 E1.9386
G1 X32.594 Y10.810 E2.2675
G1 X33.084 Y10.907 F3500
G92 E0
G1 X33.121 Y10.817 E0.0027 F720
G1 X34.948 Y8.991 E0.0737
G1 X35.038 Y8.953 E0.0764
G1 X57.381 Y8.953 E0.6909
G1 X57.471 Y8.991 E0.6936
G1 X59.298 Y10.817 E0.7646
G1 X59.335 Y10.907 E0.7673
G1 X59.335 Y22.673 E1.0909
G1 X59.298 Y22.763 E1.0936
G1 X57.471 Y24.590 E1.1646
G1 X57.381 Y24.627 E1.1673
G1 X35.038 Y24.627 E1.7818
G1 X34.948 Y24.590 E1.7844
G1 X33.121 Y22.763 E1.8555
G1 X33.084 Y22.673 E1.8581
G1 X33.084 Y10.907 E2.1817
G92 E0
G1 E-6.5000 F5000
; inner perimeter
G1 X41.554 Y13.424 F3500
G1 E0.0000 F5000
G92 E0
G1 X54.865 Y13.424 E0.3661 F600
G1 X54.865 Y20.157 E0.5513
G1 X41.554 Y20.157 E0.9173
G1 X41.554 Y13.424 E1.1025
; inner perimeter
G1 X41.064 Y12.934 F3500
G92 E0
G1 X55.355 Y12.934 E0.3930 F480
G1 X55.355 Y20.647 E0.6052
G1 X41.064 Y20.647 E0.9982
G1 X41.064 Y12.934 E1.2103
; outer perimeter
G1 X36.574 Y12.443 F3500
G92 E0
G1 X55.845 Y12.444 E0.5300 F360
G1 X55.845 Y21.137 E0.7691
G1 X36.574 Y21.137 E1.2991
G1 X36.574 Y12.444 E1.5381
; inner perimeter
; inner perimeter
; outer perimeter
G1 X37.584 Y13.211 F3500
G92 E0
G1 X37.584 Y20.667 E0.2051 F360
G1 X40.574 Y20.667 E0.2873
G1 X40.574 Y13.211 E0.4923
G1 X37.584 Y13.211 E0.5746
; gap fill
G1 X36.995 Y12.897 F3500
G92 E0
G1 X37.027 Y12.865 E0.0012 F720
G1 X37.163 Y12.865 E0.0050
G1 X37.163 Y13.423 E0.0203
G1 X36.995 Y13.590 E0.0268
G1 X36.995 Y14.283 E0.0459
G1 X37.163 Y14.116 E0.0524
G1 X37.163 Y14.809 E0.0714
G1 X36.995 Y14.976 E0.0779
G1 X36.995 Y15.669 E0.0970
G1 X37.163 Y15.502 E0.1035
G1 X37.163 Y16.194 E0.1225
G1 X36.995 Y16.362 E0.1290
G1 X36.995 Y17.055 E0.1481
G1 X37.163 Y16.887 E0.1546
G1 X37.163 Y17.580 E0.1737
G1 X36.995 Y17.748 E0.1802
G1 X36.995 Y18.441 E0.1992
G1 X37.163 Y18.273 E0.2057
G1 X37.163 Y18.966 E0.2248
G1 X36.995 Y19.134 E0.2313
G1 X36.995 Y19.827 E0.2503
G1 X37.163 Y19.659 E0.2569
G1 X37.163 Y20.352 E0.2759
G1 X36.995 Y20.519 E0.2824
G92 E0
G1 E-6.5000 F5000
; solid layer
G1 X41.971 Y14.158 F3500
G1 E0.0000 F5000
G92 E0
G1 X42.289 Y13.840 E0.0124 F576
G1 X42.982 Y13.840 E0.0314
G1 X41.971 Y14.851 E0.0708
G1 X41.971 Y15.544 E0.0898
G1 X43.675 Y13.840 E0.1561
G1 X44.368 Y13.840 E0.1752
G1 X41.971 Y16.237 E0.2684
G1 X41.971 Y16.930 E0.2875
G1 X45.061 Y13.840 E0.4077
G1 X45.754 Y13.840 E0.4267
G1 X41.971 Y17.623 E0.5739
G1 X41.971 Y18.316 E0.5929
G1 X46.447 Y13.840 E0.7670
G1 X47.140 Y13.840 E0.7861
G1 X41.971 Y19.009 E0.9871
G1 X41.971 Y19.702 E1.0062
G1 X47.833 Y13.840 E1.2342
G1 X48.526 Y13.840 E1.2533
G1 X42.625 Y19.740 E1.4827
G1 X43.318 Y19.740 E1.5018
G1 X49.219 Y13.840 E1.7313
G1 X49.912 Y13.840 E1.7504
G1 X44.011 Y19.740 E1.9798
G1 X44.704 Y19.740 E1.9989
G1 X50.605 Y13.840 E2.2284
G1 X51.298 Y13.840 E2.2474
G1 X45.397 Y19.740 E2.4769
G1 X46.090 Y19.740 E2.4960
G1 X51.990 Y13.840 E2.7255
G1 X52.683 Y13.840 E2.7445
G1 X46.783 Y19.740 E2.9740
G1 X47.476 Y19.740 E2.9931
G1 X53.376 Y13.840 E3.2226
G1 X54.069 Y13.840 E3.2416
G1 X48.169 Y19.740 E3.4711
G1 X48.862 Y19.740 E3.4902
G1 X54.448 Y14.154 E3.7075
G1 X54.448 Y14.847 E3.7265
G1 X49.555 Y19.740 E3.9169
G1 X50.248 Y19.740 E3.9359
G1 X54.448 Y15.540 E4.0993
G1 X54.448 Y16.233 E4.1183
G1 X50.941 Y19.740 E4.2548
G1 X51.634 Y19.740 E4.2738
G1 X54.448 Y16.926 E4.3833
G1 X54.448 Y17.619 E4.4024
G1 X52.327 Y19.740 E4.4849
G1 X53.020 Y19.740 E4.5039
G1 X54.448 Y18.312 E4.5595
G1 X54.448 Y19.005 E4.5786
G1 X53.713 Y19.740 E4.6072
G1 X54.406 Y19.740 E4.6262
G1 X54.448 Y19.698 E4.6279
G92 E0
G1 E-6.5000 F5000
; layer 2, Z = 0.25
M104 S199 T0
; tool H0.100 W0.490
; inner perimeter
G1 X54.865 Y20.411 F3500
G1 Z0.250 F1000
G1 E0.0000 F5000
G92 E0
G1 X41.554 Y20.411 E0.2440 F1710
G1 X41.554 Y13.210 E0.3761
G1 X54.865 Y13.210 E0.6201
G1 X54.865 Y20.411 E0.7522
; inner perimeter
G1 X55.355 Y20.901 F3500
G92 E0
G1 X41.064 Y20.901 E0.2620 F1368
G1 X41.064 Y12.720 E0.4120
G1 X55.355 Y12.720 E0.6740
G1 X55.355 Y20.901 E0.8240
; outer perimeter
G1 X55.845 Y21.391 F3500
G92 E0
G1 X36.574 Y21.391 E0.3533 F1026
G1 X36.574 Y12.230 E0.5213
G1 X55.845 Y12.230 E0.8746
G1 X55.845 Y21.391 E1.0426
; inner perimeter
; inner perimeter
; outer perimeter
G1 X40.574 Y20.667 F3500
G92 E0
G1 X40.574 Y13.211 E0.1367 F1026
G1 X37.584 Y13.211 E0.1915
G1 X37.584 Y20.667 E0.3282
G1 X40.574 Y20.667 E0.3831
; gap fill
G1 X36.995 Y20.801 F3500
G92 E0
G1 X37.163 Y20.969 E0.0043 F2052
G1 X37.163 Y20.276 E0.0170
G1 X36.995 Y20.108 E0.0214
G1 X36.995 Y19.415 E0.0341
G1 X37.163 Y19.583 E0.0384
G1 X37.163 Y18.890 E0.0511
G1 X36.995 Y18.723 E0.0555
G1 X36.995 Y18.030 E0.0682
G1 X37.163 Y18.197 E0.0725
G1 X37.163 Y17.504 E0.0852
G1 X36.995 Y17.337 E0.0895
G1 X36.995 Y16.644 E0.1022
G1 X37.163 Y16.811 E0.1066
G1 X37.163 Y16.118 E0.1193
G1 X36.995 Y15.951 E0.1236
G1 X36.995 Y15.258 E0.1363
G1 X37.163 Y15.425 E0.1407
G1 X37.163 Y14.732 E0.1534
G1 X36.995 Y14.565 E0.1577
G1 X36.995 Y13.872 E0.1704
G1 X37.163 Y14.039 E0.1747
G1 X37.163 Y13.346 E0.1874
G1 X36.995 Y13.179 E0.1918
G1 X36.995 Y12.652 E0.2014
G1 X37.161 Y12.652 E0.2045
G1 X37.299 Y12.789 E0.2081
G1 X37.992 Y12.789 E0.2208
G1 X37.854 Y12.652 E0.2243
G1 X38.547 Y12.652 E0.2370
G1 X38.685 Y12.789 E0.2406
G1 X39.378 Y12.789 E0.2533
G1 X39.240 Y12.652 E0.2569
G1 X39.933 Y12.652 E0.2696
G1 X40.071 Y12.789 E0.2731
G1 X40.648 Y12.789 E0.2837
G1 X40.648 Y12.673 E0.2858
G1 X40.626 Y12.652 E0.2864
; solid layer
G1 X42.426 Y19.995 F3500
G92 E0
G1 X41.971 Y19.540 E0.0118 F1642
G1 X41.971 Y18.847 E0.0245
G1 X43.119 Y19.995 E0.0543
G1 X43.812 Y19.995 E0.0670
G1 X41.971 Y18.154 E0.1147
G1 X41.971 Y17.461 E0.1274
G1 X44.505 Y19.995 E0.1931
G1 X45.198 Y19.995 E0.2058
G1 X41.971 Y16.768 E0.2895
G1 X41.971 Y16.075 E0.3022
G1 X45.891 Y19.995 E0.4039
G1 X46.583 Y19.995 E0.4166
G1 X41.971 Y15.382 E0.5362
G1 X41.971 Y14.689 E0.5489
G1 X47.276 Y19.995 E0.6865
G1 X47.969 Y19.995 E0.6992
G1 X41.971 Y13.996 E0.8547
G1 X41.971 Y13.627 E0.8615
G1 X42.294 Y13.627 E0.8674
G1 X48.662 Y19.995 E1.0325
G1 X49.355 Y19.995 E1.0452
G1 X42.987 Y13.627 E1.2104
G1 X43.680 Y13.627 E1.2231
G1 X50.048 Y19.995 E1.3882
G1 X50.741 Y19.995 E1.4009
G1 X44.373 Y13.627 E1.5660
G1 X45.066 Y13.627 E1.5787
G1 X51.434 Y19.995 E1.7439
G1 X52.127 Y19.995 E1.7566
G1 X45.759 Y13.627 E1.9217
G1 X46.452 Y13.627 E1.9344
G1 X52.820 Y19.995 E2.0995
G1 X53.513 Y19.995 E2.1122
G1 X47.145 Y13.627 E2.2773
G1 X47.838 Y13.627 E2.2900
G1 X54.206 Y19.995 E2.4552
G1 X54.448 Y19.995 E2.4596
G1 X54.448 Y19.544 E2.4679
G1 X48.531 Y13.627 E2.6213
G1 X49.224 Y13.627 E2.6340
G1 X54.448 Y18.851 E2.7695
G1 X54.448 Y18.158 E2.7822
G1 X49.917 Y13.627 E2.8997
G1 X50.610 Y13.627 E2.9124
G1 X54.448 Y17.465 E3.0119
G1 X54.448 Y16.772 E3.0246
G1 X51.303 Y13.627 E3.1062
G1 X51.996 Y13.627 E3.1189
G1 X54.448 Y16.079 E3.1825
G1 X54.448 Y15.387 E3.1952
G1 X52.689 Y13.627 E3.2408
G1 X53.382 Y13.627 E3.2535
G1 X54.448 Y14.694 E3.2812
G1 X54.448 Y14.001 E3.2939
G1 X54.075 Y13.627 E3.3036
G92 E0
G1 E-6.5000 F5000
; layer 3, Z = 0.35
M104 S192 T0
; inner perimeter
G1 X54.865 Y13.105 F3500
G1 Z0.350 F1000
G1 E0.0000 F5000
G92 E0
G1 X54.865 Y20.537 E0.1363 F1756
G1 X41.554 Y20.537 E0.3803
G1 X41.554 Y13.105 E0.5166
G1 X54.865 Y13.105 E0.7606
; inner perimeter
G1 X55.355 Y12.615 F3500
G92 E0
G1 X55.355 Y21.027 E0.1542 F1405
G1 X41.064 Y21.027 E0.4163
G1 X41.064 Y12.615 E0.5705
G1 X55.355 Y12.615 E0.8325
; outer perimeter
G1 X55.845 Y12.125 F3500
G92 E0
G1 X55.845 Y21.517 E0.1722 F1054
G1 X36.574 Y21.517 E0.5255
G1 X36.574 Y12.125 E0.6977
G1 X55.845 Y12.125 E1.0511
; inner perimeter
; inner perimeter
; outer perimeter
G1 X40.574 Y13.211 F3500
G92 E0
G1 X37.584 Y13.211 E0.0548 F1054
G1 X37.584 Y20.667 E0.1915
G1 X40.574 Y20.667 E0.2463
G1 X40.574 Y13.211 E0.3831
; gap fill
G1 X40.568 Y12.789 F3500
G92 E0
G1 X40.648 Y12.710 E0.0021 F2107
G1 X40.648 Y12.546 E0.0051
G1 X40.118 Y12.546 E0.0148
G1 X39.875 Y12.789 E0.0211
G1 X39.182 Y12.789 E0.0338
G1 X39.425 Y12.546 E0.0401
G1 X38.732 Y12.546 E0.0528
G1 X38.489 Y12.789 E0.0591
G1 X36.995 Y12.897 F3500
G92 E0
G1 X37.346 Y12.546 E0.0091 F2107
G1 X38.039 Y12.546 E0.0218
G1 X37.796 Y12.789 E0.0281
G1 X37.163 Y12.789 E0.0397
G1 X37.163 Y13.423 E0.0513
G1 X36.995 Y13.590 E0.0557
G1 X36.995 Y14.283 E0.0684
G1 X37.163 Y14.116 E0.0727
G1 X37.163 Y14.809 E0.0854
G1 X36.995 Y14.976 E0.0897
G1 X36.995 Y15.669 E0.1024
G1 X37.163 Y15.502 E0.1068
G1 X37.163 Y16.194 E0.1195
G1 X36.995 Y16.362 E0.1238
G1 X36.995 Y17.055 E0.1365
G1 X37.163 Y16.887 E0.1409
G1 X37.163 Y17.580 E0.1536
G1 X36.995 Y17.748 E0.1579
G1 X36.995 Y18.441 E0.1706
G1 X37.163 Y18.273 E0.1749
G1 X37.163 Y18.966 E0.1877
G1 X36.995 Y19.134 E0.1920
G1 X36.995 Y19.827 E0.2047
G1 X37.163 Y19.659 E0.2090
G1 X37.163 Y20.352 E0.2217
G1 X36.995 Y20.519 E0.2261
G1 X36.995 Y21.096 E0.2366
G1 X37.112 Y21.096 E0.2388
G1 X37.163 Y21.045 E0.2401
G1 X37.163 Y21.088 E0.2409
G1 X37.813 Y21.088 E0.2528
G1 X37.805 Y21.096 E0.2530
G1 X38.498 Y21.096 E0.2657
G1 X38.506 Y21.088 E0.2659
G1 X39.199 Y21.088 E0.2786
G1 X39.191 Y21.096 E0.2788
G1 X39.884 Y21.096 E0.2915
