; G-Code generated by Simplify3D(R) Version 3.0.0
; Sep 6, 2017 at 7:21:15 
; Settings Summary
;   processName,Process1
;   applyToModels,riegelfein
;   profileName,juli (modified)
;   profileVersion,2017-06-09 12:06:14
;   baseProfile,German RepRap NEO (modified)
;   printMaterial,
;   printQuality,
;   printExtruders,
;   extruderName,Primary Extruder
;   extruderToolheadNumber,0
;   extruderDiameter,0.5
;   extruderAutoWidth,0
;   extruderWidth,0.49
;   extrusionMultiplier,0.9
;   extruderUseRetract,1
;   extruderRetractionDistance,6.5
;   extruderExtraRestartDistance,0
;   extruderRetractionZLift,0
;   extruderRetractionSpeed,5000
;   extruderUseCoasting,0
;   extruderCoastingDistance,0.2
;   extruderUseWipe,0
;   extruderWipeDistance,5
;   primaryExtruder,0
;   layerHeight,0.1
;   topSolidLayers,4
;   bottomSolidLayers,3
;   perimeterOutlines,3
;   printPerimetersInsideOut,1
;   startPointOption,2
;   startPointOriginX,0
;   startPointOriginY,0
;   startPointOriginZ,300
;   sequentialIslands,0
;   spiralVaseMode,0
;   firstLayerHeightPercentage,140
;   firstLayerWidthPercentage,100
;   firstLayerUnderspeed,0.3
;   useRaft,0
;   raftExtruder,0
;   raftLayers,3
;   raftOffset,3
;   raftSeparationDistance,0.1
;   raftInfill,85
;   disableRaftBaseLayers,0
;   useSkirt,1
;   skirtExtruder,0
;   skirtLayers,1
;   skirtOutlines,5
;   skirtOffset,3
;   usePrimePillar,0
;   primePillarExtruder,999
;   primePillarWidth,12
;   primePillarLocation,7
;   primePillarSpeedMultiplier,1
;   useOozeShield,0
;   oozeShieldExtruder,999
;   oozeShieldOffset,2
;   oozeShieldOutlines,1
;   oozeShieldSidewallShape,1
;   oozeShieldSidewallAngle,30
;   oozeShieldSpeedMultiplier,1
;   infillExtruder,0
;   internalInfillPattern,Full Honeycomb
;   externalInfillPattern,Rectilinear
;   infillPercentage,15
;   outlineOverlapPercentage,15
;   infillExtrusionWidthPercentage,100
;   minInfillLength,3
;   infillLayerInterval,1
;   infillAngles,0,120,-120
;   overlapInfillAngles,0
;   generateSupport,1
;   supportExtruder,0
;   supportInfillPercentage,30
;   supportExtraInflation,0
;   denseSupportLayers,0
;   denseSupportInfillPercentage,75
;   supportLayerInterval,1
;   supportHorizontalPartOffset,1.5
;   supportUpperSeparationLayers,2
;   supportLowerSeparationLayers,2
;   supportType,0
;   supportGridSpacing,4
;   maxOverhangAngle,45
;   supportAngles,45
;   temperatureName,Primary Extruder
;   temperatureNumber,0
;   temperatureSetpointCount,3
;   temperatureSetpointLayers,1,2,3
;   temperatureSetpointTemperatures,207,199,192
;   temperatureStabilizeAtStartup,1
;   temperatureHeatedBed,0
;   temperatureRelayBetweenLayers,0
;   temperatureRelayBetweenLoops,0
;   fanLayers,1,4
;   fanSpeeds,0,100
;   blipFanToFullPower,0
;   adjustSpeedForCooling,1
;   minSpeedLayerTime,15
;   minCoolingSpeedSlowdown,20
;   increaseFanForCooling,0
;   minFanLayerTime,45
;   maxCoolingFanSpeed,100
;   increaseFanForBridging,0
;   bridgingFanSpeed,100
;   use5D,1
;   relativeEdistances,0
;   allowEaxisZeroing,1
;   independentExtruderAxes,0
;   includeM10123,0
;   stickySupport,1
;   applyToolheadOffsets,0
;   gcodeXoffset,0
;   gcodeYoffset,0
;   gcodeZoffset,0
;   overrideMachineDefinition,1
;   machineTypeOverride,0
;   strokeXoverride,150
;   strokeYoverride,150
;   strokeZoverride,150
;   originOffsetXoverride,0
;   originOffsetYoverride,0
;   originOffsetZoverride,0
;   homeXdirOverride,-1
;   homeYdirOverride,-1
;   homeZdirOverride,-1
;   flipXoverride,1
;   flipYoverride,-1
;   flipZoverride,1
;   toolheadOffsets,0,0|0,0|0,0|0,0|0,0|0,0
;   overrideFirmwareConfiguration,0
;   firmwareTypeOverride,RepRap (Marlin/Repetier/Sprinter)
;   GPXconfigOverride,r2
;   baudRateOverride,115200
;   overridePrinterModels,0
;   printerModelsOverride
;   startingGcode,G28 ; home all axes
;   layerChangeGcode,
;   retractionGcode,
;   toolChangeGcode,
;   endingGcode,M104 S0 ; turn off extruder,M140 S0 ; turn off bed,G28 X0  ; home X axis,G28 Y0  ; home Y axis,M84 ; disable motors,M107
;   createX3G,0
;   celebration,0
;   celebrationSong,Random Song
;   createMB5G,0
;   postProcessing,
;   defaultSpeed,2400
;   outlineUnderspeed,0.5
;   solidInfillUnderspeed,0.8
;   supportUnderspeed,0.8
;   rapidXYspeed,3500
;   rapidZspeed,1000
;   minBridgingArea,50
;   bridgingExtraInflation,0
;   bridgingExtrusionMultiplier,1
;   bridgingSpeedMultiplier,1
;   filamentDiameter,1.75
;   filamentPricePerKg,46
;   filamentDensity,1.25
;   useMinPrintHeight,0
;   minPrintHeight,0
;   useMaxPrintHeight,0
;   maxPrintHeight,0
;   useDiaphragm,0
;   diaphragmLayerInterval,20
;   robustSlicing,1
;   mergeAllIntoSolid,0
;   onlyRetractWhenCrossingOutline,1
;   retractBetweenLayers,1
;   useRetractionMinTravel,0
;   retractionMinTravel,3
;   retractWhileWiping,0
;   onlyWipeOutlines,1
;   avoidCrossingOutline,0
;   maxMovementDetourFactor,10
;   toolChangeRetractionDistance,0
;   toolChangeExtraRestartDistance,0
;   toolChangeRetractionSpeed,360
;   allowThinWallGapFill,1
;   thinWallAllowedOverlapPercentage,10
;   horizontalSizeCompensation,0
G90
M82
M106 S0
M104 S207 T0
M109 S207 T0
G28 ; home all axes
G92 E0
G1 E-6.5000 F5000
G1 Z0.140 F1000
; layer 1, Z = 0.14
T0
; tool H0.140 W0.490
; skirt
G1 X14.852 Y50.397 F3500
G1 E0.0000 F1500
G92 E0
G1 X27.719 Y50.397 E0.3303 F720
G1 X28.530 Y50.733 E0.3528
G1 X30.907 Y53.110 E0.4391
G1 X31.243 Y53.921 E0.4616
G1 X31.243 Y82.203 E1.1876
G1 X30.907 Y83.014 E1.2101
G1 X28.530 Y85.391 E1.2964
G1 X27.719 Y85.727 E1.3189
G1 X14.852 Y85.727 E1.6492
G1 X14.042 Y85.391 E1.6717
G1 X11.664 Y83.014 E1.7580
G1 X11.328 Y82.203 E1.7806
G1 X11.328 Y53.921 E2.5065
G1 X11.664 Y53.110 E2.5291
G1 X14.042 Y50.733 E2.6154
G1 X14.852 Y50.397 E2.6379
G1 X14.950 Y50.887 F3500
G92 E0
G1 X27.622 Y50.887 E0.3253 F720
G1 X28.252 Y51.148 E0.3428
G1 X30.492 Y53.388 E0.4241
G1 X30.753 Y54.018 E0.4416
G1 X30.753 Y82.106 E1.1626
G1 X30.492 Y82.736 E1.1801
G1 X28.252 Y84.976 E1.2614
G1 X27.622 Y85.237 E1.2789
G1 X14.950 Y85.237 E1.6042
G1 X14.319 Y84.976 E1.6217
G1 X12.079 Y82.736 E1.7030
G1 X11.818 Y82.106 E1.7205
G1 X11.818 Y54.018 E2.4415
G1 X12.079 Y53.388 E2.4590
G1 X14.319 Y51.148 E2.5403
G1 X14.950 Y50.887 E2.5578
G1 X15.047 Y51.377 F3500
G92 E0
G1 X27.524 Y51.377 E0.3203 F720
G1 X27.975 Y51.563 E0.3328
G1 X30.077 Y53.665 E0.4091
G1 X30.263 Y54.116 E0.4216
G1 X30.263 Y82.008 E1.1376
G1 X30.077 Y82.459 E1.1501
G1 X27.975 Y84.561 E1.2264
G1 X27.524 Y84.747 E1.2389
G1 X15.047 Y84.747 E1.5592
G1 X14.597 Y84.561 E1.5717
G1 X12.495 Y82.459 E1.6480
G1 X12.308 Y82.008 E1.6605
G1 X12.308 Y54.116 E2.3764
G1 X12.495 Y53.665 E2.3890
G1 X14.597 Y51.563 E2.4653
G1 X15.047 Y51.377 E2.4778
G1 X15.144 Y51.867 F3500
G92 E0
G1 X27.427 Y51.867 E0.3153 F720
G1 X27.697 Y51.979 E0.3228
G1 X29.661 Y53.943 E0.3941
G1 X29.773 Y54.213 E0.4016
G1 X29.773 Y81.911 E1.1125
G1 X29.661 Y82.181 E1.1200
G1 X27.697 Y84.145 E1.1913
G1 X27.427 Y84.257 E1.1989
G1 X15.145 Y84.257 E1.5141
G1 X14.874 Y84.145 E1.5216
G1 X12.910 Y82.181 E1.5929
G1 X12.798 Y81.911 E1.6004
G1 X12.798 Y54.213 E2.3114
G1 X12.910 Y53.943 E2.3189
G1 X14.874 Y51.979 E2.3902
G1 X15.145 Y51.867 E2.3977
G1 X15.242 Y52.357 F3500
G92 E0
G1 X27.329 Y52.357 E0.3103 F720
G1 X27.419 Y52.394 E0.3128
G1 X29.246 Y54.221 E0.3791
G1 X29.283 Y54.311 E0.3816
G1 X29.283 Y81.814 E1.0875
G1 X29.246 Y81.904 E1.0900
G1 X27.419 Y83.730 E1.1563
G1 X27.329 Y83.767 E1.1588
G1 X15.242 Y83.767 E1.4691
G1 X15.152 Y83.730 E1.4716
G1 X13.326 Y81.904 E1.5379
G1 X13.288 Y81.814 E1.5404
G1 X13.288 Y54.311 E2.2463
G1 X13.326 Y54.221 E2.2489
G1 X15.152 Y52.394 E2.3151
G1 X15.242 Y52.357 E2.3176
G92 E0
G1 E-6.5000 F5000
; inner perimeter
G1 X17.758 Y56.827 F3500
G1 E0.0000 F5000
G92 E0
G1 X24.813 Y56.827 E0.1811 F600
G1 X24.813 Y75.854 E0.6695
G1 X24.175 Y75.662 E0.6866
G1 X18.074 Y75.662 E0.8432
G1 X17.758 Y75.758 E0.8517
G1 X17.758 Y56.827 E1.3376
; inner perimeter
G1 X17.268 Y56.337 F3500
G92 E0
G1 X25.303 Y56.337 E0.2062 F480
G1 X25.303 Y76.708 E0.7291
G1 X24.842 Y76.375 E0.7438
G1 X24.103 Y76.152 E0.7636
G1 X18.147 Y76.152 E0.9165
G1 X17.268 Y76.421 E0.9400
G1 X17.268 Y56.337 E1.4556
; outer perimeter
G1 X16.778 Y55.847 F3500
G92 E0
G1 X25.793 Y55.847 E0.2314 F360
G1 X25.793 Y80.277 E0.8585
G1 X16.778 Y80.277 E1.0899
G1 X16.778 Y55.847 E1.7170
; inner perimeter
; inner perimeter
; outer perimeter
G1 X18.220 Y76.642 F3500
G92 E0
G1 X17.637 Y76.821 E0.0157 F360
G1 X17.370 Y77.017 E0.0242
G1 X17.202 Y77.210 E0.0307
G1 X17.089 Y77.403 E0.0365
G1 X17.014 Y77.594 E0.0417
G1 X16.972 Y77.786 E0.0468
G1 X16.958 Y77.977 E0.0517
G1 X16.972 Y78.168 E0.0566
G1 X17.014 Y78.360 E0.0617
G1 X17.089 Y78.551 E0.0669
G1 X17.202 Y78.744 E0.0727
G1 X17.370 Y78.937 E0.0792
G1 X17.637 Y79.133 E0.0877
G1 X18.220 Y79.312 E0.1034
G1 X24.031 Y79.312 E0.2526
G1 X24.622 Y79.134 E0.2684
G1 X24.892 Y78.938 E0.2770
G1 X25.062 Y78.745 E0.2836
G1 X25.177 Y78.553 E0.2893
G1 X25.253 Y78.361 E0.2946
G1 X25.297 Y78.169 E0.2997
G1 X25.311 Y77.977 E0.3046
G1 X25.297 Y77.785 E0.3096
G1 X25.253 Y77.593 E0.3146
G1 X25.177 Y77.401 E0.3199
G1 X25.062 Y77.209 E0.3257
G1 X24.892 Y77.016 E0.3323
G1 X24.622 Y76.820 E0.3408
G1 X24.031 Y76.642 E0.3567
G1 X18.220 Y76.642 E0.5058
G92 E0
G1 E-6.5000 F5000
; gap fill
G1 X17.200 Y79.713 F3500
G1 E0.0000 F5000
G92 E0
G1 X17.418 Y79.495 E0.0079 F720
G1 X17.445 Y79.515 E0.0088
G1 X17.939 Y79.667 E0.0220
G1 X17.750 Y79.856 E0.0289
G1 X18.443 Y79.856 E0.0467
G1 X18.565 Y79.734 E0.0511
G1 X19.258 Y79.734 E0.0689
G1 X19.136 Y79.856 E0.0734
G1 X19.829 Y79.856 E0.0911
G1 X19.951 Y79.734 E0.0956
G1 X20.644 Y79.734 E0.1134
G1 X20.522 Y79.856 E0.1178
G1 X21.215 Y79.856 E0.1356
G1 X21.337 Y79.734 E0.1400
G1 X22.030 Y79.734 E0.1578
G1 X21.908 Y79.856 E0.1622
G1 X22.601 Y79.856 E0.1800
G1 X22.723 Y79.734 E0.1845
G1 X23.416 Y79.734 E0.2023
G1 X23.294 Y79.856 E0.2067
G1 X23.987 Y79.856 E0.2245
G1 X24.116 Y79.727 E0.2292
G1 X24.811 Y79.517 E0.2478
G1 X25.177 Y79.252 E0.2594
G1 X25.372 Y79.031 E0.2670
G1 X25.372 Y79.164 E0.2704
G1 X24.680 Y79.856 E0.2955
G92 E0
G1 E-6.5000 F5000
; solid layer
G1 X24.393 Y75.292 F3500
G1 E0.0000 F5000
G92 E0
G1 X24.397 Y75.288 E0.0001 F576
G1 X24.397 Y74.595 E0.0179
G1 X23.747 Y75.245 E0.0415
G1 X23.054 Y75.245 E0.0593
G1 X24.397 Y73.902 E0.1081
G1 X24.397 Y73.210 E0.1258
G1 X22.361 Y75.245 E0.1997
G1 X21.668 Y75.245 E0.2175
G1 X24.397 Y72.517 E0.3166
G1 X24.397 Y71.824 E0.3344
G1 X20.975 Y75.245 E0.4586
G1 X20.282 Y75.245 E0.4764
G1 X24.397 Y71.131 E0.6257
G1 X24.397 Y70.438 E0.6435
G1 X19.589 Y75.245 E0.8181
G1 X18.896 Y75.245 E0.8358
G1 X24.397 Y69.745 E1.0355
G1 X24.397 Y69.052 E1.0533
G1 X18.203 Y75.245 E1.2781
G1 X18.175 Y75.245 E1.2789
G1 X18.175 Y74.580 E1.2959
G1 X24.397 Y68.359 E1.5218
G1 X24.397 Y67.666 E1.5396
G1 X18.175 Y73.887 E1.7654
G1 X18.175 Y73.195 E1.7832
G1 X24.397 Y66.973 E2.0091
G1 X24.397 Y66.280 E2.0268
G1 X18.175 Y72.502 E2.2527
G1 X18.175 Y71.809 E2.2705
G1 X24.397 Y65.587 E2.4963
G1 X24.397 Y64.894 E2.5141
G1 X18.175 Y71.116 E2.7400
G1 X18.175 Y70.423 E2.7578
G1 X24.397 Y64.201 E2.9836
G1 X24.397 Y63.508 E3.0014
G1 X18.175 Y69.730 E3.2273
G1 X18.175 Y69.037 E3.2450
G1 X24.397 Y62.815 E3.4709
G1 X24.397 Y62.122 E3.4887
G1 X18.175 Y68.344 E3.7145
G1 X18.175 Y67.651 E3.7323
G1 X24.397 Y61.429 E3.9582
G1 X24.397 Y60.736 E3.9760
G1 X18.175 Y66.958 E4.2018
G1 X18.175 Y66.265 E4.2196
G1 X24.397 Y60.043 E4.4455
G1 X24.397 Y59.350 E4.4632
G1 X18.175 Y65.572 E4.6891
G1 X18.175 Y64.879 E4.7069
G1 X24.397 Y58.657 E4.9327
G1 X24.397 Y57.964 E4.9505
G1 X18.175 Y64.186 E5.1764
G1 X18.175 Y63.493 E5.1942
G1 X24.397 Y57.271 E5.4200
G1 X24.397 Y57.243 E5.4207
G1 X23.731 Y57.243 E5.4378
G1 X18.175 Y62.800 E5.6395
G1 X18.175 Y62.107 E5.6573
G1 X23.038 Y57.243 E5.8338
G1 X22.345 Y57.243 E5.8516
G1 X18.175 Y61.414 E6.0030
G1 X18.175 Y60.721 E6.0208
G1 X21.653 Y57.243 E6.1471
G1 X20.960 Y57.243 E6.1649
G1 X18.175 Y60.028 E6.2659
G1 X18.175 Y59.335 E6.2837
G1 X20.267 Y57.243 E6.3597
G1 X19.574 Y57.243 E6.3774
G1 X18.175 Y58.642 E6.4282
G1 X18.175 Y57.949 E6.4460
G1 X18.881 Y57.243 E6.4716
G1 X18.188 Y57.243 E6.4894
G1 X18.175 Y57.256 E6.4899
G92 E0
G1 E-6.5000 F5000
; layer 2, Z = 0.24
M104 S199 T0
; tool H0.100 W0.490
; inner perimeter
G1 X17.507 Y56.827 F3500
G1 Z0.240 F1000
G1 E0.0000 F5000
G92 E0
G1 X25.024 Y56.827 E0.1378 F2000
G1 X25.024 Y75.918 E0.4878
G1 X24.175 Y75.662 E0.5041
G1 X18.074 Y75.662 E0.6160
G1 X17.507 Y75.835 E0.6268
G1 X17.507 Y56.827 E0.9753
; inner perimeter
G1 X17.017 Y56.337 F3500
G92 E0
G1 X25.514 Y56.337 E0.1558 F1600
G1 X25.514 Y76.861 E0.5321
G1 X24.842 Y76.375 E0.5473
G1 X24.103 Y76.152 E0.5615
G1 X18.147 Y76.152 E0.6707
G1 X17.413 Y76.376 E0.6847
G1 X17.017 Y76.668 E0.6938
G1 X17.017 Y56.337 E1.0665
G92 E0
G1 E-6.5000 F5000
G1 X25.514 Y79.093 F3500
G1 E0.0000 F5000
G92 E0
G1 X25.514 Y79.787 E0.0127 F1600
G1 X24.555 Y79.787 E0.0303
G1 X25.514 Y79.093 E0.0520
G92 E0
G1 E-6.5000 F5000
; outer perimeter
G1 X16.527 Y55.847 F3500
G1 E0.0000 F5000
G92 E0
G1 X26.004 Y55.847 E0.1738 F1200
G1 X26.004 Y80.277 E0.6217
G1 X16.527 Y80.277 E0.7954
G1 X16.527 Y55.847 E1.2434
; inner perimeter
; inner perimeter
; outer perimeter
G1 X18.220 Y76.642 F3500
G92 E0
G1 X17.637 Y76.821 E0.0112 F1200
G1 X17.370 Y77.017 E0.0173
G1 X17.202 Y77.210 E0.0220
G1 X17.089 Y77.403 E0.0260
G1 X17.014 Y77.594 E0.0298
G1 X16.972 Y77.786 E0.0334
G1 X16.958 Y77.977 E0.0369
G1 X16.972 Y78.168 E0.0405
G1 X17.014 Y78.360 E0.0440
G1 X17.089 Y78.551 E0.0478
G1 X17.202 Y78.744 E0.0519
G1 X17.370 Y78.937 E0.0566
G1 X17.637 Y79.133 E0.0627
G1 X18.220 Y79.312 E0.0739
G1 X24.031 Y79.312 E0.1804
G1 X24.622 Y79.134 E0.1917
G1 X24.892 Y78.938 E0.1978
G1 X25.062 Y78.745 E0.2026
G1 X25.177 Y78.553 E0.2067
G1 X25.253 Y78.361 E0.2105
G1 X25.297 Y78.169 E0.2141
G1 X25.311 Y77.977 E0.2176
G1 X25.297 Y77.785 E0.2211
G1 X25.253 Y77.593 E0.2247
G1 X25.177 Y77.401 E0.2285
G1 X25.062 Y77.209 E0.2326
G1 X24.892 Y77.016 E0.2373
G1 X24.622 Y76.820 E0.2435
G1 X24.031 Y76.642 E0.2548
G1 X18.220 Y76.642 E0.3613
G92 E0
G1 E-6.5000 F5000
; gap fill
G1 X17.084 Y79.856 F3500
G1 E0.0000 F5000
G92 E0
G1 X16.948 Y79.720 E0.0035 F2400
G1 X16.948 Y79.094 E0.0150
G1 X17.082 Y79.248 E0.0187
G1 X17.413 Y79.492 E0.0263
G1 X17.777 Y79.856 E0.0357
G1 X18.470 Y79.856 E0.0484
G1 X18.348 Y79.734 E0.0516
G1 X19.041 Y79.734 E0.0643
G1 X19.163 Y79.856 E0.0675
G1 X19.856 Y79.856 E0.0802
G1 X19.734 Y79.734 E0.0833
G1 X20.427 Y79.734 E0.0960
G1 X20.549 Y79.856 E0.0992
G1 X21.242 Y79.856 E0.1119
G1 X21.119 Y79.734 E0.1151
G1 X21.812 Y79.734 E0.1278
G1 X21.935 Y79.856 E0.1310
G1 X22.628 Y79.856 E0.1437
G1 X22.505 Y79.734 E0.1468
G1 X23.198 Y79.734 E0.1595
G1 X23.321 Y79.856 E0.1627
G1 X23.750 Y79.856 E0.1706
G1 X23.903 Y79.745 E0.1740
G1 X23.891 Y79.734 E0.1743
G92 E0
G1 E-6.5000 F5000
; solid layer
G1 X17.923 Y75.151 F3500
G1 E0.0000 F5000
G92 E0
G1 X18.017 Y75.245 E0.0024 F1920
G1 X18.710 Y75.245 E0.0151
G1 X17.923 Y74.458 E0.0355
G1 X17.923 Y73.765 E0.0482
G1 X19.403 Y75.245 E0.0866
G1 X20.096 Y75.245 E0.0993
G1 X17.923 Y73.073 E0.1557
G1 X17.923 Y72.380 E0.1684
G1 X20.789 Y75.245 E0.2427
G1 X21.482 Y75.245 E0.2554
G1 X17.923 Y71.687 E0.3477
G1 X17.923 Y70.994 E0.3604
G1 X22.175 Y75.245 E0.4706
G1 X22.868 Y75.245 E0.4833
G1 X17.923 Y70.301 E0.6115
G1 X17.923 Y69.608 E0.6242
G1 X23.561 Y75.245 E0.7704
G1 X24.237 Y75.245 E0.7828
G1 X24.261 Y75.253 E0.7833
G1 X17.923 Y68.915 E0.9476
G1 X17.923 Y68.222 E0.9603
G1 X24.607 Y74.906 E1.1336
G1 X24.607 Y74.213 E1.1463
G1 X17.923 Y67.529 E1.3196
G1 X17.923 Y66.836 E1.3324
G1 X24.607 Y73.520 E1.5057
G1 X24.607 Y72.827 E1.5184
G1 X17.923 Y66.143 E1.6917
G1 X17.923 Y65.450 E1.7044
G1 X24.607 Y72.134 E1.8777
G1 X24.607 Y71.441 E1.8904
G1 X17.923 Y64.757 E2.0637
G1 X17.923 Y64.064 E2.0764
G1 X24.607 Y70.748 E2.2497
G1 X24.607 Y70.055 E2.2624
G1 X17.923 Y63.371 E2.4358
G1 X17.923 Y62.678 E2.4485
G1 X24.607 Y69.362 E2.6218
G1 X24.607 Y68.669 E2.6345
G1 X17.923 Y61.985 E2.8078
G1 X17.923 Y61.292 E2.8205
G1 X24.607 Y67.976 E2.9938
G1 X24.607 Y67.283 E3.0065
G1 X17.923 Y60.599 E3.1798
G1 X17.923 Y59.906 E3.1925
G1 X24.607 Y66.590 E3.3659
