; G-Code generated by Simplify3D(R) Version 3.0.0
; Sep 3, 2017 at 11:17:47 
; Settings Summary
;   processName,Process1
;   applyToModels,Riegel
;   profileName,juli (modified)
;   profileVersion,2017-06-09 12:06:14
;   baseProfile,German RepRap NEO (modified)
;   printMaterial,
;   printQuality,
;   printExtruders,
;   extruderName,Primary Extruder
;   extruderToolheadNumber,0
;   extruderDiameter,0.5
;   extruderAutoWidth,0
;   extruderWidth,0.49
;   extrusionMultiplier,0.9
;   extruderUseRetract,1
;   extruderRetractionDistance,6.5
;   extruderExtraRestartDistance,0
;   extruderRetractionZLift,0
;   extruderRetractionSpeed,5000
;   extruderUseCoasting,0
;   extruderCoastingDistance,0.2
;   extruderUseWipe,0
;   extruderWipeDistance,5
;   primaryExtruder,0
;   layerHeight,0.1
;   topSolidLayers,3
;   bottomSolidLayers,3
;   perimeterOutlines,3
;   printPerimetersInsideOut,1
;   startPointOption,2
;   startPointOriginX,0
;   startPointOriginY,0
;   startPointOriginZ,300
;   sequentialIslands,0
;   spiralVaseMode,0
;   firstLayerHeightPercentage,150
;   firstLayerWidthPercentage,100
;   firstLayerUnderspeed,0.3
;   useRaft,0
;   raftExtruder,0
;   raftLayers,3
;   raftOffset,3
;   raftSeparationDistance,0.1
;   raftInfill,85
;   disableRaftBaseLayers,0
;   useSkirt,1
;   skirtExtruder,0
;   skirtLayers,1
;   skirtOutlines,6
;   skirtOffset,3
;   usePrimePillar,0
;   primePillarExtruder,999
;   primePillarWidth,12
;   primePillarLocation,7
;   primePillarSpeedMultiplier,1
;   useOozeShield,0
;   oozeShieldExtruder,999
;   oozeShieldOffset,2
;   oozeShieldOutlines,1
;   oozeShieldSidewallShape,1
;   oozeShieldSidewallAngle,30
;   oozeShieldSpeedMultiplier,1
;   infillExtruder,0
;   internalInfillPattern,Full Honeycomb
;   externalInfillPattern,Rectilinear
;   infillPercentage,15
;   outlineOverlapPercentage,15
;   infillExtrusionWidthPercentage,100
;   minInfillLength,3
;   infillLayerInterval,1
;   infillAngles,0,120,-120
;   overlapInfillAngles,0
;   generateSupport,1
;   supportExtruder,0
;   supportInfillPercentage,30
;   supportExtraInflation,0
;   denseSupportLayers,0
;   denseSupportInfillPercentage,75
;   supportLayerInterval,1
;   supportHorizontalPartOffset,2
;   supportUpperSeparationLayers,2
;   supportLowerSeparationLayers,2
;   supportType,0
;   supportGridSpacing,4
;   maxOverhangAngle,45
;   supportAngles,45
;   temperatureName,Primary Extruder
;   temperatureNumber,0
;   temperatureSetpointCount,3
;   temperatureSetpointLayers,1,2,3
;   temperatureSetpointTemperatures,207,199,192
;   temperatureStabilizeAtStartup,1
;   temperatureHeatedBed,0
;   temperatureRelayBetweenLayers,0
;   temperatureRelayBetweenLoops,0
;   fanLayers,1,4
;   fanSpeeds,0,100
;   blipFanToFullPower,0
;   adjustSpeedForCooling,1
;   minSpeedLayerTime,15
;   minCoolingSpeedSlowdown,20
;   increaseFanForCooling,0
;   minFanLayerTime,45
;   maxCoolingFanSpeed,100
;   increaseFanForBridging,0
;   bridgingFanSpeed,100
;   use5D,1
;   relativeEdistances,0
;   allowEaxisZeroing,1
;   independentExtruderAxes,0
;   includeM10123,0
;   stickySupport,1
;   applyToolheadOffsets,0
;   gcodeXoffset,0
;   gcodeYoffset,0
;   gcodeZoffset,0
;   overrideMachineDefinition,1
;   machineTypeOverride,0
;   strokeXoverride,150
;   strokeYoverride,150
;   strokeZoverride,150
;   originOffsetXoverride,0
;   originOffsetYoverride,0
;   originOffsetZoverride,0
;   homeXdirOverride,-1
;   homeYdirOverride,-1
;   homeZdirOverride,-1
;   flipXoverride,1
;   flipYoverride,-1
;   flipZoverride,1
;   toolheadOffsets,0,0|0,0|0,0|0,0|0,0|0,0
;   overrideFirmwareConfiguration,0
;   firmwareTypeOverride,RepRap (Marlin/Repetier/Sprinter)
;   GPXconfigOverride,r2
;   baudRateOverride,115200
;   overridePrinterModels,0
;   printerModelsOverride
;   startingGcode,G28 ; home all axes
;   layerChangeGcode,
;   retractionGcode,
;   toolChangeGcode,
;   endingGcode,M104 S0 ; turn off extruder,M140 S0 ; turn off bed,G28 X0  ; home X axis,G28 Y0  ; home Y axis,M84 ; disable motors,M107
;   createX3G,0
;   celebration,0
;   celebrationSong,Random Song
;   createMB5G,0
;   postProcessing,
;   defaultSpeed,2400
;   outlineUnderspeed,0.5
;   solidInfillUnderspeed,0.8
;   supportUnderspeed,0.8
;   rapidXYspeed,3500
;   rapidZspeed,1000
;   minBridgingArea,50
;   bridgingExtraInflation,0
;   bridgingExtrusionMultiplier,1
;   bridgingSpeedMultiplier,1
;   filamentDiameter,1.75
;   filamentPricePerKg,46
;   filamentDensity,1.25
;   useMinPrintHeight,0
;   minPrintHeight,0
;   useMaxPrintHeight,0
;   maxPrintHeight,0
;   useDiaphragm,0
;   diaphragmLayerInterval,20
;   robustSlicing,1
;   mergeAllIntoSolid,0
;   onlyRetractWhenCrossingOutline,1
;   retractBetweenLayers,1
;   useRetractionMinTravel,0
;   retractionMinTravel,3
;   retractWhileWiping,0
;   onlyWipeOutlines,1
;   avoidCrossingOutline,0
;   maxMovementDetourFactor,10
;   toolChangeRetractionDistance,0
;   toolChangeExtraRestartDistance,0
;   toolChangeRetractionSpeed,360
;   allowThinWallGapFill,1
;   thinWallAllowedOverlapPercentage,10
;   horizontalSizeCompensation,0
G90
M82
M106 S0
M104 S207 T0
M109 S207 T0
G28 ; home all axes
G92 E0
G1 E-6.5000 F5000
G1 Z0.150 F1000
; layer 1, Z = 0.15
T0
; tool H0.150 W0.490
; skirt
G1 X21.047 Y82.832 F3500
G1 E0.0000 F1500
G92 E0
G1 X21.490 Y82.738 E0.0125 F720
G1 X21.629 Y82.716 E0.0163
G1 X22.218 Y82.654 E0.0326
G1 X22.288 Y82.648 E0.0346
G1 X22.515 Y82.637 E0.0408
G1 X22.586 Y82.635 E0.0427
G1 X31.277 Y82.635 E0.2818
G1 X31.360 Y82.637 E0.2841
G1 X31.628 Y82.654 E0.2914
G1 X31.710 Y82.661 E0.2937
G1 X32.315 Y82.736 E0.3105
G1 X32.475 Y82.766 E0.3150
G1 X32.987 Y82.894 E0.3295
G1 X33.143 Y82.943 E0.3340
G1 X33.831 Y83.206 E0.3542
G1 X33.977 Y83.272 E0.3586
G1 X34.433 Y83.513 E0.3728
G1 X34.570 Y83.596 E0.3772
G1 X35.167 Y84.006 E0.3971
G1 X35.288 Y84.101 E0.4014
G1 X35.663 Y84.427 E0.4150
G1 X35.773 Y84.535 E0.4193
G1 X36.250 Y85.059 E0.4388
G1 X36.344 Y85.173 E0.4428
G1 X36.624 Y85.558 E0.4559
G1 X36.704 Y85.681 E0.4600
G1 X37.050 Y86.284 E0.4791
G1 X37.114 Y86.411 E0.4830
G1 X37.299 Y86.832 E0.4956
G1 X37.350 Y86.965 E0.4995
G1 X37.558 Y87.617 E0.5184
G1 X37.594 Y87.751 E0.5222
G1 X37.685 Y88.190 E0.5345
G1 X37.707 Y88.327 E0.5383
G1 X37.766 Y88.893 E0.5540
G1 X37.771 Y88.962 E0.5559
G1 X37.783 Y89.186 E0.5621
G1 X37.784 Y89.256 E0.5640
G1 X37.784 Y94.224 E0.7006
G1 X37.783 Y94.294 E0.7025
G1 X37.771 Y94.522 E0.7088
G1 X37.765 Y94.593 E0.7108
G1 X37.706 Y95.158 E0.7264
G1 X37.683 Y95.297 E0.7303
G1 X37.588 Y95.745 E0.7429
G1 X37.551 Y95.881 E0.7467
G1 X37.338 Y96.535 E0.7657
G1 X37.286 Y96.670 E0.7696
G1 X37.094 Y97.096 E0.7825
G1 X37.028 Y97.225 E0.7865
G1 X36.676 Y97.826 E0.8056
G1 X36.593 Y97.950 E0.8097
G1 X36.307 Y98.335 E0.8229
G1 X36.211 Y98.449 E0.8270
G1 X35.729 Y98.966 E0.8464
G1 X35.619 Y99.071 E0.8507
G1 X35.243 Y99.392 E0.8642
G1 X35.121 Y99.485 E0.8685
G1 X34.526 Y99.886 E0.8882
G1 X34.390 Y99.966 E0.8925
G1 X33.939 Y100.199 E0.9065
G1 X33.795 Y100.262 E0.9108
G1 X33.115 Y100.518 E0.9308
G1 X32.962 Y100.565 E0.9352
G1 X32.458 Y100.689 E0.9495
G1 X32.301 Y100.717 E0.9539
G1 X31.702 Y100.790 E0.9704
G1 X31.621 Y100.798 E0.9727
G1 X31.358 Y100.814 E0.9799
G1 X31.276 Y100.816 E0.9822
G1 X22.591 Y100.816 E1.2210
G1 X22.524 Y100.815 E1.2229
G1 X22.305 Y100.804 E1.2289
G1 X22.238 Y100.799 E1.2308
G1 X21.660 Y100.740 E1.2467
G1 X21.526 Y100.720 E1.2505
G1 X21.095 Y100.632 E1.2626
G1 X20.963 Y100.598 E1.2663
G1 X20.297 Y100.390 E1.2855
G1 X20.166 Y100.341 E1.2894
G1 X19.748 Y100.161 E1.3019
G1 X19.622 Y100.099 E1.3057
G1 X19.003 Y99.751 E1.3252
G1 X18.879 Y99.673 E1.3293
G1 X18.494 Y99.397 E1.3423
G1 X18.379 Y99.306 E1.3463
G1 X17.838 Y98.822 E1.3663
G1 X17.730 Y98.713 E1.3705
G1 X17.399 Y98.341 E1.3842
G1 X17.303 Y98.221 E1.3885
G1 X16.876 Y97.613 E1.4089
G1 X16.791 Y97.475 E1.4133
G1 X16.545 Y97.017 E1.4276
G1 X16.477 Y96.871 E1.4321
G1 X16.200 Y96.165 E1.4529
G1 X16.149 Y96.006 E1.4575
G1 X16.016 Y95.485 E1.4723
G1 X15.984 Y95.321 E1.4769
G1 X15.905 Y94.693 E1.4943
G1 X15.896 Y94.608 E1.4967
G1 X15.879 Y94.334 E1.5042
G1 X15.876 Y94.248 E1.5066
G1 X15.876 Y89.237 E1.6444
G1 X15.879 Y89.155 E1.6466
G1 X15.895 Y88.891 E1.6539
G1 X15.902 Y88.809 E1.6562
G1 X15.978 Y88.188 E1.6734
G1 X16.008 Y88.029 E1.6778
G1 X16.133 Y87.522 E1.6922
G1 X16.181 Y87.368 E1.6966
G1 X16.447 Y86.664 E1.7173
G1 X16.512 Y86.519 E1.7217
G1 X16.749 Y86.064 E1.7358
G1 X16.830 Y85.928 E1.7402
G1 X17.248 Y85.313 E1.7606
G1 X17.342 Y85.192 E1.7648
G1 X17.665 Y84.816 E1.7785
G1 X17.772 Y84.706 E1.7827
G1 X18.308 Y84.211 E1.8028
G1 X18.422 Y84.116 E1.8068
G1 X18.807 Y83.833 E1.8200
G1 X18.931 Y83.751 E1.8241
G1 X19.552 Y83.391 E1.8438
G1 X19.680 Y83.326 E1.8477
G1 X20.103 Y83.137 E1.8605
G1 X20.237 Y83.086 E1.8644
G1 X20.911 Y82.868 E1.8839
G1 X21.047 Y82.832 E1.8878
G1 X21.161 Y83.308 F3500
G92 E0
G1 X21.579 Y83.220 E0.0118 F720
G1 X21.692 Y83.202 E0.0149
G1 X22.263 Y83.142 E0.0307
G1 X22.320 Y83.137 E0.0323
G1 X22.534 Y83.126 E0.0382
G1 X22.592 Y83.125 E0.0398
G1 X31.270 Y83.125 E0.2784
G1 X31.337 Y83.127 E0.2803
G1 X31.590 Y83.142 E0.2872
G1 X31.658 Y83.149 E0.2891
G1 X32.240 Y83.221 E0.3052
G1 X32.371 Y83.245 E0.3089
G1 X32.854 Y83.366 E0.3226
G1 X32.982 Y83.406 E0.3263
G1 X33.642 Y83.659 E0.3457
G1 X33.761 Y83.713 E0.3493
G1 X34.192 Y83.940 E0.3627
G1 X34.304 Y84.007 E0.3663
G1 X34.877 Y84.402 E0.3855
G1 X34.977 Y84.479 E0.3889
G1 X35.330 Y84.787 E0.4018
G1 X35.420 Y84.875 E0.4053
G1 X35.879 Y85.379 E0.4240
G1 X35.956 Y85.472 E0.4273
G1 X36.220 Y85.835 E0.4397
G1 X36.286 Y85.937 E0.4430
G1 X36.619 Y86.517 E0.4614
G1 X36.671 Y86.621 E0.4646
G1 X36.846 Y87.017 E0.4765
G1 X36.887 Y87.126 E0.4797
G1 X37.088 Y87.754 E0.4978
G1 X37.117 Y87.864 E0.5010
G1 X37.203 Y88.278 E0.5126
G1 X37.221 Y88.390 E0.5157
G1 X37.278 Y88.937 E0.5309
G1 X37.282 Y88.994 E0.5324
G1 X37.293 Y89.205 E0.5383
G1 X37.294 Y89.262 E0.5398
G1 X37.294 Y94.217 E0.6761
G1 X37.293 Y94.275 E0.6777
G1 X37.282 Y94.490 E0.6836
G1 X37.277 Y94.548 E0.6852
G1 X37.220 Y95.093 E0.7003
G1 X37.201 Y95.208 E0.7035
G1 X37.111 Y95.630 E0.7153
G1 X37.081 Y95.742 E0.7185
G1 X36.876 Y96.370 E0.7367
G1 X36.834 Y96.481 E0.7400
G1 X36.653 Y96.883 E0.7521
G1 X36.598 Y96.989 E0.7554
G1 X36.260 Y97.567 E0.7738
G1 X36.192 Y97.668 E0.7771
G1 X35.922 Y98.031 E0.7896
G1 X35.844 Y98.125 E0.7929
G1 X35.381 Y98.621 E0.8116
G1 X35.290 Y98.708 E0.8150
G1 X34.935 Y99.010 E0.8279
G1 X34.835 Y99.086 E0.8313
G1 X34.264 Y99.471 E0.8503
G1 X34.153 Y99.537 E0.8538
G1 X33.727 Y99.757 E0.8670
G1 X33.609 Y99.809 E0.8705
G1 X32.956 Y100.054 E0.8897
G1 X32.831 Y100.093 E0.8933
G1 X32.356 Y100.209 E0.9068
G1 X32.227 Y100.233 E0.9104
G1 X31.650 Y100.303 E0.9264
G1 X31.584 Y100.309 E0.9282
G1 X31.336 Y100.324 E0.9350
G1 X31.269 Y100.326 E0.9369
G1 X22.598 Y100.326 E1.1754
G1 X22.542 Y100.325 E1.1769
G1 X22.336 Y100.315 E1.1826
G1 X22.281 Y100.310 E1.1841
G1 X21.722 Y100.254 E1.1995
G1 X21.612 Y100.237 E1.2026
G1 X21.205 Y100.154 E1.2140
G1 X21.097 Y100.126 E1.2171
G1 X20.456 Y99.926 E1.2356
G1 X20.348 Y99.886 E1.2387
G1 X19.954 Y99.716 E1.2505
G1 X19.851 Y99.665 E1.2537
G1 X19.255 Y99.331 E1.2725
G1 X19.154 Y99.266 E1.2758
G1 X18.790 Y99.006 E1.2881
G1 X18.696 Y98.931 E1.2914
G1 X18.175 Y98.466 E1.3106
G1 X18.086 Y98.377 E1.3140
G1 X17.774 Y98.026 E1.3270
G1 X17.696 Y97.927 E1.3304
G1 X17.285 Y97.343 E1.3501
G1 X17.216 Y97.231 E1.3537
G1 X16.983 Y96.798 E1.3672
G1 X16.928 Y96.678 E1.3708
G1 X16.662 Y96.000 E1.3909
G1 X16.620 Y95.870 E1.3946
G1 X16.494 Y95.378 E1.4086
G1 X16.469 Y95.244 E1.4123
G1 X16.392 Y94.639 E1.4291
G1 X16.385 Y94.569 E1.4310
G1 X16.369 Y94.310 E1.4382
G1 X16.366 Y94.241 E1.4401
G1 X16.366 Y89.245 E1.5775
G1 X16.368 Y89.178 E1.5793
G1 X16.383 Y88.928 E1.5862
G1 X16.390 Y88.861 E1.5881
G1 X16.463 Y88.263 E1.6047
G1 X16.487 Y88.132 E1.6083
G1 X16.605 Y87.654 E1.6219
G1 X16.644 Y87.527 E1.6255
G1 X16.900 Y86.851 E1.6454
G1 X16.953 Y86.732 E1.6490
G1 X17.177 Y86.303 E1.6623
G1 X17.243 Y86.191 E1.6658
G1 X17.645 Y85.601 E1.6855
G1 X17.722 Y85.501 E1.6889
G1 X18.027 Y85.147 E1.7018
G1 X18.115 Y85.056 E1.7053
G1 X18.631 Y84.580 E1.7246
G1 X18.724 Y84.503 E1.7279
G1 X19.087 Y84.235 E1.7403
G1 X19.188 Y84.168 E1.7437
G1 X19.787 Y83.821 E1.7627
G1 X19.891 Y83.768 E1.7659
G1 X20.290 Y83.590 E1.7779
G1 X20.400 Y83.548 E1.7811
G1 X21.050 Y83.338 E1.7999
G1 X21.161 Y83.308 E1.8031
G1 X21.275 Y83.785 F3500
G92 E0
G1 X21.668 Y83.702 E0.0111 F720
G1 X21.756 Y83.688 E0.0135
G1 X22.308 Y83.630 E0.0288
G1 X22.352 Y83.626 E0.0300
G1 X22.554 Y83.616 E0.0355
G1 X22.598 Y83.615 E0.0368
G1 X31.262 Y83.615 E0.2750
G1 X31.315 Y83.616 E0.2765
G1 X31.552 Y83.631 E0.2830
G1 X31.605 Y83.636 E0.2845
G1 X32.165 Y83.705 E0.3000
G1 X32.267 Y83.724 E0.3029
G1 X32.721 Y83.838 E0.3157
G1 X32.821 Y83.869 E0.3186
G1 X33.453 Y84.111 E0.3372
G1 X33.546 Y84.153 E0.3400
G1 X33.951 Y84.366 E0.3526
G1 X34.038 Y84.419 E0.3554
G1 X34.588 Y84.798 E0.3738
G1 X34.665 Y84.858 E0.3765
G1 X34.997 Y85.147 E0.3886
G1 X35.067 Y85.216 E0.3913
G1 X35.508 Y85.699 E0.4093
G1 X35.568 Y85.772 E0.4119
G1 X35.817 Y86.113 E0.4235
G1 X35.868 Y86.192 E0.4261
G1 X36.187 Y86.749 E0.4437
G1 X36.228 Y86.830 E0.4462
G1 X36.392 Y87.203 E0.4574
G1 X36.424 Y87.288 E0.4599
G1 X36.617 Y87.891 E0.4773
G1 X36.640 Y87.976 E0.4798
G1 X36.721 Y88.366 E0.4907
G1 X36.735 Y88.453 E0.4931
G1 X36.789 Y88.981 E0.5077
G1 X36.793 Y89.026 E0.5090
G1 X36.803 Y89.224 E0.5144
G1 X36.804 Y89.269 E0.5157
G1 X36.804 Y94.211 E0.6516
G1 X36.803 Y94.256 E0.6528
G1 X36.793 Y94.458 E0.6584
G1 X36.789 Y94.503 E0.6596
G1 X36.734 Y95.029 E0.6742
G1 X36.720 Y95.118 E0.6767
G1 X36.635 Y95.515 E0.6878
G1 X36.612 Y95.602 E0.6903
G1 X36.415 Y96.206 E0.7078
G1 X36.381 Y96.292 E0.7103
G1 X36.211 Y96.670 E0.7217
G1 X36.169 Y96.752 E0.7242
G1 X35.844 Y97.307 E0.7419
G1 X35.792 Y97.386 E0.7445
G1 X35.537 Y97.728 E0.7562
G1 X35.476 Y97.800 E0.7588
G1 X35.032 Y98.277 E0.7768
G1 X34.961 Y98.344 E0.7794
G1 X34.628 Y98.629 E0.7915
G1 X34.550 Y98.688 E0.7942
G1 X34.002 Y99.057 E0.8124
G1 X33.916 Y99.108 E0.8151
G1 X33.515 Y99.314 E0.8275
G1 X33.424 Y99.355 E0.8303
G1 X32.798 Y99.590 E0.8487
G1 X32.700 Y99.620 E0.8515
G1 X32.254 Y99.730 E0.8641
G1 X32.153 Y99.748 E0.8669
G1 X31.598 Y99.816 E0.8823
G1 X31.547 Y99.820 E0.8837
G1 X31.313 Y99.835 E0.8901
G1 X31.261 Y99.836 E0.8916
G1 X22.604 Y99.836 E1.1297
G1 X22.561 Y99.835 E1.1309
G1 X22.367 Y99.825 E1.1362
G1 X22.324 Y99.822 E1.1374
G1 X21.783 Y99.768 E1.1523
G1 X21.698 Y99.755 E1.1547
G1 X21.315 Y99.676 E1.1654
G1 X21.231 Y99.655 E1.1678
G1 X20.614 Y99.462 E1.1856
G1 X20.530 Y99.431 E1.1881
G1 X20.160 Y99.271 E1.1992
G1 X20.080 Y99.232 E1.2016
G1 X19.506 Y98.910 E1.2197
G1 X19.427 Y98.860 E1.2223
G1 X19.086 Y98.615 E1.2338
G1 X19.013 Y98.557 E1.2364
G1 X18.512 Y98.110 E1.2549
G1 X18.443 Y98.041 E1.2576
G1 X18.150 Y97.711 E1.2697
G1 X18.089 Y97.634 E1.2724
G1 X17.694 Y97.073 E1.2913
G1 X17.640 Y96.986 E1.2941
G1 X17.422 Y96.579 E1.3068
G1 X17.379 Y96.486 E1.3096
G1 X17.123 Y95.835 E1.3288
G1 X17.091 Y95.734 E1.3317
G1 X16.973 Y95.272 E1.3449
G1 X16.953 Y95.167 E1.3478
G1 X16.879 Y94.585 E1.3639
G1 X16.874 Y94.531 E1.3654
G1 X16.858 Y94.287 E1.3721
G1 X16.856 Y94.233 E1.3736
G1 X16.856 Y89.252 E1.5106
G1 X16.858 Y89.200 E1.5120
G1 X16.872 Y88.966 E1.5185
G1 X16.877 Y88.914 E1.5199
G1 X16.947 Y88.337 E1.5359
G1 X16.966 Y88.235 E1.5388
G1 X17.077 Y87.785 E1.5515
G1 X17.108 Y87.687 E1.5543
G1 X17.354 Y87.038 E1.5734
G1 X17.395 Y86.945 E1.5762
G1 X17.605 Y86.542 E1.5887
G1 X17.657 Y86.455 E1.5915
G1 X18.043 Y85.888 E1.6104
G1 X18.102 Y85.810 E1.6131
G1 X18.389 Y85.477 E1.6252
G1 X18.457 Y85.407 E1.6278
G1 X18.953 Y84.949 E1.6464
G1 X19.026 Y84.889 E1.6490
G1 X19.367 Y84.637 E1.6607
G1 X19.446 Y84.585 E1.6633
G1 X20.021 Y84.252 E1.6815
G1 X20.102 Y84.210 E1.6841
G1 X20.478 Y84.043 E1.6954
G1 X20.563 Y84.010 E1.6979
G1 X21.188 Y83.808 E1.7159
G1 X21.275 Y83.785 E1.7184
G1 X21.389 Y84.262 F3500
G92 E0
G1 X21.757 Y84.184 E0.0104 F720
G1 X21.820 Y84.174 E0.0121
G1 X22.352 Y84.118 E0.0268
G1 X22.384 Y84.115 E0.0277
G1 X22.573 Y84.106 E0.0329
G1 X22.605 Y84.105 E0.0338
G1 X31.254 Y84.105 E0.2717
G1 X31.292 Y84.106 E0.2727
