; G-Code generated by Simplify3D(R) Version 3.0.0
; Sep 3, 2017 at 4:49:24 
; Settings Summary
;   processName,Process1
;   applyToModels,ritzel
;   profileName,juli (modified)
;   profileVersion,2017-06-09 12:06:14
;   baseProfile,German RepRap NEO (modified)
;   printMaterial,
;   printQuality,
;   printExtruders,
;   extruderName,Primary Extruder
;   extruderToolheadNumber,0
;   extruderDiameter,0.5
;   extruderAutoWidth,0
;   extruderWidth,0.49
;   extrusionMultiplier,0.9
;   extruderUseRetract,1
;   extruderRetractionDistance,6.5
;   extruderExtraRestartDistance,0
;   extruderRetractionZLift,0
;   extruderRetractionSpeed,5000
;   extruderUseCoasting,0
;   extruderCoastingDistance,0.2
;   extruderUseWipe,0
;   extruderWipeDistance,5
;   primaryExtruder,0
;   layerHeight,0.1
;   topSolidLayers,4
;   bottomSolidLayers,3
;   perimeterOutlines,3
;   printPerimetersInsideOut,1
;   startPointOption,2
;   startPointOriginX,0
;   startPointOriginY,0
;   startPointOriginZ,300
;   sequentialIslands,0
;   spiralVaseMode,0
;   firstLayerHeightPercentage,130
;   firstLayerWidthPercentage,100
;   firstLayerUnderspeed,0.3
;   useRaft,0
;   raftExtruder,0
;   raftLayers,3
;   raftOffset,3
;   raftSeparationDistance,0.1
;   raftInfill,85
;   disableRaftBaseLayers,0
;   useSkirt,1
;   skirtExtruder,0
;   skirtLayers,1
;   skirtOutlines,7
;   skirtOffset,4
;   usePrimePillar,0
;   primePillarExtruder,999
;   primePillarWidth,12
;   primePillarLocation,7
;   primePillarSpeedMultiplier,1
;   useOozeShield,0
;   oozeShieldExtruder,999
;   oozeShieldOffset,2
;   oozeShieldOutlines,1
;   oozeShieldSidewallShape,1
;   oozeShieldSidewallAngle,30
;   oozeShieldSpeedMultiplier,1
;   infillExtruder,0
;   internalInfillPattern,Full Honeycomb
;   externalInfillPattern,Rectilinear
;   infillPercentage,15
;   outlineOverlapPercentage,15
;   infillExtrusionWidthPercentage,100
;   minInfillLength,3
;   infillLayerInterval,1
;   infillAngles,0,120,-120
;   overlapInfillAngles,0
;   generateSupport,1
;   supportExtruder,0
;   supportInfillPercentage,30
;   supportExtraInflation,0
;   denseSupportLayers,0
;   denseSupportInfillPercentage,75
;   supportLayerInterval,1
;   supportHorizontalPartOffset,2
;   supportUpperSeparationLayers,2
;   supportLowerSeparationLayers,2
;   supportType,0
;   supportGridSpacing,4
;   maxOverhangAngle,45
;   supportAngles,45
;   temperatureName,Primary Extruder
;   temperatureNumber,0
;   temperatureSetpointCount,3
;   temperatureSetpointLayers,1,2,3
;   temperatureSetpointTemperatures,207,199,192
;   temperatureStabilizeAtStartup,1
;   temperatureHeatedBed,0
;   temperatureRelayBetweenLayers,0
;   temperatureRelayBetweenLoops,0
;   fanLayers,1,4
;   fanSpeeds,0,100
;   blipFanToFullPower,0
;   adjustSpeedForCooling,1
;   minSpeedLayerTime,15
;   minCoolingSpeedSlowdown,20
;   increaseFanForCooling,0
;   minFanLayerTime,45
;   maxCoolingFanSpeed,100
;   increaseFanForBridging,0
;   bridgingFanSpeed,100
;   use5D,1
;   relativeEdistances,0
;   allowEaxisZeroing,1
;   independentExtruderAxes,0
;   includeM10123,0
;   stickySupport,1
;   applyToolheadOffsets,0
;   gcodeXoffset,0
;   gcodeYoffset,0
;   gcodeZoffset,0
;   overrideMachineDefinition,1
;   machineTypeOverride,0
;   strokeXoverride,150
;   strokeYoverride,150
;   strokeZoverride,150
;   originOffsetXoverride,0
;   originOffsetYoverride,0
;   originOffsetZoverride,0
;   homeXdirOverride,-1
;   homeYdirOverride,-1
;   homeZdirOverride,-1
;   flipXoverride,1
;   flipYoverride,-1
;   flipZoverride,1
;   toolheadOffsets,0,0|0,0|0,0|0,0|0,0|0,0
;   overrideFirmwareConfiguration,0
;   firmwareTypeOverride,RepRap (Marlin/Repetier/Sprinter)
;   GPXconfigOverride,r2
;   baudRateOverride,115200
;   overridePrinterModels,0
;   printerModelsOverride
;   startingGcode,G28 ; home all axes
;   layerChangeGcode,
;   retractionGcode,
;   toolChangeGcode,
;   endingGcode,M104 S0 ; turn off extruder,M140 S0 ; turn off bed,G28 X0  ; home X axis,G28 Y0  ; home Y axis,M84 ; disable motors,M107
;   createX3G,0
;   celebration,0
;   celebrationSong,Random Song
;   createMB5G,0
;   postProcessing,
;   defaultSpeed,2400
;   outlineUnderspeed,0.5
;   solidInfillUnderspeed,0.8
;   supportUnderspeed,0.8
;   rapidXYspeed,3500
;   rapidZspeed,1000
;   minBridgingArea,50
;   bridgingExtraInflation,0
;   bridgingExtrusionMultiplier,1
;   bridgingSpeedMultiplier,1
;   filamentDiameter,1.75
;   filamentPricePerKg,46
;   filamentDensity,1.25
;   useMinPrintHeight,0
;   minPrintHeight,0
;   useMaxPrintHeight,0
;   maxPrintHeight,0
;   useDiaphragm,0
;   diaphragmLayerInterval,20
;   robustSlicing,1
;   mergeAllIntoSolid,0
;   onlyRetractWhenCrossingOutline,1
;   retractBetweenLayers,1
;   useRetractionMinTravel,0
;   retractionMinTravel,3
;   retractWhileWiping,0
;   onlyWipeOutlines,1
;   avoidCrossingOutline,0
;   maxMovementDetourFactor,10
;   toolChangeRetractionDistance,0
;   toolChangeExtraRestartDistance,0
;   toolChangeRetractionSpeed,360
;   allowThinWallGapFill,1
;   thinWallAllowedOverlapPercentage,10
;   horizontalSizeCompensation,0
G90
M82
M106 S0
M104 S207 T0
M109 S207 T0
G28 ; home all axes
G92 E0
G1 E-6.5000 F5000
G1 Z0.130 F1000
; layer 1, Z = 0.13
T0
; tool H0.130 W0.490
; skirt
G1 X13.483 Y12.452 F3500
G1 E0.0000 F1500
G92 E0
G1 X15.826 Y11.264 E0.0626 F720
G1 X16.175 Y10.596 E0.0806
G1 X16.701 Y10.006 E0.0994
G1 X18.524 Y8.771 E0.1519
G1 X18.605 Y8.720 E0.1542
G1 X18.896 Y8.547 E0.1622
G1 X18.980 Y8.501 E0.1645
G1 X19.838 Y8.060 E0.1875
G1 X19.925 Y8.018 E0.1898
G1 X20.235 Y7.882 E0.1979
G1 X20.324 Y7.846 E0.2002
G1 X21.229 Y7.512 E0.2232
G1 X21.320 Y7.481 E0.2255
G1 X21.644 Y7.384 E0.2335
G1 X21.737 Y7.359 E0.2358
G1 X22.676 Y7.136 E0.2588
G1 X22.770 Y7.116 E0.2611
G1 X23.103 Y7.058 E0.2692
G1 X23.199 Y7.045 E0.2715
G1 X24.158 Y6.937 E0.2945
G1 X24.254 Y6.929 E0.2968
G1 X24.591 Y6.911 E0.3048
G1 X24.687 Y6.909 E0.3071
G1 X25.652 Y6.918 E0.3301
G1 X25.749 Y6.922 E0.3324
G1 X26.086 Y6.945 E0.3405
G1 X26.181 Y6.954 E0.3428
G1 X27.139 Y7.079 E0.3658
G1 X27.234 Y7.094 E0.3681
G1 X27.566 Y7.158 E0.3761
G1 X27.659 Y7.179 E0.3784
G1 X28.595 Y7.418 E0.4014
G1 X28.687 Y7.445 E0.4037
G1 X29.009 Y7.549 E0.4118
G1 X29.099 Y7.581 E0.4141
G1 X29.999 Y7.931 E0.4371
G1 X30.087 Y7.968 E0.4394
G1 X30.394 Y8.110 E0.4474
G1 X30.481 Y8.153 E0.4497
G1 X31.331 Y8.609 E0.4727
G1 X31.415 Y8.657 E0.4750
G1 X31.702 Y8.834 E0.4831
G1 X31.783 Y8.887 E0.4854
G1 X33.530 Y10.116 E0.5363
G1 X34.030 Y10.683 E0.5543
G1 X34.697 Y11.949 E0.5884
G1 X37.849 Y14.140 E0.6799
G1 X38.481 Y15.011 E0.7056
G1 X39.878 Y19.634 E0.8207
G1 X39.833 Y20.710 E0.8463
G1 X39.791 Y20.817 E0.8491
G1 X39.844 Y20.920 E0.8518
G1 X39.999 Y21.985 E0.8775
G1 X39.088 Y26.728 E0.9926
G1 X38.548 Y27.659 E1.0183
G1 X38.460 Y27.735 E1.0210
G1 X38.460 Y27.851 E1.0238
G1 X38.102 Y28.867 E1.0495
G1 X35.091 Y32.642 E1.1646
G1 X34.180 Y33.216 E1.1902
G1 X34.067 Y33.242 E1.1930
G1 X34.013 Y33.344 E1.1957
G1 X33.225 Y34.078 E1.2214
G1 X28.804 Y36.021 E1.3365
G1 X27.730 Y36.106 E1.3622
G1 X27.618 Y36.077 E1.3649
G1 X27.523 Y36.143 E1.3677
G1 X26.484 Y36.425 E1.3934
G1 X21.666 Y36.092 E1.5085
G1 X20.676 Y35.668 E1.5341
G1 X20.591 Y35.590 E1.5369
G1 X20.476 Y35.604 E1.5397
G1 X19.424 Y35.372 E1.5653
G1 X15.314 Y32.837 E1.6804
G1 X14.634 Y32.002 E1.7061
G1 X14.594 Y31.893 E1.7088
G1 X14.486 Y31.852 E1.7116
G1 X13.663 Y31.158 E1.7373
G1 X11.201 Y27.003 E1.8524
G1 X10.987 Y25.948 E1.8780
G1 X11.003 Y25.833 E1.8808
G1 X10.926 Y25.746 E1.8836
G1 X10.520 Y24.749 E1.9092
G1 X10.271 Y19.926 E2.0243
G1 X10.572 Y18.892 E2.0500
G1 X10.639 Y18.798 E2.0527
G1 X10.611 Y18.686 E2.0555
G1 X10.715 Y17.614 E2.0812
G1 X12.736 Y13.228 E2.1963
G1 X13.483 Y12.452 E2.2219
G1 X13.778 Y12.852 F3500
G92 E0
G1 X16.188 Y11.630 E0.0644 F720
G1 X16.581 Y10.877 E0.0846
G1 X17.026 Y10.377 E0.1006
G1 X18.792 Y9.181 E0.1514
G1 X18.861 Y9.137 E0.1534
G1 X19.139 Y8.973 E0.1611
G1 X19.210 Y8.933 E0.1630
G1 X20.056 Y8.499 E0.1857
G1 X20.129 Y8.464 E0.1876
G1 X20.425 Y8.334 E0.1953
G1 X20.500 Y8.303 E0.1973
G1 X21.392 Y7.974 E0.2199
G1 X21.469 Y7.948 E0.2218
G1 X21.779 Y7.855 E0.2295
G1 X21.857 Y7.834 E0.2315
G1 X22.782 Y7.614 E0.2541
G1 X22.862 Y7.598 E0.2561
G1 X23.180 Y7.542 E0.2638
G1 X23.261 Y7.531 E0.2657
G1 X24.205 Y7.425 E0.2884
G1 X24.286 Y7.418 E0.2903
G1 X24.609 Y7.401 E0.2980
G1 X24.690 Y7.399 E0.3000
G1 X25.641 Y7.408 E0.3226
G1 X25.722 Y7.411 E0.3246
G1 X26.044 Y7.433 E0.3323
G1 X26.125 Y7.441 E0.3342
G1 X27.068 Y7.564 E0.3569
G1 X27.148 Y7.577 E0.3588
G1 X27.466 Y7.638 E0.3665
G1 X27.545 Y7.656 E0.3684
G1 X28.466 Y7.891 E0.3911
G1 X28.544 Y7.914 E0.3930
G1 X28.852 Y8.013 E0.4007
G1 X28.929 Y8.040 E0.4027
G1 X29.814 Y8.385 E0.4253
G1 X29.889 Y8.417 E0.4273
G1 X30.183 Y8.552 E0.4350
G1 X30.256 Y8.588 E0.4369
G1 X31.093 Y9.037 E0.4596
G1 X31.164 Y9.078 E0.4615
G1 X31.439 Y9.247 E0.4692
G1 X31.507 Y9.292 E0.4711
G1 X33.201 Y10.483 E0.5205
G1 X33.624 Y10.963 E0.5358
G1 X34.358 Y12.354 E0.5732
G1 X34.467 Y12.385 E0.5759
G1 X37.501 Y14.495 E0.6640
G1 X38.036 Y15.232 E0.6857
G1 X39.385 Y19.696 E0.7969
G1 X39.347 Y20.606 E0.8186
G1 X39.253 Y20.845 E0.8247
G1 X39.371 Y21.073 E0.8308
G1 X39.503 Y21.974 E0.8526
G1 X38.622 Y26.554 E0.9637
G1 X38.165 Y27.342 E0.9854
G1 X37.971 Y27.510 E0.9915
G1 X37.970 Y27.766 E0.9977
G1 X37.668 Y28.626 E1.0194
G1 X34.760 Y32.271 E1.1305
G1 X33.989 Y32.757 E1.1523
G1 X33.739 Y32.815 E1.1584
G1 X33.619 Y33.042 E1.1645
G1 X32.952 Y33.663 E1.1862
G1 X28.683 Y35.539 E1.2974
G1 X27.774 Y35.611 E1.3191
G1 X27.526 Y35.547 E1.3252
G1 X27.314 Y35.692 E1.3313
G1 X26.435 Y35.931 E1.3530
G1 X21.783 Y35.609 E1.4642
G1 X20.945 Y35.250 E1.4859
G1 X20.755 Y35.078 E1.4920
G1 X20.501 Y35.108 E1.4981
G1 X19.611 Y34.911 E1.5198
G1 X15.641 Y32.464 E1.6310
G1 X15.066 Y31.757 E1.6527
G1 X14.978 Y31.516 E1.6588
G1 X14.739 Y31.424 E1.6649
G1 X14.042 Y30.836 E1.6867
G1 X11.665 Y26.825 E1.7978
G1 X11.484 Y25.932 E1.8195
G1 X11.518 Y25.677 E1.8256
G1 X11.349 Y25.485 E1.8318
G1 X11.005 Y24.641 E1.8535
G1 X10.764 Y19.984 E1.9646
G1 X11.019 Y19.109 E1.9863
G1 X11.168 Y18.900 E1.9925
G1 X11.107 Y18.651 E1.9986
G1 X11.195 Y17.744 E2.0203
G1 X13.146 Y13.508 E2.1314
G1 X13.778 Y12.852 E2.1532
G1 X14.074 Y13.251 F3500
G92 E0
G1 X16.550 Y11.996 E0.0662 F720
G1 X16.987 Y11.157 E0.0887
G1 X17.352 Y10.749 E0.1018
G1 X19.061 Y9.591 E0.1510
G1 X19.117 Y9.555 E0.1526
G1 X19.382 Y9.398 E0.1599
G1 X19.441 Y9.366 E0.1615
G1 X20.273 Y8.938 E0.1838
G1 X20.333 Y8.909 E0.1854
G1 X20.615 Y8.785 E0.1927
G1 X20.677 Y8.760 E0.1943
G1 X21.555 Y8.436 E0.2166
G1 X21.618 Y8.415 E0.2182
G1 X21.913 Y8.326 E0.2256
G1 X21.977 Y8.309 E0.2271
G1 X22.888 Y8.093 E0.2494
G1 X22.953 Y8.079 E0.2510
G1 X23.257 Y8.026 E0.2584
G1 X23.323 Y8.017 E0.2600
G1 X24.253 Y7.912 E0.2823
G1 X24.319 Y7.907 E0.2839
G1 X24.627 Y7.891 E0.2912
G1 X24.693 Y7.889 E0.2928
G1 X25.629 Y7.898 E0.3151
G1 X25.696 Y7.900 E0.3167
G1 X26.003 Y7.922 E0.3240
G1 X26.069 Y7.928 E0.3256
G1 X26.997 Y8.049 E0.3479
G1 X27.063 Y8.060 E0.3495
G1 X27.366 Y8.118 E0.3569
G1 X27.431 Y8.132 E0.3584
G1 X28.337 Y8.364 E0.3807
G1 X28.401 Y8.383 E0.3823
G1 X28.695 Y8.477 E0.3897
G1 X28.758 Y8.499 E0.3913
G1 X29.630 Y8.839 E0.4136
G1 X29.691 Y8.865 E0.4152
G1 X29.971 Y8.994 E0.4225
G1 X30.031 Y9.023 E0.4241
G1 X30.855 Y9.465 E0.4464
G1 X30.913 Y9.499 E0.4480
G1 X31.175 Y9.660 E0.4553
G1 X31.231 Y9.697 E0.4569
G1 X32.872 Y10.851 E0.5047
G1 X33.217 Y11.244 E0.5172
G1 X34.023 Y12.770 E0.5583
G1 X34.255 Y12.835 E0.5641
G1 X37.153 Y14.850 E0.6482
G1 X37.591 Y15.453 E0.6660
G1 X38.892 Y19.758 E0.7732
G1 X38.861 Y20.503 E0.7909
G1 X38.715 Y20.873 E0.8004
G1 X38.898 Y21.225 E0.8099
G1 X39.006 Y21.963 E0.8277
G1 X38.157 Y26.380 E0.9349
G1 X37.783 Y27.025 E0.9526
G1 X37.482 Y27.284 E0.9621
G1 X37.480 Y27.682 E0.9716
G1 X37.233 Y28.385 E0.9893
G1 X34.428 Y31.901 E1.0966
G1 X33.798 Y32.299 E1.1143
G1 X33.410 Y32.388 E1.1238
G1 X33.225 Y32.740 E1.1333
G1 X32.679 Y33.247 E1.1510
G1 X28.561 Y35.057 E1.2582
G1 X27.818 Y35.116 E1.2760
G1 X27.434 Y35.016 E1.2855
G1 X27.106 Y35.240 E1.2950
G1 X26.386 Y35.436 E1.3127
G1 X21.899 Y35.126 E1.4199
G1 X21.214 Y34.832 E1.4377
G1 X20.920 Y34.565 E1.4472
G1 X20.526 Y34.611 E1.4566
G1 X19.798 Y34.450 E1.4744
G1 X15.969 Y32.090 E1.5816
G1 X15.498 Y31.512 E1.5994
G1 X15.363 Y31.138 E1.6089
G1 X14.992 Y30.996 E1.6183
G1 X14.422 Y30.515 E1.6361
G1 X12.129 Y26.646 E1.7433
G1 X11.980 Y25.915 E1.7611
G1 X12.034 Y25.522 E1.7705
G1 X11.771 Y25.223 E1.7800
G1 X11.490 Y24.533 E1.7978
G1 X11.258 Y20.041 E1.9050
G1 X11.466 Y19.325 E1.9228
G1 X11.697 Y19.001 E1.9322
G1 X11.603 Y18.615 E1.9417
G1 X11.675 Y17.873 E1.9595
G1 X13.557 Y13.788 E2.0667
G1 X14.074 Y13.251 E2.0844
G1 X14.369 Y13.651 F3500
G92 E0
G1 X16.911 Y12.362 E0.0679 F720
G1 X17.393 Y11.438 E0.0928
G1 X17.677 Y11.120 E0.1029
G1 X19.330 Y10.001 E0.1505
G1 X19.373 Y9.973 E0.1517
G1 X19.626 Y9.823 E0.1587
G1 X19.671 Y9.798 E0.1600
G1 X20.490 Y9.377 E0.1819
G1 X20.537 Y9.355 E0.1832
G1 X20.806 Y9.237 E0.1901
G1 X20.854 Y9.218 E0.1914
G1 X21.718 Y8.899 E0.2133
G1 X21.767 Y8.882 E0.2146
G1 X22.048 Y8.797 E0.2216
G1 X22.098 Y8.784 E0.2228
G1 X22.994 Y8.571 E0.2447
G1 X23.044 Y8.561 E0.2460
G1 X23.334 Y8.510 E0.2530
G1 X23.385 Y8.503 E0.2542
G1 X24.300 Y8.400 E0.2762
G1 X24.352 Y8.396 E0.2774
G1 X24.645 Y8.381 E0.2844
G1 X24.697 Y8.380 E0.2856
G1 X25.617 Y8.388 E0.3076
G1 X25.669 Y8.390 E0.3088
G1 X25.962 Y8.410 E0.3158
G1 X26.014 Y8.415 E0.3170
G1 X26.927 Y8.534 E0.3390
G1 X26.978 Y8.542 E0.3402
G1 X27.266 Y8.598 E0.3472
G1 X27.317 Y8.609 E0.3485
G1 X28.209 Y8.837 E0.3704
G1 X28.259 Y8.851 E0.3716
G1 X28.538 Y8.941 E0.3786
G1 X28.587 Y8.959 E0.3799
G1 X29.445 Y9.293 E0.4018
G1 X29.493 Y9.313 E0.4030
G1 X29.759 Y9.436 E0.4100
G1 X29.806 Y9.459 E0.4113
G1 X30.617 Y9.894 E0.4332
G1 X30.662 Y9.920 E0.4345
G1 X30.912 Y10.074 E0.4415
G1 X30.955 Y10.102 E0.4427
G1 X32.542 Y11.218 E0.4889
G1 X32.811 Y11.524 E0.4986
G1 X33.688 Y13.185 E0.5434
G1 X34.043 Y13.284 E0.5522
G1 X36.805 Y15.205 E0.6324
G1 X37.146 Y15.674 E0.6462
G1 X38.399 Y19.821 E0.7495
G1 X38.375 Y20.400 E0.7633
G1 X38.177 Y20.901 E0.7761
G1 X38.425 Y21.378 E0.7889
G1 X38.509 Y21.952 E0.8028
G1 X37.691 Y26.206 E0.9060
G1 X37.400 Y26.708 E0.9198
G1 X36.993 Y27.059 E0.9327
G1 X36.991 Y27.597 E0.9455
G1 X36.798 Y28.144 E0.9593
G1 X34.097 Y31.531 E1.0626
G1 X33.606 Y31.840 E1.0764
G1 X33.082 Y31.962 E1.0892
G1 X32.830 Y32.437 E1.1020
G1 X32.406 Y32.832 E1.1159
G1 X28.440 Y34.575 E1.2191
G1 X27.862 Y34.621 E1.2329
G1 X27.341 Y34.485 E1.2458
G1 X26.897 Y34.789 E1.2586
G1 X26.338 Y34.942 E1.2724
G1 X22.016 Y34.642 E1.3757
G1 X21.483 Y34.414 E1.3895
G1 X21.085 Y34.052 E1.4023
G1 X20.550 Y34.115 E1.4152
G1 X19.984 Y33.990 E1.4290
G1 X16.297 Y31.716 E1.5322
G1 X15.931 Y31.267 E1.5461
G1 X15.747 Y30.761 E1.5589
G1 X15.244 Y30.568 E1.5717
G1 X14.801 Y30.194 E1.5855
G1 X12.592 Y26.468 E1.6888
G1 X12.477 Y25.899 E1.7026
G1 X12.550 Y25.366 E1.7154
G1 X12.194 Y24.962 E1.7283
G1 X11.975 Y24.425 E1.7421
G1 X11.752 Y20.099 E1.8453
G1 X11.914 Y19.542 E1.8592
G1 X12.226 Y19.103 E1.8720
G1 X12.099 Y18.580 E1.8848
G1 X12.155 Y18.003 E1.8986
G1 X13.967 Y14.068 E2.0019
G1 X14.369 Y13.651 E2.0157
G1 X14.665 Y14.050 F3500
G92 E0
G1 X17.273 Y12.728 E0.0697 F720
G1 X17.800 Y11.719 E0.0968
G1 X18.002 Y11.492 E0.1041
G1 X19.598 Y10.410 E0.1500
G1 X19.630 Y10.391 E0.1509
G1 X19.869 Y10.248 E0.1576
G1 X19.902 Y10.231 E0.1584
G1 X20.708 Y9.817 E0.1800
G1 X20.741 Y9.801 E0.1809
G1 X20.996 Y9.688 E0.1876
G1 X21.031 Y9.675 E0.1884
G1 X21.880 Y9.361 E0.2100
G1 X21.916 Y9.349 E0.2109
G1 X22.182 Y9.268 E0.2176
G1 X22.218 Y9.259 E0.2184
G1 X23.100 Y9.050 E0.2400
G1 X23.136 Y9.042 E0.2409
G1 X23.411 Y8.994 E0.2476
G1 X23.447 Y8.989 E0.2485
G1 X24.348 Y8.888 E0.2700
G1 X24.384 Y8.885 E0.2709
G1 X24.663 Y8.870 E0.2776
G1 X24.700 Y8.870 E0.2785
G1 X25.606 Y8.877 E0.3000
G1 X25.643 Y8.879 E0.3009
G1 X25.921 Y8.898 E0.3076
G1 X25.958 Y8.902 E0.3085
G1 X26.856 Y9.019 E0.3301
G1 X26.893 Y9.025 E0.3309
G1 X27.166 Y9.077 E0.3376
G1 X27.202 Y9.086 E0.3385
G1 X28.080 Y9.310 E0.3601
G1 X28.116 Y9.320 E0.3609
G1 X28.381 Y9.406 E0.3676
G1 X28.416 Y9.418 E0.3685
