; G-Code generated by Simplify3D(R) Version 3.0.0
; Sep 3, 2017 at 6:16:58 
; Settings Summary
;   processName,Process1
;   applyToModels,ritzelunten
;   profileName,juli (modified)
;   profileVersion,2017-06-09 12:06:14
;   baseProfile,German RepRap NEO (modified)
;   printMaterial,
;   printQuality,
;   printExtruders,
;   extruderName,Primary Extruder
;   extruderToolheadNumber,0
;   extruderDiameter,0.5
;   extruderAutoWidth,0
;   extruderWidth,0.49
;   extrusionMultiplier,0.9
;   extruderUseRetract,1
;   extruderRetractionDistance,6.5
;   extruderExtraRestartDistance,0
;   extruderRetractionZLift,0
;   extruderRetractionSpeed,5000
;   extruderUseCoasting,0
;   extruderCoastingDistance,0.2
;   extruderUseWipe,0
;   extruderWipeDistance,5
;   primaryExtruder,0
;   layerHeight,0.2
;   topSolidLayers,4
;   bottomSolidLayers,3
;   perimeterOutlines,3
;   printPerimetersInsideOut,1
;   startPointOption,2
;   startPointOriginX,0
;   startPointOriginY,0
;   startPointOriginZ,300
;   sequentialIslands,0
;   spiralVaseMode,0
;   firstLayerHeightPercentage,100
;   firstLayerWidthPercentage,100
;   firstLayerUnderspeed,0.3
;   useRaft,0
;   raftExtruder,0
;   raftLayers,3
;   raftOffset,3
;   raftSeparationDistance,0.1
;   raftInfill,85
;   disableRaftBaseLayers,0
;   useSkirt,1
;   skirtExtruder,0
;   skirtLayers,1
;   skirtOutlines,7
;   skirtOffset,4
;   usePrimePillar,0
;   primePillarExtruder,999
;   primePillarWidth,12
;   primePillarLocation,7
;   primePillarSpeedMultiplier,1
;   useOozeShield,0
;   oozeShieldExtruder,999
;   oozeShieldOffset,2
;   oozeShieldOutlines,1
;   oozeShieldSidewallShape,1
;   oozeShieldSidewallAngle,30
;   oozeShieldSpeedMultiplier,1
;   infillExtruder,0
;   internalInfillPattern,Full Honeycomb
;   externalInfillPattern,Rectilinear
;   infillPercentage,15
;   outlineOverlapPercentage,15
;   infillExtrusionWidthPercentage,100
;   minInfillLength,3
;   infillLayerInterval,1
;   infillAngles,0,120,-120
;   overlapInfillAngles,0
;   generateSupport,0
;   supportExtruder,0
;   supportInfillPercentage,30
;   supportExtraInflation,0
;   denseSupportLayers,0
;   denseSupportInfillPercentage,75
;   supportLayerInterval,1
;   supportHorizontalPartOffset,2
;   supportUpperSeparationLayers,2
;   supportLowerSeparationLayers,2
;   supportType,0
;   supportGridSpacing,4
;   maxOverhangAngle,45
;   supportAngles,45
;   temperatureName,Primary Extruder
;   temperatureNumber,0
;   temperatureSetpointCount,3
;   temperatureSetpointLayers,1,2,3
;   temperatureSetpointTemperatures,207,199,192
;   temperatureStabilizeAtStartup,1
;   temperatureHeatedBed,0
;   temperatureRelayBetweenLayers,0
;   temperatureRelayBetweenLoops,0
;   fanLayers,1,4
;   fanSpeeds,0,100
;   blipFanToFullPower,0
;   adjustSpeedForCooling,1
;   minSpeedLayerTime,15
;   minCoolingSpeedSlowdown,20
;   increaseFanForCooling,0
;   minFanLayerTime,45
;   maxCoolingFanSpeed,100
;   increaseFanForBridging,0
;   bridgingFanSpeed,100
;   use5D,1
;   relativeEdistances,0
;   allowEaxisZeroing,1
;   independentExtruderAxes,0
;   includeM10123,0
;   stickySupport,1
;   applyToolheadOffsets,0
;   gcodeXoffset,0
;   gcodeYoffset,0
;   gcodeZoffset,0
;   overrideMachineDefinition,1
;   machineTypeOverride,0
;   strokeXoverride,150
;   strokeYoverride,150
;   strokeZoverride,150
;   originOffsetXoverride,0
;   originOffsetYoverride,0
;   originOffsetZoverride,0
;   homeXdirOverride,-1
;   homeYdirOverride,-1
;   homeZdirOverride,-1
;   flipXoverride,1
;   flipYoverride,-1
;   flipZoverride,1
;   toolheadOffsets,0,0|0,0|0,0|0,0|0,0|0,0
;   overrideFirmwareConfiguration,0
;   firmwareTypeOverride,RepRap (Marlin/Repetier/Sprinter)
;   GPXconfigOverride,r2
;   baudRateOverride,115200
;   overridePrinterModels,0
;   printerModelsOverride
;   startingGcode,G28 ; home all axes
;   layerChangeGcode,
;   retractionGcode,
;   toolChangeGcode,
;   endingGcode,M104 S0 ; turn off extruder,M140 S0 ; turn off bed,G28 X0  ; home X axis,G28 Y0  ; home Y axis,M84 ; disable motors,M107
;   createX3G,0
;   celebration,0
;   celebrationSong,Random Song
;   createMB5G,0
;   postProcessing,
;   defaultSpeed,2400
;   outlineUnderspeed,0.5
;   solidInfillUnderspeed,0.8
;   supportUnderspeed,0.8
;   rapidXYspeed,3500
;   rapidZspeed,1000
;   minBridgingArea,50
;   bridgingExtraInflation,0
;   bridgingExtrusionMultiplier,1
;   bridgingSpeedMultiplier,1
;   filamentDiameter,1.75
;   filamentPricePerKg,46
;   filamentDensity,1.25
;   useMinPrintHeight,0
;   minPrintHeight,0
;   useMaxPrintHeight,0
;   maxPrintHeight,0
;   useDiaphragm,0
;   diaphragmLayerInterval,20
;   robustSlicing,1
;   mergeAllIntoSolid,0
;   onlyRetractWhenCrossingOutline,1
;   retractBetweenLayers,1
;   useRetractionMinTravel,0
;   retractionMinTravel,3
;   retractWhileWiping,0
;   onlyWipeOutlines,1
;   avoidCrossingOutline,0
;   maxMovementDetourFactor,10
;   toolChangeRetractionDistance,0
;   toolChangeExtraRestartDistance,0
;   toolChangeRetractionSpeed,360
;   allowThinWallGapFill,1
;   thinWallAllowedOverlapPercentage,10
;   horizontalSizeCompensation,0
G90
M82
M106 S0
M104 S207 T0
M109 S207 T0
G28 ; home all axes
G92 E0
G1 E-6.5000 F5000
G1 Z0.200 F1000
; layer 1, Z = 0.2
T0
; tool H0.200 W0.490
; skirt
G1 X33.249 Y89.422 F3500
G1 E0.0000 F1500
G92 E0
G1 X37.621 Y88.138 E0.1671 F720
G1 X38.079 Y88.155 E0.1839
G1 X38.514 Y88.010 E0.2007
G1 X43.070 Y88.010 E0.3678
G1 X43.505 Y88.155 E0.3846
G1 X43.963 Y88.138 E0.4014
G1 X48.335 Y89.422 E0.5685
G1 X48.711 Y89.684 E0.5853
G1 X49.156 Y89.797 E0.6021
G1 X52.989 Y92.260 E0.7692
G1 X53.276 Y92.618 E0.7860
G1 X53.671 Y92.851 E0.8028
G1 X56.655 Y96.294 E0.9699
G1 X56.829 Y96.718 E0.9867
G1 X57.142 Y97.054 E1.0035
G1 X59.035 Y101.198 E1.1706
G1 X59.084 Y101.654 E1.1874
G1 X59.289 Y102.064 E1.2042
G1 X59.938 Y106.574 E1.3713
G1 X59.856 Y107.025 E1.3881
G1 X59.938 Y107.476 E1.4050
G1 X59.289 Y111.986 E1.5720
G1 X59.084 Y112.396 E1.5888
G1 X59.035 Y112.852 E1.6057
G1 X57.142 Y116.996 E1.7727
G1 X56.829 Y117.332 E1.7896
G1 X56.655 Y117.756 E1.8064
G1 X53.671 Y121.199 E1.9734
G1 X53.276 Y121.432 E1.9903
G1 X52.989 Y121.790 E2.0071
G1 X49.156 Y124.253 E2.1742
G1 X48.711 Y124.366 E2.1910
G1 X48.335 Y124.628 E2.2078
G1 X43.963 Y125.912 E2.3749
G1 X43.505 Y125.895 E2.3917
G1 X43.070 Y126.040 E2.4085
G1 X38.514 Y126.040 E2.5756
G1 X38.079 Y125.895 E2.5924
G1 X37.621 Y125.912 E2.6092
G1 X33.249 Y124.628 E2.7763
G1 X32.873 Y124.366 E2.7931
G1 X32.428 Y124.253 E2.8099
G1 X28.595 Y121.790 E2.9770
G1 X28.308 Y121.432 E2.9938
G1 X27.913 Y121.199 E3.0106
G1 X24.930 Y117.756 E3.1777
G1 X24.755 Y117.332 E3.1945
G1 X24.442 Y116.996 E3.2113
G1 X22.549 Y112.852 E3.3784
G1 X22.501 Y112.396 E3.3952
G1 X22.295 Y111.986 E3.4120
G1 X21.646 Y107.476 E3.5791
G1 X21.728 Y107.025 E3.5959
G1 X21.646 Y106.574 E3.6127
G1 X22.295 Y102.064 E3.7798
G1 X22.501 Y101.654 E3.7966
G1 X22.549 Y101.198 E3.8135
G1 X24.442 Y97.054 E3.9805
G1 X24.755 Y96.718 E3.9973
G1 X24.930 Y96.294 E4.0142
G1 X27.913 Y92.851 E4.1812
G1 X28.308 Y92.618 E4.1981
G1 X28.595 Y92.260 E4.2149
G1 X32.428 Y89.797 E4.3819
G1 X32.873 Y89.684 E4.3988
G1 X33.249 Y89.422 E4.4156
G1 X33.464 Y89.870 F3500
G92 E0
G1 X37.682 Y88.631 E0.1612 F720
G1 X38.150 Y88.648 E0.1784
G1 X38.594 Y88.500 E0.1955
G1 X42.990 Y88.500 E0.3568
G1 X43.434 Y88.648 E0.3739
G1 X43.902 Y88.631 E0.3911
G1 X48.120 Y89.870 E0.5523
G1 X48.505 Y90.137 E0.5695
G1 X48.958 Y90.252 E0.5866
G1 X52.657 Y92.629 E0.7479
G1 X52.950 Y92.994 E0.7650
G1 X53.353 Y93.232 E0.7822
G1 X56.232 Y96.555 E0.9434
G1 X56.410 Y96.988 E0.9606
G1 X56.730 Y97.330 E0.9777
G1 X58.556 Y101.329 E1.1390
G1 X58.606 Y101.794 E1.1561
G1 X58.816 Y102.213 E1.1733
G1 X59.441 Y106.565 E1.3345
G1 X59.358 Y107.025 E1.3517
G1 X59.442 Y107.485 E1.3688
G1 X58.816 Y111.837 E1.5300
G1 X58.606 Y112.256 E1.5472
G1 X58.556 Y112.721 E1.5644
G1 X56.730 Y116.720 E1.7256
G1 X56.410 Y117.062 E1.7427
G1 X56.232 Y117.495 E1.7599
G1 X53.353 Y120.818 E1.9211
G1 X52.950 Y121.056 E1.9383
G1 X52.657 Y121.421 E1.9555
G1 X48.958 Y123.798 E2.1167
G1 X48.504 Y123.913 E2.1338
G1 X48.121 Y124.180 E2.1510
G1 X43.902 Y125.419 E2.3122
G1 X43.434 Y125.402 E2.3294
G1 X42.990 Y125.550 E2.3465
G1 X38.594 Y125.550 E2.5078
G1 X38.150 Y125.402 E2.5249
G1 X37.682 Y125.419 E2.5421
G1 X33.464 Y124.180 E2.7033
G1 X33.080 Y123.913 E2.7205
G1 X32.626 Y123.798 E2.7376
G1 X28.927 Y121.421 E2.8989
G1 X28.634 Y121.056 E2.9160
G1 X28.231 Y120.818 E2.9332
G1 X25.352 Y117.495 E3.0944
G1 X25.174 Y117.062 E3.1116
G1 X24.854 Y116.720 E3.1287
G1 X23.028 Y112.721 E3.2900
G1 X22.978 Y112.256 E3.3071
G1 X22.768 Y111.837 E3.3243
G1 X22.143 Y107.485 E3.4855
G1 X22.226 Y107.025 E3.5027
G1 X22.143 Y106.565 E3.5198
G1 X22.768 Y102.213 E3.6810
G1 X22.978 Y101.794 E3.6982
G1 X23.028 Y101.329 E3.7154
G1 X24.854 Y97.330 E3.8766
G1 X25.174 Y96.988 E3.8937
G1 X25.352 Y96.555 E3.9109
G1 X28.231 Y93.232 E4.0721
G1 X28.634 Y92.994 E4.0893
G1 X28.927 Y92.629 E4.1065
G1 X32.626 Y90.252 E4.2677
G1 X33.080 Y90.137 E4.2848
G1 X33.464 Y89.870 E4.3020
G1 X33.678 Y90.317 F3500
G92 E0
G1 X37.744 Y89.124 E0.1554 F720
G1 X38.221 Y89.141 E0.1729
G1 X38.673 Y88.990 E0.1904
G1 X42.911 Y88.990 E0.3458
G1 X43.363 Y89.141 E0.3633
G1 X43.840 Y89.124 E0.3808
G1 X47.906 Y90.317 E0.5361
G1 X48.298 Y90.590 E0.5536
G1 X48.760 Y90.707 E0.5711
G1 X52.325 Y92.998 E0.7265
G1 X52.624 Y93.370 E0.7440
G1 X53.035 Y93.613 E0.7615
G1 X55.809 Y96.816 E0.9169
G1 X55.992 Y97.257 E0.9344
G1 X56.317 Y97.606 E0.9519
G1 X58.077 Y101.460 E1.1073
G1 X58.128 Y101.935 E1.1248
G1 X58.342 Y102.361 E1.1423
G1 X58.945 Y106.555 E1.2977
G1 X58.860 Y107.025 E1.3152
G1 X58.945 Y107.495 E1.3327
G1 X58.342 Y111.689 E1.4881
G1 X58.128 Y112.115 E1.5056
G1 X58.077 Y112.590 E1.5231
G1 X56.317 Y116.444 E1.6784
G1 X55.992 Y116.793 E1.6959
G1 X55.809 Y117.234 E1.7134
G1 X53.035 Y120.437 E1.8688
G1 X52.624 Y120.680 E1.8863
G1 X52.325 Y121.052 E1.9038
G1 X48.760 Y123.342 E2.0592
G1 X48.298 Y123.460 E2.0767
G1 X47.906 Y123.733 E2.0942
G1 X43.840 Y124.926 E2.2496
G1 X43.363 Y124.909 E2.2671
G1 X42.911 Y125.060 E2.2846
G1 X38.673 Y125.060 E2.4400
G1 X38.221 Y124.909 E2.4575
G1 X37.744 Y124.926 E2.4750
G1 X33.678 Y123.733 E2.6304
G1 X33.287 Y123.460 E2.6479
G1 X32.824 Y123.343 E2.6654
G1 X29.259 Y121.052 E2.8207
G1 X28.960 Y120.680 E2.8382
G1 X28.549 Y120.437 E2.8557
G1 X25.775 Y117.234 E3.0111
G1 X25.593 Y116.793 E3.0286
G1 X25.267 Y116.444 E3.0461
G1 X23.507 Y112.590 E3.2015
G1 X23.456 Y112.115 E3.2190
G1 X23.242 Y111.689 E3.2365
G1 X22.639 Y107.495 E3.3919
G1 X22.724 Y107.025 E3.4094
G1 X22.639 Y106.555 E3.4269
G1 X23.242 Y102.361 E3.5823
G1 X23.456 Y101.935 E3.5998
G1 X23.507 Y101.460 E3.6173
G1 X25.267 Y97.606 E3.7726
G1 X25.593 Y97.257 E3.7902
G1 X25.775 Y96.816 E3.8077
G1 X28.549 Y93.613 E3.9630
G1 X28.960 Y93.370 E3.9805
G1 X29.259 Y92.998 E3.9980
G1 X32.824 Y90.707 E4.1534
G1 X33.286 Y90.590 E4.1709
G1 X33.678 Y90.317 E4.1884
G1 X33.893 Y90.765 F3500
G92 E0
G1 X37.805 Y89.616 E0.1495 F720
G1 X38.292 Y89.634 E0.1674
G1 X38.753 Y89.480 E0.1852
G1 X42.831 Y89.480 E0.3347
G1 X43.292 Y89.634 E0.3526
G1 X43.779 Y89.616 E0.3704
G1 X47.691 Y90.765 E0.5200
G1 X48.091 Y91.043 E0.5378
G1 X48.563 Y91.163 E0.5557
G1 X51.993 Y93.367 E0.7052
G1 X52.298 Y93.747 E0.7230
G1 X52.717 Y93.995 E0.7409
G1 X55.387 Y97.076 E0.8904
G1 X55.573 Y97.526 E0.9083
G1 X55.905 Y97.882 E0.9261
G1 X57.599 Y101.591 E1.0756
G1 X57.650 Y102.075 E1.0935
G1 X57.868 Y102.510 E1.1113
G1 X58.449 Y106.546 E1.2608
G1 X58.362 Y107.025 E1.2787
G1 X58.449 Y107.504 E1.2965
G1 X57.868 Y111.540 E1.4461
G1 X57.650 Y111.975 E1.4639
G1 X57.599 Y112.459 E1.4818
G1 X55.905 Y116.168 E1.6313
G1 X55.573 Y116.524 E1.6491
G1 X55.387 Y116.974 E1.6670
G1 X52.717 Y120.055 E1.8165
G1 X52.298 Y120.303 E1.8344
G1 X51.993 Y120.683 E1.8522
G1 X48.563 Y122.887 E2.0017
G1 X48.091 Y123.007 E2.0196
G1 X47.691 Y123.285 E2.0374
G1 X43.779 Y124.434 E2.1869
G1 X43.292 Y124.416 E2.2048
G1 X42.831 Y124.570 E2.2226
G1 X38.753 Y124.570 E2.3722
G1 X38.292 Y124.416 E2.3900
G1 X37.805 Y124.434 E2.4079
G1 X33.893 Y123.285 E2.5574
G1 X33.493 Y123.007 E2.5752
G1 X33.022 Y122.887 E2.5931
G1 X29.591 Y120.683 E2.7426
G1 X29.287 Y120.303 E2.7605
G1 X28.867 Y120.055 E2.7783
G1 X26.197 Y116.974 E2.9278
G1 X26.012 Y116.524 E2.9457
G1 X25.679 Y116.168 E2.9635
G1 X23.985 Y112.459 E3.1130
G1 X23.934 Y111.975 E3.1309
G1 X23.716 Y111.540 E3.1487
G1 X23.135 Y107.504 E3.2983
G1 X23.223 Y107.025 E3.3161
G1 X23.135 Y106.546 E3.3340
G1 X23.716 Y102.510 E3.4835
G1 X23.934 Y102.075 E3.5013
G1 X23.985 Y101.591 E3.5192
G1 X25.679 Y97.882 E3.6687
G1 X26.012 Y97.526 E3.6866
G1 X26.197 Y97.076 E3.7044
G1 X28.867 Y93.995 E3.8539
G1 X29.286 Y93.747 E3.8718
G1 X29.591 Y93.367 E3.8896
G1 X33.022 Y91.163 E4.0391
G1 X33.493 Y91.043 E4.0570
G1 X33.893 Y90.765 E4.0748
G1 X34.107 Y91.213 F3500
G92 E0
G1 X37.867 Y90.109 E0.1437 F720
G1 X38.265 Y90.124 E0.1583
G1 X38.368 Y90.162 E0.1623
G1 X38.455 Y90.096 E0.1663
G1 X38.833 Y89.970 E0.1809
G1 X42.751 Y89.970 E0.3246
G1 X43.129 Y90.096 E0.3392
G1 X43.217 Y90.162 E0.3432
G1 X43.319 Y90.124 E0.3472
G1 X43.717 Y90.109 E0.3619
G1 X47.477 Y91.213 E0.5055
G1 X47.804 Y91.441 E0.5202
G1 X47.869 Y91.528 E0.5242
G1 X47.978 Y91.520 E0.5282
G1 X48.365 Y91.618 E0.5428
G1 X51.661 Y93.736 E0.6865
G1 X51.911 Y94.047 E0.7011
G1 X51.948 Y94.150 E0.7051
G1 X52.055 Y94.173 E0.7091
G1 X52.399 Y94.376 E0.7237
G1 X54.964 Y97.337 E0.8674
G1 X55.116 Y97.706 E0.8820
G1 X55.124 Y97.814 E0.8860
G1 X55.220 Y97.867 E0.8900
G1 X55.492 Y98.158 E0.9047
G1 X57.120 Y101.722 E1.0483
G1 X57.162 Y102.119 E1.0630
G1 X57.138 Y102.225 E1.0670
G1 X57.216 Y102.302 E1.0710
G1 X57.395 Y102.659 E1.0856
G1 X57.952 Y106.537 E1.2293
G1 X57.881 Y106.929 E1.2439
G1 X57.828 Y107.025 E1.2479
G1 X57.881 Y107.121 E1.2519
G1 X57.952 Y107.513 E1.2665
G1 X57.395 Y111.391 E1.4102
G1 X57.216 Y111.748 E1.4248
G1 X57.138 Y111.825 E1.4288
G1 X57.162 Y111.931 E1.4328
G1 X57.120 Y112.328 E1.4475
G1 X55.492 Y115.892 E1.5911
G1 X55.220 Y116.183 E1.6058
G1 X55.124 Y116.236 E1.6098
G1 X55.116 Y116.344 E1.6138
G1 X54.964 Y116.713 E1.6284
G1 X52.399 Y119.674 E1.7721
G1 X52.055 Y119.877 E1.7867
G1 X51.948 Y119.900 E1.7907
G1 X51.911 Y120.003 E1.7947
G1 X51.661 Y120.314 E1.8093
G1 X48.365 Y122.432 E1.9530
G1 X47.978 Y122.530 E1.9676
G1 X47.869 Y122.522 E1.9716
G1 X47.804 Y122.609 E1.9756
G1 X47.477 Y122.837 E1.9903
G1 X43.717 Y123.941 E2.1339
G1 X43.319 Y123.926 E2.1486
G1 X43.217 Y123.888 E2.1526
G1 X43.129 Y123.954 E2.1566
G1 X42.751 Y124.080 E2.1712
G1 X38.833 Y124.080 E2.3149
G1 X38.455 Y123.954 E2.3295
G1 X38.368 Y123.888 E2.3335
G1 X38.265 Y123.926 E2.3375
G1 X37.867 Y123.941 E2.3521
G1 X34.107 Y122.837 E2.4958
G1 X33.780 Y122.609 E2.5104
G1 X33.715 Y122.522 E2.5144
G1 X33.606 Y122.530 E2.5184
G1 X33.219 Y122.432 E2.5331
G1 X29.923 Y120.314 E2.6767
G1 X29.673 Y120.003 E2.6914
G1 X29.636 Y119.900 E2.6954
G1 X29.529 Y119.877 E2.6994
G1 X29.186 Y119.674 E2.7140
G1 X26.620 Y116.713 E2.8577
G1 X26.468 Y116.344 E2.8723
G1 X26.460 Y116.236 E2.8763
G1 X26.364 Y116.183 E2.8803
G1 X26.092 Y115.892 E2.8949
G1 X24.464 Y112.328 E3.0386
G1 X24.422 Y111.931 E3.0532
G1 X24.446 Y111.825 E3.0572
G1 X24.368 Y111.748 E3.0612
G1 X24.189 Y111.391 E3.0759
G1 X23.632 Y107.513 E3.2195
G1 X23.703 Y107.121 E3.2342
G1 X23.756 Y107.025 E3.2382
G1 X23.703 Y106.929 E3.2422
G1 X23.632 Y106.537 E3.2568
G1 X24.189 Y102.659 E3.4005
G1 X24.368 Y102.302 E3.4151
G1 X24.446 Y102.225 E3.4191
G1 X24.422 Y102.119 E3.4231
G1 X24.464 Y101.722 E3.4377
G1 X26.092 Y98.158 E3.5814
G1 X26.364 Y97.867 E3.5960
G1 X26.460 Y97.814 E3.6000
G1 X26.468 Y97.706 E3.6040
G1 X26.620 Y97.337 E3.6187
G1 X29.186 Y94.376 E3.7623
G1 X29.529 Y94.173 E3.7770
G1 X29.636 Y94.150 E3.7810
G1 X29.674 Y94.047 E3.7850
G1 X29.923 Y93.736 E3.7996
G1 X33.219 Y91.618 E3.9433
G1 X33.606 Y91.520 E3.9579
G1 X33.715 Y91.528 E3.9619
G1 X33.780 Y91.441 E3.9659
G1 X34.107 Y91.213 E3.9805
G1 X34.322 Y91.660 F3500
G92 E0
G1 X37.928 Y90.601 E0.1378 F720
G1 X38.167 Y90.610 E0.1466
G1 X38.447 Y90.716 E0.1576
G1 X38.686 Y90.536 E0.1685
G1 X38.913 Y90.460 E0.1773
G1 X42.671 Y90.460 E0.3151
G1 X42.898 Y90.536 E0.3239
