; G-Code generated by Simplify3D(R) Version 3.0.0
; Sep 4, 2017 at 5:47:14 
; Settings Summary
;   processName,Process1
;   applyToModels,ritzeluntenklein
;   profileName,juli (modified)
;   profileVersion,2017-06-09 12:06:14
;   baseProfile,German RepRap NEO (modified)
;   printMaterial,
;   printQuality,
;   printExtruders,
;   extruderName,Primary Extruder
;   extruderToolheadNumber,0
;   extruderDiameter,0.5
;   extruderAutoWidth,0
;   extruderWidth,0.49
;   extrusionMultiplier,0.9
;   extruderUseRetract,1
;   extruderRetractionDistance,6.5
;   extruderExtraRestartDistance,0
;   extruderRetractionZLift,0
;   extruderRetractionSpeed,5000
;   extruderUseCoasting,0
;   extruderCoastingDistance,0.2
;   extruderUseWipe,0
;   extruderWipeDistance,5
;   primaryExtruder,0
;   layerHeight,0.1
;   topSolidLayers,4
;   bottomSolidLayers,3
;   perimeterOutlines,3
;   printPerimetersInsideOut,1
;   startPointOption,2
;   startPointOriginX,0
;   startPointOriginY,0
;   startPointOriginZ,300
;   sequentialIslands,0
;   spiralVaseMode,0
;   firstLayerHeightPercentage,14
;   firstLayerWidthPercentage,100
;   firstLayerUnderspeed,0.3
;   useRaft,0
;   raftExtruder,0
;   raftLayers,3
;   raftOffset,3
;   raftSeparationDistance,0.1
;   raftInfill,85
;   disableRaftBaseLayers,0
;   useSkirt,1
;   skirtExtruder,0
;   skirtLayers,1
;   skirtOutlines,5
;   skirtOffset,3
;   usePrimePillar,0
;   primePillarExtruder,999
;   primePillarWidth,12
;   primePillarLocation,7
;   primePillarSpeedMultiplier,1
;   useOozeShield,0
;   oozeShieldExtruder,999
;   oozeShieldOffset,2
;   oozeShieldOutlines,1
;   oozeShieldSidewallShape,1
;   oozeShieldSidewallAngle,30
;   oozeShieldSpeedMultiplier,1
;   infillExtruder,0
;   internalInfillPattern,Full Honeycomb
;   externalInfillPattern,Rectilinear
;   infillPercentage,15
;   outlineOverlapPercentage,15
;   infillExtrusionWidthPercentage,100
;   minInfillLength,3
;   infillLayerInterval,1
;   infillAngles,0,120,-120
;   overlapInfillAngles,0
;   generateSupport,1
;   supportExtruder,0
;   supportInfillPercentage,30
;   supportExtraInflation,0
;   denseSupportLayers,0
;   denseSupportInfillPercentage,75
;   supportLayerInterval,1
;   supportHorizontalPartOffset,1.5
;   supportUpperSeparationLayers,2
;   supportLowerSeparationLayers,2
;   supportType,0
;   supportGridSpacing,4
;   maxOverhangAngle,45
;   supportAngles,45
;   temperatureName,Primary Extruder
;   temperatureNumber,0
;   temperatureSetpointCount,3
;   temperatureSetpointLayers,1,2,3
;   temperatureSetpointTemperatures,207,199,192
;   temperatureStabilizeAtStartup,1
;   temperatureHeatedBed,0
;   temperatureRelayBetweenLayers,0
;   temperatureRelayBetweenLoops,0
;   fanLayers,1,4
;   fanSpeeds,0,100
;   blipFanToFullPower,0
;   adjustSpeedForCooling,1
;   minSpeedLayerTime,15
;   minCoolingSpeedSlowdown,20
;   increaseFanForCooling,0
;   minFanLayerTime,45
;   maxCoolingFanSpeed,100
;   increaseFanForBridging,0
;   bridgingFanSpeed,100
;   use5D,1
;   relativeEdistances,0
;   allowEaxisZeroing,1
;   independentExtruderAxes,0
;   includeM10123,0
;   stickySupport,1
;   applyToolheadOffsets,0
;   gcodeXoffset,0
;   gcodeYoffset,0
;   gcodeZoffset,0
;   overrideMachineDefinition,1
;   machineTypeOverride,0
;   strokeXoverride,150
;   strokeYoverride,150
;   strokeZoverride,150
;   originOffsetXoverride,0
;   originOffsetYoverride,0
;   originOffsetZoverride,0
;   homeXdirOverride,-1
;   homeYdirOverride,-1
;   homeZdirOverride,-1
;   flipXoverride,1
;   flipYoverride,-1
;   flipZoverride,1
;   toolheadOffsets,0,0|0,0|0,0|0,0|0,0|0,0
;   overrideFirmwareConfiguration,0
;   firmwareTypeOverride,RepRap (Marlin/Repetier/Sprinter)
;   GPXconfigOverride,r2
;   baudRateOverride,115200
;   overridePrinterModels,0
;   printerModelsOverride
;   startingGcode,G28 ; home all axes
;   layerChangeGcode,
;   retractionGcode,
;   toolChangeGcode,
;   endingGcode,M104 S0 ; turn off extruder,M140 S0 ; turn off bed,G28 X0  ; home X axis,G28 Y0  ; home Y axis,M84 ; disable motors,M107
;   createX3G,0
;   celebration,0
;   celebrationSong,Random Song
;   createMB5G,0
;   postProcessing,
;   defaultSpeed,2400
;   outlineUnderspeed,0.5
;   solidInfillUnderspeed,0.8
;   supportUnderspeed,0.8
;   rapidXYspeed,3500
;   rapidZspeed,1000
;   minBridgingArea,50
;   bridgingExtraInflation,0
;   bridgingExtrusionMultiplier,1
;   bridgingSpeedMultiplier,1
;   filamentDiameter,1.75
;   filamentPricePerKg,46
;   filamentDensity,1.25
;   useMinPrintHeight,0
;   minPrintHeight,0
;   useMaxPrintHeight,0
;   maxPrintHeight,0
;   useDiaphragm,0
;   diaphragmLayerInterval,20
;   robustSlicing,1
;   mergeAllIntoSolid,0
;   onlyRetractWhenCrossingOutline,1
;   retractBetweenLayers,1
;   useRetractionMinTravel,0
;   retractionMinTravel,3
;   retractWhileWiping,0
;   onlyWipeOutlines,1
;   avoidCrossingOutline,0
;   maxMovementDetourFactor,10
;   toolChangeRetractionDistance,0
;   toolChangeExtraRestartDistance,0
;   toolChangeRetractionSpeed,360
;   allowThinWallGapFill,1
;   thinWallAllowedOverlapPercentage,10
;   horizontalSizeCompensation,0
G90
M82
M106 S0
M104 S207 T0
M109 S207 T0
G28 ; home all axes
G92 E0
G1 E-6.5000 F5000
G1 Z0.014 F1000
; layer 1, Z = 0.014
T0
; tool H0.100 W0.490
; skirt
G1 X68.064 Y64.052 F3500
G1 E0.0000 F1500
G92 E0
G1 X69.534 Y63.055 E0.0326 F720
G1 X69.591 Y63.020 E0.0338
G1 X69.804 Y62.893 E0.0383
G1 X69.862 Y62.861 E0.0396
G1 X70.641 Y62.461 E0.0556
G1 X70.701 Y62.432 E0.0568
G1 X70.928 Y62.333 E0.0614
G1 X70.989 Y62.308 E0.0626
G1 X71.811 Y62.004 E0.0787
G1 X71.875 Y61.983 E0.0799
G1 X72.113 Y61.911 E0.0845
G1 X72.178 Y61.894 E0.0857
G1 X73.034 Y61.691 E0.1018
G1 X73.099 Y61.678 E0.1030
G1 X73.344 Y61.635 E0.1076
G1 X73.410 Y61.626 E0.1088
G1 X74.279 Y61.529 E0.1248
G1 X74.346 Y61.523 E0.1261
G1 X74.593 Y61.511 E0.1306
G1 X74.660 Y61.509 E0.1318
G1 X75.534 Y61.518 E0.1479
G1 X75.601 Y61.520 E0.1491
G1 X75.846 Y61.537 E0.1536
G1 X75.912 Y61.544 E0.1548
G1 X76.776 Y61.656 E0.1708
G1 X76.841 Y61.667 E0.1720
G1 X77.085 Y61.714 E0.1765
G1 X77.150 Y61.728 E0.1778
G1 X77.998 Y61.945 E0.1938
G1 X78.062 Y61.964 E0.1950
G1 X78.298 Y62.040 E0.1996
G1 X78.361 Y62.062 E0.2008
G1 X79.176 Y62.379 E0.2168
G1 X79.237 Y62.405 E0.2181
G1 X79.463 Y62.509 E0.2226
G1 X79.522 Y62.539 E0.2238
G1 X80.294 Y62.952 E0.2399
G1 X80.351 Y62.985 E0.2411
G1 X80.562 Y63.116 E0.2456
G1 X80.618 Y63.152 E0.2469
G1 X82.042 Y64.153 E0.2788
G1 X82.389 Y64.549 E0.2884
G1 X83.308 Y66.301 E0.3247
G1 X83.435 Y66.812 E0.3343
G1 X83.444 Y67.885 E0.3540
G1 X83.907 Y68.015 E0.3629
G1 X86.234 Y69.633 E0.4148
G1 X86.672 Y70.236 E0.4285
G1 X87.771 Y73.875 E0.4982
G1 X87.740 Y74.620 E0.5118
G1 X87.554 Y75.090 E0.5211
G1 X87.788 Y75.539 E0.5304
G1 X87.896 Y76.276 E0.5441
G1 X87.178 Y80.010 E0.6138
G1 X86.804 Y80.655 E0.6274
G1 X86.421 Y80.985 E0.6367
G1 X86.419 Y81.491 E0.6460
G1 X86.172 Y82.194 E0.6597
G1 X83.801 Y85.166 E0.7294
G1 X83.170 Y85.564 E0.7430
G1 X82.678 Y85.678 E0.7523
G1 X82.441 Y86.125 E0.7616
G1 X81.895 Y86.632 E0.7752
G1 X78.415 Y88.162 E0.8449
G1 X77.672 Y88.221 E0.8586
G1 X77.182 Y88.093 E0.8679
G1 X76.765 Y88.379 E0.8772
G1 X76.046 Y88.575 E0.8908
G1 X72.253 Y88.312 E0.9605
G1 X71.568 Y88.019 E0.9742
G1 X71.194 Y87.679 E0.9835
G1 X70.692 Y87.738 E0.9927
G1 X69.964 Y87.577 E1.0064
G1 X66.728 Y85.582 E1.0761
G1 X66.257 Y85.004 E1.0898
G1 X66.084 Y84.528 E1.0991
G1 X65.612 Y84.347 E1.1083
G1 X65.042 Y83.867 E1.1220
G1 X63.104 Y80.596 E1.1917
G1 X62.956 Y79.866 E1.2054
G1 X63.024 Y79.364 E1.2146
G1 X62.690 Y78.985 E1.2239
G1 X62.408 Y78.294 E1.2376
G1 X62.212 Y74.498 E1.3073
G1 X62.420 Y73.782 E1.3210
G1 X62.714 Y73.370 E1.3302
G1 X62.594 Y72.878 E1.3395
G1 X62.666 Y72.136 E1.3532
G1 X64.257 Y68.683 E1.4229
G1 X64.774 Y68.146 E1.4365
G1 X66.622 Y67.209 E1.4745
G1 X66.619 Y66.802 E1.4820
G1 X66.747 Y66.273 E1.4920
G1 X67.700 Y64.458 E1.5296
G1 X68.064 Y64.052 E1.5396
G1 X68.389 Y64.423 F3500
G92 E0
G1 X69.803 Y63.465 E0.0313 F720
G1 X69.847 Y63.437 E0.0323
G1 X70.047 Y63.319 E0.0365
G1 X70.093 Y63.294 E0.0375
G1 X70.858 Y62.900 E0.0533
G1 X70.905 Y62.878 E0.0542
G1 X71.118 Y62.784 E0.0585
G1 X71.166 Y62.765 E0.0594
G1 X71.974 Y62.467 E0.0752
G1 X72.023 Y62.450 E0.0762
G1 X72.248 Y62.382 E0.0805
G1 X72.298 Y62.369 E0.0814
G1 X73.140 Y62.170 E0.0973
G1 X73.191 Y62.159 E0.0983
G1 X73.420 Y62.120 E0.1025
G1 X73.471 Y62.112 E0.1035
G1 X74.327 Y62.017 E0.1192
G1 X74.378 Y62.012 E0.1202
G1 X74.611 Y62.001 E0.1245
G1 X74.663 Y61.999 E0.1254
G1 X75.522 Y62.008 E0.1412
G1 X75.574 Y62.010 E0.1421
G1 X75.805 Y62.026 E0.1464
G1 X75.856 Y62.031 E0.1473
G1 X76.705 Y62.141 E0.1630
G1 X76.756 Y62.150 E0.1640
G1 X76.985 Y62.194 E0.1682
G1 X77.036 Y62.205 E0.1692
G1 X77.869 Y62.418 E0.1850
G1 X77.919 Y62.433 E0.1859
G1 X78.141 Y62.504 E0.1902
G1 X78.190 Y62.521 E0.1911
G1 X78.991 Y62.833 E0.2069
G1 X79.039 Y62.854 E0.2079
G1 X79.251 Y62.951 E0.2121
G1 X79.297 Y62.974 E0.2131
G1 X80.056 Y63.381 E0.2289
G1 X80.100 Y63.406 E0.2298
G1 X80.299 Y63.529 E0.2341
G1 X80.342 Y63.557 E0.2350
G1 X81.712 Y64.521 E0.2657
G1 X81.982 Y64.828 E0.2732
G1 X82.846 Y66.477 E0.3074
G1 X82.946 Y66.874 E0.3149
G1 X82.957 Y68.319 E0.3414
G1 X83.137 Y68.308 E0.3447
G1 X83.696 Y68.464 E0.3553
G1 X85.886 Y69.988 E0.4042
G1 X86.227 Y70.457 E0.4149
G1 X87.278 Y73.937 E0.4815
G1 X87.254 Y74.517 E0.4922
G1 X87.016 Y75.118 E0.5040
G1 X87.315 Y75.692 E0.5159
G1 X87.399 Y76.265 E0.5265
G1 X86.712 Y79.836 E0.5932
G1 X86.422 Y80.338 E0.6038
G1 X85.932 Y80.760 E0.6157
G1 X85.929 Y81.406 E0.6275
G1 X85.737 Y81.953 E0.6381
G1 X83.469 Y84.796 E0.7048
G1 X82.979 Y85.105 E0.7154
G1 X82.349 Y85.251 E0.7273
G1 X82.047 Y85.822 E0.7391
G1 X81.622 Y86.217 E0.7498
G1 X78.293 Y87.680 E0.8164
G1 X77.715 Y87.726 E0.8271
G1 X77.090 Y87.563 E0.8389
G1 X76.556 Y87.928 E0.8508
G1 X75.997 Y88.081 E0.8614
G1 X72.370 Y87.829 E0.9281
G1 X71.837 Y87.601 E0.9387
G1 X71.359 Y87.166 E0.9506
G1 X70.716 Y87.242 E0.9624
G1 X70.150 Y87.116 E0.9731
G1 X67.055 Y85.208 E1.0397
G1 X66.689 Y84.759 E1.0504
G1 X66.468 Y84.151 E1.0622
G1 X65.865 Y83.920 E1.0741
G1 X65.421 Y83.546 E1.0847
G1 X63.568 Y80.418 E1.1514
G1 X63.452 Y79.849 E1.1620
G1 X63.539 Y79.209 E1.1738
G1 X63.112 Y78.723 E1.1857
G1 X62.894 Y78.186 E1.1963
G1 X62.706 Y74.555 E1.2630
G1 X62.868 Y73.998 E1.2736
G1 X63.243 Y73.471 E1.2855
G1 X63.090 Y72.843 E1.2973
G1 X63.146 Y72.266 E1.3080
G1 X64.667 Y68.963 E1.3746
G1 X65.069 Y68.546 E1.3853
G1 X67.114 Y67.509 E1.4273
G1 X67.109 Y66.859 E1.4392
G1 X67.209 Y66.447 E1.4470
G1 X68.106 Y64.739 E1.4824
G1 X68.389 Y64.423 E1.4901
G1 X68.713 Y64.795 F3500
G92 E0
G1 X70.072 Y63.875 E0.0301 F720
G1 X70.103 Y63.855 E0.0308
G1 X70.291 Y63.744 E0.0348
G1 X70.323 Y63.726 E0.0354
G1 X71.075 Y63.340 E0.0509
G1 X71.109 Y63.324 E0.0516
G1 X71.309 Y63.236 E0.0556
G1 X71.343 Y63.222 E0.0563
G1 X72.137 Y62.929 E0.0718
G1 X72.172 Y62.917 E0.0725
G1 X72.382 Y62.854 E0.0765
G1 X72.418 Y62.844 E0.0772
G1 X73.245 Y62.648 E0.0928
G1 X73.282 Y62.641 E0.0935
G1 X73.497 Y62.604 E0.0975
G1 X73.533 Y62.598 E0.0982
G1 X74.374 Y62.504 E0.1137
G1 X74.411 Y62.501 E0.1143
G1 X74.629 Y62.490 E0.1183
G1 X74.666 Y62.489 E0.1190
G1 X75.510 Y62.497 E0.1345
G1 X75.547 Y62.499 E0.1352
G1 X75.764 Y62.514 E0.1392
G1 X75.800 Y62.518 E0.1398
G1 X76.634 Y62.626 E0.1553
G1 X76.671 Y62.632 E0.1559
G1 X76.885 Y62.673 E0.1599
G1 X76.921 Y62.682 E0.1606
G1 X77.741 Y62.891 E0.1761
G1 X77.776 Y62.901 E0.1768
G1 X77.984 Y62.968 E0.1808
G1 X78.019 Y62.980 E0.1815
G1 X78.807 Y63.287 E0.1970
G1 X78.841 Y63.302 E0.1977
G1 X79.039 Y63.393 E0.2017
G1 X79.072 Y63.410 E0.2023
G1 X79.818 Y63.809 E0.2178
G1 X79.850 Y63.827 E0.2185
G1 X80.035 Y63.942 E0.2225
G1 X80.066 Y63.962 E0.2232
G1 X81.382 Y64.888 E0.2527
G1 X81.575 Y65.107 E0.2581
G1 X82.385 Y66.653 E0.2900
G1 X82.456 Y66.936 E0.2954
G1 X82.471 Y68.841 E0.3303
G1 X83.085 Y68.802 E0.3416
G1 X83.484 Y68.914 E0.3492
G1 X85.538 Y70.343 E0.3951
G1 X85.782 Y70.678 E0.4027
G1 X86.785 Y74.000 E0.4663
G1 X86.768 Y74.414 E0.4739
G1 X86.479 Y75.146 E0.4883
G1 X86.842 Y75.844 E0.5028
G1 X86.902 Y76.254 E0.5104
G1 X86.247 Y79.662 E0.5740
G1 X86.039 Y80.020 E0.5816
G1 X85.442 Y80.534 E0.5960
G1 X85.440 Y81.322 E0.6105
G1 X85.302 Y81.712 E0.6180
G1 X83.138 Y84.425 E0.6817
G1 X82.788 Y84.646 E0.6893
G1 X82.021 Y84.824 E0.7037
G1 X81.652 Y85.520 E0.7181
G1 X81.349 Y85.802 E0.7257
G1 X78.172 Y87.199 E0.7894
G1 X77.759 Y87.231 E0.7970
G1 X76.997 Y87.032 E0.8114
G1 X76.348 Y87.477 E0.8258
G1 X75.948 Y87.586 E0.8334
G1 X72.486 Y87.346 E0.8970
G1 X72.105 Y87.183 E0.9046
G1 X71.523 Y86.653 E0.9191
G1 X70.741 Y86.745 E0.9335
G1 X70.337 Y86.656 E0.9411
G1 X67.383 Y84.835 E1.0047
G1 X67.121 Y84.513 E1.0123
G1 X66.852 Y83.773 E1.0268
G1 X66.117 Y83.492 E1.0412
G1 X65.801 Y83.225 E1.0488
G1 X64.031 Y80.239 E1.1124
G1 X63.949 Y79.833 E1.1200
G1 X64.055 Y79.053 E1.1345
G1 X63.535 Y78.462 E1.1489
G1 X63.379 Y78.078 E1.1565
G1 X63.199 Y74.612 E1.2201
G1 X63.315 Y74.215 E1.2277
G1 X63.771 Y73.573 E1.2421
G1 X63.586 Y72.808 E1.2566
G1 X63.626 Y72.396 E1.2642
G1 X65.078 Y69.244 E1.3278
G1 X65.365 Y68.945 E1.3354
G1 X67.597 Y67.814 E1.3813
G1 X67.607 Y67.812 E1.3815
G1 X67.599 Y66.915 E1.3979
G1 X67.671 Y66.621 E1.4035
G1 X68.512 Y65.021 E1.4366
G1 X68.713 Y64.795 E1.4422
G1 X69.038 Y65.167 F3500
G92 E0
G1 X70.340 Y64.285 E0.0288 F720
G1 X70.359 Y64.273 E0.0292
G1 X70.534 Y64.169 E0.0330
G1 X70.554 Y64.158 E0.0334
G1 X71.293 Y63.779 E0.0486
G1 X71.313 Y63.769 E0.0490
G1 X71.499 Y63.687 E0.0527
G1 X71.519 Y63.679 E0.0532
G1 X72.299 Y63.391 E0.0684
G1 X72.321 Y63.384 E0.0688
G1 X72.517 Y63.325 E0.0726
G1 X72.538 Y63.319 E0.0730
G1 X73.351 Y63.127 E0.0883
G1 X73.373 Y63.122 E0.0887
G1 X73.573 Y63.088 E0.0924
G1 X73.595 Y63.084 E0.0928
G1 X74.421 Y62.992 E0.1081
G1 X74.443 Y62.990 E0.1085
G1 X74.646 Y62.980 E0.1122
G1 X74.668 Y62.980 E0.1126
G1 X75.498 Y62.987 E0.1278
G1 X75.520 Y62.988 E0.1282
G1 X75.722 Y63.002 E0.1319
G1 X75.744 Y63.005 E0.1323
G1 X76.564 Y63.111 E0.1475
G1 X76.586 Y63.115 E0.1479
G1 X76.785 Y63.153 E0.1516
G1 X76.807 Y63.158 E0.1520
G1 X77.612 Y63.364 E0.1673
G1 X77.633 Y63.370 E0.1677
G1 X77.827 Y63.432 E0.1714
G1 X77.848 Y63.440 E0.1718
G1 X78.622 Y63.741 E0.1870
G1 X78.643 Y63.750 E0.1875
G1 X78.827 Y63.835 E0.1912
G1 X78.847 Y63.845 E0.1916
G1 X79.580 Y64.237 E0.2068
G1 X79.599 Y64.248 E0.2072
G1 X79.772 Y64.355 E0.2110
G1 X79.790 Y64.367 E0.2114
G1 X81.053 Y65.255 E0.2397
G1 X81.168 Y65.387 E0.2429
G1 X81.924 Y66.828 E0.2727
G1 X81.967 Y66.999 E0.2759
G1 X81.986 Y69.362 E0.3193
G1 X83.033 Y69.297 E0.3385
G1 X83.272 Y69.364 E0.3431
G1 X85.191 Y70.698 E0.3859
G1 X85.337 Y70.899 E0.3905
G1 X86.292 Y74.062 E0.4511
G1 X86.282 Y74.310 E0.4556
G1 X85.941 Y75.174 E0.4726
G1 X86.369 Y75.997 E0.4896
G1 X86.405 Y76.243 E0.4942
G1 X85.781 Y79.488 E0.5548
G1 X85.656 Y79.703 E0.5594
G1 X84.953 Y80.309 E0.5764
G1 X84.950 Y81.237 E0.5934
G1 X84.867 Y81.472 E0.5979
G1 X82.807 Y84.055 E0.6585
G1 X82.596 Y84.188 E0.6631
G1 X81.692 Y84.397 E0.6801
G1 X81.258 Y85.218 E0.6971
G1 X81.076 Y85.387 E0.7017
G1 X78.051 Y86.717 E0.7623
G1 X77.803 Y86.736 E0.7668
G1 X76.905 Y86.502 E0.7839
G1 X76.139 Y87.026 E0.8009
G1 X75.899 Y87.091 E0.8054
G1 X72.603 Y86.863 E0.8660
G1 X72.374 Y86.765 E0.8706
G1 X71.688 Y86.140 E0.8876
G1 X70.766 Y86.249 E0.9046
G1 X70.524 Y86.195 E0.9092
G1 X67.711 Y84.461 E0.9698
G1 X67.554 Y84.268 E0.9743
G1 X67.237 Y83.396 E0.9913
G1 X66.370 Y83.064 E1.0084
G1 X66.180 Y82.903 E1.0129
G1 X64.495 Y80.061 E1.0735
G1 X64.446 Y79.817 E1.0781
G1 X64.571 Y78.897 E1.0951
G1 X63.957 Y78.200 E1.1121
G1 X63.864 Y77.970 E1.1167
G1 X63.693 Y74.670 E1.1772
G1 X63.762 Y74.431 E1.1818
G1 X64.300 Y73.675 E1.1988
G1 X64.081 Y72.773 E1.2158
G1 X64.105 Y72.525 E1.2204
G1 X65.488 Y69.524 E1.2810
G1 X65.660 Y69.345 E1.2855
G1 X67.744 Y68.288 E1.3284
G1 X67.991 Y68.255 E1.3329
G1 X68.100 Y68.277 E1.3350
G1 X68.090 Y66.972 E1.3589
G1 X68.133 Y66.796 E1.3622
G1 X68.917 Y65.302 E1.3932
G1 X69.038 Y65.167 E1.3965
G1 X69.363 Y65.539 F3500
G92 E0
G1 X70.609 Y64.695 E0.0276 F720
G1 X70.615 Y64.691 E0.0277
G1 X70.778 Y64.594 E0.0312
G1 X70.784 Y64.591 E0.0313
G1 X71.510 Y64.218 E0.0463
