; G-Code generated by Simplify3D(R) Version 3.0.0
; Sep 6, 2017 at 7:43:18 
; Settings Summary
;   processName,Process1
;   applyToModels,schuh
;   profileName,juli (modified)
;   profileVersion,2017-06-09 12:06:14
;   baseProfile,German RepRap NEO (modified)
;   printMaterial,
;   printQuality,
;   printExtruders,
;   extruderName,Primary Extruder
;   extruderToolheadNumber,0
;   extruderDiameter,0.5
;   extruderAutoWidth,0
;   extruderWidth,0.49
;   extrusionMultiplier,0.9
;   extruderUseRetract,1
;   extruderRetractionDistance,6.5
;   extruderExtraRestartDistance,0
;   extruderRetractionZLift,0
;   extruderRetractionSpeed,5000
;   extruderUseCoasting,0
;   extruderCoastingDistance,0.2
;   extruderUseWipe,0
;   extruderWipeDistance,5
;   primaryExtruder,0
;   layerHeight,0.2
;   topSolidLayers,4
;   bottomSolidLayers,3
;   perimeterOutlines,3
;   printPerimetersInsideOut,1
;   startPointOption,2
;   startPointOriginX,0
;   startPointOriginY,0
;   startPointOriginZ,300
;   sequentialIslands,0
;   spiralVaseMode,0
;   firstLayerHeightPercentage,100
;   firstLayerWidthPercentage,100
;   firstLayerUnderspeed,0.3
;   useRaft,0
;   raftExtruder,0
;   raftLayers,3
;   raftOffset,3
;   raftSeparationDistance,0.1
;   raftInfill,85
;   disableRaftBaseLayers,0
;   useSkirt,1
;   skirtExtruder,0
;   skirtLayers,1
;   skirtOutlines,3
;   skirtOffset,3
;   usePrimePillar,0
;   primePillarExtruder,999
;   primePillarWidth,12
;   primePillarLocation,7
;   primePillarSpeedMultiplier,1
;   useOozeShield,0
;   oozeShieldExtruder,999
;   oozeShieldOffset,2
;   oozeShieldOutlines,1
;   oozeShieldSidewallShape,1
;   oozeShieldSidewallAngle,30
;   oozeShieldSpeedMultiplier,1
;   infillExtruder,0
;   internalInfillPattern,Full Honeycomb
;   externalInfillPattern,Rectilinear
;   infillPercentage,15
;   outlineOverlapPercentage,15
;   infillExtrusionWidthPercentage,100
;   minInfillLength,3
;   infillLayerInterval,1
;   infillAngles,0,120,-120
;   overlapInfillAngles,0
;   generateSupport,0
;   supportExtruder,0
;   supportInfillPercentage,30
;   supportExtraInflation,0
;   denseSupportLayers,0
;   denseSupportInfillPercentage,75
;   supportLayerInterval,1
;   supportHorizontalPartOffset,1.5
;   supportUpperSeparationLayers,2
;   supportLowerSeparationLayers,2
;   supportType,0
;   supportGridSpacing,4
;   maxOverhangAngle,45
;   supportAngles,45
;   temperatureName,Primary Extruder
;   temperatureNumber,0
;   temperatureSetpointCount,3
;   temperatureSetpointLayers,1,2,3
;   temperatureSetpointTemperatures,207,199,192
;   temperatureStabilizeAtStartup,1
;   temperatureHeatedBed,0
;   temperatureRelayBetweenLayers,0
;   temperatureRelayBetweenLoops,0
;   fanLayers,1,4
;   fanSpeeds,0,100
;   blipFanToFullPower,0
;   adjustSpeedForCooling,1
;   minSpeedLayerTime,15
;   minCoolingSpeedSlowdown,20
;   increaseFanForCooling,0
;   minFanLayerTime,45
;   maxCoolingFanSpeed,100
;   increaseFanForBridging,0
;   bridgingFanSpeed,100
;   use5D,1
;   relativeEdistances,0
;   allowEaxisZeroing,1
;   independentExtruderAxes,0
;   includeM10123,0
;   stickySupport,1
;   applyToolheadOffsets,0
;   gcodeXoffset,0
;   gcodeYoffset,0
;   gcodeZoffset,0
;   overrideMachineDefinition,1
;   machineTypeOverride,0
;   strokeXoverride,150
;   strokeYoverride,150
;   strokeZoverride,150
;   originOffsetXoverride,0
;   originOffsetYoverride,0
;   originOffsetZoverride,0
;   homeXdirOverride,-1
;   homeYdirOverride,-1
;   homeZdirOverride,-1
;   flipXoverride,1
;   flipYoverride,-1
;   flipZoverride,1
;   toolheadOffsets,0,0|0,0|0,0|0,0|0,0|0,0
;   overrideFirmwareConfiguration,0
;   firmwareTypeOverride,RepRap (Marlin/Repetier/Sprinter)
;   GPXconfigOverride,r2
;   baudRateOverride,115200
;   overridePrinterModels,0
;   printerModelsOverride
;   startingGcode,G28 ; home all axes
;   layerChangeGcode,
;   retractionGcode,
;   toolChangeGcode,
;   endingGcode,M104 S0 ; turn off extruder,M140 S0 ; turn off bed,G28 X0  ; home X axis,G28 Y0  ; home Y axis,M84 ; disable motors,M107
;   createX3G,0
;   celebration,0
;   celebrationSong,Random Song
;   createMB5G,0
;   postProcessing,
;   defaultSpeed,2400
;   outlineUnderspeed,0.5
;   solidInfillUnderspeed,0.8
;   supportUnderspeed,0.8
;   rapidXYspeed,3500
;   rapidZspeed,1000
;   minBridgingArea,50
;   bridgingExtraInflation,0
;   bridgingExtrusionMultiplier,1
;   bridgingSpeedMultiplier,1
;   filamentDiameter,1.75
;   filamentPricePerKg,46
;   filamentDensity,1.25
;   useMinPrintHeight,0
;   minPrintHeight,0
;   useMaxPrintHeight,0
;   maxPrintHeight,0
;   useDiaphragm,0
;   diaphragmLayerInterval,20
;   robustSlicing,1
;   mergeAllIntoSolid,0
;   onlyRetractWhenCrossingOutline,1
;   retractBetweenLayers,1
;   useRetractionMinTravel,0
;   retractionMinTravel,3
;   retractWhileWiping,0
;   onlyWipeOutlines,1
;   avoidCrossingOutline,0
;   maxMovementDetourFactor,10
;   toolChangeRetractionDistance,0
;   toolChangeExtraRestartDistance,0
;   toolChangeRetractionSpeed,360
;   allowThinWallGapFill,1
;   thinWallAllowedOverlapPercentage,10
;   horizontalSizeCompensation,0
G90
M82
M106 S0
M104 S207 T0
M109 S207 T0
G28 ; home all axes
G92 E0
G1 E-6.5000 F5000
G1 Z0.200 F1000
; layer 1, Z = 0.2
T0
; tool H0.200 W0.490
; skirt
G1 X53.356 Y57.583 F3500
G1 E0.0000 F1500
G92 E0
G1 X53.487 Y57.462 E0.0065 F720
G1 X53.692 Y57.322 E0.0156
G1 X59.232 Y51.782 E0.3029
G1 X59.325 Y51.706 E0.3073
G1 X59.916 Y51.311 E0.3334
G1 X60.022 Y51.254 E0.3378
G1 X66.921 Y48.396 E0.6116
G1 X67.023 Y48.364 E0.6156
G1 X67.640 Y48.227 E0.6387
G1 X67.746 Y48.213 E0.6427
G1 X69.202 Y48.150 E0.6961
G1 X69.215 Y48.149 E0.6966
G1 X69.294 Y48.148 E0.6995
G1 X69.308 Y48.148 E0.7000
G1 X80.290 Y48.148 E1.1027
G1 X80.299 Y48.148 E1.1030
G1 X80.348 Y48.148 E1.1048
G1 X80.356 Y48.148 E1.1051
G1 X83.470 Y48.233 E1.2193
G1 X83.606 Y48.252 E1.2244
G1 X84.396 Y48.456 E1.2543
G1 X84.524 Y48.505 E1.2593
G1 X90.252 Y51.462 E1.4957
G1 X90.333 Y51.513 E1.4992
G1 X90.787 Y51.845 E1.5198
G1 X90.859 Y51.908 E1.5233
G1 X96.874 Y57.953 E1.8360
G1 X96.950 Y58.046 E1.8404
G1 X97.342 Y58.634 E1.8663
G1 X97.398 Y58.739 E1.8707
G1 X100.268 Y65.668 E2.1457
G1 X100.303 Y65.781 E2.1501
G1 X100.441 Y66.468 E2.1758
G1 X100.454 Y66.586 E2.1801
G1 X100.504 Y75.178 E2.4952
G1 X100.504 Y75.183 E2.4954
G1 X100.504 Y75.211 E2.4964
G1 X100.504 Y75.216 E2.4966
G1 X100.447 Y80.937 E2.7064
G1 X100.434 Y81.054 E2.7107
G1 X100.296 Y81.733 E2.7361
G1 X100.261 Y81.845 E2.7404
G1 X97.436 Y88.667 E3.0112
G1 X97.379 Y88.773 E3.0156
G1 X96.984 Y89.364 E3.0416
G1 X96.908 Y89.457 E3.0461
G1 X90.533 Y95.834 E3.3767
G1 X90.342 Y95.964 E3.3852
G1 X89.078 Y96.511 E3.4357
G1 X88.851 Y96.562 E3.4442
G1 X88.786 Y96.564 E3.4466
G1 X83.022 Y98.951 E3.6754
G1 X82.915 Y98.985 E3.6795
G1 X82.271 Y99.123 E3.7036
G1 X82.160 Y99.136 E3.7077
G1 X80.118 Y99.194 E3.7826
G1 X80.110 Y99.194 E3.7829
G1 X80.058 Y99.195 E3.7848
G1 X80.049 Y99.195 E3.7851
G1 X68.109 Y99.195 E4.2230
G1 X68.045 Y99.192 E4.2254
G1 X67.664 Y99.151 E4.2394
G1 X67.600 Y99.141 E4.2418
G1 X66.695 Y98.946 E4.2757
G1 X66.577 Y98.939 E4.2800
G1 X66.490 Y98.927 E4.2833
G1 X65.978 Y98.820 E4.3024
G1 X65.893 Y98.795 E4.3057
G1 X58.423 Y96.058 E4.5974
G1 X58.223 Y95.938 E4.6060
G1 X57.189 Y95.009 E4.6569
G1 X57.048 Y94.823 E4.6655
G1 X57.013 Y94.751 E4.6684
G1 X52.837 Y90.670 E4.8825
G1 X52.707 Y90.485 E4.8908
G1 X52.149 Y89.263 E4.9401
G1 X52.094 Y89.043 E4.9484
G1 X52.080 Y88.799 E4.9574
G1 X49.618 Y81.479 E5.2406
G1 X49.595 Y81.393 E5.2438
G1 X49.502 Y80.874 E5.2631
G1 X49.492 Y80.786 E5.2664
G1 X49.434 Y79.054 E5.3299
G1 X49.434 Y79.044 E5.3303
G1 X49.433 Y78.984 E5.3325
G1 X49.433 Y78.973 E5.3329
G1 X49.433 Y71.624 E5.6024
G1 X49.433 Y71.621 E5.6025
G1 X49.433 Y71.603 E5.6032
G1 X49.433 Y71.599 E5.6033
G1 X49.485 Y66.573 E5.7876
G1 X49.497 Y66.457 E5.7919
G1 X49.635 Y65.781 E5.8172
G1 X49.669 Y65.669 E5.8215
G1 X52.601 Y58.555 E6.1037
G1 X52.692 Y58.402 E6.1102
G1 X53.356 Y57.583 E6.1489
G1 X53.715 Y57.919 F3500
G92 E0
G1 X53.793 Y57.846 E0.0039 F720
G1 X54.006 Y57.701 E0.0134
G1 X59.561 Y52.146 E0.3015
G1 X59.617 Y52.100 E0.3041
G1 X60.169 Y51.732 E0.3284
G1 X60.232 Y51.697 E0.3311
G1 X67.089 Y48.857 E0.6032
G1 X67.150 Y48.838 E0.6056
G1 X67.726 Y48.710 E0.6272
G1 X67.789 Y48.702 E0.6295
G1 X69.221 Y48.640 E0.6821
G1 X69.229 Y48.639 E0.6824
G1 X69.302 Y48.638 E0.6851
G1 X69.310 Y48.638 E0.6854
G1 X80.289 Y48.638 E1.0879
G1 X80.294 Y48.638 E1.0881
G1 X80.339 Y48.638 E1.0898
G1 X80.344 Y48.638 E1.0900
G1 X83.429 Y48.722 E1.2031
G1 X83.511 Y48.734 E1.2062
G1 X84.247 Y48.923 E1.2340
G1 X84.324 Y48.953 E1.2371
G1 X90.010 Y51.889 E1.4717
G1 X90.058 Y51.919 E1.4738
G1 X90.482 Y52.229 E1.4931
G1 X90.525 Y52.267 E1.4952
G1 X96.510 Y58.282 E1.8063
G1 X96.556 Y58.337 E1.8089
G1 X96.921 Y58.886 E1.8331
G1 X96.955 Y58.949 E1.8357
G1 X99.806 Y65.833 E2.1090
G1 X99.827 Y65.901 E2.1116
G1 X99.956 Y66.542 E2.1355
G1 X99.964 Y66.613 E2.1382
G1 X100.014 Y75.180 E2.4523
G1 X100.014 Y75.183 E2.4524
G1 X100.014 Y75.209 E2.4534
G1 X100.014 Y75.212 E2.4535
G1 X99.957 Y80.909 E2.6624
G1 X99.950 Y80.979 E2.6650
G1 X99.820 Y81.612 E2.6887
G1 X99.800 Y81.679 E2.6913
G1 X96.992 Y88.457 E2.9603
G1 X96.958 Y88.521 E2.9629
G1 X96.590 Y89.072 E2.9872
G1 X96.544 Y89.128 E2.9899
G1 X90.220 Y95.455 E3.3179
G1 X90.105 Y95.533 E3.3230
G1 X88.926 Y96.043 E3.3701
G1 X88.790 Y96.073 E3.3752
G1 X88.682 Y96.077 E3.3792
G1 X82.855 Y98.490 E3.6105
G1 X82.791 Y98.510 E3.6129
G1 X82.190 Y98.639 E3.6355
G1 X82.123 Y98.647 E3.6379
G1 X80.106 Y98.704 E3.7119
G1 X80.101 Y98.704 E3.7121
G1 X80.053 Y98.705 E3.7139
G1 X80.048 Y98.705 E3.7141
G1 X68.122 Y98.705 E4.1514
G1 X68.083 Y98.703 E4.1528
G1 X67.729 Y98.665 E4.1659
G1 X67.690 Y98.659 E4.1673
G1 X66.762 Y98.460 E4.2021
G1 X66.626 Y98.451 E4.2071
G1 X66.573 Y98.444 E4.2091
G1 X66.096 Y98.344 E4.2269
G1 X66.045 Y98.329 E4.2289
G1 X58.636 Y95.614 E4.5182
G1 X58.516 Y95.542 E4.5234
G1 X57.551 Y94.676 E4.5709
G1 X57.467 Y94.564 E4.5761
G1 X57.415 Y94.459 E4.5803
G1 X53.212 Y90.351 E4.7958
G1 X53.134 Y90.240 E4.8008
G1 X52.614 Y89.100 E4.8468
G1 X52.581 Y88.968 E4.8518
G1 X52.565 Y88.704 E4.8614
G1 X50.088 Y81.340 E5.1464
G1 X50.074 Y81.288 E5.1483
G1 X49.987 Y80.805 E5.1663
G1 X49.981 Y80.752 E5.1683
G1 X49.924 Y79.040 E5.2311
G1 X49.924 Y79.034 E5.2313
G1 X49.923 Y78.977 E5.2334
G1 X49.923 Y78.971 E5.2336
G1 X49.923 Y71.623 E5.5031
G1 X49.923 Y71.606 E5.5037
G1 X49.923 Y71.604 E5.5038
G1 X49.975 Y66.601 E5.6872
G1 X49.982 Y66.532 E5.6898
G1 X50.110 Y65.902 E5.7134
G1 X50.130 Y65.835 E5.7159
G1 X53.041 Y58.775 E5.9960
G1 X53.095 Y58.683 E5.9999
G1 X53.715 Y57.919 E6.0359
G1 X54.073 Y58.255 F3500
G92 E0
G1 X54.099 Y58.231 E0.0013 F720
G1 X54.321 Y58.079 E0.0111
G1 X59.891 Y52.509 E0.3000
G1 X59.909 Y52.494 E0.3009
G1 X60.421 Y52.152 E0.3234
G1 X60.442 Y52.141 E0.3243
G1 X67.257 Y49.318 E0.5948
G1 X67.277 Y49.312 E0.5956
G1 X67.811 Y49.193 E0.6156
G1 X67.832 Y49.191 E0.6164
G1 X69.239 Y49.129 E0.6681
G1 X69.242 Y49.129 E0.6682
G1 X69.310 Y49.128 E0.6707
G1 X69.313 Y49.128 E0.6708
G1 X80.287 Y49.128 E1.0732
G1 X80.289 Y49.128 E1.0732
G1 X80.331 Y49.128 E1.0748
G1 X80.333 Y49.128 E1.0749
G1 X83.388 Y49.211 E1.1869
G1 X83.415 Y49.215 E1.1880
G1 X84.098 Y49.391 E1.2138
G1 X84.124 Y49.401 E1.2148
G1 X89.768 Y52.316 E1.4477
G1 X89.784 Y52.326 E1.4484
G1 X90.177 Y52.613 E1.4663
G1 X90.191 Y52.626 E1.4670
G1 X96.146 Y58.610 E1.7766
G1 X96.161 Y58.629 E1.7774
G1 X96.500 Y59.137 E1.7999
G1 X96.511 Y59.158 E1.8007
G1 X99.345 Y65.999 E2.0722
G1 X99.352 Y66.022 E2.0731
G1 X99.471 Y66.616 E2.0953
G1 X99.474 Y66.639 E2.0962
G1 X99.524 Y75.182 E2.4094
G1 X99.524 Y75.183 E2.4095
G1 X99.524 Y75.207 E2.4104
G1 X99.524 Y75.208 E2.4104
G1 X99.467 Y80.880 E2.6184
G1 X99.465 Y80.904 E2.6193
G1 X99.345 Y81.491 E2.6413
G1 X99.338 Y81.513 E2.6421
G1 X96.549 Y88.248 E2.9094
G1 X96.537 Y88.269 E2.9103
G1 X96.196 Y88.780 E2.9328
G1 X96.181 Y88.799 E2.9337
G1 X89.906 Y95.076 E3.2592
G1 X89.867 Y95.102 E3.2609
G1 X88.774 Y95.575 E3.3046
G1 X88.728 Y95.585 E3.3063
G1 X88.577 Y95.590 E3.3118
G1 X82.688 Y98.029 E3.5456
G1 X82.667 Y98.036 E3.5464
G1 X82.109 Y98.155 E3.5673
G1 X82.087 Y98.157 E3.5681
G1 X80.094 Y98.214 E3.6412
G1 X80.092 Y98.214 E3.6413
G1 X80.048 Y98.215 E3.6429
G1 X80.046 Y98.215 E3.6430
G1 X68.135 Y98.215 E4.0797
G1 X68.122 Y98.214 E4.0802
G1 X67.793 Y98.179 E4.0923
G1 X67.781 Y98.177 E4.0928
G1 X66.829 Y97.973 E4.1285
G1 X66.674 Y97.963 E4.1342
G1 X66.656 Y97.961 E4.1349
G1 X66.214 Y97.868 E4.1514
G1 X66.197 Y97.863 E4.1521
G1 X58.848 Y95.170 E4.4391
G1 X58.808 Y95.146 E4.4408
G1 X57.914 Y94.342 E4.4849
G1 X57.885 Y94.305 E4.4866
G1 X57.817 Y94.167 E4.4922
G1 X53.587 Y90.032 E4.7092
G1 X53.561 Y89.995 E4.7108
G1 X53.078 Y88.938 E4.7534
G1 X53.067 Y88.894 E4.7551
G1 X53.050 Y88.610 E4.7655
G1 X50.558 Y81.200 E5.0522
G1 X50.553 Y81.183 E5.0528
G1 X50.472 Y80.735 E5.0695
G1 X50.470 Y80.717 E5.0702
G1 X50.414 Y79.025 E5.1323
G1 X50.414 Y79.023 E5.1323
G1 X50.413 Y78.971 E5.1343
G1 X50.413 Y78.969 E5.1343
G1 X50.413 Y71.625 E5.4036
G1 X50.413 Y71.609 E5.4042
G1 X50.413 Y71.608 E5.4043
G1 X50.464 Y66.630 E5.5868
G1 X50.467 Y66.606 E5.5877
G1 X50.586 Y66.022 E5.6095
G1 X50.592 Y66.000 E5.6104
G1 X53.480 Y58.994 E5.8883
G1 X53.499 Y58.964 E5.8896
G1 X54.073 Y58.255 E5.9230
G92 E0
G1 E-6.5000 F5000
; inner perimeter
G1 X57.324 Y61.398 F3500
G1 E0.0000 F5000
G92 E0
G1 X62.662 Y56.060 E0.2768 F600
G1 X68.516 Y53.635 E0.5092
G1 X69.374 Y53.598 E0.5406
G1 X80.249 Y53.598 E0.9394
G1 X82.634 Y53.663 E1.0269
G1 X87.330 Y56.087 E1.2207
G1 X92.591 Y61.375 E1.4942
G1 X95.007 Y67.208 E1.7258
G1 X95.054 Y75.186 E2.0183
G1 X95.003 Y80.299 E2.2058
G1 X92.630 Y86.028 E2.4332
G1 X87.435 Y91.224 E2.7026
G1 X81.449 Y93.704 E2.9402
G1 X80.006 Y93.745 E2.9931
G1 X68.431 Y93.745 E3.4176
G1 X67.441 Y93.532 E3.4547
G1 X67.356 Y93.527 E3.4579
G1 X61.279 Y91.300 E3.6952
G1 X57.393 Y87.502 E3.8944
G1 X54.924 Y80.161 E4.1784
G1 X54.883 Y78.923 E4.2239
G1 X54.883 Y71.639 E4.4909
G1 X54.929 Y67.180 E4.6545
G1 X57.324 Y61.398 E4.8840
; inner perimeter
G1 X56.909 Y61.120 F3500
G92 E0
G1 X62.384 Y55.644 E0.2840 F480
G1 X68.408 Y53.149 E0.5230
G1 X69.363 Y53.108 E0.5581
G1 X80.256 Y53.108 E0.9575
G1 X82.760 Y53.176 E1.0494
G1 X87.623 Y55.687 E1.2501
G1 X93.007 Y61.098 E1.5300
G1 X95.497 Y67.109 E1.7686
G1 X95.544 Y75.187 E2.0648
G1 X95.492 Y80.399 E2.2559
G1 X93.045 Y86.306 E2.4903
G1 X87.713 Y91.640 E2.7669
G1 X81.554 Y94.191 E3.0114
G1 X80.013 Y94.235 E3.0679
G1 X68.379 Y94.235 E3.4945
G1 X67.374 Y94.019 E3.5322
G1 X67.254 Y94.012 E3.5366
G1 X61.011 Y91.724 E3.7804
G1 X56.967 Y87.770 E3.9878
G1 X54.437 Y80.249 E4.2788
G1 X54.393 Y78.931 E4.3272
G1 X54.393 Y71.637 E4.5946
G1 X54.440 Y67.080 E4.7617
G1 X56.909 Y61.120 E4.9983
; outer perimeter
G1 X56.505 Y60.814 F3500
G92 E0
G1 X56.558 Y60.777 E0.0024 F360
G1 X62.107 Y55.229 E0.2901
G1 X68.300 Y52.664 E0.5359
G1 X69.352 Y52.618 E0.5745
G1 X80.262 Y52.618 E0.9746
G1 X82.885 Y52.689 E1.0708
G1 X87.916 Y55.287 E1.2784
G1 X93.422 Y60.821 E1.5647
G1 X95.986 Y67.010 E1.8104
G1 X96.034 Y75.188 E2.1102
G1 X95.981 Y80.499 E2.3050
G1 X93.461 Y86.583 E2.5465
G1 X87.927 Y92.118 E2.8335
G1 X87.831 Y92.121 E2.8370
G1 X81.658 Y94.678 E3.0820
G1 X80.020 Y94.725 E3.1421
G1 X68.327 Y94.725 E3.5709
G1 X67.307 Y94.506 E3.6091
G1 X67.153 Y94.496 E3.6148
G1 X60.706 Y92.134 E3.8666
G1 X60.683 Y92.088 E3.8684
G1 X56.510 Y88.009 E4.0824
G1 X56.506 Y87.937 E4.0851
G1 X53.950 Y80.337 E4.3791
G1 X53.903 Y78.939 E4.4304
G1 X53.903 Y71.635 E4.6982
G1 X53.951 Y67.001 E4.8682
G1 X53.980 Y66.911 E4.8716
G1 X56.505 Y60.814 E5.1136
; inner perimeter
G1 X65.514 Y67.583 F3500
G92 E0
G1 X64.494 Y69.491 E0.0793 F600
G1 X63.865 Y71.549 E0.1582
G1 X63.652 Y73.700 E0.2375
G1 X63.865 Y75.743 E0.3128
G1 X64.488 Y77.936 E0.3964
G1 X65.514 Y79.855 E0.4762
G1 X66.887 Y81.528 E0.5556
G1 X68.561 Y82.902 E0.6350
G1 X70.470 Y83.922 E0.7144
G1 X72.542 Y84.551 E0.7938
G1 X74.697 Y84.763 E0.8732
G1 X76.852 Y84.551 E0.9526
G1 X78.938 Y83.918 E1.0325
G1 X80.833 Y82.846 E1.1123
G1 X82.498 Y81.539 E1.1900
G1 X83.880 Y79.855 E1.2699
G1 X84.901 Y77.945 E1.3493
G1 X85.529 Y75.873 E1.4287
