; G-Code generated by Simplify3D(R) Version 3.0.0
; Sep 17, 2017 at 4:46:44 
; Settings Summary
;   processName,Process1
;   applyToModels,stoepsel1,stoepsel2,stoepsel3,stoepsel4
;   profileName,juli (modified)
;   profileVersion,2017-06-09 12:06:14
;   baseProfile,German RepRap NEO (modified)
;   printMaterial,
;   printQuality,
;   printExtruders,
;   extruderName,Primary Extruder
;   extruderToolheadNumber,0
;   extruderDiameter,0.5
;   extruderAutoWidth,0
;   extruderWidth,0.49
;   extrusionMultiplier,0.9
;   extruderUseRetract,1
;   extruderRetractionDistance,6.5
;   extruderExtraRestartDistance,0
;   extruderRetractionZLift,0
;   extruderRetractionSpeed,5000
;   extruderUseCoasting,0
;   extruderCoastingDistance,0.2
;   extruderUseWipe,0
;   extruderWipeDistance,5
;   primaryExtruder,0
;   layerHeight,0.1
;   topSolidLayers,4
;   bottomSolidLayers,3
;   perimeterOutlines,3
;   printPerimetersInsideOut,1
;   startPointOption,2
;   startPointOriginX,0
;   startPointOriginY,0
;   startPointOriginZ,300
;   sequentialIslands,0
;   spiralVaseMode,0
;   firstLayerHeightPercentage,140
;   firstLayerWidthPercentage,100
;   firstLayerUnderspeed,0.3
;   useRaft,0
;   raftExtruder,0
;   raftLayers,3
;   raftOffset,3
;   raftSeparationDistance,0.1
;   raftInfill,85
;   disableRaftBaseLayers,0
;   useSkirt,1
;   skirtExtruder,0
;   skirtLayers,1
;   skirtOutlines,6
;   skirtOffset,3
;   usePrimePillar,0
;   primePillarExtruder,999
;   primePillarWidth,12
;   primePillarLocation,7
;   primePillarSpeedMultiplier,1
;   useOozeShield,0
;   oozeShieldExtruder,999
;   oozeShieldOffset,2
;   oozeShieldOutlines,1
;   oozeShieldSidewallShape,1
;   oozeShieldSidewallAngle,30
;   oozeShieldSpeedMultiplier,1
;   infillExtruder,0
;   internalInfillPattern,Full Honeycomb
;   externalInfillPattern,Rectilinear
;   infillPercentage,15
;   outlineOverlapPercentage,15
;   infillExtrusionWidthPercentage,100
;   minInfillLength,3
;   infillLayerInterval,1
;   infillAngles,0,120,-120
;   overlapInfillAngles,0
;   generateSupport,1
;   supportExtruder,0
;   supportInfillPercentage,30
;   supportExtraInflation,0
;   denseSupportLayers,0
;   denseSupportInfillPercentage,75
;   supportLayerInterval,1
;   supportHorizontalPartOffset,1.5
;   supportUpperSeparationLayers,2
;   supportLowerSeparationLayers,2
;   supportType,0
;   supportGridSpacing,4
;   maxOverhangAngle,45
;   supportAngles,45
;   temperatureName,Primary Extruder
;   temperatureNumber,0
;   temperatureSetpointCount,3
;   temperatureSetpointLayers,1,2,3
;   temperatureSetpointTemperatures,207,199,192
;   temperatureStabilizeAtStartup,1
;   temperatureHeatedBed,0
;   temperatureRelayBetweenLayers,0
;   temperatureRelayBetweenLoops,0
;   fanLayers,1,4
;   fanSpeeds,0,100
;   blipFanToFullPower,0
;   adjustSpeedForCooling,1
;   minSpeedLayerTime,15
;   minCoolingSpeedSlowdown,20
;   increaseFanForCooling,0
;   minFanLayerTime,45
;   maxCoolingFanSpeed,100
;   increaseFanForBridging,0
;   bridgingFanSpeed,100
;   use5D,1
;   relativeEdistances,0
;   allowEaxisZeroing,1
;   independentExtruderAxes,0
;   includeM10123,0
;   stickySupport,1
;   applyToolheadOffsets,0
;   gcodeXoffset,0
;   gcodeYoffset,0
;   gcodeZoffset,0
;   overrideMachineDefinition,1
;   machineTypeOverride,0
;   strokeXoverride,150
;   strokeYoverride,150
;   strokeZoverride,150
;   originOffsetXoverride,0
;   originOffsetYoverride,0
;   originOffsetZoverride,0
;   homeXdirOverride,-1
;   homeYdirOverride,-1
;   homeZdirOverride,-1
;   flipXoverride,1
;   flipYoverride,-1
;   flipZoverride,1
;   toolheadOffsets,0,0|0,0|0,0|0,0|0,0|0,0
;   overrideFirmwareConfiguration,0
;   firmwareTypeOverride,RepRap (Marlin/Repetier/Sprinter)
;   GPXconfigOverride,r2
;   baudRateOverride,115200
;   overridePrinterModels,0
;   printerModelsOverride
;   startingGcode,G28 ; home all axes
;   layerChangeGcode,
;   retractionGcode,
;   toolChangeGcode,
;   endingGcode,M104 S0 ; turn off extruder,M140 S0 ; turn off bed,G28 X0  ; home X axis,G28 Y0  ; home Y axis,M84 ; disable motors,M107
;   createX3G,0
;   celebration,0
;   celebrationSong,Random Song
;   createMB5G,0
;   postProcessing,
;   defaultSpeed,2400
;   outlineUnderspeed,0.5
;   solidInfillUnderspeed,0.8
;   supportUnderspeed,0.8
;   rapidXYspeed,3500
;   rapidZspeed,1000
;   minBridgingArea,50
;   bridgingExtraInflation,0
;   bridgingExtrusionMultiplier,1
;   bridgingSpeedMultiplier,1
;   filamentDiameter,1.75
;   filamentPricePerKg,46
;   filamentDensity,1.25
;   useMinPrintHeight,0
;   minPrintHeight,0
;   useMaxPrintHeight,0
;   maxPrintHeight,0
;   useDiaphragm,0
;   diaphragmLayerInterval,20
;   robustSlicing,1
;   mergeAllIntoSolid,0
;   onlyRetractWhenCrossingOutline,1
;   retractBetweenLayers,1
;   useRetractionMinTravel,0
;   retractionMinTravel,3
;   retractWhileWiping,0
;   onlyWipeOutlines,1
;   avoidCrossingOutline,0
;   maxMovementDetourFactor,10
;   toolChangeRetractionDistance,0
;   toolChangeExtraRestartDistance,0
;   toolChangeRetractionSpeed,360
;   allowThinWallGapFill,1
;   thinWallAllowedOverlapPercentage,10
;   horizontalSizeCompensation,0
G90
M82
M106 S0
M104 S207 T0
M109 S207 T0
G28 ; home all axes
G92 E0
G1 E-6.5000 F5000
G1 Z0.140 F1000
; layer 1, Z = 0.14
T0
; tool H0.140 W0.490
; skirt
G1 X9.343 Y7.818 F3500
G1 E0.0000 F1500
G92 E0
G1 X10.334 Y7.408 E0.0275 F720
G1 X28.356 Y7.408 E0.4901
G1 X29.347 Y7.818 E0.5176
G1 X30.900 Y9.371 E0.5740
G1 X31.311 Y9.151 E0.5860
G1 X31.430 Y9.094 E0.5894
G1 X31.824 Y8.930 E0.6004
G1 X31.949 Y8.885 E0.6038
G1 X32.780 Y8.631 E0.6260
G1 X32.908 Y8.599 E0.6294
G1 X33.327 Y8.515 E0.6404
G1 X33.458 Y8.495 E0.6438
G1 X34.322 Y8.408 E0.6661
G1 X34.454 Y8.401 E0.6695
G1 X34.881 Y8.400 E0.6805
G1 X35.013 Y8.407 E0.6839
G1 X35.878 Y8.490 E0.7062
G1 X36.009 Y8.509 E0.7096
G1 X36.428 Y8.592 E0.7205
G1 X36.556 Y8.624 E0.7239
G1 X37.388 Y8.874 E0.7462
G1 X37.513 Y8.919 E0.7496
G1 X37.908 Y9.081 E0.7606
G1 X38.027 Y9.138 E0.7640
G1 X38.794 Y9.546 E0.7863
G1 X38.908 Y9.613 E0.7897
G1 X39.264 Y9.850 E0.8006
G1 X39.370 Y9.929 E0.8040
G1 X40.043 Y10.478 E0.8263
G1 X40.141 Y10.567 E0.8297
G1 X40.444 Y10.868 E0.8407
G1 X40.533 Y10.966 E0.8441
G1 X41.085 Y11.637 E0.8664
G1 X41.164 Y11.743 E0.8698
G1 X41.402 Y12.097 E0.8807
G1 X41.470 Y12.211 E0.8841
G1 X41.881 Y12.976 E0.9064
G1 X41.938 Y13.096 E0.9098
G1 X42.102 Y13.490 E0.9208
G1 X42.147 Y13.614 E0.9242
G1 X42.433 Y14.549 E0.9493
G1 X42.476 Y14.741 E0.9543
G1 X42.572 Y15.369 E0.9706
G1 X42.587 Y15.565 E0.9757
G1 X42.612 Y20.822 E1.1106
G1 X42.593 Y21.055 E1.1166
G1 X42.467 Y21.796 E1.1359
G1 X42.408 Y22.022 E1.1419
G1 X42.080 Y22.947 E1.1671
G1 X42.043 Y23.040 E1.1697
G1 X41.913 Y23.336 E1.1780
G1 X41.869 Y23.426 E1.1805
G1 X41.486 Y24.146 E1.2015
G1 X41.418 Y24.260 E1.2049
G1 X41.182 Y24.615 E1.2158
G1 X41.103 Y24.721 E1.2192
G1 X40.554 Y25.393 E1.2415
G1 X40.465 Y25.491 E1.2449
G1 X40.164 Y25.794 E1.2558
G1 X40.066 Y25.883 E1.2592
G1 X39.395 Y26.435 E1.2815
G1 X39.289 Y26.514 E1.2849
G1 X38.935 Y26.752 E1.2959
G1 X38.821 Y26.821 E1.2993
G1 X38.056 Y27.232 E1.3216
G1 X37.936 Y27.288 E1.3250
G1 X37.542 Y27.453 E1.3360
G1 X37.418 Y27.497 E1.3394
G1 X36.587 Y27.751 E1.3616
G1 X36.459 Y27.784 E1.3650
G1 X36.040 Y27.868 E1.3760
G1 X35.909 Y27.887 E1.3794
G1 X35.045 Y27.974 E1.4017
G1 X34.913 Y27.981 E1.4051
G1 X34.486 Y27.982 E1.4161
G1 X34.353 Y27.976 E1.4195
G1 X33.489 Y27.892 E1.4418
G1 X33.358 Y27.873 E1.4452
G1 X32.939 Y27.791 E1.4561
G1 X32.810 Y27.759 E1.4595
G1 X32.273 Y27.597 E1.4739
G1 X32.273 Y28.596 E1.4996
G1 X31.974 Y29.317 E1.5196
G1 X32.273 Y30.039 E1.5397
G1 X32.273 Y47.311 E1.9830
G1 X31.862 Y48.301 E2.0105
G1 X31.495 Y48.669 E2.0239
G1 X31.530 Y48.754 E2.0262
G1 X31.530 Y61.726 E2.3592
G1 X31.120 Y62.717 E2.3867
G1 X28.604 Y65.232 E2.4780
G1 X27.614 Y65.643 E2.5056
G1 X10.334 Y65.643 E2.9491
G1 X9.343 Y65.232 E2.9766
G1 X6.828 Y62.717 E3.0680
G1 X6.418 Y61.726 E3.0955
G1 X6.418 Y48.754 E3.4285
G1 X6.716 Y48.032 E3.4485
G1 X6.418 Y47.311 E3.4685
G1 X6.418 Y30.039 E3.9119
G1 X6.716 Y29.317 E3.9319
G1 X6.418 Y28.596 E3.9520
G1 X6.418 Y11.324 E4.3953
G1 X6.828 Y10.333 E4.4229
G1 X9.343 Y7.818 E4.5142
G1 X9.621 Y8.233 F3500
G92 E0
G1 X10.431 Y7.898 E0.0225 F720
G1 X28.259 Y7.898 E0.4801
G1 X29.069 Y8.233 E0.5026
G1 X30.811 Y9.975 E0.5659
G1 X31.532 Y9.588 E0.5869
G1 X31.630 Y9.542 E0.5896
G1 X32.002 Y9.387 E0.6000
G1 X32.104 Y9.350 E0.6028
G1 X32.911 Y9.103 E0.6245
G1 X33.016 Y9.077 E0.6272
G1 X33.411 Y8.997 E0.6376
G1 X33.519 Y8.981 E0.6404
G1 X34.359 Y8.897 E0.6620
G1 X34.467 Y8.891 E0.6648
G1 X34.870 Y8.891 E0.6752
G1 X34.978 Y8.896 E0.6779
G1 X35.819 Y8.977 E0.6996
G1 X35.926 Y8.992 E0.7024
G1 X36.322 Y9.070 E0.7127
G1 X36.427 Y9.096 E0.7155
G1 X37.235 Y9.340 E0.7372
G1 X37.337 Y9.376 E0.7400
G1 X37.710 Y9.530 E0.7503
G1 X37.808 Y9.576 E0.7531
G1 X38.554 Y9.972 E0.7748
G1 X38.647 Y10.028 E0.7776
G1 X38.982 Y10.251 E0.7879
G1 X39.069 Y10.316 E0.7907
G1 X39.723 Y10.850 E0.8124
G1 X39.804 Y10.923 E0.8152
G1 X40.089 Y11.207 E0.8255
G1 X40.162 Y11.287 E0.8283
G1 X40.699 Y11.939 E0.8500
G1 X40.764 Y12.026 E0.8527
G1 X40.988 Y12.360 E0.8631
G1 X41.044 Y12.453 E0.8659
G1 X41.444 Y13.197 E0.8875
G1 X41.490 Y13.295 E0.8903
G1 X41.645 Y13.667 E0.9007
G1 X41.682 Y13.769 E0.9034
G1 X41.959 Y14.675 E0.9278
G1 X41.994 Y14.832 E0.9319
G1 X42.084 Y15.424 E0.9473
G1 X42.097 Y15.585 E0.9514
G1 X42.122 Y20.804 E1.0854
G1 X42.106 Y20.994 E1.0903
G1 X41.987 Y21.694 E1.1085
G1 X41.939 Y21.878 E1.1134
G1 X41.621 Y22.775 E1.1378
G1 X41.591 Y22.851 E1.1399
G1 X41.468 Y23.130 E1.1477
G1 X41.432 Y23.204 E1.1498
G1 X41.059 Y23.906 E1.1702
G1 X41.003 Y23.998 E1.1730
G1 X40.780 Y24.333 E1.1833
G1 X40.716 Y24.420 E1.1861
G1 X40.182 Y25.074 E1.2078
G1 X40.109 Y25.154 E1.2106
G1 X39.825 Y25.439 E1.2209
G1 X39.745 Y25.512 E1.2237
G1 X39.093 Y26.049 E1.2454
G1 X39.006 Y26.114 E1.2481
G1 X38.672 Y26.339 E1.2585
G1 X38.579 Y26.395 E1.2613
G1 X37.835 Y26.794 E1.2829
G1 X37.737 Y26.841 E1.2857
G1 X37.365 Y26.996 E1.2961
G1 X37.263 Y27.032 E1.2988
G1 X36.455 Y27.279 E1.3205
G1 X36.350 Y27.306 E1.3233
G1 X35.955 Y27.385 E1.3337
G1 X35.848 Y27.401 E1.3364
G1 X35.008 Y27.486 E1.3581
G1 X34.900 Y27.491 E1.3609
G1 X34.497 Y27.492 E1.3712
G1 X34.388 Y27.487 E1.3740
G1 X33.548 Y27.406 E1.3957
G1 X33.441 Y27.390 E1.3985
G1 X33.045 Y27.312 E1.4088
G1 X32.940 Y27.286 E1.4116
G1 X32.131 Y27.042 E1.4333
G1 X32.029 Y27.006 E1.4361
G1 X31.783 Y26.905 E1.4429
G1 X31.783 Y28.499 E1.4838
G1 X31.447 Y29.309 E1.5063
G1 X31.439 Y29.317 E1.5066
G1 X31.447 Y29.326 E1.5069
G1 X31.783 Y30.136 E1.5295
G1 X31.783 Y47.213 E1.9678
G1 X31.447 Y48.024 E1.9903
G1 X30.917 Y48.554 E2.0096
G1 X31.040 Y48.851 E2.0178
G1 X31.040 Y61.629 E2.3458
G1 X30.705 Y62.439 E2.3683
G1 X28.327 Y64.817 E2.4546
G1 X27.516 Y65.153 E2.4772
G1 X10.431 Y65.153 E2.9157
G1 X9.621 Y64.817 E2.9382
G1 X7.243 Y62.439 E3.0245
G1 X6.908 Y61.629 E3.0470
G1 X6.908 Y48.851 E3.3750
G1 X7.243 Y48.041 E3.3976
G1 X7.252 Y48.032 E3.3979
G1 X7.243 Y48.024 E3.3982
G1 X6.908 Y47.213 E3.4207
G1 X6.908 Y30.136 E3.8590
G1 X7.243 Y29.326 E3.8815
G1 X7.252 Y29.317 E3.8818
G1 X7.243 Y29.309 E3.8821
G1 X6.908 Y28.499 E3.9047
G1 X6.908 Y11.421 E4.3430
G1 X7.243 Y10.611 E4.3655
G1 X9.621 Y8.233 E4.4518
G1 X9.899 Y8.649 F3500
G92 E0
G1 X10.529 Y8.388 E0.0175 F720
G1 X28.161 Y8.388 E0.4701
G1 X28.792 Y8.649 E0.4876
G1 X30.744 Y10.601 E0.5585
G1 X30.958 Y10.457 E0.5651
G1 X31.030 Y10.414 E0.5673
G1 X31.753 Y10.026 E0.5883
G1 X31.829 Y9.989 E0.5905
G1 X32.179 Y9.844 E0.6002
G1 X32.258 Y9.815 E0.6024
G1 X33.043 Y9.575 E0.6235
G1 X33.125 Y9.555 E0.6256
G1 X33.496 Y9.480 E0.6353
G1 X33.579 Y9.468 E0.6375
G1 X34.396 Y9.386 E0.6586
G1 X34.480 Y9.381 E0.6607
G1 X34.859 Y9.381 E0.6705
G1 X34.943 Y9.385 E0.6726
G1 X35.760 Y9.463 E0.6937
G1 X35.843 Y9.476 E0.6958
G1 X36.215 Y9.549 E0.7056
G1 X36.297 Y9.569 E0.7077
G1 X37.083 Y9.806 E0.7288
G1 X37.162 Y9.834 E0.7310
G1 X37.512 Y9.978 E0.7407
G1 X37.588 Y10.014 E0.7428
G1 X38.313 Y10.399 E0.7639
G1 X38.385 Y10.443 E0.7661
G1 X38.701 Y10.652 E0.7758
G1 X38.768 Y10.703 E0.7780
G1 X39.404 Y11.222 E0.7990
G1 X39.466 Y11.278 E0.8012
G1 X39.735 Y11.546 E0.8109
G1 X39.792 Y11.608 E0.8131
G1 X40.313 Y12.241 E0.8341
G1 X40.364 Y12.309 E0.8363
G1 X40.575 Y12.624 E0.8460
G1 X40.618 Y12.696 E0.8482
G1 X41.006 Y13.418 E0.8692
G1 X41.043 Y13.495 E0.8714
G1 X41.188 Y13.844 E0.8811
G1 X41.217 Y13.924 E0.8833
G1 X41.485 Y14.801 E0.9068
G1 X41.513 Y14.923 E0.9101
G1 X41.597 Y15.480 E0.9245
G1 X41.607 Y15.605 E0.9277
G1 X41.632 Y20.785 E1.0607
G1 X41.619 Y20.932 E1.0645
G1 X41.508 Y21.591 E1.0816
G1 X41.471 Y21.734 E1.0854
G1 X41.163 Y22.602 E1.1091
G1 X41.139 Y22.662 E1.1107
G1 X41.024 Y22.924 E1.1181
G1 X40.996 Y22.981 E1.1197
G1 X40.632 Y23.665 E1.1396
G1 X40.589 Y23.737 E1.1417
G1 X40.379 Y24.052 E1.1515
G1 X40.329 Y24.119 E1.1536
G1 X39.810 Y24.754 E1.1747
G1 X39.754 Y24.817 E1.1768
G1 X39.486 Y25.085 E1.1865
G1 X39.424 Y25.142 E1.1887
G1 X38.791 Y25.664 E1.2098
G1 X38.723 Y25.714 E1.2119
G1 X38.409 Y25.925 E1.2217
G1 X38.336 Y25.969 E1.2238
G1 X37.614 Y26.357 E1.2449
G1 X37.537 Y26.393 E1.2471
G1 X37.188 Y26.539 E1.2568
G1 X37.108 Y26.567 E1.2589
G1 X36.324 Y26.807 E1.2800
G1 X36.242 Y26.828 E1.2822
G1 X35.870 Y26.902 E1.2919
G1 X35.787 Y26.915 E1.2941
G1 X34.971 Y26.997 E1.3151
G1 X34.887 Y27.001 E1.3173
G1 X34.508 Y27.002 E1.3270
G1 X34.424 Y26.998 E1.3292
G1 X33.607 Y26.919 E1.3502
G1 X33.523 Y26.907 E1.3524
G1 X33.152 Y26.834 E1.3621
G1 X33.070 Y26.813 E1.3643
G1 X32.284 Y26.577 E1.3853
G1 X32.205 Y26.549 E1.3875
G1 X31.854 Y26.404 E1.3972
G1 X31.778 Y26.368 E1.3994
G1 X31.293 Y26.110 E1.4135
G1 X31.293 Y28.401 E1.4723
G1 X31.031 Y29.032 E1.4898
G1 X30.746 Y29.317 E1.5002
G1 X31.031 Y29.603 E1.5106
G1 X31.293 Y30.234 E1.5281
G1 X31.293 Y47.116 E1.9615
G1 X31.031 Y47.746 E1.9790
G1 X30.339 Y48.439 E2.0041
G1 X30.550 Y48.948 E2.0183
G1 X30.550 Y61.531 E2.3412
G1 X30.289 Y62.162 E2.3588
G1 X28.049 Y64.402 E2.4401
G1 X27.419 Y64.663 E2.4576
G1 X10.529 Y64.663 E2.8911
G1 X9.899 Y64.402 E2.9086
G1 X7.659 Y62.162 E2.9899
G1 X7.398 Y61.531 E3.0075
G1 X7.398 Y48.948 E3.3304
G1 X7.659 Y48.318 E3.3480
G1 X7.945 Y48.032 E3.3583
G1 X7.659 Y47.746 E3.3687
G1 X7.398 Y47.116 E3.3862
G1 X7.398 Y30.234 E3.8196
G1 X7.659 Y29.603 E3.8371
G1 X7.945 Y29.317 E3.8475
G1 X7.659 Y29.031 E3.8578
G1 X7.398 Y28.401 E3.8754
G1 X7.398 Y11.519 E4.3087
G1 X7.659 Y10.888 E4.3262
G1 X9.899 Y8.649 E4.4075
G1 X10.176 Y9.064 F3500
G92 E0
G1 X10.626 Y8.878 E0.0125 F720
G1 X28.064 Y8.878 E0.4601
G1 X28.514 Y9.064 E0.4726
G1 X30.616 Y11.166 E0.5489
G1 X30.664 Y11.281 E0.5521
G1 X30.878 Y11.105 E0.5592
G1 X30.926 Y11.069 E0.5608
G1 X31.221 Y10.871 E0.5699
G1 X31.273 Y10.840 E0.5714
G1 X31.974 Y10.463 E0.5919
G1 X32.029 Y10.437 E0.5934
G1 X32.356 Y10.301 E0.6025
G1 X32.413 Y10.280 E0.6041
G1 X33.175 Y10.048 E0.6245
G1 X33.233 Y10.033 E0.6261
G1 X33.581 Y9.963 E0.6352
G1 X33.640 Y9.954 E0.6367
G1 X34.433 Y9.874 E0.6572
G1 X34.493 Y9.871 E0.6587
G1 X34.848 Y9.871 E0.6678
G1 X34.908 Y9.873 E0.6694
G1 X35.701 Y9.950 E0.6898
G1 X35.761 Y9.959 E0.6914
G1 X36.109 Y10.027 E0.7005
G1 X36.167 Y10.042 E0.7020
G1 X36.930 Y10.271 E0.7225
G1 X36.986 Y10.292 E0.7240
G1 X37.315 Y10.427 E0.7331
G1 X37.369 Y10.452 E0.7347
G1 X38.072 Y10.826 E0.7551
G1 X38.124 Y10.857 E0.7567
G1 X38.419 Y11.054 E0.7658
G1 X38.468 Y11.090 E0.7673
G1 X39.084 Y11.594 E0.7878
G1 X39.129 Y11.634 E0.7893
G1 X39.381 Y11.884 E0.7984
G1 X39.421 Y11.929 E0.8000
G1 X39.928 Y12.544 E0.8204
G1 X39.964 Y12.592 E0.8219
G1 X40.161 Y12.887 E0.8311
G1 X40.192 Y12.938 E0.8326
G1 X40.569 Y13.640 E0.8530
G1 X40.595 Y13.694 E0.8546
G1 X40.731 Y14.022 E0.8637
G1 X40.752 Y14.078 E0.8652
G1 X41.011 Y14.927 E0.8880
G1 X41.031 Y15.014 E0.8903
G1 X41.110 Y15.536 E0.9039
G1 X41.117 Y15.625 E0.9062
G1 X41.141 Y20.766 E1.0381
G1 X41.133 Y20.871 E1.0408
G1 X41.028 Y21.488 E1.0569
G1 X41.002 Y21.590 E1.0596
G1 X40.704 Y22.430 E1.0825
G1 X40.687 Y22.472 E1.0836
G1 X40.579 Y22.718 E1.0905
G1 X40.559 Y22.759 E1.0917
G1 X40.205 Y23.424 E1.1110
G1 X40.174 Y23.475 E1.1126
G1 X39.978 Y23.770 E1.1217
G1 X39.942 Y23.818 E1.1232
G1 X39.438 Y24.435 E1.1436
