; G-Code generated by Simplify3D(R) Version 3.0.0
; Sep 17, 2017 at 3:13:52 
; Settings Summary
;   processName,Process1
;   applyToModels,stoepsel,stoepsel2,stoepsel3
;   profileName,juli (modified)
;   profileVersion,2017-06-09 12:06:14
;   baseProfile,German RepRap NEO (modified)
;   printMaterial,
;   printQuality,
;   printExtruders,
;   extruderName,Primary Extruder
;   extruderToolheadNumber,0
;   extruderDiameter,0.5
;   extruderAutoWidth,0
;   extruderWidth,0.49
;   extrusionMultiplier,0.9
;   extruderUseRetract,1
;   extruderRetractionDistance,6.5
;   extruderExtraRestartDistance,0
;   extruderRetractionZLift,0
;   extruderRetractionSpeed,5000
;   extruderUseCoasting,0
;   extruderCoastingDistance,0.2
;   extruderUseWipe,0
;   extruderWipeDistance,5
;   primaryExtruder,0
;   layerHeight,0.1
;   topSolidLayers,4
;   bottomSolidLayers,3
;   perimeterOutlines,3
;   printPerimetersInsideOut,1
;   startPointOption,2
;   startPointOriginX,0
;   startPointOriginY,0
;   startPointOriginZ,300
;   sequentialIslands,0
;   spiralVaseMode,0
;   firstLayerHeightPercentage,140
;   firstLayerWidthPercentage,100
;   firstLayerUnderspeed,0.3
;   useRaft,0
;   raftExtruder,0
;   raftLayers,3
;   raftOffset,3
;   raftSeparationDistance,0.1
;   raftInfill,85
;   disableRaftBaseLayers,0
;   useSkirt,1
;   skirtExtruder,0
;   skirtLayers,1
;   skirtOutlines,6
;   skirtOffset,3
;   usePrimePillar,0
;   primePillarExtruder,999
;   primePillarWidth,12
;   primePillarLocation,7
;   primePillarSpeedMultiplier,1
;   useOozeShield,0
;   oozeShieldExtruder,999
;   oozeShieldOffset,2
;   oozeShieldOutlines,1
;   oozeShieldSidewallShape,1
;   oozeShieldSidewallAngle,30
;   oozeShieldSpeedMultiplier,1
;   infillExtruder,0
;   internalInfillPattern,Full Honeycomb
;   externalInfillPattern,Rectilinear
;   infillPercentage,15
;   outlineOverlapPercentage,15
;   infillExtrusionWidthPercentage,100
;   minInfillLength,3
;   infillLayerInterval,1
;   infillAngles,0,120,-120
;   overlapInfillAngles,0
;   generateSupport,1
;   supportExtruder,0
;   supportInfillPercentage,30
;   supportExtraInflation,0
;   denseSupportLayers,0
;   denseSupportInfillPercentage,75
;   supportLayerInterval,1
;   supportHorizontalPartOffset,1.5
;   supportUpperSeparationLayers,2
;   supportLowerSeparationLayers,2
;   supportType,0
;   supportGridSpacing,4
;   maxOverhangAngle,45
;   supportAngles,45
;   temperatureName,Primary Extruder
;   temperatureNumber,0
;   temperatureSetpointCount,3
;   temperatureSetpointLayers,1,2,3
;   temperatureSetpointTemperatures,207,199,192
;   temperatureStabilizeAtStartup,1
;   temperatureHeatedBed,0
;   temperatureRelayBetweenLayers,0
;   temperatureRelayBetweenLoops,0
;   fanLayers,1,4
;   fanSpeeds,0,100
;   blipFanToFullPower,0
;   adjustSpeedForCooling,1
;   minSpeedLayerTime,15
;   minCoolingSpeedSlowdown,20
;   increaseFanForCooling,0
;   minFanLayerTime,45
;   maxCoolingFanSpeed,100
;   increaseFanForBridging,0
;   bridgingFanSpeed,100
;   use5D,1
;   relativeEdistances,0
;   allowEaxisZeroing,1
;   independentExtruderAxes,0
;   includeM10123,0
;   stickySupport,1
;   applyToolheadOffsets,0
;   gcodeXoffset,0
;   gcodeYoffset,0
;   gcodeZoffset,0
;   overrideMachineDefinition,1
;   machineTypeOverride,0
;   strokeXoverride,150
;   strokeYoverride,150
;   strokeZoverride,150
;   originOffsetXoverride,0
;   originOffsetYoverride,0
;   originOffsetZoverride,0
;   homeXdirOverride,-1
;   homeYdirOverride,-1
;   homeZdirOverride,-1
;   flipXoverride,1
;   flipYoverride,-1
;   flipZoverride,1
;   toolheadOffsets,0,0|0,0|0,0|0,0|0,0|0,0
;   overrideFirmwareConfiguration,0
;   firmwareTypeOverride,RepRap (Marlin/Repetier/Sprinter)
;   GPXconfigOverride,r2
;   baudRateOverride,115200
;   overridePrinterModels,0
;   printerModelsOverride
;   startingGcode,G28 ; home all axes
;   layerChangeGcode,
;   retractionGcode,
;   toolChangeGcode,
;   endingGcode,M104 S0 ; turn off extruder,M140 S0 ; turn off bed,G28 X0  ; home X axis,G28 Y0  ; home Y axis,M84 ; disable motors,M107
;   createX3G,0
;   celebration,0
;   celebrationSong,Random Song
;   createMB5G,0
;   postProcessing,
;   defaultSpeed,2400
;   outlineUnderspeed,0.5
;   solidInfillUnderspeed,0.8
;   supportUnderspeed,0.8
;   rapidXYspeed,3500
;   rapidZspeed,1000
;   minBridgingArea,50
;   bridgingExtraInflation,0
;   bridgingExtrusionMultiplier,1
;   bridgingSpeedMultiplier,1
;   filamentDiameter,1.75
;   filamentPricePerKg,46
;   filamentDensity,1.25
;   useMinPrintHeight,0
;   minPrintHeight,0
;   useMaxPrintHeight,0
;   maxPrintHeight,0
;   useDiaphragm,0
;   diaphragmLayerInterval,20
;   robustSlicing,1
;   mergeAllIntoSolid,0
;   onlyRetractWhenCrossingOutline,1
;   retractBetweenLayers,1
;   useRetractionMinTravel,0
;   retractionMinTravel,3
;   retractWhileWiping,0
;   onlyWipeOutlines,1
;   avoidCrossingOutline,0
;   maxMovementDetourFactor,10
;   toolChangeRetractionDistance,0
;   toolChangeExtraRestartDistance,0
;   toolChangeRetractionSpeed,360
;   allowThinWallGapFill,1
;   thinWallAllowedOverlapPercentage,10
;   horizontalSizeCompensation,0
G90
M82
M106 S0
M104 S207 T0
M109 S207 T0
G28 ; home all axes
G92 E0
G1 E-6.5000 F5000
G1 Z0.140 F1000
; layer 1, Z = 0.14
T0
; tool H0.140 W0.490
; skirt
G1 X9.392 Y11.282 F3500
G1 E0.0000 F1500
G92 E0
G1 X11.908 Y8.767 E0.0913 F720
G1 X12.898 Y8.356 E0.1188
G1 X30.920 Y8.356 E0.5814
G1 X31.911 Y8.767 E0.6090
G1 X34.426 Y11.282 E0.7003
G1 X34.837 Y12.273 E0.7278
G1 X34.837 Y29.545 E1.1711
G1 X34.538 Y30.266 E1.1912
G1 X34.837 Y30.988 E1.2112
G1 X34.837 Y48.260 E1.6546
G1 X34.426 Y49.250 E1.6821
G1 X31.911 Y51.766 E1.7734
G1 X30.920 Y52.176 E1.8009
G1 X29.228 Y52.176 E1.8444
G1 X29.383 Y52.683 E1.8580
G1 X29.415 Y52.812 E1.8614
G1 X29.500 Y53.230 E1.8723
G1 X29.519 Y53.361 E1.8757
G1 X29.606 Y54.225 E1.8980
G1 X29.613 Y54.358 E1.9014
G1 X29.614 Y54.785 E1.9124
G1 X29.607 Y54.917 E1.9158
G1 X29.524 Y55.782 E1.9381
G1 X29.505 Y55.912 E1.9415
G1 X29.422 Y56.331 E1.9525
G1 X29.390 Y56.460 E1.9559
G1 X29.140 Y57.292 E1.9781
G1 X29.096 Y57.416 E1.9815
G1 X28.933 Y57.811 E1.9925
G1 X28.877 Y57.931 E1.9959
G1 X28.469 Y58.698 E2.0182
G1 X28.401 Y58.812 E2.0216
G1 X28.164 Y59.167 E2.0326
G1 X28.086 Y59.274 E2.0360
G1 X27.536 Y59.946 E2.0583
G1 X27.447 Y60.044 E2.0617
G1 X27.146 Y60.347 E2.0726
G1 X27.048 Y60.436 E2.0760
G1 X26.378 Y60.988 E2.0983
G1 X26.271 Y61.068 E2.1017
G1 X25.917 Y61.305 E2.1127
G1 X25.803 Y61.374 E2.1161
G1 X25.038 Y61.785 E2.1384
G1 X24.919 Y61.842 E2.1418
G1 X24.524 Y62.006 E2.1527
G1 X24.400 Y62.051 E2.1561
G1 X23.465 Y62.336 E2.1812
G1 X23.273 Y62.380 E2.1863
G1 X22.646 Y62.475 E2.2026
G1 X22.450 Y62.490 E2.2076
G1 X17.192 Y62.515 E2.3426
G1 X16.960 Y62.496 E2.3485
G1 X16.218 Y62.370 E2.3679
G1 X15.992 Y62.312 E2.3738
G1 X15.067 Y61.984 E2.3990
G1 X14.974 Y61.947 E2.4016
G1 X14.678 Y61.816 E2.4099
G1 X14.588 Y61.773 E2.4125
G1 X13.867 Y61.389 E2.4334
G1 X13.754 Y61.321 E2.4368
G1 X13.400 Y61.085 E2.4477
G1 X13.293 Y61.007 E2.4511
G1 X12.621 Y60.457 E2.4734
G1 X12.523 Y60.369 E2.4768
G1 X12.220 Y60.067 E2.4878
G1 X12.131 Y59.969 E2.4912
G1 X11.579 Y59.299 E2.5135
G1 X11.500 Y59.193 E2.5169
G1 X11.262 Y58.838 E2.5278
G1 X11.194 Y58.725 E2.5312
G1 X10.783 Y57.960 E2.5535
G1 X10.726 Y57.840 E2.5569
G1 X10.562 Y57.446 E2.5679
G1 X10.517 Y57.321 E2.5713
G1 X10.263 Y56.490 E2.5936
G1 X10.231 Y56.362 E2.5970
G1 X10.146 Y55.943 E2.6079
G1 X10.127 Y55.813 E2.6113
G1 X10.040 Y54.948 E2.6336
G1 X10.033 Y54.816 E2.6370
G1 X10.032 Y54.389 E2.6480
G1 X10.039 Y54.257 E2.6514
G1 X10.123 Y53.386 E2.6739
G1 X10.142 Y53.253 E2.6773
G1 X10.226 Y52.830 E2.6884
G1 X10.258 Y52.701 E2.6918
G1 X10.509 Y51.874 E2.7140
G1 X10.553 Y51.750 E2.7173
G1 X10.714 Y51.359 E2.7282
G1 X10.770 Y51.241 E2.7316
G1 X10.983 Y50.841 E2.7432
G1 X9.392 Y49.250 E2.8009
G1 X8.982 Y48.260 E2.8284
G1 X8.982 Y30.988 E3.2718
G1 X9.281 Y30.266 E3.2918
G1 X8.982 Y29.545 E3.3119
G1 X8.982 Y12.273 E3.7552
G1 X9.392 Y11.282 E3.7828
G1 X9.808 Y11.560 F3500
G92 E0
G1 X12.185 Y9.182 E0.0863 F720
G1 X12.996 Y8.846 E0.1088
G1 X30.823 Y8.846 E0.5664
G1 X31.633 Y9.182 E0.5889
G1 X34.011 Y11.560 E0.6753
G1 X34.347 Y12.370 E0.6978
G1 X34.347 Y29.447 E1.1361
G1 X34.011 Y30.258 E1.1586
G1 X34.003 Y30.266 E1.1589
G1 X34.011 Y30.275 E1.1592
G1 X34.347 Y31.085 E1.1818
G1 X34.347 Y48.162 E1.6201
G1 X34.011 Y48.973 E1.6426
G1 X31.633 Y51.350 E1.7289
G1 X30.823 Y51.686 E1.7515
G1 X28.536 Y51.686 E1.8102
G1 X28.627 Y51.905 E1.8162
G1 X28.664 Y52.007 E1.8190
G1 X28.911 Y52.815 E1.8407
G1 X28.937 Y52.920 E1.8435
G1 X29.017 Y53.315 E1.8538
G1 X29.033 Y53.422 E1.8566
G1 X29.117 Y54.262 E1.8783
G1 X29.123 Y54.371 E1.8811
G1 X29.124 Y54.774 E1.8914
G1 X29.119 Y54.882 E1.8942
G1 X29.037 Y55.723 E1.9159
G1 X29.022 Y55.830 E1.9187
G1 X28.944 Y56.225 E1.9290
G1 X28.918 Y56.330 E1.9318
G1 X28.674 Y57.139 E1.9535
G1 X28.638 Y57.241 E1.9562
G1 X28.484 Y57.614 E1.9666
G1 X28.438 Y57.712 E1.9694
G1 X28.042 Y58.457 E1.9910
G1 X27.986 Y58.550 E1.9938
G1 X27.763 Y58.886 E2.0042
G1 X27.699 Y58.973 E2.0069
G1 X27.164 Y59.627 E2.0286
G1 X27.092 Y59.707 E2.0314
G1 X26.807 Y59.993 E2.0418
G1 X26.727 Y60.066 E2.0445
G1 X26.075 Y60.603 E2.0662
G1 X25.988 Y60.667 E2.0690
G1 X25.654 Y60.892 E2.0793
G1 X25.561 Y60.948 E2.0821
G1 X24.817 Y61.347 E2.1038
G1 X24.719 Y61.394 E2.1066
G1 X24.347 Y61.549 E2.1169
G1 X24.245 Y61.586 E2.1197
G1 X23.339 Y61.862 E2.1440
G1 X23.182 Y61.898 E2.1481
G1 X22.590 Y61.988 E2.1635
G1 X22.429 Y62.000 E2.1677
G1 X17.211 Y62.025 E2.3016
G1 X17.021 Y62.010 E2.3065
G1 X16.321 Y61.891 E2.3247
G1 X16.136 Y61.843 E2.3296
G1 X15.239 Y61.525 E2.3540
G1 X15.163 Y61.495 E2.3562
G1 X14.884 Y61.372 E2.3640
G1 X14.810 Y61.336 E2.3661
G1 X14.108 Y60.962 E2.3865
G1 X14.016 Y60.907 E2.3893
G1 X13.681 Y60.684 E2.3996
G1 X13.594 Y60.620 E2.4024
G1 X12.941 Y60.086 E2.4240
G1 X12.860 Y60.013 E2.4268
G1 X12.575 Y59.729 E2.4372
G1 X12.502 Y59.649 E2.4399
G1 X11.965 Y58.997 E2.4616
G1 X11.900 Y58.910 E2.4644
G1 X11.675 Y58.575 E2.4747
G1 X11.620 Y58.482 E2.4775
G1 X11.220 Y57.738 E2.4992
G1 X11.173 Y57.640 E2.5020
G1 X11.018 Y57.268 E2.5123
G1 X10.982 Y57.167 E2.5151
G1 X10.735 Y56.359 E2.5368
G1 X10.709 Y56.254 E2.5396
G1 X10.629 Y55.859 E2.5499
G1 X10.613 Y55.752 E2.5527
G1 X10.529 Y54.911 E2.5744
G1 X10.523 Y54.803 E2.5771
G1 X10.522 Y54.400 E2.5875
G1 X10.527 Y54.292 E2.5903
G1 X10.609 Y53.445 E2.6121
G1 X10.625 Y53.337 E2.6149
G1 X10.704 Y52.937 E2.6254
G1 X10.731 Y52.831 E2.6282
G1 X10.974 Y52.027 E2.6497
G1 X11.011 Y51.926 E2.6525
G1 X11.163 Y51.558 E2.6627
G1 X11.208 Y51.461 E2.6655
G1 X11.586 Y50.751 E2.6861
G1 X9.808 Y48.973 E2.7507
G1 X9.472 Y48.162 E2.7732
G1 X9.472 Y31.085 E3.2115
G1 X9.808 Y30.275 E3.2341
G1 X9.816 Y30.266 E3.2344
G1 X9.808 Y30.258 E3.2347
G1 X9.472 Y29.447 E3.2572
G1 X9.472 Y12.370 E3.6955
G1 X9.808 Y11.560 E3.7180
G1 X10.223 Y11.837 F3500
G92 E0
G1 X12.463 Y9.598 E0.0813 F720
G1 X13.093 Y9.336 E0.0988
G1 X30.726 Y9.336 E0.5514
G1 X31.356 Y9.598 E0.5689
G1 X33.596 Y11.837 E0.6502
G1 X33.857 Y12.468 E0.6678
G1 X33.857 Y29.350 E1.1011
G1 X33.596 Y29.980 E1.1186
G1 X33.310 Y30.266 E1.1290
G1 X33.596 Y30.552 E1.1394
G1 X33.857 Y31.182 E1.1569
G1 X33.857 Y48.065 E1.5902
G1 X33.596 Y48.695 E1.6077
G1 X31.356 Y50.935 E1.6890
G1 X30.726 Y51.196 E1.7066
G1 X27.741 Y51.196 E1.7832
G1 X27.989 Y51.657 E1.7966
G1 X28.025 Y51.733 E1.7987
G1 X28.170 Y52.083 E1.8085
G1 X28.199 Y52.162 E1.8106
G1 X28.439 Y52.947 E1.8317
G1 X28.459 Y53.028 E1.8339
G1 X28.534 Y53.400 E1.8436
G1 X28.547 Y53.483 E1.8457
G1 X28.629 Y54.300 E1.8668
G1 X28.633 Y54.384 E1.8690
G1 X28.634 Y54.763 E1.8787
G1 X28.630 Y54.847 E1.8809
G1 X28.551 Y55.663 E1.9019
G1 X28.539 Y55.747 E1.9041
G1 X28.465 Y56.119 E1.9138
G1 X28.445 Y56.200 E1.9160
G1 X28.209 Y56.986 E1.9370
G1 X28.180 Y57.065 E1.9392
G1 X28.036 Y57.416 E1.9489
G1 X28.000 Y57.492 E1.9511
G1 X27.615 Y58.217 E1.9721
G1 X27.572 Y58.289 E1.9743
G1 X27.362 Y58.604 E1.9840
G1 X27.312 Y58.672 E1.9862
G1 X26.792 Y59.307 E2.0073
G1 X26.736 Y59.370 E2.0094
G1 X26.468 Y59.638 E2.0192
G1 X26.406 Y59.695 E2.0213
G1 X25.773 Y60.217 E2.0424
G1 X25.705 Y60.267 E2.0445
G1 X25.391 Y60.478 E2.0543
G1 X25.319 Y60.522 E2.0564
G1 X24.596 Y60.910 E2.0775
G1 X24.520 Y60.946 E2.0797
G1 X24.170 Y61.092 E2.0894
G1 X24.090 Y61.120 E2.0915
G1 X23.213 Y61.388 E2.1151
G1 X23.091 Y61.416 E2.1183
G1 X22.534 Y61.501 E2.1328
G1 X22.409 Y61.510 E2.1360
G1 X17.229 Y61.535 E2.2689
G1 X17.082 Y61.523 E2.2727
G1 X16.423 Y61.411 E2.2899
G1 X16.280 Y61.374 E2.2937
G1 X15.412 Y61.066 E2.3173
G1 X15.353 Y61.043 E2.3190
G1 X15.090 Y60.927 E2.3263
G1 X15.033 Y60.899 E2.3280
G1 X14.349 Y60.535 E2.3478
G1 X14.277 Y60.492 E2.3500
G1 X13.963 Y60.283 E2.3597
G1 X13.895 Y60.233 E2.3618
G1 X13.260 Y59.714 E2.3829
G1 X13.198 Y59.657 E2.3851
G1 X12.929 Y59.390 E2.3948
G1 X12.872 Y59.328 E2.3970
G1 X12.351 Y58.694 E2.4180
G1 X12.300 Y58.627 E2.4202
G1 X12.089 Y58.312 E2.4299
G1 X12.046 Y58.240 E2.4321
G1 X11.657 Y57.517 E2.4531
G1 X11.621 Y57.441 E2.4553
G1 X11.475 Y57.091 E2.4650
G1 X11.447 Y57.012 E2.4672
G1 X11.207 Y56.227 E2.4882
G1 X11.187 Y56.145 E2.4904
G1 X11.112 Y55.774 E2.5001
G1 X11.099 Y55.691 E2.5023
G1 X11.017 Y54.874 E2.5234
G1 X11.013 Y54.790 E2.5255
G1 X11.012 Y54.411 E2.5352
G1 X11.016 Y54.327 E2.5374
G1 X11.096 Y53.504 E2.5586
G1 X11.108 Y53.420 E2.5608
G1 X11.182 Y53.044 E2.5706
G1 X11.203 Y52.962 E2.5728
G1 X11.440 Y52.181 E2.5938
G1 X11.468 Y52.102 E2.5959
G1 X11.611 Y51.756 E2.6055
G1 X11.647 Y51.680 E2.6077
G1 X12.031 Y50.957 E2.6287
G1 X12.074 Y50.885 E2.6309
G1 X12.210 Y50.682 E2.6371
G1 X10.223 Y48.695 E2.7092
G1 X9.962 Y48.065 E2.7268
G1 X9.962 Y31.182 E3.1601
G1 X10.223 Y30.552 E3.1776
G1 X10.509 Y30.266 E3.1880
G1 X10.223 Y29.980 E3.1984
G1 X9.962 Y29.350 E3.2159
G1 X9.962 Y12.468 E3.6492
G1 X10.223 Y11.837 E3.6667
G1 X10.638 Y12.115 F3500
G92 E0
G1 X12.740 Y10.013 E0.0763 F720
G1 X13.191 Y9.826 E0.0888
G1 X30.628 Y9.826 E0.5364
G1 X31.078 Y10.013 E0.5489
G1 X33.180 Y12.115 E0.6252
G1 X33.367 Y12.565 E0.6377
G1 X33.367 Y29.253 E1.0661
G1 X33.180 Y29.703 E1.0786
G1 X32.617 Y30.266 E1.0990
G1 X33.180 Y30.830 E1.1195
G1 X33.367 Y31.280 E1.1320
G1 X33.367 Y47.967 E1.5603
G1 X33.180 Y48.418 E1.5728
G1 X31.078 Y50.520 E1.6491
G1 X30.628 Y50.706 E1.6617
G1 X26.847 Y50.706 E1.7587
G1 X26.910 Y50.782 E1.7612
G1 X26.946 Y50.830 E1.7628
G1 X27.143 Y51.125 E1.7719
G1 X27.174 Y51.176 E1.7734
G1 X27.551 Y51.878 E1.7939
G1 X27.577 Y51.932 E1.7954
G1 X27.714 Y52.260 E1.8045
G1 X27.734 Y52.317 E1.8061
G1 X27.967 Y53.078 E1.8265
G1 X27.981 Y53.137 E1.8281
G1 X28.051 Y53.485 E1.8372
G1 X28.060 Y53.544 E1.8387
G1 X28.140 Y54.337 E1.8592
G1 X28.143 Y54.397 E1.8607
G1 X28.144 Y54.752 E1.8698
G1 X28.141 Y54.812 E1.8714
G1 X28.064 Y55.604 E1.8918
G1 X28.056 Y55.664 E1.8933
G1 X27.987 Y56.012 E1.9024
G1 X27.973 Y56.071 E1.9040
G1 X27.743 Y56.833 E1.9244
G1 X27.723 Y56.890 E1.9260
G1 X27.587 Y57.218 E1.9351
G1 X27.562 Y57.273 E1.9366
G1 X27.188 Y57.976 E1.9571
G1 X27.157 Y58.027 E1.9586
G1 X26.960 Y58.323 E1.9677
G1 X26.925 Y58.371 E1.9693
G1 X26.421 Y58.988 E1.9897
G1 X26.380 Y59.033 E1.9913
G1 X26.130 Y59.284 E2.0004
G1 X26.085 Y59.325 E2.0019
G1 X25.471 Y59.831 E2.0224
G1 X25.422 Y59.867 E2.0239
G1 X25.128 Y60.065 E2.0330
G1 X25.076 Y60.096 E2.0346
G1 X24.374 Y60.473 E2.0550
G1 X24.320 Y60.499 E2.0566
G1 X23.992 Y60.635 E2.0657
G1 X23.936 Y60.655 E2.0672
G1 X23.087 Y60.915 E2.0900
G1 X23.000 Y60.934 E2.0923
G1 X22.478 Y61.014 E2.1058
G1 X22.389 Y61.021 E2.1081
G1 X17.248 Y61.045 E2.2401
G1 X17.143 Y61.036 E2.2428
G1 X16.526 Y60.932 E2.2589
G1 X16.424 Y60.905 E2.2616
G1 X15.584 Y60.607 E2.2844
G1 X15.542 Y60.591 E2.2856
G1 X15.296 Y60.482 E2.2925
G1 X15.255 Y60.462 E2.2937
G1 X14.590 Y60.108 E2.3130
G1 X14.539 Y60.078 E2.3145
G1 X14.244 Y59.882 E2.3236
G1 X14.196 Y59.846 E2.3252
G1 X13.579 Y59.342 E2.3456
G1 X13.535 Y59.302 E2.3471
G1 X13.283 Y59.051 E2.3563
G1 X13.243 Y59.007 E2.3578
G1 X12.736 Y58.392 E2.3782
G1 X12.700 Y58.344 E2.3798
G1 X12.503 Y58.049 E2.3889
G1 X12.472 Y57.998 E2.3904
G1 X12.095 Y57.296 E2.4109
G1 X12.069 Y57.241 E2.4124
G1 X11.932 Y56.914 E2.4215
