; G-Code generated by Simplify3D(R) Version 3.0.0
; Sep 17, 2017 at 1:34:41 
; Settings Summary
;   processName,Process1
;   applyToModels,stopper,stopperhalt
;   profileName,juli (modified)
;   profileVersion,2017-06-09 12:06:14
;   baseProfile,German RepRap NEO (modified)
;   printMaterial,
;   printQuality,
;   printExtruders,
;   extruderName,Primary Extruder
;   extruderToolheadNumber,0
;   extruderDiameter,0.5
;   extruderAutoWidth,0
;   extruderWidth,0.49
;   extrusionMultiplier,0.9
;   extruderUseRetract,1
;   extruderRetractionDistance,6.5
;   extruderExtraRestartDistance,0
;   extruderRetractionZLift,0
;   extruderRetractionSpeed,5000
;   extruderUseCoasting,0
;   extruderCoastingDistance,0.2
;   extruderUseWipe,0
;   extruderWipeDistance,5
;   primaryExtruder,0
;   layerHeight,0.1
;   topSolidLayers,4
;   bottomSolidLayers,3
;   perimeterOutlines,3
;   printPerimetersInsideOut,1
;   startPointOption,2
;   startPointOriginX,0
;   startPointOriginY,0
;   startPointOriginZ,300
;   sequentialIslands,0
;   spiralVaseMode,0
;   firstLayerHeightPercentage,140
;   firstLayerWidthPercentage,100
;   firstLayerUnderspeed,0.3
;   useRaft,0
;   raftExtruder,0
;   raftLayers,3
;   raftOffset,3
;   raftSeparationDistance,0.1
;   raftInfill,85
;   disableRaftBaseLayers,0
;   useSkirt,1
;   skirtExtruder,0
;   skirtLayers,1
;   skirtOutlines,6
;   skirtOffset,3
;   usePrimePillar,0
;   primePillarExtruder,999
;   primePillarWidth,12
;   primePillarLocation,7
;   primePillarSpeedMultiplier,1
;   useOozeShield,0
;   oozeShieldExtruder,999
;   oozeShieldOffset,2
;   oozeShieldOutlines,1
;   oozeShieldSidewallShape,1
;   oozeShieldSidewallAngle,30
;   oozeShieldSpeedMultiplier,1
;   infillExtruder,0
;   internalInfillPattern,Full Honeycomb
;   externalInfillPattern,Rectilinear
;   infillPercentage,15
;   outlineOverlapPercentage,15
;   infillExtrusionWidthPercentage,100
;   minInfillLength,3
;   infillLayerInterval,1
;   infillAngles,0,120,-120
;   overlapInfillAngles,0
;   generateSupport,1
;   supportExtruder,0
;   supportInfillPercentage,30
;   supportExtraInflation,0
;   denseSupportLayers,0
;   denseSupportInfillPercentage,75
;   supportLayerInterval,1
;   supportHorizontalPartOffset,1.5
;   supportUpperSeparationLayers,2
;   supportLowerSeparationLayers,2
;   supportType,0
;   supportGridSpacing,4
;   maxOverhangAngle,45
;   supportAngles,45
;   temperatureName,Primary Extruder
;   temperatureNumber,0
;   temperatureSetpointCount,3
;   temperatureSetpointLayers,1,2,3
;   temperatureSetpointTemperatures,207,199,192
;   temperatureStabilizeAtStartup,1
;   temperatureHeatedBed,0
;   temperatureRelayBetweenLayers,0
;   temperatureRelayBetweenLoops,0
;   fanLayers,1,4
;   fanSpeeds,0,100
;   blipFanToFullPower,0
;   adjustSpeedForCooling,1
;   minSpeedLayerTime,15
;   minCoolingSpeedSlowdown,20
;   increaseFanForCooling,0
;   minFanLayerTime,45
;   maxCoolingFanSpeed,100
;   increaseFanForBridging,0
;   bridgingFanSpeed,100
;   use5D,1
;   relativeEdistances,0
;   allowEaxisZeroing,1
;   independentExtruderAxes,0
;   includeM10123,0
;   stickySupport,1
;   applyToolheadOffsets,0
;   gcodeXoffset,0
;   gcodeYoffset,0
;   gcodeZoffset,0
;   overrideMachineDefinition,1
;   machineTypeOverride,0
;   strokeXoverride,150
;   strokeYoverride,150
;   strokeZoverride,150
;   originOffsetXoverride,0
;   originOffsetYoverride,0
;   originOffsetZoverride,0
;   homeXdirOverride,-1
;   homeYdirOverride,-1
;   homeZdirOverride,-1
;   flipXoverride,1
;   flipYoverride,-1
;   flipZoverride,1
;   toolheadOffsets,0,0|0,0|0,0|0,0|0,0|0,0
;   overrideFirmwareConfiguration,0
;   firmwareTypeOverride,RepRap (Marlin/Repetier/Sprinter)
;   GPXconfigOverride,r2
;   baudRateOverride,115200
;   overridePrinterModels,0
;   printerModelsOverride
;   startingGcode,G28 ; home all axes
;   layerChangeGcode,
;   retractionGcode,
;   toolChangeGcode,
;   endingGcode,M104 S0 ; turn off extruder,M140 S0 ; turn off bed,G28 X0  ; home X axis,G28 Y0  ; home Y axis,M84 ; disable motors,M107
;   createX3G,0
;   celebration,0
;   celebrationSong,Random Song
;   createMB5G,0
;   postProcessing,
;   defaultSpeed,2400
;   outlineUnderspeed,0.5
;   solidInfillUnderspeed,0.8
;   supportUnderspeed,0.8
;   rapidXYspeed,3500
;   rapidZspeed,1000
;   minBridgingArea,50
;   bridgingExtraInflation,0
;   bridgingExtrusionMultiplier,1
;   bridgingSpeedMultiplier,1
;   filamentDiameter,1.75
;   filamentPricePerKg,46
;   filamentDensity,1.25
;   useMinPrintHeight,0
;   minPrintHeight,0
;   useMaxPrintHeight,0
;   maxPrintHeight,0
;   useDiaphragm,0
;   diaphragmLayerInterval,20
;   robustSlicing,1
;   mergeAllIntoSolid,0
;   onlyRetractWhenCrossingOutline,1
;   retractBetweenLayers,1
;   useRetractionMinTravel,0
;   retractionMinTravel,3
;   retractWhileWiping,0
;   onlyWipeOutlines,1
;   avoidCrossingOutline,0
;   maxMovementDetourFactor,10
;   toolChangeRetractionDistance,0
;   toolChangeExtraRestartDistance,0
;   toolChangeRetractionSpeed,360
;   allowThinWallGapFill,1
;   thinWallAllowedOverlapPercentage,10
;   horizontalSizeCompensation,0
G90
M82
M106 S0
M104 S207 T0
M109 S207 T0
G28 ; home all axes
G92 E0
G1 E-6.5000 F5000
G1 Z0.140 F1000
; layer 1, Z = 0.14
T0
; tool H0.140 W0.490
; skirt
G1 X63.325 Y56.795 F3500
G1 E0.0000 F1500
G92 E0
G1 X63.890 Y56.202 E0.0210 F720
G1 X63.985 Y56.110 E0.0244
G1 X64.309 Y55.831 E0.0354
G1 X64.413 Y55.750 E0.0388
G1 X65.082 Y55.278 E0.0598
G1 X65.194 Y55.207 E0.0632
G1 X65.566 Y54.996 E0.0742
G1 X65.684 Y54.937 E0.0776
G1 X66.432 Y54.604 E0.0986
G1 X66.556 Y54.557 E0.1020
G1 X66.961 Y54.423 E0.1129
G1 X67.089 Y54.387 E0.1163
G1 X67.888 Y54.207 E0.1374
G1 X68.018 Y54.185 E0.1408
G1 X68.442 Y54.132 E0.1517
G1 X68.574 Y54.122 E0.1551
G1 X69.393 Y54.102 E0.1762
G1 X69.525 Y54.105 E0.1796
G1 X69.951 Y54.136 E0.1905
G1 X70.083 Y54.152 E0.1939
G1 X70.882 Y54.291 E0.2147
G1 X71.009 Y54.319 E0.2181
G1 X71.416 Y54.431 E0.2289
G1 X71.540 Y54.471 E0.2323
G1 X72.310 Y54.766 E0.2534
G1 X72.433 Y54.820 E0.2569
G1 X72.819 Y55.013 E0.2680
G1 X72.936 Y55.079 E0.2714
G1 X73.631 Y55.519 E0.2925
G1 X73.739 Y55.595 E0.2959
G1 X74.076 Y55.857 E0.3069
G1 X74.176 Y55.944 E0.3103
G1 X74.797 Y56.535 E0.3323
G1 X74.904 Y56.648 E0.3363
G1 X75.226 Y57.035 E0.3492
G1 X75.318 Y57.160 E0.3532
G1 X75.993 Y58.191 E0.3848
G1 X76.053 Y58.292 E0.3878
G1 X76.232 Y58.628 E0.3976
G1 X76.284 Y58.734 E0.4006
G1 X81.219 Y70.272 E0.7227
G1 X81.328 Y70.800 E0.7366
G1 X81.337 Y72.555 E0.7816
G1 X81.257 Y72.961 E0.7922
G1 X81.535 Y73.016 E0.7995
G1 X81.663 Y73.048 E0.8029
G1 X82.451 Y73.287 E0.8240
G1 X82.575 Y73.332 E0.8274
G1 X82.970 Y73.495 E0.8384
G1 X83.089 Y73.552 E0.8418
G1 X83.811 Y73.938 E0.8628
G1 X83.924 Y74.005 E0.8662
G1 X84.277 Y74.241 E0.8771
G1 X84.383 Y74.319 E0.8804
G1 X84.854 Y74.704 E0.8961
G1 X85.595 Y75.055 E0.9171
G1 X86.026 Y75.376 E0.9309
G1 X87.193 Y76.676 E0.9757
G1 X87.466 Y77.139 E0.9895
G1 X88.338 Y79.655 E1.0579
G1 X88.398 Y79.895 E1.0642
G1 X88.517 Y80.683 E1.0847
G1 X88.532 Y80.930 E1.0910
G1 X88.287 Y88.526 E1.2861
G1 X88.266 Y88.722 E1.2912
G1 X88.153 Y89.348 E1.3075
G1 X88.104 Y89.539 E1.3126
G1 X87.464 Y91.441 E1.3641
G1 X87.301 Y91.770 E1.3735
G1 X86.633 Y92.753 E1.4040
G1 X86.387 Y93.026 E1.4135
G1 X83.975 Y95.067 E1.4946
G1 X83.564 Y95.305 E1.5068
G1 X82.116 Y95.834 E1.5463
G1 X81.648 Y95.917 E1.5585
G1 X65.387 Y95.892 E1.9759
G1 X64.398 Y95.481 E2.0034
G1 X61.887 Y92.965 E2.0947
G1 X61.477 Y91.975 E2.1221
G1 X61.480 Y82.647 E2.3616
G1 X61.486 Y82.518 E2.3649
G1 X61.526 Y82.101 E2.3756
G1 X61.545 Y81.973 E2.3790
G1 X62.520 Y76.970 E2.5098
G1 X62.978 Y76.183 E2.5332
G1 X65.254 Y74.232 E2.6101
G1 X66.101 Y73.899 E2.6335
G1 X66.703 Y73.875 E2.6490
G1 X66.297 Y72.739 E2.6799
G1 X66.291 Y72.721 E2.6804
G1 X66.271 Y72.662 E2.6820
G1 X66.264 Y72.643 E2.6825
G1 X64.856 Y68.309 E2.7995
G1 X63.558 Y67.055 E2.8458
G1 X63.471 Y66.963 E2.8491
G1 X63.204 Y66.651 E2.8596
G1 X63.126 Y66.551 E2.8629
G1 X62.659 Y65.889 E2.8837
G1 X62.588 Y65.777 E2.8871
G1 X62.378 Y65.406 E2.8980
G1 X62.318 Y65.288 E2.9014
G1 X61.986 Y64.539 E2.9225
G1 X61.938 Y64.415 E2.9259
G1 X61.804 Y64.010 E2.9368
G1 X61.768 Y63.882 E2.9402
G1 X61.589 Y63.083 E2.9612
G1 X61.566 Y62.953 E2.9646
G1 X61.513 Y62.529 E2.9756
G1 X61.504 Y62.397 E2.9790
G1 X61.483 Y61.578 E3.0000
G1 X61.486 Y61.446 E3.0034
G1 X61.517 Y61.020 E3.0144
G1 X61.534 Y60.889 E3.0178
G1 X61.673 Y60.082 E3.0388
G1 X61.702 Y59.953 E3.0422
G1 X61.816 Y59.541 E3.0532
G1 X61.857 Y59.415 E3.0566
G1 X62.152 Y58.651 E3.0776
G1 X62.205 Y58.530 E3.0810
G1 X62.397 Y58.148 E3.0919
G1 X62.462 Y58.033 E3.0953
G1 X62.900 Y57.341 E3.1164
G1 X62.976 Y57.233 E3.1198
G1 X63.239 Y56.896 E3.1307
G1 X63.325 Y56.795 E3.1341
G1 X63.688 Y57.124 F3500
G92 E0
G1 X64.236 Y56.548 E0.0204 F720
G1 X64.315 Y56.473 E0.0232
G1 X64.620 Y56.210 E0.0335
G1 X64.705 Y56.143 E0.0363
G1 X65.355 Y55.685 E0.0567
G1 X65.446 Y55.627 E0.0595
G1 X65.797 Y55.428 E0.0698
G1 X65.894 Y55.380 E0.0726
G1 X66.620 Y55.057 E0.0930
G1 X66.721 Y55.018 E0.0958
G1 X67.104 Y54.892 E0.1062
G1 X67.208 Y54.863 E0.1089
G1 X67.984 Y54.688 E0.1293
G1 X68.090 Y54.669 E0.1321
G1 X68.490 Y54.620 E0.1425
G1 X68.598 Y54.612 E0.1452
G1 X69.393 Y54.592 E0.1657
G1 X69.502 Y54.594 E0.1684
G1 X69.903 Y54.624 E0.1788
G1 X70.011 Y54.637 E0.1816
G1 X70.787 Y54.771 E0.2018
G1 X70.891 Y54.795 E0.2045
G1 X71.275 Y54.900 E0.2147
G1 X71.376 Y54.933 E0.2175
G1 X72.124 Y55.219 E0.2380
G1 X72.224 Y55.263 E0.2408
G1 X72.589 Y55.446 E0.2513
G1 X72.684 Y55.500 E0.2541
G1 X73.359 Y55.926 E0.2746
G1 X73.447 Y55.989 E0.2774
G1 X73.765 Y56.236 E0.2877
G1 X73.847 Y56.307 E0.2905
G1 X74.449 Y56.880 E0.3118
G1 X74.536 Y56.973 E0.3151
G1 X74.840 Y57.338 E0.3273
G1 X74.916 Y57.440 E0.3306
G1 X75.577 Y58.450 E0.3615
G1 X75.626 Y58.533 E0.3640
G1 X75.795 Y58.850 E0.3732
G1 X75.837 Y58.937 E0.3757
G1 X80.749 Y70.419 E0.6963
G1 X80.839 Y70.852 E0.7076
G1 X80.847 Y72.508 E0.7501
G1 X80.761 Y72.941 E0.7615
G1 X80.584 Y73.366 E0.7733
G1 X80.925 Y73.400 E0.7821
G1 X81.032 Y73.416 E0.7849
G1 X81.428 Y73.495 E0.7952
G1 X81.533 Y73.521 E0.7980
G1 X82.297 Y73.753 E0.8185
G1 X82.399 Y73.789 E0.8213
G1 X82.771 Y73.943 E0.8316
G1 X82.869 Y73.990 E0.8344
G1 X83.570 Y74.364 E0.8548
G1 X83.662 Y74.420 E0.8576
G1 X83.995 Y74.642 E0.8678
G1 X84.082 Y74.706 E0.8706
G1 X84.590 Y75.122 E0.8874
G1 X85.341 Y75.477 E0.9088
G1 X85.694 Y75.740 E0.9201
G1 X86.795 Y76.967 E0.9624
G1 X87.019 Y77.346 E0.9737
G1 X87.868 Y79.795 E1.0402
G1 X87.916 Y79.991 E1.0454
G1 X88.030 Y80.735 E1.0647
G1 X88.041 Y80.936 E1.0699
G1 X87.798 Y88.492 E1.2640
G1 X87.781 Y88.653 E1.2681
G1 X87.674 Y89.244 E1.2835
G1 X87.634 Y89.400 E1.2876
G1 X87.010 Y91.254 E1.3378
G1 X86.877 Y91.523 E1.3456
G1 X86.246 Y92.451 E1.3744
G1 X86.045 Y92.674 E1.3821
G1 X83.691 Y94.665 E1.4612
G1 X83.355 Y94.860 E1.4712
G1 X81.988 Y95.359 E1.5085
G1 X81.605 Y95.427 E1.5185
G1 X65.485 Y95.402 E1.9323
G1 X64.676 Y95.065 E1.9548
G1 X62.302 Y92.688 E2.0410
G1 X61.967 Y91.878 E2.0635
G1 X61.970 Y82.659 E2.3002
G1 X61.975 Y82.553 E2.3029
G1 X62.013 Y82.160 E2.3130
G1 X62.028 Y82.055 E2.3157
G1 X62.985 Y77.145 E2.4441
G1 X63.360 Y76.501 E2.4633
G1 X65.510 Y74.658 E2.5360
G1 X66.203 Y74.385 E2.5551
G1 X67.389 Y74.339 E2.5855
G1 X66.759 Y72.576 E2.6336
G1 X66.754 Y72.561 E2.6340
G1 X66.735 Y72.505 E2.6355
G1 X66.730 Y72.490 E2.6359
G1 X65.284 Y68.042 E2.7560
G1 X63.907 Y66.711 E2.8052
G1 X63.835 Y66.635 E2.8078
G1 X63.584 Y66.341 E2.8177
G1 X63.520 Y66.259 E2.8204
G1 X63.067 Y65.616 E2.8406
G1 X63.009 Y65.525 E2.8434
G1 X62.810 Y65.175 E2.8537
G1 X62.761 Y65.078 E2.8565
G1 X62.438 Y64.351 E2.8769
G1 X62.399 Y64.250 E2.8797
G1 X62.273 Y63.867 E2.8900
G1 X62.244 Y63.763 E2.8928
G1 X62.069 Y62.987 E2.9132
G1 X62.051 Y62.881 E2.9160
G1 X62.001 Y62.481 E2.9264
G1 X61.993 Y62.373 E2.9291
G1 X61.973 Y61.578 E2.9495
G1 X61.976 Y61.470 E2.9523
G1 X62.005 Y61.068 E2.9627
G1 X62.018 Y60.961 E2.9654
G1 X62.154 Y60.177 E2.9858
G1 X62.178 Y60.071 E2.9886
G1 X62.285 Y59.683 E2.9990
G1 X62.319 Y59.580 E3.0018
G1 X62.605 Y58.838 E3.0222
G1 X62.648 Y58.739 E3.0249
G1 X62.829 Y58.379 E3.0353
G1 X62.883 Y58.285 E3.0381
G1 X63.308 Y57.613 E3.0585
G1 X63.370 Y57.524 E3.0612
G1 X63.618 Y57.206 E3.0716
G1 X63.688 Y57.124 E3.0744
G1 X64.052 Y57.453 F3500
G92 E0
G1 X64.583 Y56.895 E0.0198 F720
G1 X64.644 Y56.836 E0.0220
G1 X64.931 Y56.589 E0.0317
G1 X64.997 Y56.537 E0.0338
G1 X65.627 Y56.093 E0.0536
G1 X65.699 Y56.048 E0.0558
G1 X66.028 Y55.861 E0.0655
G1 X66.103 Y55.823 E0.0677
G1 X66.808 Y55.510 E0.0875
G1 X66.887 Y55.480 E0.0896
G1 X67.246 Y55.361 E0.0994
G1 X67.327 Y55.338 E0.1015
G1 X68.080 Y55.169 E0.1213
G1 X68.163 Y55.154 E0.1235
G1 X68.539 Y55.108 E0.1332
G1 X68.623 Y55.101 E0.1354
G1 X69.394 Y55.082 E0.1552
G1 X69.478 Y55.084 E0.1573
G1 X69.856 Y55.112 E0.1670
G1 X69.939 Y55.122 E0.1692
G1 X70.692 Y55.252 E0.1888
G1 X70.773 Y55.270 E0.1909
G1 X71.133 Y55.369 E0.2005
G1 X71.212 Y55.395 E0.2027
G1 X71.937 Y55.672 E0.2226
G1 X72.015 Y55.707 E0.2248
G1 X72.359 Y55.879 E0.2346
G1 X72.433 Y55.921 E0.2368
G1 X73.086 Y56.334 E0.2567
G1 X73.155 Y56.383 E0.2588
G1 X73.454 Y56.616 E0.2686
G1 X73.518 Y56.670 E0.2707
G1 X74.101 Y57.225 E0.2914
G1 X74.169 Y57.297 E0.2939
G1 X74.455 Y57.640 E0.3054
G1 X74.514 Y57.720 E0.3079
G1 X75.161 Y58.709 E0.3383
G1 X75.199 Y58.774 E0.3402
G1 X75.358 Y59.072 E0.3489
G1 X75.391 Y59.139 E0.3508
G1 X80.279 Y70.567 E0.6698
G1 X80.349 Y70.903 E0.6787
G1 X80.356 Y72.461 E0.7186
G1 X80.290 Y72.798 E0.7275
G1 X79.870 Y73.806 E0.7555
G1 X80.010 Y73.806 E0.7591
G1 X80.094 Y73.811 E0.7612
G1 X80.865 Y73.886 E0.7811
G1 X80.948 Y73.899 E0.7833
G1 X81.320 Y73.973 E0.7930
G1 X81.402 Y73.993 E0.7952
G1 X82.143 Y74.218 E0.8151
G1 X82.222 Y74.247 E0.8172
G1 X82.572 Y74.391 E0.8270
G1 X82.649 Y74.427 E0.8291
G1 X83.328 Y74.791 E0.8489
G1 X83.400 Y74.834 E0.8511
G1 X83.713 Y75.043 E0.8607
G1 X83.781 Y75.093 E0.8629
G1 X84.326 Y75.539 E0.8810
G1 X85.088 Y75.899 E0.9026
G1 X85.362 Y76.104 E0.9114
G1 X86.398 Y77.258 E0.9512
G1 X86.572 Y77.552 E0.9600
G1 X87.398 Y79.934 E1.0247
G1 X87.435 Y80.086 E1.0287
G1 X87.542 Y80.786 E1.0469
G1 X87.551 Y80.943 E1.0509
G1 X87.309 Y88.459 E1.2439
G1 X87.295 Y88.583 E1.2471
G1 X87.195 Y89.139 E1.2616
G1 X87.164 Y89.261 E1.2648
G1 X86.556 Y91.066 E1.3137
G1 X86.453 Y91.275 E1.3197
G1 X85.860 Y92.148 E1.3468
G1 X85.703 Y92.321 E1.3528
G1 X83.408 Y94.263 E1.4300
G1 X83.146 Y94.415 E1.4377
G1 X81.861 Y94.884 E1.4729
G1 X81.563 Y94.937 E1.4806
G1 X65.583 Y94.912 E1.8908
G1 X64.954 Y94.650 E1.9083
G1 X62.718 Y92.411 E1.9895
G1 X62.458 Y91.781 E2.0070
G1 X62.460 Y82.671 E2.2409
G1 X62.464 Y82.588 E2.2430
G1 X62.500 Y82.219 E2.2525
G1 X62.511 Y82.137 E2.2546
G1 X63.451 Y77.320 E2.3806
G1 X63.742 Y76.819 E2.3955
G1 X65.766 Y75.084 E2.4639
G1 X66.305 Y74.872 E2.4788
G1 X68.123 Y74.800 E2.5255
G1 X68.060 Y74.700 E2.5285
G1 X67.978 Y74.531 E2.5333
G1 X67.221 Y72.413 E2.5911
G1 X67.217 Y72.401 E2.5914
G1 X67.199 Y72.348 E2.5928
G1 X67.195 Y72.337 E2.5932
G1 X65.712 Y67.774 E2.7163
G1 X64.255 Y66.366 E2.7683
G1 X64.200 Y66.307 E2.7704
G1 X63.963 Y66.031 E2.7797
G1 X63.914 Y65.968 E2.7818
G1 X63.474 Y65.344 E2.8014
G1 X63.429 Y65.273 E2.8035
G1 X63.242 Y64.943 E2.8133
G1 X63.204 Y64.868 E2.8154
G1 X62.891 Y64.163 E2.8352
G1 X62.861 Y64.085 E2.8374
G1 X62.742 Y63.725 E2.8471
G1 X62.719 Y63.644 E2.8493
G1 X62.550 Y62.891 E2.8691
G1 X62.536 Y62.808 E2.8712
G1 X62.489 Y62.432 E2.8809
G1 X62.483 Y62.348 E2.8831
G1 X62.463 Y61.578 E2.9029
G1 X62.465 Y61.494 E2.9051
G1 X62.493 Y61.116 E2.9148
G1 X62.503 Y61.032 E2.9169
G1 X62.635 Y60.272 E2.9367
G1 X62.653 Y60.190 E2.9389
G1 X62.754 Y59.825 E2.9486
G1 X62.780 Y59.745 E2.9508
G1 X63.058 Y59.025 E2.9706
G1 X63.092 Y58.948 E2.9727
G1 X63.262 Y58.610 E2.9825
G1 X63.303 Y58.537 E2.9846
G1 X63.715 Y57.885 E3.0044
G1 X63.764 Y57.816 E3.0066
G1 X63.997 Y57.517 E3.0163
G1 X64.052 Y57.453 E3.0185
G1 X64.415 Y57.782 F3500
G92 E0
G1 X64.930 Y57.241 E0.0192 F720
G1 X64.973 Y57.199 E0.0207
G1 X65.242 Y56.967 E0.0298
G1 X65.290 Y56.930 E0.0314
G1 X65.900 Y56.500 E0.0505
G1 X65.951 Y56.468 E0.0521
G1 X66.259 Y56.293 E0.0612
